;-- START GCODE --
;Sliced for Type A Machines Series 1
;Sliced at: Wed 15-04-2015 01:40:57
;Basic settings: Layer height: 0.15 Walls: 0.4 Fill: 45
;Print Speed: 50 Support: 0
;Retraction Speed: 40 Retraction Distance: 1.2
;Print time: #P_TIME#
;Filament used: #F_AMNT#m #F_WGHT#g
;Filament cost: #F_COST#
M106 S255	 ;start with the fan on
G21        ;metric values
G90        ;absolute positioning
M106 S255    ;start with the fan on
G28     ;move to endstops
G29		;allows for auto-levelling
G1 X150 Y5  Z15.0 F3000 ;center and move the platform down 15mm
M109 S230 ;Heat To temp
G92 E0                  ;zero the extruded length
G1 F200 E30              ;extrude 30mm of feed stock
G92 E0                  ;zero the extruded length again
G1 X175 Y25  Z0 F3000 ;remove bugger
G1 X220 F3000 ;remove bugger
G1 X150 Y150  Z15 F3000 ;recenter and begin
G1 F3000

;Layer count: 56
;LAYER:-2
;RAFT
G0 F3000 X134.81 Y134.81 Z0.30
;TYPE:SUPPORT
G1 F600 X138.59 Y131.70 E0.42732
G1 X142.92 Y129.38 E0.85644
G1 X147.62 Y127.96 E1.28484
G1 X151.83 Y127.54 E1.65444
G1 X152.33 Y127.46 E1.69870
G1 X157.37 Y127.95 E2.14068
G1 X162.07 Y129.38 E2.56994
G1 X166.39 Y131.69 E2.99706
G1 X169.88 Y134.55 E3.39095
G1 X170.26 Y134.88 E3.43529
G1 X172.93 Y138.14 E3.80262
G1 X173.26 Y138.51 E3.84634
G1 X175.61 Y142.91 E4.28217
G1 X177.04 Y147.62 E4.71128
G1 X177.52 Y152.50 E5.13976
G1 X177.04 Y157.38 E5.56807
G1 X175.62 Y162.06 E5.99515
G1 X173.31 Y166.40 E6.42430
G1 X170.45 Y169.88 E6.81730
G1 X170.12 Y170.26 E6.86153
G1 X166.41 Y173.30 E7.27998
G1 X162.08 Y175.62 E7.70910
G1 X157.38 Y177.04 E8.13747
G1 X152.50 Y177.52 E8.56578
G1 X147.62 Y177.04 E8.99409
G1 X142.94 Y175.62 E9.42117
G1 X138.60 Y173.31 E9.85031
G1 X134.81 Y170.20 E10.27770
G1 X131.69 Y166.40 E10.70723
G1 X129.39 Y162.09 E11.13434
G1 X127.96 Y157.38 E11.56345
G1 X127.48 Y152.50 E11.99185
G1 X127.95 Y147.63 E12.41909
G1 X129.38 Y142.93 E12.84835
G1 X131.69 Y138.61 E13.27547
G1 X134.81 Y134.81 E13.70496
G0 F3000 X134.50 Y135.01
G1 F600 X134.50 Y169.99 E16.75856
G0 F3000 X135.50 Y170.90
G1 F600 X135.50 Y134.10 E19.97166
G0 F3000 X136.50 Y133.28
G1 F600 X136.50 Y171.72 E23.32795
G0 F3000 X137.50 Y172.54
G1 F600 X137.50 Y132.46 E26.82734
G0 F3000 X138.50 Y131.64
G1 F600 X138.50 Y173.36 E30.46982
G0 F3000 X139.50 Y173.91
G1 F600 X139.50 Y131.10 E34.20747
G0 F3000 X140.50 Y130.56
G1 F600 X140.50 Y174.44 E38.03836
G0 F3000 X141.50 Y174.97
G1 F600 X141.50 Y130.03 E41.96259
G0 F3000 X142.50 Y129.49
G1 F600 X142.50 Y175.51 E45.98023
G0 F3000 X143.50 Y175.90
G1 F600 X143.50 Y129.10 E50.06650
G0 F3000 X144.50 Y128.79
G1 F600 X144.50 Y176.21 E54.20586
G0 F3000 X145.50 Y176.51
G1 F600 X145.50 Y128.49 E58.39812
G0 F3000 X146.50 Y128.19
G1 F600 X146.50 Y176.81 E62.64346
G0 F3000 X147.50 Y177.12
G1 F600 X147.50 Y127.88 E66.94180
G0 F3000 X148.50 Y127.77
G1 F600 X148.50 Y177.23 E71.26083
G0 F3000 X149.50 Y177.33
G1 F600 X149.50 Y127.67 E75.59715
G0 F3000 X150.50 Y127.57
G1 F600 X150.50 Y177.43 E79.95067
G0 F3000 X151.50 Y177.53
G1 F600 X151.50 Y127.47 E84.32148
G0 F3000 X152.50 Y127.37
G1 F600 X152.50 Y177.63 E88.70948
G0 F3000 X153.50 Y177.53
G1 F600 X153.50 Y127.47 E93.08038
G0 F3000 X154.50 Y127.57
G1 F600 X154.50 Y177.43 E97.43398
G0 F3000 X155.50 Y177.33
G1 F600 X155.50 Y127.67 E101.77039
G0 F3000 X156.50 Y127.77
G1 F600 X156.50 Y177.24 E106.08951
G0 F3000 X157.50 Y177.12
G1 F600 X157.50 Y127.89 E110.38767
G0 F3000 X158.50 Y128.19
G1 F600 X158.50 Y176.81 E114.63284
G0 F3000 X159.50 Y176.51
G1 F600 X159.50 Y128.49 E118.82502
G0 F3000 X160.50 Y128.80
G1 F600 X160.50 Y176.21 E122.96420
G0 F3000 X161.50 Y175.90
G1 F600 X161.50 Y129.10 E127.05047
G0 F3000 X162.50 Y129.49
G1 F600 X162.50 Y175.51 E131.06820
G0 F3000 X163.50 Y174.97
G1 F600 X163.50 Y130.03 E134.99251
G0 F3000 X164.50 Y130.56
G1 F600 X164.50 Y174.44 E138.82358
G0 F3000 X165.50 Y173.90
G1 F600 X165.50 Y131.09 E142.56132
G0 F3000 X166.50 Y131.64
G1 F600 X166.50 Y173.36 E146.20363
G0 F3000 X167.50 Y172.54
G1 F600 X167.50 Y132.46 E149.70284
G0 F3000 X168.50 Y133.28
G1 F600 X168.50 Y171.72 E153.05895
G0 F3000 X169.50 Y170.90
G1 F600 X169.50 Y134.10 E156.27197
G0 F3000 X170.50 Y135.01
G1 F600 X170.50 Y169.99 E159.32547
G0 F3000 X171.50 Y168.77
G1 F600 X171.50 Y136.23 E162.16621
G0 F3000 X172.50 Y137.45
G1 F600 X172.50 Y167.55 E164.79400
G0 F3000 X173.50 Y166.26
G1 F600 X173.50 Y138.74 E167.19689
G0 F3000 X174.50 Y140.61
G1 F600 X174.50 Y164.39 E169.27272
G0 F3000 X175.50 Y162.51
G1 F600 X175.50 Y142.49 E171.02141
G0 F3000 X176.50 Y145.48
G1 F600 X176.50 Y159.53 E172.24835
G0 F3000 X177.50 Y153.81
G1 F600 X177.50 Y151.19 E172.47788
G0 F3000 X133.50 Y136.23
G1 F600 X133.50 Y168.77 E175.31844
G0 F3000 X132.50 Y167.55
G1 F600 X132.50 Y137.45 E177.94614
G0 F3000 X131.50 Y138.74
G1 F600 X131.50 Y166.26 E180.34920
G0 F3000 X130.50 Y164.39
G1 F600 X130.50 Y140.61 E182.42521
G0 F3000 X129.50 Y142.48
G1 F600 X129.50 Y162.51 E184.17416
G0 F3000 X128.50 Y159.52
G1 F600 X128.50 Y145.47 E185.40092
G0 F3000 X127.50 Y151.18
G1 F600 X127.50 Y153.81 E185.63089
M106 S255
;LAYER:-1
;RAFT
G0 F3000 X127.58 Y153.89 Z0.50
;TYPE:SUPPORT
G1 X151.11 Y177.41 E186.18426
G0 X150.48 Y177.35
G1 X127.64 Y154.51 E186.72142
G0 X127.71 Y155.14
G1 X149.86 Y177.29 E187.24236
G0 X149.23 Y177.23
G1 X127.77 Y155.77 E187.74708
G0 X127.83 Y156.40
G1 X148.60 Y177.17 E188.23559
G0 X147.97 Y177.11
G1 X127.89 Y157.03 E188.70787
G0 X128.03 Y157.73
G1 X147.27 Y176.97 E189.16029
G0 X146.46 Y176.72
G1 X128.28 Y158.54 E189.58778
G0 X128.53 Y159.36
G1 X145.64 Y176.47 E189.99037
G0 X144.83 Y176.23
G1 X128.77 Y160.17 E190.36803
G0 X129.02 Y160.98
G1 X144.02 Y175.98 E190.72078
G0 X143.21 Y175.74
G1 X129.27 Y161.79 E191.04862
G0 X129.77 Y162.86
G1 X142.13 Y175.23 E191.33942
G0 X140.92 Y174.58
G1 X130.42 Y164.08 E191.58643
G0 X131.07 Y165.29
G1 X139.71 Y173.93 E191.78960
G0 X138.35 Y173.14
G1 X131.86 Y166.65 E191.94229
G0 X134.45 Y169.81
G1 X135.21 Y170.56 E191.96017
G0 X151.74 Y177.48
G1 X127.52 Y153.26 E192.52977
G0 X127.46 Y152.63
G1 X152.37 Y177.54 E193.11556
G0 X152.91 Y177.51
G1 X127.48 Y152.09 E193.71339
G0 X127.54 Y151.58
G1 X153.42 Y177.46 E194.32213
G0 X153.94 Y177.41
G1 X127.59 Y151.06 E194.94181
G0 X127.64 Y150.55
G1 X154.45 Y177.36 E195.57240
G0 X154.97 Y177.31
G1 X127.69 Y150.03 E196.21392
G0 X127.74 Y149.52
G1 X155.48 Y177.26 E196.86636
G0 X155.99 Y177.21
G1 X127.79 Y149.00 E197.52971
G0 X127.84 Y148.49
G1 X156.51 Y177.16 E198.20398
G0 X157.02 Y177.11
G1 X127.89 Y147.97 E198.88918
G0 X127.97 Y147.48
G1 X157.51 Y177.03 E199.58411
G0 X157.95 Y176.90
G1 X128.10 Y147.05 E200.28614
G0 X128.23 Y146.62
G1 X158.38 Y176.77 E200.99530
G0 X158.82 Y176.64
G1 X128.36 Y146.18 E201.71155
G0 X128.49 Y145.75
G1 X159.25 Y176.50 E202.43492
G0 X159.69 Y176.37
G1 X128.62 Y145.31 E203.16540
G0 X128.76 Y144.88
G1 X160.12 Y176.24 E203.90299
G0 X160.55 Y176.11
G1 X128.89 Y144.44 E204.64770
G0 X129.02 Y144.01
G1 X160.99 Y175.98 E205.39953
G0 X161.42 Y175.85
G1 X129.15 Y143.58 E206.15845
G0 X129.28 Y143.14
G1 X161.86 Y175.72 E206.92450
G0 X162.26 Y175.55
G1 X129.44 Y142.74 E207.69622
G0 X129.64 Y142.37
G1 X162.63 Y175.35 E208.47196
G0 X163.00 Y175.16
G1 X129.84 Y142.00 E209.25172
G0 X130.04 Y141.63
G1 X163.36 Y174.96 E210.03554
G0 X163.73 Y174.76
G1 X130.23 Y141.26 E210.82336
G0 X130.43 Y140.90
G1 X164.10 Y174.57 E211.61525
G0 X164.47 Y174.37
G1 X130.63 Y140.53 E212.41114
G0 X130.82 Y140.16
G1 X164.84 Y174.17 E213.21107
G0 X165.21 Y173.97
G1 X131.02 Y139.79 E214.01504
G0 X131.22 Y139.42
G1 X165.57 Y173.78 E214.82305
G0 X165.94 Y173.58
G1 X131.41 Y139.05 E215.63508
G0 X131.61 Y138.68
G1 X166.31 Y173.38 E216.45113
G0 X166.64 Y173.15
G1 X131.85 Y138.36 E217.26926
G0 X132.11 Y138.05
G1 X166.95 Y172.89 E218.08873
G0 X167.26 Y172.63
G1 X132.36 Y137.74 E218.90948
G0 X132.62 Y137.43
G1 X167.57 Y172.38 E219.73157
G0 X167.88 Y172.13
G1 X132.87 Y137.12 E220.55498
G0 X133.13 Y136.80
G1 X168.19 Y171.87 E221.37970
G0 X168.50 Y171.62
G1 X133.38 Y136.49 E222.20574
G0 X133.64 Y136.18
G1 X168.82 Y171.36 E223.03310
G0 X169.13 Y171.11
G1 X133.89 Y135.87 E223.86178
G0 X134.15 Y135.56
G1 X169.44 Y170.85 E224.69180
G0 X169.75 Y170.60
G1 X134.40 Y135.25 E225.52312
G0 X134.66 Y134.94
G1 X170.06 Y170.34 E226.35576
G0 X170.34 Y170.05
G1 X134.94 Y134.66 E227.18825
G0 X135.25 Y134.40
G1 X170.60 Y169.75 E228.01957
G0 X170.85 Y169.44
G1 X135.56 Y134.15 E228.84958
G0 X135.87 Y133.89
G1 X171.11 Y169.13 E229.67825
G0 X171.36 Y168.82
G1 X136.18 Y133.64 E230.50563
G0 X136.49 Y133.38
G1 X171.62 Y168.51 E231.33168
G0 X171.87 Y168.19
G1 X136.81 Y133.13 E232.15641
G0 X137.12 Y132.87
G1 X172.13 Y167.88 E232.97982
G0 X172.38 Y167.57
G1 X137.43 Y132.62 E233.80193
G0 X137.74 Y132.36
G1 X172.64 Y167.26 E234.62273
G0 X172.89 Y166.95
G1 X138.05 Y132.11 E235.44221
G0 X138.36 Y131.85
G1 X173.15 Y166.64 E236.26038
G0 X173.39 Y166.31
G1 X138.69 Y131.62 E237.07645
G0 X139.06 Y131.42
G1 X173.58 Y165.94 E237.88844
G0 X173.78 Y165.58
G1 X139.42 Y131.22 E238.69642
G0 X139.79 Y131.02
G1 X173.98 Y165.21 E239.50038
G0 X174.17 Y164.84
G1 X140.16 Y130.83 E240.30030
G0 X140.53 Y130.63
G1 X174.37 Y164.47 E241.09618
G0 X174.57 Y164.10
G1 X140.90 Y130.43 E241.88803
G0 X141.27 Y130.24
G1 X174.76 Y163.73 E242.67585
G0 X174.96 Y163.36
G1 X141.63 Y130.04 E243.45963
G0 X142.00 Y129.84
G1 X175.16 Y163.00 E244.23937
G0 X175.35 Y162.63
G1 X142.37 Y129.64 E245.01506
G0 X142.74 Y129.45
G1 X175.55 Y162.26 E245.78672
G0 X175.72 Y161.86
G1 X143.14 Y129.28 E246.55278
G0 X143.58 Y129.15
G1 X175.85 Y161.42 E247.31169
G0 X175.98 Y160.99
G1 X144.01 Y129.02 E248.06353
G0 X144.44 Y128.89
G1 X176.11 Y160.55 E248.80825
G0 X176.24 Y160.12
G1 X144.88 Y128.76 E249.54586
G0 X145.31 Y128.62
G1 X176.37 Y159.69 E250.27636
G0 X176.50 Y159.25
G1 X145.75 Y128.49 E250.99974
G0 X146.18 Y128.36
G1 X176.64 Y158.82 E251.71605
G0 X176.77 Y158.38
G1 X146.62 Y128.23 E252.42521
G0 X147.05 Y128.10
G1 X176.90 Y157.95 E253.12727
G0 X177.03 Y157.52
G1 X147.48 Y127.97 E253.82224
G0 X147.97 Y127.89
G1 X177.11 Y157.03 E254.50742
G0 X177.16 Y156.51
G1 X148.49 Y127.84 E255.18168
G0 X149.00 Y127.79
G1 X177.21 Y156.00 E255.84502
G0 X177.26 Y155.48
G1 X149.52 Y127.74 E256.49744
G0 X150.03 Y127.69
G1 X177.31 Y154.97 E257.13896
G0 X177.36 Y154.45
G1 X150.55 Y127.64 E257.76956
G0 X151.06 Y127.59
G1 X177.41 Y153.94 E258.38922
G0 X177.46 Y153.42
G1 X151.58 Y127.54 E258.99797
G0 X152.08 Y127.47
G1 X177.51 Y152.91 E259.59618
G0 X177.54 Y152.37
G1 X152.63 Y127.46 E260.18198
G0 X153.26 Y127.52
G1 X177.48 Y151.74 E260.75156
G0 X177.42 Y151.11
G1 X153.89 Y127.58 E261.30495
G0 X154.51 Y127.64
G1 X177.35 Y150.48 E261.84211
G0 X177.29 Y149.86
G1 X155.14 Y127.70 E262.36308
G0 X155.77 Y127.77
G1 X177.23 Y149.23 E262.86783
G0 X177.17 Y148.60
G1 X156.40 Y127.83 E263.35638
G0 X157.02 Y127.89
G1 X177.11 Y147.97 E263.82871
G0 X176.97 Y147.27
G1 X157.73 Y128.03 E264.28110
G0 X158.54 Y128.28
G1 X176.72 Y146.46 E264.70859
G0 X176.47 Y145.64
G1 X159.35 Y128.53 E265.11115
G0 X160.17 Y128.77
G1 X176.22 Y144.83 E265.48879
G0 X175.98 Y144.02
G1 X160.98 Y129.02 E265.84152
G0 X161.79 Y129.26
G1 X175.73 Y143.20 E266.16934
G0 X175.23 Y142.14
G1 X162.86 Y129.77 E266.46025
G0 X164.07 Y130.42
G1 X174.58 Y140.92 E266.70733
G0 X173.93 Y139.71
G1 X165.29 Y131.07 E266.91057
G0 X166.66 Y131.87
G1 X173.28 Y138.49 E267.06625
G0 X170.57 Y135.21
G1 X169.80 Y134.44 E267.08445
;LAYER:-1
;RAFT
G0 X169.87 Y134.46 Z0.70
;TYPE:SUPPORT
G1 F600 X135.13 Y134.46 E268.23984
G0 F3000 X134.72 Y134.82
G1 F600 X170.28 Y134.82 E269.42267
G0 F3000 X170.58 Y135.18
G1 F600 X134.42 Y135.18 E270.62532
G0 F3000 X134.13 Y135.54
G1 F600 X170.88 Y135.54 E271.84760
G0 F3000 X171.17 Y135.90
G1 F600 X133.83 Y135.90 E273.08953
G0 F3000 X133.54 Y136.26
G1 F600 X171.47 Y136.26 E274.35109
G0 F3000 X171.76 Y136.62
G1 F600 X133.24 Y136.62 E275.63227
G0 F3000 X132.95 Y136.98
G1 F600 X172.06 Y136.98 E276.93307
G0 F3000 X172.35 Y137.34
G1 F600 X132.65 Y137.34 E278.25347
G0 F3000 X132.36 Y137.70
G1 F600 X172.65 Y137.70 E279.59348
G0 F3000 X172.94 Y138.06
G1 F600 X132.06 Y138.06 E280.95312
G0 F3000 X131.77 Y138.42
G1 F600 X173.26 Y138.42 E282.33319
G0 F3000 X173.47 Y138.78
G1 F600 X131.53 Y138.78 E283.72818
G0 F3000 X131.34 Y139.14
G1 F600 X173.66 Y139.14 E285.13599
G0 F3000 X173.86 Y139.50
G1 F600 X131.15 Y139.50 E286.55656
G0 F3000 X130.95 Y139.86
G1 F600 X174.05 Y139.86 E287.99000
G0 F3000 X174.24 Y140.22
G1 F600 X130.76 Y140.22 E289.43622
G0 F3000 X130.57 Y140.58
G1 F600 X174.43 Y140.58 E290.89521
G0 F3000 X174.62 Y140.94
G1 F600 X130.37 Y140.94 E292.36700
G0 F3000 X130.18 Y141.30
G1 F600 X174.82 Y141.30 E293.85160
G0 F3000 X175.01 Y141.66
G1 F600 X129.99 Y141.66 E295.34898
G0 F3000 X129.80 Y142.02
G1 F600 X175.20 Y142.02 E296.85915
G0 F3000 X175.40 Y142.38
G1 F600 X129.60 Y142.38 E298.38213
G0 F3000 X129.41 Y142.74
G1 F600 X175.59 Y142.74 E299.91789
G0 F3000 X175.73 Y143.10
G1 F600 X129.27 Y143.10 E301.46332
G0 F3000 X129.16 Y143.46
G1 F600 X175.84 Y143.46 E303.01604
G0 F3000 X175.95 Y143.82
G1 F600 X129.05 Y143.82 E304.57604
G0 F3000 X128.94 Y144.18
G1 F600 X176.06 Y144.18 E306.14332
G0 F3000 X176.17 Y144.54
G1 F600 X128.83 Y144.54 E307.71785
G0 F3000 X128.72 Y144.90
G1 F600 X176.28 Y144.90 E309.29967
G0 F3000 X176.39 Y145.26
G1 F600 X128.61 Y145.26 E310.88874
G0 F3000 X128.50 Y145.62
G1 F600 X176.50 Y145.62 E312.48510
G0 F3000 X176.61 Y145.98
G1 F600 X128.39 Y145.98 E314.08873
G0 F3000 X128.28 Y146.34
G1 F600 X176.72 Y146.34 E315.69965
G0 F3000 X176.83 Y146.70
G1 F600 X128.17 Y146.70 E317.31783
G0 F3000 X128.06 Y147.06
G1 F600 X176.94 Y147.06 E318.94328
G0 F3000 X177.05 Y147.42
G1 F600 X127.96 Y147.42 E320.57602
G0 F3000 X127.88 Y147.78
G1 F600 X177.12 Y147.78 E322.21372
G0 F3000 X177.15 Y148.14
G1 F600 X127.84 Y148.14 E323.85378
G0 F3000 X127.81 Y148.50
G1 F600 X177.19 Y148.50 E325.49619
G0 F3000 X177.22 Y148.86
G1 F600 X127.77 Y148.86 E327.14098
G0 F3000 X127.74 Y149.22
G1 F600 X177.26 Y149.22 E328.78812
G0 F3000 X177.30 Y149.58
G1 F600 X127.70 Y149.58 E330.43759
G0 F3000 X127.67 Y149.94
G1 F600 X177.33 Y149.94 E332.08945
G0 F3000 X177.37 Y150.30
G1 F600 X127.63 Y150.30 E333.74364
G0 F3000 X127.60 Y150.66
G1 F600 X177.40 Y150.66 E335.40020
G0 F3000 X177.44 Y151.02
G1 F600 X127.56 Y151.02 E337.05911
G0 F3000 X127.53 Y151.38
G1 F600 X177.47 Y151.38 E338.72039
G0 F3000 X177.51 Y151.74
G1 F600 X127.49 Y151.74 E340.38406
G0 F3000 X127.45 Y152.10
G1 F600 X177.54 Y152.10 E342.05006
G0 F3000 X177.58 Y152.46
G1 F600 X127.42 Y152.46 E343.71843
G0 F3000 X127.45 Y152.82
G1 F600 X177.55 Y152.82 E345.38496
G0 F3000 X177.52 Y153.18
G1 F600 X127.48 Y153.18 E347.04913
G0 F3000 X127.52 Y153.54
G1 F600 X177.48 Y153.54 E348.71094
G0 F3000 X177.44 Y153.90
G1 F600 X127.55 Y153.90 E350.37035
G0 F3000 X127.59 Y154.26
G1 F600 X177.41 Y154.26 E352.02744
G0 F3000 X177.37 Y154.62
G1 F600 X127.62 Y154.62 E353.68213
G0 F3000 X127.66 Y154.98
G1 F600 X177.34 Y154.98 E355.33449
G0 F3000 X177.30 Y155.34
G1 F600 X127.69 Y155.34 E356.98446
G0 F3000 X127.73 Y155.70
G1 F600 X177.27 Y155.70 E358.63210
G0 F3000 X177.23 Y156.06
G1 F600 X127.77 Y156.06 E360.27735
G0 F3000 X127.80 Y156.42
G1 F600 X177.20 Y156.42 E361.92027
G0 F3000 X177.16 Y156.78
G1 F600 X127.84 Y156.78 E363.56079
G0 F3000 X127.87 Y157.14
G1 F600 X177.13 Y157.14 E365.19898
G0 F3000 X177.07 Y157.50
G1 F600 X127.93 Y157.50 E366.83335
G0 F3000 X128.04 Y157.86
G1 F600 X176.96 Y157.86 E368.46044
G0 F3000 X176.85 Y158.22
G1 F600 X128.15 Y158.22 E370.08028
G0 F3000 X128.26 Y158.58
G1 F600 X176.74 Y158.58 E371.69283
G0 F3000 X176.63 Y158.94
G1 F600 X128.37 Y158.94 E373.29813
G0 F3000 X128.48 Y159.30
G1 F600 X176.52 Y159.30 E374.89611
G0 F3000 X176.41 Y159.66
G1 F600 X128.59 Y159.66 E376.48684
G0 F3000 X128.70 Y160.02
G1 F600 X176.30 Y160.02 E378.07029
G0 F3000 X176.19 Y160.38
G1 F600 X128.81 Y160.38 E379.64649
G0 F3000 X128.91 Y160.74
G1 F600 X176.09 Y160.74 E381.21540
G0 F3000 X175.98 Y161.10
G1 F600 X129.02 Y161.10 E382.77707
G0 F3000 X129.13 Y161.46
G1 F600 X175.87 Y161.46 E384.33141
G0 F3000 X175.76 Y161.82
G1 F600 X129.24 Y161.82 E385.87847
G0 F3000 X129.37 Y162.18
G1 F600 X175.63 Y162.18 E387.41702
G0 F3000 X175.44 Y162.54
G1 F600 X129.56 Y162.54 E388.94276
G0 F3000 X129.75 Y162.90
G1 F600 X175.24 Y162.90 E390.45573
G0 F3000 X175.05 Y163.26
G1 F600 X129.95 Y163.26 E391.95590
G0 F3000 X130.14 Y163.62
G1 F600 X174.86 Y163.62 E393.44326
G0 F3000 X174.67 Y163.98
G1 F600 X130.33 Y163.98 E394.91785
G0 F3000 X130.52 Y164.34
G1 F600 X174.47 Y164.34 E396.37963
G0 F3000 X174.28 Y164.70
G1 F600 X130.72 Y164.70 E397.82861
G0 F3000 X130.91 Y165.06
G1 F600 X174.09 Y165.06 E399.26481
G0 F3000 X173.90 Y165.42
G1 F600 X131.10 Y165.42 E400.68818
G0 F3000 X131.29 Y165.78
G1 F600 X173.71 Y165.78 E402.09878
G0 F3000 X173.51 Y166.14
G1 F600 X131.49 Y166.14 E403.49657
G0 F3000 X131.70 Y166.50
G1 F600 X173.30 Y166.50 E404.88029
G0 F3000 X173.01 Y166.86
G1 F600 X131.99 Y166.86 E406.24439
G0 F3000 X132.29 Y167.22
G1 F600 X172.71 Y167.22 E407.58886
G0 F3000 X172.42 Y167.58
G1 F600 X132.58 Y167.58 E408.91368
G0 F3000 X132.88 Y167.94
G1 F600 X172.12 Y167.94 E410.21887
G0 F3000 X171.82 Y168.30
G1 F600 X133.17 Y168.30 E411.50441
G0 F3000 X133.47 Y168.66
G1 F600 X171.53 Y168.66 E412.77029
G0 F3000 X171.24 Y169.02
G1 F600 X133.76 Y169.02 E414.01655
G0 F3000 X134.06 Y169.38
G1 F600 X170.94 Y169.38 E415.24318
G0 F3000 X170.65 Y169.74
G1 F600 X134.36 Y169.74 E416.45016
G0 F3000 X134.65 Y170.10
G1 F600 X170.34 Y170.10 E417.63711
G0 F3000 X169.97 Y170.46
G1 F600 X135.03 Y170.46 E418.79906
G0 F3000 X135.47 Y170.82
G1 F600 X169.53 Y170.82 E419.93173
G0 F3000 X169.09 Y171.18
G1 F600 X135.91 Y171.18 E421.03520
G0 F3000 X136.35 Y171.54
G1 F600 X168.65 Y171.54 E422.10944
G0 F3000 X168.21 Y171.90
G1 F600 X136.79 Y171.90 E423.15444
G0 F3000 X137.23 Y172.26
G1 F600 X167.77 Y172.26 E424.17020
G0 F3000 X167.33 Y172.62
G1 F600 X137.67 Y172.62 E425.15676
G0 F3000 X138.11 Y172.98
G1 F600 X166.89 Y172.98 E426.11409
G0 F3000 X166.45 Y173.34
G1 F600 X138.55 Y173.34 E427.04218
G0 F3000 X139.21 Y173.70
G1 F600 X165.78 Y173.70 E427.92600
G0 F3000 X165.11 Y174.06
G1 F600 X139.88 Y174.06 E428.76506
G0 F3000 X140.56 Y174.42
G1 F600 X164.44 Y174.42 E429.55934
G0 F3000 X163.77 Y174.78
G1 F600 X141.23 Y174.78 E430.30886
G0 F3000 X141.91 Y175.14
G1 F600 X163.09 Y175.14 E431.01361
G0 F3000 X162.42 Y175.50
G1 F600 X142.58 Y175.50 E431.67359
G0 F3000 X143.51 Y175.86
G1 F600 X161.48 Y175.86 E432.27124
G0 F3000 X160.30 Y176.22
G1 F600 X144.70 Y176.22 E432.78996
G0 F3000 X145.89 Y176.58
G1 F600 X159.11 Y176.58 E433.22973
G0 F3000 X157.92 Y176.94
G1 F600 X147.07 Y176.94 E433.59057
G0 F3000 X149.62 Y177.30
G1 F600 X155.38 Y177.30 E433.78198
G0 F3000 X169.43 Y134.10
G1 F600 X135.57 Y134.10 E434.90810
G0 F3000 X136.01 Y133.74
G1 F600 X168.99 Y133.74 E436.00499
G0 F3000 X168.55 Y133.38
G1 F600 X136.45 Y133.38 E437.07267
G0 F3000 X136.89 Y133.02
G1 F600 X168.11 Y133.02 E438.11112
G0 F3000 X167.67 Y132.66
G1 F600 X137.33 Y132.66 E439.12033
G0 F3000 X137.77 Y132.30
G1 F600 X167.23 Y132.30 E440.10031
G0 F3000 X166.79 Y131.94
G1 F600 X138.21 Y131.94 E441.05105
G0 F3000 X138.69 Y131.58
G1 F600 X166.32 Y131.58 E441.96976
G0 F3000 X165.64 Y131.22
G1 F600 X139.37 Y131.22 E442.84371
G0 F3000 X140.04 Y130.86
G1 F600 X164.97 Y130.86 E443.67291
G0 F3000 X164.30 Y130.50
G1 F600 X140.71 Y130.50 E444.45742
G0 F3000 X141.38 Y130.14
G1 F600 X163.62 Y130.14 E445.19716
G0 F3000 X162.95 Y129.78
G1 F600 X142.05 Y129.78 E445.89216
G0 F3000 X142.72 Y129.42
G1 F600 X162.28 Y129.42 E446.54240
G0 F3000 X161.22 Y129.06
G1 F600 X143.78 Y129.06 E447.12272
G0 F3000 X144.96 Y128.70
G1 F600 X160.04 Y128.70 E447.62408
G0 F3000 X158.85 Y128.34
G1 F600 X146.15 Y128.34 E448.04652
G0 F3000 X147.33 Y127.98
G1 F600 X157.66 Y127.98 E448.39007
G0 F3000 X154.59 Y127.62
G1 F600 X150.42 Y127.62 E448.52876
;LAYER:-1
;RAFT
G0 F3000 X150.30 Y127.63 Z0.90
;TYPE:SUPPORT
G1 F600 X150.30 Y177.37 E450.18292
G0 F3000 X149.94 Y177.33
G1 F600 X149.94 Y127.67 E451.83475
G0 F3000 X149.58 Y127.70
G1 F600 X149.58 Y177.29 E453.48419
G0 F3000 X149.22 Y177.26
G1 F600 X149.22 Y127.74 E455.13130
G0 F3000 X148.86 Y127.77
G1 F600 X148.86 Y177.22 E456.77601
G0 F3000 X148.50 Y177.19
G1 F600 X148.50 Y127.81 E458.41840
G0 F3000 X148.14 Y127.84
G1 F600 X148.14 Y177.15 E460.05839
G0 F3000 X147.78 Y177.12
G1 F600 X147.78 Y127.88 E461.69605
G0 F3000 X147.42 Y127.95
G1 F600 X147.42 Y177.04 E463.32879
G0 F3000 X147.06 Y176.93
G1 F600 X147.06 Y128.06 E464.95428
G0 F3000 X146.70 Y128.17
G1 F600 X146.70 Y176.82 E466.57248
G0 F3000 X146.34 Y176.72
G1 F600 X146.34 Y128.28 E468.18344
G0 F3000 X145.98 Y128.39
G1 F600 X145.98 Y176.61 E469.78711
G0 F3000 X145.62 Y176.50
G1 F600 X145.62 Y128.50 E471.38350
G0 F3000 X145.26 Y128.61
G1 F600 X145.26 Y176.39 E472.97263
G0 F3000 X144.90 Y176.28
G1 F600 X144.90 Y128.72 E474.55452
G0 F3000 X144.54 Y128.83
G1 F600 X144.54 Y176.17 E476.12912
G0 F3000 X144.18 Y176.06
G1 F600 X144.18 Y128.94 E477.69644
G0 F3000 X143.82 Y129.05
G1 F600 X143.82 Y175.95 E479.25650
G0 F3000 X143.46 Y175.84
G1 F600 X143.46 Y129.16 E480.80932
G0 F3000 X143.10 Y129.26
G1 F600 X143.10 Y175.73 E482.35485
G0 F3000 X142.74 Y175.58
G1 F600 X142.74 Y129.41 E483.89057
G0 F3000 X142.38 Y129.60
G1 F600 X142.38 Y175.39 E485.41345
G0 F3000 X142.02 Y175.20
G1 F600 X142.02 Y129.80 E486.92353
G0 F3000 X141.66 Y129.99
G1 F600 X141.66 Y175.01 E488.42080
G0 F3000 X141.30 Y174.81
G1 F600 X141.30 Y130.18 E489.90530
G0 F3000 X140.94 Y130.38
G1 F600 X140.94 Y174.62 E491.37696
G0 F3000 X140.58 Y174.43
G1 F600 X140.58 Y130.57 E492.83582
G0 F3000 X140.22 Y130.76
G1 F600 X140.22 Y174.24 E494.28187
G0 F3000 X139.86 Y174.04
G1 F600 X139.86 Y130.95 E495.71508
G0 F3000 X139.50 Y131.15
G1 F600 X139.50 Y173.85 E497.13552
G0 F3000 X139.14 Y173.66
G1 F600 X139.14 Y131.34 E498.54316
G0 F3000 X138.78 Y131.53
G1 F600 X138.78 Y173.47 E499.93799
G0 F3000 X138.42 Y173.23
G1 F600 X138.42 Y131.76 E501.31728
G0 F3000 X138.06 Y132.06
G1 F600 X138.06 Y172.94 E502.67696
G0 F3000 X137.70 Y172.64
G1 F600 X137.70 Y132.35 E504.01701
G0 F3000 X137.34 Y132.65
G1 F600 X137.34 Y172.35 E505.33744
G0 F3000 X136.98 Y172.05
G1 F600 X136.98 Y132.94 E506.63824
G0 F3000 X136.62 Y133.24
G1 F600 X136.62 Y171.76 E507.91945
G0 F3000 X136.26 Y171.47
G1 F600 X136.26 Y133.53 E509.18104
G0 F3000 X135.90 Y133.83
G1 F600 X135.90 Y171.17 E510.42301
G0 F3000 X135.54 Y170.88
G1 F600 X135.54 Y134.12 E511.64535
G0 F3000 X135.18 Y134.42
G1 F600 X135.18 Y170.58 E512.84807
G0 F3000 X134.82 Y170.28
G1 F600 X134.82 Y134.71 E514.03117
G0 F3000 X134.46 Y135.13
G1 F600 X134.46 Y169.87 E515.18646
G0 F3000 X134.10 Y169.43
G1 F600 X134.10 Y135.57 E516.31252
G0 F3000 X133.74 Y136.01
G1 F600 X133.74 Y168.99 E517.40940
G0 F3000 X133.38 Y168.55
G1 F600 X133.38 Y136.45 E518.47705
G0 F3000 X133.02 Y136.89
G1 F600 X133.02 Y168.11 E519.51550
G0 F3000 X132.66 Y167.67
G1 F600 X132.66 Y137.33 E520.52471
G0 F3000 X132.30 Y137.77
G1 F600 X132.30 Y167.23 E521.50472
G0 F3000 X131.94 Y166.79
G1 F600 X131.94 Y138.21 E522.45550
G0 F3000 X131.58 Y138.68
G1 F600 X131.58 Y166.31 E523.37447
G0 F3000 X131.22 Y165.64
G1 F600 X131.22 Y139.36 E524.24862
G0 F3000 X130.86 Y140.03
G1 F600 X130.86 Y164.97 E525.07793
G0 F3000 X130.50 Y164.29
G1 F600 X130.50 Y140.70 E525.86247
G0 F3000 X130.14 Y141.38
G1 F600 X130.14 Y163.62 E526.60217
G0 F3000 X129.78 Y162.94
G1 F600 X129.78 Y142.05 E527.29704
G0 F3000 X129.42 Y142.73
G1 F600 X129.42 Y162.27 E527.94708
G0 F3000 X129.06 Y161.21
G1 F600 X129.06 Y143.78 E528.52684
G0 F3000 X128.70 Y144.97
G1 F600 X128.70 Y160.03 E529.02777
G0 F3000 X128.34 Y158.84
G1 F600 X128.34 Y146.15 E529.44987
G0 F3000 X127.98 Y147.34
G1 F600 X127.98 Y157.66 E529.79315
G0 F3000 X127.62 Y154.57
G1 F600 X127.62 Y150.43 E529.93091
G0 F3000 X150.66 Y127.59
G1 F600 X150.66 Y177.40 E531.58747
G0 F3000 X151.02 Y177.44
G1 F600 X151.02 Y127.56 E533.24635
G0 F3000 X151.38 Y127.52
G1 F600 X151.38 Y177.47 E534.90763
G0 F3000 X151.74 Y177.51
G1 F600 X151.74 Y127.49 E536.57123
G0 F3000 X152.10 Y127.44
G1 F600 X152.10 Y177.54 E538.23783
G0 F3000 X152.46 Y177.58
G1 F600 X152.46 Y127.41 E539.90642
G0 F3000 X152.82 Y127.45
G1 F600 X152.82 Y177.55 E541.57292
G0 F3000 X153.18 Y177.52
G1 F600 X153.18 Y127.48 E543.23706
G0 F3000 X153.54 Y127.52
G1 F600 X153.54 Y177.48 E544.89884
G0 F3000 X153.90 Y177.44
G1 F600 X153.90 Y127.55 E546.55825
G0 F3000 X154.26 Y127.59
G1 F600 X154.26 Y177.41 E548.21534
G0 F3000 X154.62 Y177.37
G1 F600 X154.62 Y127.62 E549.87003
G0 F3000 X154.98 Y127.66
G1 F600 X154.98 Y177.34 E551.52239
G0 F3000 X155.34 Y177.30
G1 F600 X155.34 Y127.69 E553.17236
G0 F3000 X155.70 Y127.73
G1 F600 X155.70 Y177.27 E554.82000
G0 F3000 X156.06 Y177.23
G1 F600 X156.06 Y127.77 E556.46525
G0 F3000 X156.42 Y127.80
G1 F600 X156.42 Y177.20 E558.10817
G0 F3000 X156.78 Y177.16
G1 F600 X156.78 Y127.84 E559.74872
G0 F3000 X157.14 Y127.87
G1 F600 X157.14 Y177.13 E561.38692
G0 F3000 X157.50 Y177.07
G1 F600 X157.50 Y127.93 E563.02119
G0 F3000 X157.86 Y128.04
G1 F600 X157.86 Y176.96 E564.64821
G0 F3000 X158.22 Y176.85
G1 F600 X158.22 Y128.15 E566.26798
G0 F3000 X158.58 Y128.26
G1 F600 X158.58 Y176.74 E567.88049
G0 F3000 X158.94 Y176.63
G1 F600 X158.94 Y128.37 E569.48573
G0 F3000 X159.30 Y128.48
G1 F600 X159.30 Y176.52 E571.08371
G0 F3000 X159.66 Y176.41
G1 F600 X159.66 Y128.59 E572.67441
G0 F3000 X160.02 Y128.70
G1 F600 X160.02 Y176.30 E574.25786
G0 F3000 X160.38 Y176.19
G1 F600 X160.38 Y128.81 E575.83402
G0 F3000 X160.74 Y128.91
G1 F600 X160.74 Y176.09 E577.40294
G0 F3000 X161.10 Y175.98
G1 F600 X161.10 Y129.02 E578.96460
G0 F3000 X161.46 Y129.13
G1 F600 X161.46 Y175.87 E580.51901
G0 F3000 X161.82 Y175.76
G1 F600 X161.82 Y129.24 E582.06611
G0 F3000 X162.18 Y129.37
G1 F600 X162.18 Y175.63 E583.60472
G0 F3000 X162.54 Y175.44
G1 F600 X162.54 Y129.56 E585.13053
G0 F3000 X162.90 Y129.75
G1 F600 X162.90 Y175.24 E586.64350
G0 F3000 X163.26 Y175.05
G1 F600 X163.26 Y129.95 E588.14367
G0 F3000 X163.62 Y130.14
G1 F600 X163.62 Y174.86 E589.63103
G0 F3000 X163.98 Y174.67
G1 F600 X163.98 Y130.33 E591.10558
G0 F3000 X164.34 Y130.52
G1 F600 X164.34 Y174.47 E592.56733
G0 F3000 X164.70 Y174.28
G1 F600 X164.70 Y130.72 E594.01627
G0 F3000 X165.06 Y130.91
G1 F600 X165.06 Y174.09 E595.45238
G0 F3000 X165.42 Y173.89
G1 F600 X165.42 Y131.10 E596.87568
G0 F3000 X165.78 Y131.29
G1 F600 X165.78 Y173.70 E598.28621
G0 F3000 X166.14 Y173.51
G1 F600 X166.14 Y131.49 E599.68390
G0 F3000 X166.50 Y131.70
G1 F600 X166.50 Y173.30 E601.06752
G0 F3000 X166.86 Y173.00
G1 F600 X166.86 Y132.00 E602.43152
G0 F3000 X167.22 Y132.29
G1 F600 X167.22 Y172.71 E603.77590
G0 F3000 X167.58 Y172.41
G1 F600 X167.58 Y132.59 E605.10065
G0 F3000 X167.94 Y132.88
G1 F600 X167.94 Y172.12 E606.40577
G0 F3000 X168.30 Y171.82
G1 F600 X168.30 Y133.17 E607.69131
G0 F3000 X168.66 Y133.47
G1 F600 X168.66 Y171.53 E608.95723
G0 F3000 X169.02 Y171.24
G1 F600 X169.02 Y133.76 E610.20352
G0 F3000 X169.38 Y134.06
G1 F600 X169.38 Y170.94 E611.43018
G0 F3000 X169.74 Y170.65
G1 F600 X169.74 Y134.35 E612.63723
G0 F3000 X170.10 Y134.66
G1 F600 X170.10 Y170.35 E613.82425
G0 F3000 X170.46 Y169.96
G1 F600 X170.46 Y135.03 E614.98599
G0 F3000 X170.82 Y135.47
G1 F600 X170.82 Y169.53 E616.11866
G0 F3000 X171.18 Y169.09
G1 F600 X171.18 Y135.91 E617.22210
G0 F3000 X171.54 Y136.35
G1 F600 X171.54 Y168.65 E618.29631
G0 F3000 X171.90 Y168.21
G1 F600 X171.90 Y136.79 E619.34131
G0 F3000 X172.26 Y137.23
G1 F600 X172.26 Y167.77 E620.35710
G0 F3000 X172.62 Y167.33
G1 F600 X172.62 Y137.67 E621.34370
G0 F3000 X172.98 Y138.11
G1 F600 X172.98 Y166.89 E622.30106
G0 F3000 X173.34 Y166.45
G1 F600 X173.34 Y138.53 E623.22962
G0 F3000 X173.70 Y139.21
G1 F600 X173.70 Y165.79 E624.11370
G0 F3000 X174.06 Y165.12
G1 F600 X174.06 Y139.88 E624.95296
G0 F3000 X174.42 Y140.56
G1 F600 X174.42 Y164.44 E625.74737
G0 F3000 X174.78 Y163.77
G1 F600 X174.78 Y141.23 E626.49696
G0 F3000 X175.14 Y141.90
G1 F600 X175.14 Y163.09 E627.20171
G0 F3000 X175.50 Y162.42
G1 F600 X175.50 Y142.58 E627.86162
G0 F3000 X175.86 Y143.53
G1 F600 X175.86 Y161.49 E628.45897
G0 F3000 X176.22 Y160.30
G1 F600 X176.22 Y144.71 E628.97750
G0 F3000 X176.58 Y145.89
G1 F600 X176.58 Y159.11 E629.41720
G0 F3000 X176.94 Y157.92
G1 F600 X176.94 Y147.07 E629.77807
G0 F3000 X177.30 Y149.62
G1 F600 X177.30 Y155.38 E629.96952
;LAYER:0
G1 F2400 E628.76952
G0 F3000 X171.92 Y156.36 Z1.22
;TYPE:WALL-OUTER
G1 F2400 E629.96952
G1 F600 X170.79 Y160.06 E630.03383
G1 X168.96 Y163.50 E630.09850
G1 X166.50 Y166.50 E630.16307
G1 X163.50 Y168.96 E630.22753
G1 X160.08 Y170.79 E630.29220
G1 X156.36 Y171.92 E630.35671
G1 X152.50 Y172.30 E630.42128
G1 X148.64 Y171.92 E630.48585
G1 X144.94 Y170.79 E630.55017
G1 X141.50 Y168.96 E630.61484
G1 X138.51 Y166.51 E630.67926
G1 X136.04 Y163.50 E630.74407
G1 X134.22 Y160.09 E630.80835
G1 X133.08 Y156.36 E630.87305
G1 X132.70 Y152.50 E630.93769
G1 X133.08 Y148.65 E631.00199
G1 X134.21 Y144.92 E631.06670
G1 X136.03 Y141.51 E631.13098
G1 X138.50 Y138.50 E631.19582
G1 X141.50 Y136.04 E631.26020
G1 X144.92 Y134.21 E631.32487
G1 X148.64 Y133.08 E631.38938
G1 X152.50 Y132.70 E631.45399
G1 X156.35 Y133.08 E631.51832
G1 X160.08 Y134.21 E631.58304
G1 X163.49 Y136.03 E631.64732
G1 X166.50 Y138.50 E631.71209
G1 X168.96 Y141.50 E631.77674
G1 X170.78 Y144.91 E631.84102
G1 X171.92 Y148.64 E631.90572
G1 X172.30 Y152.50 E631.97022
G1 X171.92 Y156.36 E632.03486
G0 F3000 X171.62 Y156.30
G0 X168.69 Y155.69
G0 X168.39 Y155.66
G1 F600 X168.70 Y152.50 E632.08766
G1 X168.39 Y149.34 E632.14046
G1 X167.47 Y146.31 E632.19327
G1 X165.97 Y143.50 E632.24613
G1 X163.96 Y141.05 E632.29891
G1 X161.50 Y139.03 E632.35171
G1 X158.70 Y137.53 E632.40456
G1 X155.66 Y136.61 E632.45736
G1 X152.50 Y136.30 E632.51016
G1 X149.34 Y136.61 E632.56296
G1 X146.31 Y137.53 E632.61577
G1 X143.50 Y139.03 E632.66863
G1 X141.05 Y141.04 E632.72141
G1 X139.03 Y143.50 E632.77421
G1 X137.53 Y146.30 E632.82706
G1 X136.61 Y149.34 E632.87986
G1 X136.30 Y152.50 E632.93266
G1 X136.61 Y155.66 E632.98546
G1 X137.53 Y158.69 E633.03827
G1 X139.03 Y161.50 E633.09113
G1 X141.04 Y163.95 E633.14391
G1 X143.50 Y165.97 E633.19671
G1 X146.30 Y167.47 E633.24956
G1 X149.34 Y168.39 E633.30236
G1 X152.45 Y168.69 E633.35441
G1 X152.50 Y168.70 E633.35522
G1 X155.66 Y168.39 E633.40797
G1 X158.69 Y167.47 E633.46078
G1 X161.50 Y165.97 E633.51363
G1 X163.95 Y163.96 E633.56642
G1 X165.97 Y161.50 E633.61921
G1 X167.47 Y158.70 E633.67207
G1 X168.39 Y155.66 E633.72486
G0 F3000 X168.50 Y155.77
;TYPE:FILL
G1 F600 X171.15 Y158.42 E633.78714
G0 F3000 X171.28 Y157.99
G1 F600 X168.56 Y155.27 E633.85098
G0 F3000 X168.62 Y154.76
G1 F600 X171.41 Y157.55 E633.91674
G0 F3000 X171.54 Y157.12
G1 F600 X168.67 Y154.24 E633.98440
G0 F3000 X168.72 Y153.73
G1 F600 X171.67 Y156.68 E634.05396
G0 F3000 X171.79 Y156.23
G1 F600 X168.77 Y153.21 E634.12503
G0 F3000 X168.82 Y152.70
G1 F600 X171.84 Y155.72 E634.19613
G0 F3000 X171.89 Y155.20
G1 F600 X168.80 Y152.11 E634.26889
G0 F3000 X168.74 Y151.48
G1 F600 X171.94 Y154.69 E634.34426
G0 F3000 X171.99 Y154.17
G1 F600 X168.68 Y150.86 E634.42227
G0 F3000 X168.62 Y150.23
G1 F600 X172.04 Y153.66 E634.50291
G0 F3000 X172.09 Y153.14
G1 F600 X168.55 Y149.60 E634.58617
G0 F3000 X168.39 Y148.88
G1 F600 X172.15 Y152.63 E634.67437
G0 F3000 X172.11 Y152.03
G1 F600 X168.15 Y148.07 E634.76759
G0 F3000 X167.90 Y147.25
G1 F600 X172.05 Y151.40 E634.86514
G0 F3000 X171.99 Y150.77
G1 F600 X167.66 Y146.44 E634.96702
G0 F3000 X167.10 Y145.32
G1 F600 X171.93 Y150.15 E635.08047
G0 F3000 X171.86 Y149.52
G1 F600 X166.45 Y144.11 E635.20775
G0 F3000 X166.59 Y144.03
G0 X166.30 Y143.28
G0 X165.09 Y141.96
G0 X164.97 Y142.06
G1 F600 X171.80 Y148.89 E635.36848
G0 F3000 X171.62 Y148.15
G1 F600 X156.85 Y133.38 E635.71583
G0 F3000 X156.11 Y133.20
G1 F600 X162.94 Y140.03 E635.87658
G0 F3000 X163.04 Y139.91
G0 X161.73 Y138.70
G0 X160.97 Y138.41
G0 X160.89 Y138.55
G1 F600 X155.48 Y133.13 E636.00386
G0 F3000 X154.85 Y133.07
G1 F600 X159.68 Y137.90 E636.11729
G0 F3000 X158.56 Y137.34
G1 F600 X154.22 Y133.01 E636.21915
G0 F3000 X153.60 Y132.95
G1 F600 X157.74 Y137.10 E636.31667
G0 F3000 X156.93 Y136.85
G1 F600 X152.97 Y132.89 E636.40985
G0 F3000 X152.37 Y132.85
G1 F600 X156.12 Y136.60 E636.49800
G0 F3000 X155.40 Y136.44
G1 F600 X151.86 Y132.91 E636.58124
G0 F3000 X151.34 Y132.96
G1 F600 X154.77 Y136.38 E636.66184
G0 F3000 X154.14 Y136.32
G1 F600 X150.82 Y133.01 E636.73983
G0 F3000 X150.31 Y133.06
G1 F600 X153.51 Y136.26 E636.81516
G0 F3000 X152.89 Y136.20
G1 F600 X149.80 Y133.11 E636.88785
G0 F3000 X149.28 Y133.16
G1 F600 X152.30 Y136.18 E636.95894
G0 F3000 X151.79 Y136.23
G1 F600 X148.77 Y133.21 E637.03000
G0 F3000 X148.31 Y133.32
G1 F600 X151.27 Y136.28 E637.09954
G0 F3000 X150.76 Y136.33
G1 F600 X147.88 Y133.46 E637.16716
G0 F3000 X147.45 Y133.59
G1 F600 X150.24 Y136.38 E637.23285
G0 F3000 X149.72 Y136.43
G1 F600 X147.01 Y133.72 E637.29664
G0 F3000 X146.58 Y133.85
G1 F600 X149.23 Y136.50 E637.35889
G0 F3000 X148.79 Y136.63
G1 F600 X146.15 Y133.98 E637.42114
G0 F3000 X145.71 Y134.12
G1 F600 X148.36 Y136.76 E637.48337
G0 F3000 X147.92 Y136.89
G1 F600 X145.28 Y134.25 E637.54560
G0 F3000 X144.86 Y134.40
G1 F600 X147.49 Y137.02 E637.60734
G0 F3000 X147.06 Y137.16
G1 F600 X144.50 Y134.60 E637.66755
G0 F3000 X144.13 Y134.79
G1 F600 X146.62 Y137.29 E637.72620
G0 F3000 X146.20 Y137.43
G1 F600 X143.76 Y134.99 E637.78353
G0 F3000 X143.39 Y135.19
G1 F600 X145.83 Y137.62 E637.84085
G0 F3000 X145.46 Y137.82
G1 F600 X143.02 Y135.38 E637.89817
G0 F3000 X142.65 Y135.58
G1 F600 X145.09 Y138.02 E637.95546
G0 F3000 X144.72 Y138.22
G1 F600 X142.29 Y135.78 E638.01275
G0 F3000 X141.92 Y135.98
G1 F600 X144.35 Y138.41 E638.07004
G0 F3000 X143.98 Y138.61
G1 F600 X141.55 Y136.18 E638.12722
G0 F3000 X141.24 Y136.43
G1 F600 X143.62 Y138.81 E638.18302
G0 F3000 X143.27 Y139.03
G1 F600 X140.93 Y136.69 E638.23812
G0 F3000 X140.62 Y136.94
G1 F600 X142.96 Y139.29 E638.29322
G0 F3000 X142.65 Y139.54
G1 F600 X140.31 Y137.20 E638.34832
G0 F3000 X140.00 Y137.45
G1 F600 X142.34 Y139.80 E638.40344
G0 F3000 X142.03 Y140.05
G1 F600 X139.69 Y137.71 E638.45852
G0 F3000 X139.38 Y137.96
G1 F600 X141.72 Y140.31 E638.51361
G0 F3000 X141.41 Y140.56
G1 F600 X139.06 Y138.22 E638.56873
G0 F3000 X138.75 Y138.47
G1 F600 X141.10 Y140.81 E638.62384
G0 F3000 X140.82 Y141.10
G1 F600 X138.47 Y138.75 E638.67898
G0 F3000 X138.22 Y139.06
G1 F600 X140.56 Y141.41 E638.73413
G0 F3000 X140.31 Y141.72
G1 F600 X137.96 Y139.38 E638.78927
G0 F3000 X137.71 Y139.69
G1 F600 X140.05 Y142.03 E638.84442
G0 F3000 X139.80 Y142.34
G1 F600 X137.45 Y140.00 E638.89956
G0 F3000 X137.20 Y140.31
G1 F600 X139.54 Y142.65 E638.95469
G0 F3000 X139.29 Y142.96
G1 F600 X136.94 Y140.62 E639.00983
G0 F3000 X136.69 Y140.93
G1 F600 X139.03 Y143.28 E639.06498
G0 F3000 X138.81 Y143.62
G1 F600 X136.43 Y141.24 E639.12086
G0 F3000 X136.18 Y141.55
G1 F600 X138.61 Y143.99 E639.17808
G0 F3000 X138.41 Y144.35
G1 F600 X135.97 Y141.91 E639.23549
G0 F3000 X135.78 Y142.28
G1 F600 X138.22 Y144.72 E639.29288
G0 F3000 X138.02 Y145.09
G1 F600 X135.58 Y142.65 E639.35027
G0 F3000 X135.38 Y143.02
G1 F600 X137.82 Y145.46 E639.40765
G0 F3000 X137.63 Y145.83
G1 F600 X135.19 Y143.39 E639.46504
G0 F3000 X134.99 Y143.76
G1 F600 X137.43 Y146.20 E639.52242
G0 F3000 X137.29 Y146.62
G1 F600 X134.79 Y144.13 E639.58113
G0 F3000 X134.59 Y144.49
G1 F600 X137.16 Y147.06 E639.64138
G0 F3000 X137.03 Y147.49
G1 F600 X134.40 Y144.86 E639.70316
G0 F3000 X134.25 Y145.28
G1 F600 X136.89 Y147.92 E639.76542
G0 F3000 X136.76 Y148.36
G1 F600 X134.11 Y145.71 E639.82768
G0 F3000 X133.98 Y146.15
G1 F600 X136.63 Y148.79 E639.88994
G0 F3000 X136.50 Y149.23
G1 F600 X133.85 Y146.58 E639.95219
G0 F3000 X133.72 Y147.01
G1 F600 X136.43 Y149.73 E640.01602
G0 F3000 X136.38 Y150.24
G1 F600 X133.59 Y147.45 E640.08174
G0 F3000 X133.46 Y147.88
G1 F600 X136.33 Y150.76 E640.14937
G0 F3000 X136.28 Y151.27
G1 F600 X133.32 Y148.32 E640.21891
G0 F3000 X133.21 Y148.76
G1 F600 X136.23 Y151.79 E640.29000
G0 F3000 X136.18 Y152.30
G1 F600 X133.16 Y149.28 E640.36109
G0 F3000 X133.11 Y149.79
G1 F600 X136.20 Y152.89 E640.43387
G0 F3000 X136.26 Y153.51
G1 F600 X133.06 Y150.31 E640.50926
G0 F3000 X133.01 Y150.82
G1 F600 X136.32 Y154.14 E640.58727
G0 F3000 X136.38 Y154.77
G1 F600 X132.96 Y151.34 E640.66790
G0 F3000 X132.90 Y151.85
G1 F600 X136.44 Y155.40 E640.75116
G0 F3000 X136.60 Y156.12
G1 F600 X132.85 Y152.37 E640.83938
G0 F3000 X132.89 Y152.97
G1 F600 X136.85 Y156.93 E640.93256
G0 F3000 X137.10 Y157.74
G1 F600 X132.95 Y153.60 E641.03008
G0 F3000 X133.01 Y154.22
G1 F600 X137.34 Y158.56 E641.13193
G0 F3000 X137.90 Y159.68
G1 F600 X133.07 Y154.85 E641.24539
G0 F3000 X133.13 Y155.48
G1 F600 X138.55 Y160.89 E641.37265
G0 F3000 X138.41 Y160.97
G0 X138.70 Y161.72
G0 X139.91 Y163.04
G0 X140.03 Y162.94
G1 F600 X133.20 Y156.11 E641.53336
G0 F3000 X133.38 Y156.85
G1 F600 X148.15 Y171.62 E641.88075
G0 F3000 X148.89 Y171.80
G1 F600 X142.06 Y164.97 E642.04149
G0 F3000 X141.96 Y165.09
G0 X143.27 Y166.30
G0 X144.03 Y166.59
G0 X144.11 Y166.45
G1 F600 X149.52 Y171.86 E642.16878
G0 F3000 X150.15 Y171.93
G1 F600 X145.32 Y167.10 E642.28219
G0 F3000 X146.44 Y167.66
G1 F600 X150.77 Y171.99 E642.38402
G0 F3000 X151.40 Y172.05
G1 F600 X147.25 Y167.90 E642.48154
G0 F3000 X148.07 Y168.15
G1 F600 X152.03 Y172.11 E642.57472
G0 F3000 X152.63 Y172.14
G1 F600 X148.88 Y168.40 E642.66289
G0 F3000 X149.60 Y168.55
G1 F600 X153.14 Y172.09 E642.74615
G0 F3000 X153.66 Y172.04
G1 F600 X150.23 Y168.62 E642.82675
G0 F3000 X150.86 Y168.68
G1 F600 X154.17 Y171.99 E642.90473
G0 F3000 X154.69 Y171.94
G1 F600 X151.49 Y168.74 E642.98005
G0 F3000 X152.11 Y168.80
G1 F600 X155.20 Y171.89 E643.05272
G0 F3000 X155.72 Y171.84
G1 F600 X152.70 Y168.82 E643.12380
G0 F3000 X153.21 Y168.77
G1 F600 X156.23 Y171.79 E643.19485
G0 F3000 X156.68 Y171.67
G1 F600 X153.73 Y168.72 E643.26437
G0 F3000 X154.24 Y168.67
G1 F600 X157.12 Y171.54 E643.33198
G0 F3000 X157.55 Y171.41
G1 F600 X154.76 Y168.62 E643.39768
G0 F3000 X155.27 Y168.57
G1 F600 X157.99 Y171.28 E643.46145
G0 F3000 X158.42 Y171.15
G1 F600 X155.77 Y168.50 E643.52370
G0 F3000 X156.21 Y168.37
G1 F600 X158.85 Y171.01 E643.58595
G0 F3000 X159.29 Y170.88
G1 F600 X156.64 Y168.24 E643.64818
G0 F3000 X157.07 Y168.11
G1 F600 X159.72 Y170.75 E643.71041
G0 F3000 X160.13 Y170.60
G1 F600 X157.51 Y167.97 E643.77215
G0 F3000 X157.94 Y167.84
G1 F600 X160.50 Y170.40 E643.83235
G0 F3000 X160.87 Y170.21
G1 F600 X158.38 Y167.71 E643.89100
G0 F3000 X158.80 Y167.57
G1 F600 X161.24 Y170.01 E643.94834
G0 F3000 X161.61 Y169.81
G1 F600 X159.17 Y167.37 E644.00566
G0 F3000 X159.54 Y167.18
G1 F600 X161.98 Y169.61 E644.06297
G0 F3000 X162.34 Y169.41
G1 F600 X159.91 Y166.98 E644.12026
G0 F3000 X160.28 Y166.78
G1 F600 X162.71 Y169.22 E644.17755
G0 F3000 X163.08 Y169.02
G1 F600 X160.65 Y166.59 E644.23484
G0 F3000 X161.01 Y166.39
G1 F600 X163.44 Y168.82 E644.29202
G0 F3000 X163.76 Y168.56
G1 F600 X161.38 Y166.19 E644.34784
G0 F3000 X161.72 Y165.97
G1 F600 X164.07 Y168.31 E644.40293
G0 F3000 X164.38 Y168.06
G1 F600 X162.03 Y165.71 E644.45803
G0 F3000 X162.35 Y165.46
G1 F600 X164.69 Y167.80 E644.51313
G0 F3000 X165.00 Y167.55
G1 F600 X162.66 Y165.20 E644.56824
G0 F3000 X162.97 Y164.95
G1 F600 X165.31 Y167.29 E644.62335
G0 F3000 X165.62 Y167.04
G1 F600 X163.28 Y164.69 E644.67846
G0 F3000 X163.59 Y164.44
G1 F600 X165.93 Y166.78 E644.73359
G0 F3000 X166.24 Y166.53
G1 F600 X163.90 Y164.18 E644.78872
G0 F3000 X164.18 Y163.90
G1 F600 X166.53 Y166.25 E644.84389
G0 F3000 X166.78 Y165.93
G1 F600 X164.44 Y163.59 E644.89905
G0 F3000 X164.69 Y163.28
G1 F600 X167.04 Y165.62 E644.95420
G0 F3000 X167.29 Y165.31
G1 F600 X164.95 Y162.97 E645.00938
G0 F3000 X165.20 Y162.66
G1 F600 X167.55 Y165.00 E645.06455
G0 F3000 X167.80 Y164.69
G1 F600 X165.46 Y162.34 E645.11971
G0 F3000 X165.71 Y162.03
G1 F600 X168.06 Y164.38 E645.17486
G0 F3000 X168.31 Y164.07
G1 F600 X165.97 Y161.72 E645.23003
G0 F3000 X166.19 Y161.38
G1 F600 X168.57 Y163.76 E645.28594
G0 F3000 X168.82 Y163.45
G1 F600 X166.39 Y161.01 E645.34321
G0 F3000 X166.58 Y160.64
G1 F600 X169.02 Y163.08 E645.40060
G0 F3000 X169.22 Y162.72
G1 F600 X166.78 Y160.28 E645.45798
G0 F3000 X166.98 Y159.91
G1 F600 X169.42 Y162.35 E645.51534
G0 F3000 X169.62 Y161.98
G1 F600 X167.18 Y159.54 E645.57273
G0 F3000 X167.37 Y159.17
G1 F600 X169.81 Y161.61 E645.63010
G0 F3000 X170.01 Y161.24
G1 F600 X167.57 Y158.80 E645.68744
G0 F3000 X167.71 Y158.38
G1 F600 X170.21 Y160.87 E645.74613
G0 F3000 X170.40 Y160.50
G1 F600 X167.84 Y157.94 E645.80635
G0 F3000 X167.97 Y157.51
G1 F600 X170.60 Y160.13 E645.86812
G0 F3000 X170.75 Y159.72
G1 F600 X168.10 Y157.07 E645.93040
G0 F3000 X168.24 Y156.64
G1 F600 X170.88 Y159.29 E645.99268
G0 F3000 X171.02 Y158.85
G1 F600 X168.37 Y156.21 E646.05495
G0 F3000 X168.52 Y156.25
G0 X171.22 Y147.38
G0 X171.38 Y147.33
G1 F600 X157.66 Y133.62 E646.37739
G0 F3000 X158.48 Y133.87
G1 F600 X171.13 Y146.52 E646.67494
G0 F3000 X170.88 Y145.71
G1 F600 X159.29 Y134.12 E646.94757
G0 F3000 X160.14 Y134.40
G1 F600 X170.60 Y144.86 E647.19355
G0 F3000 X169.95 Y143.64
G1 F600 X161.35 Y135.05 E647.39560
G0 F3000 X162.57 Y135.70
G1 F600 X169.30 Y142.43 E647.55373
G0 F3000 X169.16 Y142.50
G0 X167.93 Y140.72
G0 X168.05 Y140.62
G1 F600 X164.39 Y136.96 E647.63984
G0 F3000 X164.29 Y137.08
G0 X152.50 Y135.90
G0 X149.27 Y136.22
G0 X146.15 Y137.16
G0 X143.28 Y138.70
G0 X140.76 Y140.76
G0 X138.70 Y143.27
G0 X137.16 Y146.15
G0 X136.22 Y149.26
G0 X135.90 Y152.50
G0 X133.78 Y157.62
G0 X133.62 Y157.66
G1 F600 X147.34 Y171.38 E647.96231
G0 F3000 X146.52 Y171.13
G1 F600 X133.87 Y158.48 E648.25989
G0 F3000 X134.12 Y159.29
G1 F600 X145.71 Y170.88 E648.53256
G0 F3000 X144.86 Y170.59
G1 F600 X134.40 Y160.14 E648.77846
G0 F3000 X135.05 Y161.36
G1 F600 X143.64 Y169.94 E648.98045
G0 F3000 X142.43 Y169.29
G1 F600 X135.70 Y162.57 E649.13855
G0 F3000 X135.84 Y162.50
G0 X137.07 Y164.28
G0 X136.95 Y164.38
G1 F600 X140.62 Y168.06 E649.22489
G0 F3000 X141.16 Y167.39
G1 F2400 E648.02489
G0 F3000 X147.54 Y159.96
;TYPE:WALL-OUTER
G1 F2400 E649.22489
G1 F600 X146.17 Y158.85 E649.25416
G1 X145.05 Y157.49 E649.28345
G1 X145.04 Y157.47 E649.28378
G1 X144.23 Y155.95 E649.31254
G1 X143.71 Y154.27 E649.34177
G1 X143.54 Y152.50 E649.37132
G1 X143.71 Y150.75 E649.40048
G1 X143.71 Y150.74 E649.40068
G1 X144.21 Y149.09 E649.42937
G1 X145.04 Y147.54 E649.45867
G1 X146.15 Y146.17 E649.48794
G1 X147.51 Y145.05 E649.51723
G1 X147.53 Y145.04 E649.51756
G1 X149.05 Y144.23 E649.54632
G1 X150.73 Y143.71 E649.57554
G1 X152.50 Y143.54 E649.60510
G1 X154.25 Y143.71 E649.63426
G1 X154.26 Y143.71 E649.63446
G1 X155.91 Y144.21 E649.66315
G1 X157.46 Y145.04 E649.69245
G1 X158.83 Y146.15 E649.72172
G1 X159.95 Y147.51 E649.75101
G1 X159.96 Y147.53 E649.75134
G1 X160.77 Y149.05 E649.78011
G1 X161.29 Y150.73 E649.80932
G1 X161.46 Y152.50 E649.83888
G1 X161.29 Y154.25 E649.86804
G1 X161.29 Y154.26 E649.86824
G1 X160.79 Y155.91 E649.89694
G1 X159.96 Y157.46 E649.92623
G1 X158.85 Y158.83 E649.95551
G1 X157.48 Y159.95 E649.98497
G1 X155.95 Y160.77 E650.01389
G1 X154.27 Y161.29 E650.04310
G1 X152.50 Y161.47 E650.07267
G1 X150.75 Y161.29 E650.10183
G1 X150.74 Y161.29 E650.10203
G1 X149.09 Y160.79 E650.13073
G1 X147.54 Y159.96 E650.16002
G0 F3000 X147.71 Y159.71
G0 X149.08 Y155.68
G0 X149.25 Y155.43
G1 F600 X151.15 Y156.66 E650.19772
G1 X153.41 Y156.78 E650.23537
G1 X155.40 Y155.77 E650.27248
G1 X155.44 Y155.73 E650.27355
G1 X156.66 Y153.85 E650.31072
G1 X156.78 Y151.64 E650.34759
G1 X156.77 Y151.57 E650.34867
G1 X155.75 Y149.57 E650.38602
G1 X153.86 Y148.34 E650.42360
G1 X151.59 Y148.22 E650.46136
G1 X149.57 Y149.25 E650.49904
G1 X148.34 Y151.14 E650.53662
G1 X148.22 Y153.36 E650.57360
G1 X148.23 Y153.43 E650.57468
G1 X149.25 Y155.43 E650.61203
G0 F3000 X148.67 Y154.61
;TYPE:FILL
G1 F600 X144.07 Y150.01 E650.72020
G0 F3000 X143.94 Y150.45
G1 F600 X154.55 Y161.05 E650.96965
G0 F3000 X154.98 Y160.92
G1 F600 X150.41 Y156.35 E651.07710
G0 F3000 X151.44 Y156.82
G1 F600 X155.41 Y160.79 E651.17047
G0 F3000 X155.85 Y160.66
G1 F600 X152.04 Y156.85 E651.26000
G0 F3000 X152.64 Y156.88
G1 F600 X156.22 Y160.47 E651.34434
G0 F3000 X156.59 Y160.27
G1 F600 X153.24 Y156.91 E651.42330
G0 F3000 X153.69 Y156.80
G1 F600 X156.96 Y160.07 E651.50031
G0 F3000 X157.33 Y159.88
G1 F600 X154.06 Y156.61 E651.57717
G0 F3000 X154.44 Y156.42
G1 F600 X157.65 Y159.63 E651.65278
G0 F3000 X157.96 Y159.38
G1 F600 X154.81 Y156.22 E651.72688
G0 F3000 X155.19 Y156.03
G1 F600 X158.27 Y159.12 E651.79945
G0 F3000 X158.58 Y158.86
G1 F600 X155.54 Y155.82 E651.87094
G0 F3000 X155.77 Y155.49
G1 F600 X158.87 Y158.58 E651.94381
G0 F3000 X159.12 Y158.27
G1 F600 X155.99 Y155.14 E652.01742
G0 F3000 X156.21 Y154.80
G1 F600 X159.37 Y157.96 E652.09177
G0 F3000 X159.63 Y157.65
G1 F600 X156.44 Y154.46 E652.16686
G0 F3000 X156.66 Y154.11
G1 F600 X159.87 Y157.33 E652.24250
G0 F3000 X160.07 Y156.96
G1 F600 X156.81 Y153.70 E652.31920
G0 F3000 X156.84 Y153.16
G1 F600 X160.27 Y156.59 E652.39985
G0 F3000 X160.46 Y156.22
G1 F600 X156.87 Y152.62 E652.48448
G0 F3000 X156.89 Y152.09
G1 F600 X160.66 Y155.85 E652.57307
G0 F3000 X160.79 Y155.42
G1 F600 X156.91 Y151.53 E652.66442
G0 F3000 X156.32 Y150.38
G1 F600 X160.92 Y154.99 E652.77259
G0 F3000 X161.06 Y154.55
G1 F600 X150.45 Y143.94 E653.02204
G0 F3000 X150.02 Y144.08
G1 F600 X154.59 Y148.65 E653.12952
G0 F3000 X153.56 Y148.18
G1 F600 X149.58 Y144.21 E653.22300
G0 F3000 X149.15 Y144.34
G1 F600 X152.96 Y148.15 E653.31260
G0 F3000 X152.36 Y148.12
G1 F600 X148.77 Y144.53 E653.39697
G0 F3000 X148.41 Y144.73
G1 F600 X151.76 Y148.09 E653.47592
G0 F3000 X151.31 Y148.20
G1 F600 X148.04 Y144.93 E653.55294
G0 F3000 X147.67 Y145.12
G1 F600 X150.94 Y148.39 E653.62981
G0 F3000 X150.56 Y148.58
G1 F600 X147.35 Y145.37 E653.70540
G0 F3000 X147.04 Y145.62
G1 F600 X150.19 Y148.77 E653.77950
G0 F3000 X149.81 Y148.96
G1 F600 X146.73 Y145.88 E653.85208
G0 F3000 X146.42 Y146.13
G1 F600 X149.45 Y149.17 E653.92350
G0 F3000 X149.23 Y149.51
G1 F600 X146.13 Y146.41 E653.99639
G0 F3000 X145.88 Y146.73
G1 F600 X149.01 Y149.86 E654.07001
G0 F3000 X148.78 Y150.20
G1 F600 X145.62 Y147.04 E654.14436
G0 F3000 X145.37 Y147.35
G1 F600 X148.56 Y150.54 E654.21948
G0 F3000 X148.34 Y150.88
G1 F600 X145.12 Y147.67 E654.29511
G0 F3000 X144.93 Y148.04
G1 F600 X148.19 Y151.30 E654.37188
G0 F3000 X148.16 Y151.84
G1 F600 X144.73 Y148.41 E654.45260
G0 F3000 X144.53 Y148.78
G1 F600 X148.13 Y152.38 E654.53726
G0 F3000 X148.10 Y152.91
G1 F600 X144.34 Y149.15 E654.62586
G0 F3000 X144.21 Y149.58
G1 F600 X148.09 Y153.46 E654.71720
G0 F3000 X147.93 Y153.48
G0 X144.04 Y154.30
G0 X143.88 Y154.35
G1 F600 X150.65 Y161.12 E654.87645
G0 F3000 X151.31 Y161.21
G1 F600 X143.80 Y153.70 E655.05308
G0 F3000 X143.73 Y153.07
G1 F600 X151.93 Y161.27 E655.24596
G0 F3000 X152.55 Y161.32
G1 F600 X143.68 Y152.45 E655.45454
G0 F3000 X143.73 Y151.93
G1 F600 X153.06 Y161.27 E655.67405
G0 F3000 X153.58 Y161.21
G1 F600 X143.78 Y151.42 E655.90442
G0 F3000 X143.83 Y150.90
G1 F600 X154.09 Y161.16 E656.14571
G0 F3000 X154.08 Y161.00
G0 X149.89 Y160.72
G0 X149.84 Y160.87
G1 F600 X144.13 Y155.16 E656.28001
G0 F3000 X144.42 Y156.02
G1 F600 X148.97 Y160.56 E656.38698
G0 F3000 X147.76 Y159.92
G1 F600 X145.07 Y157.23 E656.45013
G0 F3000 X145.22 Y157.16
G0 X150.92 Y144.00
G0 X150.91 Y143.84
G1 F600 X161.17 Y154.09 E656.69140
G0 F3000 X161.22 Y153.58
G1 F600 X151.42 Y143.78 E656.92177
G0 F3000 X151.94 Y143.73
G1 F600 X161.27 Y153.06 E657.14123
G0 F3000 X161.32 Y152.55
G1 F600 X152.45 Y143.68 E657.34978
G0 F3000 X153.06 Y143.73
G1 F600 X161.26 Y151.93 E657.54262
G0 F3000 X161.20 Y151.30
G1 F600 X153.69 Y143.79 E657.71926
G0 F3000 X154.34 Y143.88
G1 F600 X161.12 Y150.65 E657.87852
G0 F3000 X160.87 Y149.84
G1 F600 X155.16 Y144.13 E658.01281
G0 F3000 X156.03 Y144.43
G1 F600 X160.58 Y148.98 E658.11980
G0 F3000 X159.93 Y147.77
G1 F600 X157.24 Y145.08 E658.18299
G0 F3000 X156.84 Y145.84
;LAYER:1
G0 X157.48 Y145.04 Z1.15
;TYPE:WALL-OUTER
G1 F1140 X158.75 Y146.09 E658.22397
G1 X158.86 Y146.19 E658.22784
G1 X159.96 Y147.52 E658.27085
G1 X160.78 Y149.07 E658.31458
G1 X161.29 Y150.75 E658.35842
G1 X161.46 Y152.50 E658.40228
G1 X161.31 Y154.12 E658.44291
G1 X161.28 Y154.29 E658.44727
G1 X160.78 Y155.93 E658.48997
G1 X159.96 Y157.48 E658.53369
G1 X158.91 Y158.75 E658.57467
G1 X158.81 Y158.86 E658.57854
G1 X157.57 Y159.88 E658.61849
G1 X157.47 Y159.96 E658.62164
G1 X155.93 Y160.78 E658.66528
G1 X154.25 Y161.29 E658.70909
G1 X152.50 Y161.47 E658.75298
G1 X150.88 Y161.31 E658.79369
G1 X150.71 Y161.28 E658.79795
G1 X149.07 Y160.78 E658.84068
G1 X147.52 Y159.96 E658.88440
G1 X146.25 Y158.91 E658.92538
G1 X146.14 Y158.81 E658.92925
G1 X145.04 Y157.48 E658.97227
G1 X144.22 Y155.93 E659.01599
G1 X143.71 Y154.25 E659.05983
G1 X143.54 Y152.50 E659.10369
G1 X143.69 Y150.88 E659.14432
G1 X143.72 Y150.71 E659.14868
G1 X144.22 Y149.07 E659.19138
G1 X145.04 Y147.52 E659.23510
G1 X146.09 Y146.25 E659.27608
G1 X146.19 Y146.14 E659.27995
G1 X147.52 Y145.04 E659.32297
G1 X149.07 Y144.22 E659.36669
G1 X150.75 Y143.71 E659.41053
G1 X152.50 Y143.54 E659.45439
G1 X154.12 Y143.69 E659.49502
G1 X154.29 Y143.72 E659.49938
G1 X155.93 Y144.22 E659.54208
G1 X157.48 Y145.04 E659.58580
G0 F3000 X157.31 Y145.30
G0 X155.92 Y149.32
G0 X155.75 Y149.57
G1 F1140 X153.94 Y148.39 E659.63988
G1 X153.85 Y148.34 E659.64233
G1 X151.59 Y148.22 E659.69884
G1 X149.57 Y149.25 E659.75536
G1 X148.39 Y151.06 E659.80941
G1 X148.34 Y151.15 E659.81189
G1 X148.22 Y153.31 E659.86587
G1 X148.22 Y153.41 E659.86837
G1 X149.25 Y155.43 E659.92492
G1 X151.15 Y156.66 E659.98147
G1 X153.41 Y156.78 E660.03795
G1 X155.43 Y155.75 E660.09448
G1 X156.66 Y153.85 E660.15103
G1 X156.78 Y151.69 E660.20498
G1 X156.78 Y151.59 E660.20748
G1 X155.75 Y149.57 E660.26403
G0 F3000 X155.77 Y149.42
;TYPE:FILL
G1 F1140 X158.82 Y146.36 E660.37170
G0 F3000 X158.53 Y146.09
G1 F1140 X155.43 Y149.19 E660.48115
G0 F3000 X155.08 Y148.97
G1 F1140 X158.22 Y145.84 E660.59178
G0 F3000 X157.91 Y145.58
G1 F1140 X154.74 Y148.75 E660.70350
G0 F3000 X154.40 Y148.52
G1 F1140 X157.60 Y145.32 E660.81636
G0 F3000 X157.27 Y145.09
G1 F1140 X154.06 Y148.30 E660.92967
G0 F3000 X153.61 Y148.18
G1 F1140 X156.90 Y144.89 E661.04575
G0 F3000 X156.53 Y144.69
G1 F1140 X153.07 Y148.16 E661.16783
G0 F3000 X152.53 Y148.13
G1 F1140 X156.16 Y144.50 E661.29587
G0 F3000 X155.78 Y144.31
G1 F1140 X152.00 Y148.10 E661.42936
G0 F3000 X151.34 Y148.18
G1 F1140 X155.35 Y144.18 E661.57052
G0 F3000 X154.91 Y144.05
G1 F1140 X150.19 Y148.77 E661.73705
G0 F3000 X150.12 Y148.63
G0 X149.30 Y148.94
G0 X148.69 Y150.06
G0 X148.82 Y150.14
G1 F1140 X144.05 Y154.91 E661.90522
G0 F3000 X144.18 Y155.34
G1 F1140 X148.19 Y151.34 E662.04637
G0 F3000 X148.15 Y151.94
G1 F1140 X144.32 Y155.78 E662.18176
G0 F3000 X144.50 Y156.16
G1 F1140 X148.12 Y152.54 E662.30961
G0 F3000 X148.09 Y153.13
G1 F1140 X144.69 Y156.53 E662.42941
G0 F3000 X144.89 Y156.90
G1 F1140 X148.17 Y153.62 E662.54498
G0 F3000 X148.36 Y154.00
G1 F1140 X145.09 Y157.27 E662.66032
G0 F3000 X145.33 Y157.60
G1 F1140 X148.55 Y154.37 E662.77409
G0 F3000 X148.74 Y154.75
G1 F1140 X145.58 Y157.91 E662.88559
G0 F3000 X145.84 Y158.22
G1 F1140 X148.93 Y155.12 E662.99483
G0 F3000 X149.12 Y155.50
G1 F1140 X146.09 Y158.53 E663.10181
G0 F3000 X146.36 Y158.82
G1 F1140 X149.46 Y155.73 E663.21088
G0 F3000 X149.80 Y155.95
G1 F1140 X146.68 Y159.08 E663.32109
G0 F3000 X146.99 Y159.33
G1 F1140 X150.14 Y156.18 E663.43246
G0 F3000 X150.49 Y156.40
G1 F1140 X147.30 Y159.59 E663.54495
G0 F3000 X147.61 Y159.84
G1 F1140 X150.83 Y156.62 E663.65854
G0 F3000 X151.21 Y156.81
G1 F1140 X147.97 Y160.04 E663.77265
G0 F3000 X148.34 Y160.24
G1 F1140 X151.75 Y156.83 E663.89271
G0 F3000 X152.28 Y156.86
G1 F1140 X148.71 Y160.43 E664.01873
G0 F3000 X149.08 Y160.63
G1 F1140 X152.82 Y156.89 E664.15073
G0 F3000 X153.36 Y156.92
G1 F1140 X149.51 Y160.77 E664.28662
G0 F3000 X149.94 Y160.90
G1 F1140 X154.42 Y156.42 E664.44463
G0 F3000 X154.49 Y156.57
G0 X155.70 Y156.06
G0 X156.66 Y154.40
G0 X156.53 Y154.32
G1 F1140 X160.90 Y149.94 E664.59897
G0 F3000 X160.77 Y149.51
G1 F1140 X156.82 Y153.45 E664.73821
G0 F3000 X156.85 Y152.86
G1 F1140 X160.63 Y149.08 E664.87146
G0 F3000 X160.43 Y148.71
G1 F1140 X156.89 Y152.26 E664.99661
G0 F3000 X156.92 Y151.66
G1 F1140 X160.24 Y148.34 E665.11368
G0 F3000 X160.04 Y147.98
G1 F1140 X156.76 Y151.25 E665.22917
G0 F3000 X156.57 Y150.88
G1 F1140 X159.84 Y147.61 E665.34443
G0 F3000 X159.59 Y147.30
G1 F1140 X156.38 Y150.50 E665.45746
G0 F3000 X156.19 Y150.12
G1 F1140 X159.33 Y146.99 E665.56821
G0 F3000 X159.08 Y146.68
G1 F1140 X156.00 Y149.75 E665.67672
G0 F3000 X156.14 Y149.68
G0 X160.88 Y150.42
G0 X161.03 Y150.38
G1 F1140 X150.38 Y161.03 E666.05271
G0 F3000 X150.82 Y161.16
G1 F1140 X161.16 Y150.82 E666.41743
G0 F3000 X161.21 Y151.33
G1 F1140 X151.33 Y161.21 E666.76591
G0 F3000 X151.85 Y161.26
G1 F1140 X161.26 Y151.85 E667.09794
G0 F3000 X161.31 Y152.36
G1 F1140 X152.36 Y161.31 E667.41357
G0 F3000 X152.96 Y161.28
G1 F1140 X161.28 Y152.96 E667.70701
G0 F3000 X161.22 Y153.59
G1 F1140 X153.59 Y161.22 E667.97618
G0 F3000 X154.21 Y161.16
G1 F1140 X161.15 Y154.22 E668.22086
G0 F3000 X160.91 Y155.02
G1 F1140 X155.02 Y160.91 E668.42877
G0 F3000 X155.83 Y160.67
G1 F1140 X160.67 Y155.83 E668.59938
G0 F3000 X160.04 Y157.03
G1 F1140 X157.03 Y160.04 E668.70546
G0 F3000 X156.95 Y159.90
G0 X144.07 Y154.43
G0 X143.92 Y154.48
G1 F1140 X154.48 Y143.92 E669.07788
G0 F3000 X154.01 Y143.82
G1 F1140 X143.82 Y154.01 E669.43720
G0 F3000 X143.77 Y153.49
G1 F1140 X153.49 Y143.77 E669.78012
G0 F3000 X152.98 Y143.72
G1 F1140 X143.72 Y152.98 E670.10665
G0 F3000 X143.68 Y152.45
G1 F1140 X152.46 Y143.68 E670.41616
G0 F3000 X151.83 Y143.74
G1 F1140 X143.74 Y151.83 E670.70142
G0 F3000 X143.80 Y151.20
G1 F1140 X151.20 Y143.80 E670.96244
G0 F3000 X150.52 Y143.92
G1 F1140 X143.92 Y150.52 E671.19511
G0 F3000 X144.17 Y149.71
G1 F1140 X149.71 Y144.17 E671.39050
G0 F3000 X148.78 Y144.53
G1 F1140 X144.53 Y148.78 E671.54058
G0 F3000 X145.25 Y147.49
G1 F1140 X147.49 Y145.25 E671.61968
G0 F3000 X148.04 Y145.91
G1 F2400 E670.41968
G0 F3000 X157.96 Y141.91
;TYPE:WALL-OUTER
G1 F2400 E671.61968
G1 F1140 X158.35 Y141.04 E671.64346
G1 X158.91 Y140.93 E671.65758
G1 X159.22 Y140.90 E671.66549
G1 X159.42 Y141.16 E671.67357
G1 X159.70 Y141.64 E671.68753
G1 X159.31 Y142.52 E671.71140
G1 X158.76 Y142.63 E671.72549
G1 X158.44 Y142.66 E671.73340
G1 X158.25 Y142.40 E671.74132
G1 X157.96 Y141.91 E671.75547
G0 F3000 X158.15 Y141.95
;TYPE:FILL
G1 F1140 X159.04 Y141.06 E671.78694
G0 F3000 X159.35 Y141.31
G1 F1140 X158.35 Y142.31 E671.82190
G0 F3000 X158.40 Y142.37
G1 F1140 X159.39 Y141.38 E671.85670
G0 F3000 X159.52 Y141.71
G1 F1140 X158.73 Y142.49 E671.88429
G0 F3000 X159.10 Y141.83
G1 F2400 E670.68429
G0 F3000 X163.80 Y147.32
;TYPE:WALL-OUTER
G1 F2400 E671.88429
G1 F1140 X164.12 Y147.34 E671.89229
G1 X164.67 Y147.44 E671.90632
G1 X165.08 Y148.31 E671.93013
G1 X164.80 Y148.80 E671.94403
G1 X164.61 Y149.06 E671.95220
G1 X164.29 Y149.04 E671.96020
G1 X163.74 Y148.94 E671.97423
G1 X163.33 Y148.07 E671.99803
G1 X163.60 Y147.58 E672.01194
G1 X163.80 Y147.32 E672.02011
G0 F3000 X163.94 Y147.47
;TYPE:FILL
G1 F1140 X163.69 Y147.72 E672.02905
G0 F3000 X163.62 Y148.35
G1 F1140 X164.43 Y147.54 E672.05773
G0 F3000 X164.51 Y147.56
G1 F1140 X163.65 Y148.42 E672.08819
G0 F3000 X163.80 Y148.74
G1 F1140 X164.70 Y147.84 E672.12003
G0 F3000 X164.88 Y148.22
G1 F1140 X164.22 Y148.88 E672.14328
G0 F3000 X164.42 Y148.91
G1 F1140 X164.78 Y148.54 E672.15610
G0 F3000 X164.39 Y147.96
G1 F2400 E670.95610
G0 F3000 X164.41 Y155.59
;TYPE:WALL-OUTER
G1 F2400 E672.15610
G1 F1140 X164.67 Y155.79 E672.16419
G1 X165.07 Y156.18 E672.17815
G1 X164.92 Y157.12 E672.20199
G1 X164.41 Y157.38 E672.21604
G1 X164.12 Y157.48 E672.22396
G1 X163.86 Y157.28 E672.23207
G1 X163.46 Y156.89 E672.24606
G1 X163.61 Y155.95 E672.26986
G1 X164.11 Y155.70 E672.28393
G1 X164.41 Y155.59 E672.29188
G0 F3000 X164.57 Y155.89
;TYPE:FILL
G1 F1140 X163.61 Y156.85 E672.32575
G0 F3000 X163.81 Y157.05
G1 F1140 X164.78 Y156.09 E672.35963
G0 F3000 X164.86 Y156.17
G1 F1140 X163.90 Y157.13 E672.39350
G0 F3000 X164.34 Y157.25
G1 F1140 X164.83 Y156.76 E672.41100
G0 F3000 X163.97 Y155.92
G1 F1140 X163.71 Y156.18 E672.42003
G0 F3000 X164.18 Y156.71
G1 F2400 E671.22003
G0 F3000 X159.47 Y162.42
;TYPE:WALL-OUTER
G1 F2400 E672.42003
G1 F1140 X159.60 Y162.71 E672.42797
G1 X159.76 Y163.26 E672.44215
G1 X159.17 Y164.01 E672.46592
G1 X158.61 Y163.99 E672.48000
G1 X158.29 Y163.93 E672.48794
G1 X158.16 Y163.64 E672.49598
G1 X158.00 Y163.10 E672.51003
G1 X158.59 Y162.35 E672.53384
G1 X159.16 Y162.37 E672.54790
G1 X159.47 Y162.42 E672.55583
G0 F3000 X159.43 Y162.68
;TYPE:FILL
G1 F1140 X158.37 Y163.75 E672.59344
G0 F3000 X158.38 Y163.78
G1 F1140 X159.44 Y162.71 E672.63105
G0 F3000 X159.09 Y162.50
G1 F1140 X158.23 Y163.36 E672.66124
G0 F3000 X158.87 Y163.85
G1 F1140 X159.58 Y163.14 E672.68633
G0 F3000 X158.77 Y162.99
G1 F2400 E671.48633
G0 F3000 X151.56 Y164.45
;TYPE:WALL-OUTER
G1 F2400 E672.68633
G1 F1140 X151.44 Y165.40 E672.71015
G1 X150.96 Y165.67 E672.72403
G1 X150.65 Y165.79 E672.73218
G1 X150.39 Y165.60 E672.74016
G1 X149.98 Y165.22 E672.75419
G1 X150.09 Y164.27 E672.77802
G1 X150.58 Y164.01 E672.79191
G1 X150.89 Y163.89 E672.80006
G1 X151.15 Y164.07 E672.80803
G1 X151.56 Y164.45 E672.82210
G0 F3000 X151.41 Y164.52
;TYPE:FILL
G1 F1140 X150.46 Y165.47 E672.85569
G0 F3000 X150.41 Y165.43
G1 F1140 X151.37 Y164.47 E672.88961
G0 F3000 X151.13 Y164.24
G1 F1140 X150.17 Y165.20 E672.92353
G0 F3000 X150.19 Y164.61
G1 F1140 X150.69 Y164.11 E672.94099
G0 F3000 X151.33 Y165.17
G1 F1140 X151.03 Y165.47 E672.95154
G0 F3000 X151.04 Y164.76
G1 F2400 E671.75154
G0 F3000 X144.07 Y160.85
;TYPE:WALL-OUTER
G1 F2400 E672.95154
G1 F1140 X143.87 Y161.10 E672.95945
G1 X143.47 Y161.50 E672.97353
G1 X142.53 Y161.33 E672.99734
G1 X142.29 Y160.83 E673.01120
G1 X142.18 Y160.52 E673.01941
G1 X142.38 Y160.27 E673.02734
G1 X142.78 Y159.87 E673.04140
G1 X143.72 Y160.04 E673.06521
G1 X143.97 Y160.54 E673.07908
G1 X144.07 Y160.85 E673.08729
G0 F3000 X143.88 Y160.74
;TYPE:FILL
G1 F1140 X143.30 Y161.32 E673.10788
G0 F3000 X143.23 Y161.31
G1 F1140 X143.86 Y160.68 E673.13024
G0 F3000 X143.71 Y160.34
G1 F1140 X142.82 Y161.24 E673.16185
G0 F3000 X142.51 Y160.98
G1 F1140 X143.37 Y160.12 E673.19215
G0 F3000 X143.19 Y160.09
G1 F1140 X142.44 Y160.83 E673.21856
G0 F3000 X142.35 Y160.57
G1 F1140 X142.89 Y160.03 E673.23764
G0 F3000 X143.30 Y160.62
G1 F2400 E672.03764
G0 F3000 X140.58 Y153.16
;TYPE:WALL-OUTER
G1 F2400 E673.23764
G1 F1140 X140.06 Y153.35 E673.25155
G1 X139.74 Y153.42 E673.25968
G1 X139.51 Y153.20 E673.26758
G1 X139.16 Y152.75 E673.28173
G1 X139.42 Y151.84 E673.30556
G1 X139.95 Y151.65 E673.31946
G1 X140.27 Y151.58 E673.32760
G1 X140.49 Y151.80 E673.33550
G1 X140.84 Y152.25 E673.34965
G1 X140.58 Y153.16 E673.37347
G0 F3000 X140.55 Y152.76
;TYPE:FILL
G1 F1140 X140.08 Y153.19 E673.38805
G1 X140.58 Y152.66 E673.40637
G0 F3000 X140.59 Y152.15
G1 F1140 X139.63 Y153.12 E673.44038
G0 F3000 X139.38 Y152.80
G1 F1140 X140.33 Y151.84 E673.47421
G0 F3000 X140.24 Y151.74
G1 F1140 X139.34 Y152.64 E673.50587
G0 F3000 X139.49 Y152.12
G1 F1140 X139.74 Y151.87 E673.51480
G0 F3000 X139.91 Y152.34
G1 F2400 E672.31480
G0 F3000 X142.83 Y145.62
;TYPE:WALL-OUTER
G1 F2400 E673.51480
G1 F1140 X142.55 Y145.47 E673.52278
G1 X142.10 Y145.15 E673.53680
G1 X142.10 Y144.19 E673.56062
G1 X142.55 Y143.86 E673.57454
G1 X142.84 Y143.71 E673.58262
G1 X143.12 Y143.86 E673.59063
G1 X143.57 Y144.19 E673.60464
G1 X143.57 Y145.15 E673.62847
G1 X143.12 Y145.47 E673.64229
G1 X142.83 Y145.62 E673.65049
G0 F3000 X142.78 Y145.44
;TYPE:FILL
G1 F1140 X143.43 Y144.78 E673.67349
G0 F3000 X143.43 Y144.78
G1 F1140 X142.78 Y145.43 E673.69663
G0 F3000 X142.44 Y145.22
G1 F1140 X143.41 Y144.24 E673.73096
G0 F3000 X143.08 Y144.01
G1 F1140 X142.24 Y144.85 E673.76066
G0 F3000 X142.24 Y144.72
G1 F1140 X143.00 Y143.96 E673.78753
G0 F3000 X142.32 Y144.20
G1 F1140 X142.24 Y144.28 E673.79038
G0 F3000 X142.73 Y144.81
G1 F2400 E672.59038
G0 F3000 X149.61 Y140.76
;TYPE:WALL-OUTER
G1 F2400 E673.79038
G1 F1140 X149.39 Y140.24 E673.80442
G1 X149.88 Y139.42 E673.82823
G1 X150.43 Y139.38 E673.84210
G1 X150.76 Y139.39 E673.85024
G1 X150.93 Y139.67 E673.85840
G1 X151.15 Y140.18 E673.87230
G1 X150.65 Y141.00 E673.89614
G1 X150.10 Y141.05 E673.91001
G1 X149.77 Y141.03 E673.91815
G1 X149.61 Y140.76 E673.92619
G0 F3000 X149.75 Y140.72
;TYPE:FILL
G1 F1140 X150.78 Y139.70 E673.96233
G0 F3000 X150.86 Y139.87
G1 F1140 X149.84 Y140.88 E673.99803
G0 F3000 X150.14 Y140.91
G1 F1140 X150.95 Y140.09 E674.02675
G0 F3000 X150.40 Y139.52
G1 F1140 X149.58 Y140.33 E674.05554
G0 F3000 X150.40 Y140.38
G1 F2400 E672.85554
G0 F3000 X149.38 Y136.61
;TYPE:WALL-OUTER
G1 F2400 E674.05554
G1 F1140 X149.34 Y136.61 E674.05664
G1 X146.32 Y137.52 E674.13517
G1 X143.53 Y139.01 E674.21404
G1 X141.06 Y141.03 E674.29360
G1 X139.06 Y143.47 E674.37237
G1 X139.03 Y143.50 E674.37348
G1 X137.56 Y146.26 E674.45152
G1 X137.53 Y146.30 E674.45266
G1 X136.63 Y149.29 E674.53065
G1 X136.61 Y149.34 E674.53183
G1 X136.31 Y152.45 E674.60988
G1 X136.30 Y152.50 E674.61104
G1 X136.61 Y155.62 E674.68926
G1 X136.61 Y155.66 E674.69037
G1 X137.52 Y158.66 E674.76848
G1 X139.01 Y161.47 E674.84775
G1 X141.03 Y163.94 E674.92732
G1 X143.47 Y165.94 E675.00609
G1 X143.50 Y165.97 E675.00720
G1 X146.26 Y167.44 E675.08524
G1 X146.30 Y167.47 E675.08638
G1 X149.29 Y168.37 E675.16437
G1 X149.34 Y168.39 E675.16555
G1 X152.50 Y168.70 E675.24483
G1 X155.62 Y168.39 E675.32298
G1 X155.66 Y168.39 E675.32409
G1 X158.68 Y167.48 E675.40261
G1 X161.47 Y165.99 E675.48148
G1 X163.94 Y163.97 E675.56105
G1 X165.94 Y161.53 E675.63982
G1 X165.97 Y161.50 E675.64092
G1 X167.44 Y158.74 E675.71896
G1 X167.47 Y158.70 E675.72010
G1 X168.37 Y155.71 E675.79809
G1 X168.39 Y155.66 E675.79927
G1 X168.69 Y152.55 E675.87732
G1 X168.70 Y152.50 E675.87848
G1 X168.39 Y149.38 E675.95670
G1 X168.39 Y149.34 E675.95781
G1 X167.48 Y146.32 E676.03634
G1 X165.99 Y143.53 E676.11520
G1 X163.97 Y141.06 E676.19477
G1 X161.53 Y139.06 E676.27354
G1 X161.50 Y139.03 E676.27465
G1 X158.74 Y137.56 E676.35269
G1 X158.70 Y137.53 E676.35383
G1 X155.71 Y136.63 E676.43182
G1 X155.66 Y136.61 E676.43300
G1 X152.54 Y136.31 E676.51122
G1 X152.50 Y136.30 E676.51220
G1 X149.38 Y136.61 E676.59043
G0 F3000 X149.36 Y136.31
G0 X148.70 Y133.38
G0 X148.64 Y133.08
G1 F1140 X152.44 Y132.71 E676.68575
G1 X152.50 Y132.70 E676.68733
G1 X156.30 Y133.07 E676.78246
G1 X156.36 Y133.08 E676.78414
G1 X160.08 Y134.21 E676.88091
G1 X163.50 Y136.04 E676.97762
G1 X166.50 Y138.50 E677.07454
G1 X168.96 Y141.50 E677.17147
G1 X170.79 Y144.92 E677.26818
G1 X171.92 Y148.64 E677.36495
G1 X172.30 Y152.50 E677.46173
G1 X171.92 Y156.36 E677.55866
G1 X170.79 Y160.08 E677.65543
G1 X168.96 Y163.50 E677.75214
G1 X166.50 Y166.50 E677.84906
G1 X163.50 Y168.96 E677.94598
G1 X160.08 Y170.79 E678.04270
G1 X156.36 Y171.92 E678.13947
G1 X152.50 Y172.30 E678.23632
G1 X148.64 Y171.92 E678.33318
G1 X144.92 Y170.79 E678.42995
G1 X141.50 Y168.96 E678.52666
G1 X138.50 Y166.50 E678.62358
G1 X136.04 Y163.50 E678.72050
G1 X134.21 Y160.08 E678.81721
G1 X133.08 Y156.36 E678.91398
G1 X132.70 Y152.50 E679.01091
G1 X133.07 Y148.70 E679.10601
G1 X133.08 Y148.64 E679.10769
G1 X134.21 Y144.92 E679.20446
G1 X136.04 Y141.50 E679.30118
G1 X138.50 Y138.50 E679.39810
G1 X141.50 Y136.04 E679.49502
G1 X144.92 Y134.21 E679.59173
G1 X148.64 Y133.08 E679.68850
G0 F3000 X148.79 Y133.21
;TYPE:FILL
G1 F1140 X141.52 Y140.47 E679.94480
G0 F3000 X140.48 Y141.51
G1 F1140 X133.21 Y148.79 E680.20148
G0 F3000 X133.15 Y149.41
G1 F1140 X138.65 Y143.91 E680.39579
G0 F3000 X138.00 Y145.12
G1 F1140 X133.08 Y150.04 E680.56933
G0 F3000 X133.02 Y150.67
G1 F1140 X137.38 Y146.31 E680.72318
G0 F3000 X137.14 Y147.12
G1 F1140 X132.96 Y151.30 E680.87054
G0 F3000 X132.90 Y151.92
G1 F1140 X136.89 Y147.93 E681.01142
G0 F3000 X136.64 Y148.74
G1 F1140 X132.85 Y152.54 E681.14540
G0 F3000 X132.90 Y153.06
G1 F1140 X136.45 Y149.50 E681.27085
G0 F3000 X136.39 Y150.13
G1 F1140 X132.95 Y153.57 E681.39238
G0 F3000 X133.00 Y154.09
G1 F1140 X136.33 Y150.75 E681.50994
G0 F3000 X136.27 Y151.38
G1 F1140 X133.05 Y154.60 E681.62357
G0 F3000 X133.10 Y155.12
G1 F1140 X136.21 Y152.01 E681.73327
G0 F3000 X136.17 Y152.61
G1 F1140 X133.15 Y155.63 E681.83981
G0 F3000 X133.20 Y156.15
G1 F1140 X136.22 Y153.13 E681.94635
G0 F3000 X136.27 Y153.64
G1 F1140 X133.30 Y156.61 E682.05109
G0 F3000 X133.43 Y157.04
G1 F1140 X136.32 Y154.16 E682.15295
G0 F3000 X136.37 Y154.67
G1 F1140 X133.57 Y157.48 E682.25194
G0 F3000 X133.70 Y157.91
G1 F1140 X136.42 Y155.19 E682.34807
G0 F3000 X136.48 Y155.70
G1 F1140 X133.83 Y158.35 E682.44145
G0 F3000 X133.96 Y158.78
G1 F1140 X136.61 Y156.13 E682.53481
G0 F3000 X136.74 Y156.57
G1 F1140 X134.09 Y159.21 E682.62818
G0 F3000 X134.22 Y159.65
G1 F1140 X136.87 Y157.00 E682.72152
G0 F3000 X137.00 Y157.44
G1 F1140 X134.37 Y160.07 E682.81451
G0 F3000 X134.56 Y160.44
G1 F1140 X137.13 Y157.87 E682.90521
G0 F3000 X137.26 Y158.31
G1 F1140 X134.76 Y160.81 E682.99358
G0 F3000 X134.96 Y161.18
G1 F1140 X137.40 Y158.74 E683.07980
G0 F3000 X137.60 Y159.10
G1 F1140 X135.15 Y161.55 E683.16598
G0 F3000 X135.35 Y161.92
G1 F1140 X137.79 Y159.47 E683.25215
G0 F3000 X137.99 Y159.84
G1 F1140 X135.55 Y162.28 E683.33826
G0 F3000 X135.75 Y162.65
G1 F1140 X138.19 Y160.21 E683.42434
G0 F3000 X138.38 Y160.58
G1 F1140 X135.94 Y163.02 E683.51040
G0 F3000 X136.14 Y163.39
G1 F1140 X138.58 Y160.95 E683.59644
G0 F3000 X138.78 Y161.32
G1 F1140 X136.39 Y163.70 E683.68054
G0 F3000 X136.65 Y164.01
G1 F1140 X139.00 Y161.67 E683.76341
G0 F3000 X139.25 Y161.98
G1 F1140 X136.90 Y164.32 E683.84623
G0 F3000 X137.16 Y164.64
G1 F1140 X139.50 Y162.29 E683.92904
G0 F3000 X139.76 Y162.60
G1 F1140 X137.41 Y164.95 E684.01184
G0 F3000 X137.66 Y165.26
G1 F1140 X140.01 Y162.91 E684.09463
G0 F3000 X140.26 Y163.22
G1 F1140 X137.92 Y165.57 E684.17736
G0 F3000 X138.18 Y165.88
G1 F1140 X140.52 Y163.53 E684.26009
G0 F3000 X140.77 Y163.85
G1 F1140 X138.43 Y166.19 E684.34281
G0 F3000 X138.70 Y166.48
G1 F1140 X141.05 Y164.13 E684.42568
G0 F3000 X141.36 Y164.39
G1 F1140 X139.01 Y166.74 E684.50855
G0 F3000 X139.32 Y166.99
G1 F1140 X141.67 Y164.65 E684.59138
G0 F3000 X141.98 Y164.90
G1 F1140 X139.63 Y167.25 E684.67419
G0 F3000 X139.95 Y167.50
G1 F1140 X142.29 Y165.16 E684.75696
G0 F3000 X142.60 Y165.41
G1 F1140 X140.26 Y167.76 E684.83970
G0 F3000 X140.57 Y168.01
G1 F1140 X142.91 Y165.67 E684.92244
G0 F3000 X143.22 Y165.92
G1 F1140 X140.88 Y168.27 E685.00515
G0 F3000 X141.19 Y168.52
G1 F1140 X143.56 Y166.16 E685.08862
G0 F3000 X143.92 Y166.35
G1 F1140 X141.50 Y168.78 E685.17411
G0 F3000 X141.85 Y168.99
G1 F1140 X144.29 Y166.55 E685.26016
G0 F3000 X144.66 Y166.75
G1 F1140 X142.22 Y169.19 E685.34627
G0 F3000 X142.59 Y169.38
G1 F1140 X145.03 Y166.94 E685.43235
G0 F3000 X145.40 Y167.14
G1 F1140 X142.96 Y169.58 E685.51839
G0 F3000 X143.33 Y169.78
G1 F1140 X145.77 Y167.34 E685.60447
G0 F3000 X146.14 Y167.54
G1 F1140 X143.70 Y169.98 E685.69054
G0 F3000 X144.06 Y170.17
G1 F1140 X146.55 Y167.69 E685.77825
G0 F3000 X146.98 Y167.82
G1 F1140 X144.43 Y170.37 E685.86827
G0 F3000 X144.80 Y170.57
G1 F1140 X147.42 Y167.95 E685.96060
G0 F3000 X147.85 Y168.08
G1 F1140 X145.20 Y170.73 E686.05401
G0 F3000 X145.64 Y170.86
G1 F1140 X148.29 Y168.21 E686.14743
G0 F3000 X148.72 Y168.34
G1 F1140 X146.07 Y170.99 E686.24088
G0 F3000 X146.51 Y171.13
G1 F1140 X149.15 Y168.48 E686.33431
G0 F3000 X149.64 Y168.56
G1 F1140 X146.94 Y171.26 E686.42956
G0 F3000 X147.37 Y171.39
G1 F1140 X150.15 Y168.61 E686.52765
G0 F3000 X150.67 Y168.66
G1 F1140 X147.81 Y171.52 E686.62863
G0 F3000 X148.24 Y171.65
G1 F1140 X151.19 Y168.71 E686.73245
G0 F3000 X151.70 Y168.76
G1 F1140 X148.68 Y171.78 E686.83906
G0 F3000 X149.19 Y171.83
G1 F1140 X152.22 Y168.81 E686.94571
G0 F3000 X152.78 Y168.81
G1 F1140 X149.71 Y171.88 E687.05408
G0 F3000 X150.22 Y171.93
G1 F1140 X153.41 Y168.75 E687.16642
G0 F3000 X154.03 Y168.69
G1 F1140 X150.74 Y171.98 E687.28272
G0 F3000 X151.25 Y172.03
G1 F1140 X154.66 Y168.63 E687.40291
G0 F3000 X155.29 Y168.56
G1 F1140 X151.77 Y172.09 E687.52708
G0 F3000 X152.28 Y172.14
G1 F1140 X155.98 Y168.44 E687.65759
G0 F3000 X156.79 Y168.19
G1 F1140 X152.86 Y172.12 E687.79625
G0 F3000 X153.49 Y172.06
G1 F1140 X157.61 Y167.94 E687.94139
G0 F3000 X158.42 Y167.70
G1 F1140 X154.12 Y172.00 E688.09304
G0 F3000 X154.75 Y171.94
G1 F1140 X159.48 Y167.21 E688.25996
G0 F3000 X160.69 Y166.56
G1 F1140 X155.37 Y171.88 E688.44750
G0 F3000 X156.00 Y171.81
G1 F1140 X162.45 Y165.37 E688.67491
G0 F3000 X162.55 Y165.49
G0 X163.75 Y168.37
G0 X163.85 Y168.49
G1 F1140 X168.49 Y163.85 E688.83853
G0 F3000 X168.37 Y163.75
G0 X169.27 Y162.29
G0 X169.41 Y162.37
G1 F1140 X162.37 Y169.41 E689.08691
G0 F3000 X161.15 Y170.06
G1 F1140 X170.06 Y161.15 E689.40109
G0 F3000 X170.68 Y159.96
G1 F1140 X159.96 Y170.68 E689.77909
G0 F3000 X159.15 Y170.93
G1 F1140 X170.93 Y159.15 E690.19445
G0 F3000 X171.17 Y158.34
G1 F1140 X158.34 Y171.17 E690.64713
G0 F3000 X157.53 Y171.42
G1 F1140 X171.42 Y157.53 E691.13717
G0 F3000 X171.66 Y156.72
G1 F1140 X156.71 Y171.66 E691.66459
G0 F3000 X156.67 Y171.51
G0 X164.22 Y164.25
G0 X165.52 Y162.52
G0 X165.40 Y162.42
G1 F1140 X171.81 Y156.00 E691.89095
G0 F3000 X171.87 Y155.38
G1 F1140 X166.56 Y160.69 E692.07828
G0 F3000 X167.21 Y159.47
G1 F1140 X171.94 Y154.75 E692.24488
G0 F3000 X172.00 Y154.12
G1 F1140 X167.70 Y158.42 E692.39657
G0 F3000 X167.94 Y157.61
G1 F1140 X172.06 Y153.49 E692.54170
G0 F3000 X172.12 Y152.87
G1 F1140 X168.19 Y156.79 E692.68035
G0 F3000 X168.44 Y155.98
G1 F1140 X172.13 Y152.28 E692.81085
G0 F3000 X172.09 Y151.77
G1 F1140 X168.56 Y155.29 E692.93503
G0 F3000 X168.63 Y154.66
G1 F1140 X172.03 Y151.25 E693.05526
G0 F3000 X171.98 Y150.74
G1 F1140 X168.69 Y154.03 E693.17152
G0 F3000 X168.75 Y153.41
G1 F1140 X171.93 Y150.22 E693.28386
G0 F3000 X171.88 Y149.71
G1 F1140 X168.81 Y152.78 E693.39227
G0 F3000 X168.81 Y152.22
G1 F1140 X171.83 Y149.19 E693.49882
G0 F3000 X171.78 Y148.68
G1 F1140 X168.76 Y151.70 E693.60536
G0 F3000 X168.71 Y151.19
G1 F1140 X171.65 Y148.24 E693.70917
G0 F3000 X171.52 Y147.81
G1 F1140 X168.66 Y150.67 E693.81010
G0 F3000 X168.61 Y150.15
G1 F1140 X171.39 Y147.38 E693.90813
G0 F3000 X171.26 Y146.94
G1 F1140 X168.56 Y149.64 E694.00333
G0 F3000 X168.48 Y149.15
G1 F1140 X171.12 Y146.51 E694.09671
G0 F3000 X170.99 Y146.07
G1 F1140 X168.35 Y148.72 E694.19007
G0 F3000 X168.22 Y148.28
G1 F1140 X170.86 Y145.64 E694.28342
G0 F3000 X170.73 Y145.21
G1 F1140 X168.08 Y147.85 E694.37676
G0 F3000 X167.95 Y147.42
G1 F1140 X170.57 Y144.80 E694.46900
G0 F3000 X170.37 Y144.43
G1 F1140 X167.82 Y146.98 E694.55892
G0 F3000 X167.69 Y146.55
G1 F1140 X170.17 Y144.06 E694.64649
G0 F3000 X169.97 Y143.70
G1 F1140 X167.53 Y146.14 E694.73261
G0 F3000 X167.34 Y145.77
G1 F1140 X169.78 Y143.33 E694.81869
G0 F3000 X169.58 Y142.96
G1 F1140 X167.14 Y145.40 E694.90475
G0 F3000 X166.94 Y145.03
G1 F1140 X169.38 Y142.59 E694.99084
G0 F3000 X169.19 Y142.22
G1 F1140 X166.75 Y144.66 E695.07692
G0 F3000 X166.55 Y144.29
G1 F1140 X168.99 Y141.85 E695.16294
G0 F3000 X168.78 Y141.50
G1 F1140 X166.35 Y143.92 E695.24839
G0 F3000 X166.16 Y143.55
G1 F1140 X168.52 Y141.19 E695.33176
G0 F3000 X168.27 Y140.88
G1 F1140 X165.92 Y143.23 E695.41461
G0 F3000 X165.66 Y142.92
G1 F1140 X168.01 Y140.57 E695.49743
G0 F3000 X167.76 Y140.26
G1 F1140 X165.41 Y142.60 E695.58022
G0 F3000 X165.16 Y142.29
G1 F1140 X167.50 Y139.95 E695.66299
G0 F3000 X167.25 Y139.63
G1 F1140 X164.90 Y141.98 E695.74577
G0 F3000 X164.65 Y141.67
G1 F1140 X166.99 Y139.32 E695.82851
G0 F3000 X166.74 Y139.01
G1 F1140 X164.39 Y141.36 E695.91127
G0 F3000 X164.14 Y141.05
G1 F1140 X166.48 Y138.70 E695.99398
G0 F3000 X166.19 Y138.43
G1 F1140 X163.84 Y140.78 E696.07685
G0 F3000 X163.53 Y140.52
G1 F1140 X165.88 Y138.17 E696.15968
G0 F3000 X165.57 Y137.92
G1 F1140 X163.22 Y140.27 E696.24251
G0 F3000 X162.91 Y140.01
G1 F1140 X165.26 Y137.66 E696.32534
G0 F3000 X164.95 Y137.41
G1 F1140 X162.60 Y139.76 E696.40812
G0 F3000 X162.29 Y139.50
G1 F1140 X164.64 Y137.16 E696.49085
G0 F3000 X164.33 Y136.90
G1 F1140 X161.98 Y139.25 E696.57357
G0 F3000 X161.67 Y138.99
G1 F1140 X164.02 Y136.65 E696.65630
G0 F3000 X163.71 Y136.39
G1 F1140 X161.32 Y138.78 E696.74046
G0 F3000 X160.95 Y138.58
G1 F1140 X163.39 Y136.14 E696.82653
G0 F3000 X163.02 Y135.94
G1 F1140 X160.58 Y138.38 E696.91261
G0 F3000 X160.21 Y138.18
G1 F1140 X162.65 Y135.75 E696.99865
G0 F3000 X162.28 Y135.55
G1 F1140 X159.84 Y137.99 E697.08473
G0 F3000 X159.48 Y137.79
G1 F1140 X161.92 Y135.35 E697.17083
G0 F3000 X161.55 Y135.15
G1 F1140 X159.11 Y137.59 E697.25690
G0 F3000 X158.74 Y137.40
G1 F1140 X161.18 Y134.96 E697.34307
G0 F3000 X160.81 Y134.76
G1 F1140 X158.30 Y137.27 E697.43156
G0 F3000 X157.87 Y137.13
G1 F1140 X160.44 Y134.56 E697.52237
G0 F3000 X160.07 Y134.37
G1 F1140 X157.44 Y137.00 E697.61547
G0 F3000 X157.00 Y136.87
G1 F1140 X159.65 Y134.22 E697.70890
G0 F3000 X159.22 Y134.09
G1 F1140 X156.57 Y136.74 E697.80235
G0 F3000 X156.13 Y136.61
G1 F1140 X158.78 Y133.96 E697.89580
G0 F3000 X158.35 Y133.83
G1 F1140 X155.70 Y136.47 E697.98916
G0 F3000 X155.19 Y136.42
G1 F1140 X157.91 Y133.70 E698.08537
G0 F3000 X157.48 Y133.57
G1 F1140 X154.67 Y136.37 E698.18442
G0 F3000 X154.16 Y136.32
G1 F1140 X157.04 Y133.43 E698.28638
G0 F3000 X156.61 Y133.30
G1 F1140 X153.64 Y136.27 E698.39117
G0 F3000 X153.12 Y136.22
G1 F1140 X156.15 Y133.20 E698.49774
G0 F3000 X155.63 Y133.15
G1 F1140 X152.61 Y136.17 E698.60437
G0 F3000 X152.01 Y136.21
G1 F1140 X155.12 Y133.10 E698.71408
G0 F3000 X154.60 Y133.05
G1 F1140 X151.38 Y136.27 E698.82775
G0 F3000 X150.75 Y136.33
G1 F1140 X154.09 Y133.00 E698.94536
G0 F3000 X153.57 Y132.95
G1 F1140 X150.13 Y136.39 E699.06690
G0 F3000 X149.50 Y136.45
G1 F1140 X153.06 Y132.90 E699.19238
G0 F3000 X152.54 Y132.84
G1 F1140 X148.74 Y136.64 E699.32638
G0 F3000 X147.93 Y136.89
G1 F1140 X151.92 Y132.90 E699.46721
G0 F3000 X151.30 Y132.96
G1 F1140 X147.12 Y137.14 E699.61453
G0 F3000 X146.31 Y137.38
G1 F1140 X150.67 Y133.02 E699.76838
G0 F3000 X150.04 Y133.08
G1 F1140 X145.12 Y138.01 E699.94217
G0 F3000 X143.90 Y138.66
G1 F1140 X149.41 Y133.15 E700.13655
G0 F3000 X148.01 Y133.42
G1 F1140 X133.42 Y148.01 E700.65145
G0 F3000 X133.66 Y147.20
G1 F1140 X147.20 Y133.66 E701.12898
G0 F3000 X146.39 Y133.91
G1 F1140 X133.91 Y146.39 E701.56920
G0 F3000 X134.16 Y145.57
G1 F1140 X145.57 Y134.16 E701.97203
G0 F3000 X144.66 Y134.51
G1 F1140 X134.51 Y144.66 E702.33003
G0 F3000 X135.16 Y143.44
G1 F1140 X143.44 Y135.16 E702.62213
G0 F3000 X142.22 Y135.81
G1 F1140 X135.81 Y142.22 E702.84831
G0 F3000 X135.95 Y142.30
G0 X137.50 Y140.20
G0 X137.37 Y140.10
G1 F1140 X140.10 Y137.37 E702.94443
G0 F3000 X140.64 Y138.04
;LAYER:2
G0 X141.67 Y136.29 Z1.30
G0 X141.50 Y136.04
;TYPE:WALL-OUTER
G1 F1800 X144.92 Y134.21 E703.04114
G1 X148.64 Y133.08 E703.13791
G1 X152.50 Y132.70 E703.23476
G1 X156.36 Y133.08 E703.33162
G1 X160.08 Y134.21 E703.42839
G1 X163.50 Y136.04 E703.52510
G1 X166.50 Y138.50 E703.62202
G1 X168.96 Y141.50 E703.71895
G1 X170.79 Y144.92 E703.81566
G1 X171.92 Y148.64 E703.91243
G1 X172.30 Y152.50 E704.00923
G1 X171.92 Y156.36 E704.10614
G1 X170.79 Y160.08 E704.20291
G1 X168.96 Y163.50 E704.29962
G1 X166.50 Y166.50 E704.39654
G1 X163.50 Y168.96 E704.49346
G1 X160.08 Y170.79 E704.59018
G1 X156.36 Y171.92 E704.68695
G1 X152.50 Y172.30 E704.78380
G1 X148.64 Y171.92 E704.88066
G1 X144.92 Y170.79 E704.97743
G1 X141.50 Y168.96 E705.07414
G1 X138.50 Y166.50 E705.17106
G1 X136.04 Y163.50 E705.26798
G1 X134.21 Y160.08 E705.36470
G1 X133.08 Y156.36 E705.46147
G1 X132.70 Y152.50 E705.55837
G1 X133.08 Y148.64 E705.65518
G1 X134.21 Y144.92 E705.75195
G1 X136.04 Y141.50 E705.84866
G1 X138.50 Y138.50 E705.94558
G1 X141.50 Y136.04 E706.04250
G0 F3000 X141.67 Y136.29
G0 X143.31 Y138.80
G0 X143.50 Y139.03
G1 F1800 X141.08 Y141.01 E706.12049
G1 X140.72 Y141.44 E706.13432
G1 X139.03 Y143.50 E706.20087
G1 X137.53 Y146.30 E706.28014
G1 X136.63 Y149.27 E706.35763
G1 X136.61 Y149.34 E706.35931
G1 X136.31 Y152.43 E706.43691
G1 X136.30 Y152.50 E706.43851
G1 X136.60 Y155.60 E706.51616
G1 X136.61 Y155.66 E706.51779
G1 X137.51 Y158.64 E706.59536
G1 X137.53 Y158.70 E706.59701
G1 X139.03 Y161.50 E706.67625
G1 X141.01 Y163.92 E706.75424
G1 X141.44 Y164.28 E706.76806
G1 X143.50 Y165.97 E706.83462
G1 X146.30 Y167.47 E706.91389
G1 X149.27 Y168.37 E706.99137
G1 X149.34 Y168.39 E706.99306
G1 X152.50 Y168.70 E707.07231
G1 X155.60 Y168.40 E707.14991
G1 X155.66 Y168.39 E707.15154
G1 X158.64 Y167.49 E707.22911
G1 X158.70 Y167.47 E707.23076
G1 X161.50 Y165.97 E707.31000
G1 X163.92 Y163.99 E707.38799
G1 X164.28 Y163.56 E707.40181
G1 X165.97 Y161.50 E707.46837
G1 X167.47 Y158.70 E707.54764
G1 X168.37 Y155.73 E707.62512
G1 X168.39 Y155.66 E707.62680
G1 X168.69 Y152.57 E707.70440
G1 X168.70 Y152.50 E707.70601
G1 X168.40 Y149.40 E707.78366
G1 X168.39 Y149.34 E707.78529
G1 X167.49 Y146.36 E707.86286
G1 X167.47 Y146.30 E707.86451
G1 X165.97 Y143.50 E707.94374
G1 X163.99 Y141.08 E708.02173
G1 X163.56 Y140.72 E708.03556
G1 X161.50 Y139.03 E708.10211
G1 X158.70 Y137.53 E708.18138
G1 X155.73 Y136.63 E708.25887
G1 X155.66 Y136.61 E708.26055
G1 X152.57 Y136.31 E708.33815
G1 X152.50 Y136.30 E708.33975
G1 X149.40 Y136.60 E708.41740
G1 X149.34 Y136.61 E708.41903
G1 X146.36 Y137.51 E708.49661
G1 X146.30 Y137.53 E708.49825
G1 X143.50 Y139.03 E708.57749
G0 F3000 X143.27 Y139.03
;TYPE:FILL
G1 F1800 X140.93 Y136.69 E708.66016
G0 F3000 X141.24 Y136.43
G1 F1800 X143.62 Y138.81 E708.74391
G0 F3000 X143.99 Y138.61
G1 F1800 X141.55 Y136.18 E708.82971
G0 F3000 X141.92 Y135.98
G1 F1800 X144.35 Y138.41 E708.91570
G0 F3000 X144.72 Y138.22
G1 F1800 X142.28 Y135.78 E709.00170
G0 F3000 X142.65 Y135.58
G1 F1800 X145.09 Y138.02 E709.08771
G0 F3000 X145.46 Y137.82
G1 F1800 X143.02 Y135.38 E709.17372
G0 F3000 X143.39 Y135.19
G1 F1800 X145.83 Y137.62 E709.25974
G0 F3000 X146.20 Y137.43
G1 F1800 X143.76 Y134.99 E709.34575
G0 F3000 X144.13 Y134.79
G1 F1800 X146.62 Y137.29 E709.43380
G0 F3000 X147.06 Y137.16
G1 F1800 X144.50 Y134.59 E709.52415
G0 F3000 X144.86 Y134.40
G1 F1800 X147.49 Y137.02 E709.61675
G0 F3000 X147.92 Y136.89
G1 F1800 X145.28 Y134.25 E709.71010
G0 F3000 X145.71 Y134.12
G1 F1800 X148.36 Y136.76 E709.80344
G0 F3000 X148.79 Y136.63
G1 F1800 X146.15 Y133.98 E709.89679
G0 F3000 X146.58 Y133.85
G1 F1800 X149.22 Y136.50 E709.99013
G0 F3000 X149.72 Y136.43
G1 F1800 X147.01 Y133.72 E710.08581
G0 F3000 X147.45 Y133.59
G1 F1800 X150.24 Y136.38 E710.18435
G0 F3000 X150.76 Y136.33
G1 F1800 X147.88 Y133.46 E710.28578
G0 F3000 X148.31 Y133.32
G1 F1800 X151.27 Y136.28 E710.39009
G0 F3000 X151.79 Y136.23
G1 F1800 X148.77 Y133.21 E710.49665
G0 F3000 X149.28 Y133.16
G1 F1800 X152.30 Y136.18 E710.60326
G0 F3000 X152.89 Y136.20
G1 F1800 X149.80 Y133.11 E710.71227
G0 F3000 X150.31 Y133.06
G1 F1800 X153.51 Y136.26 E710.82521
G0 F3000 X154.14 Y136.32
G1 F1800 X150.82 Y133.01 E710.94214
G0 F3000 X151.34 Y132.96
G1 F1800 X154.77 Y136.38 E711.06300
G0 F3000 X155.39 Y136.44
G1 F1800 X151.86 Y132.91 E711.18783
G0 F3000 X152.37 Y132.85
G1 F1800 X156.12 Y136.60 E711.32017
G0 F3000 X156.93 Y136.85
G1 F1800 X152.97 Y132.89 E711.45998
G0 F3000 X153.60 Y132.95
G1 F1800 X157.74 Y137.10 E711.60624
G0 F3000 X158.56 Y137.34
G1 F1800 X154.22 Y133.01 E711.75899
G0 F3000 X154.85 Y133.07
G1 F1800 X159.67 Y137.90 E711.92908
G0 F3000 X160.89 Y138.54
G1 F1800 X155.48 Y133.14 E712.11992
G0 F3000 X156.11 Y133.20
G1 F1800 X162.98 Y140.07 E712.36247
G0 F3000 X163.09 Y139.95
G0 X164.27 Y140.80
G0 X165.09 Y141.96
G0 X164.97 Y142.06
G1 F1800 X171.80 Y148.89 E712.60345
G0 F3000 X171.86 Y149.52
G1 F1800 X166.45 Y144.11 E712.79436
G0 F3000 X167.10 Y145.32
G1 F1800 X171.93 Y150.15 E712.96452
G0 F3000 X171.99 Y150.77
G1 F1800 X167.66 Y146.44 E713.11738
G0 F3000 X167.90 Y147.25
G1 F1800 X172.05 Y151.40 E713.26369
G0 F3000 X172.11 Y152.03
G1 F1800 X168.15 Y148.07 E713.40346
G0 F3000 X168.40 Y148.88
G1 F1800 X172.14 Y152.63 E713.53570
G0 F3000 X172.09 Y153.14
G1 F1800 X168.55 Y149.60 E713.66058
G0 F3000 X168.62 Y150.23
G1 F1800 X172.04 Y153.66 E713.78150
G0 F3000 X171.99 Y154.17
G1 F1800 X168.68 Y150.86 E713.89848
G0 F3000 X168.74 Y151.49
G1 F1800 X171.94 Y154.69 E714.01147
G0 F3000 X171.89 Y155.20
G1 F1800 X168.80 Y152.11 E714.12053
G0 F3000 X168.82 Y152.70
G1 F1800 X171.84 Y155.72 E714.22714
G0 F3000 X171.79 Y156.23
G1 F1800 X168.77 Y153.21 E714.33374
G0 F3000 X168.72 Y153.73
G1 F1800 X171.67 Y156.68 E714.43803
G0 F3000 X171.54 Y157.12
G1 F1800 X168.67 Y154.24 E714.53949
G0 F3000 X168.62 Y154.76
G1 F1800 X171.41 Y157.55 E714.63806
G0 F3000 X171.28 Y157.99
G1 F1800 X168.57 Y155.27 E714.73375
G0 F3000 X168.50 Y155.77
G1 F1800 X171.15 Y158.42 E714.82716
G0 F3000 X171.02 Y158.85
G1 F1800 X168.37 Y156.21 E714.92058
G0 F3000 X168.24 Y156.64
G1 F1800 X170.88 Y159.29 E715.01398
G0 F3000 X170.75 Y159.72
G1 F1800 X168.10 Y157.07 E715.10736
G0 F3000 X167.97 Y157.51
G1 F1800 X170.60 Y160.13 E715.20003
G0 F3000 X170.40 Y160.50
G1 F1800 X167.84 Y157.94 E715.29038
G0 F3000 X167.71 Y158.38
G1 F1800 X170.21 Y160.87 E715.37841
G0 F3000 X170.01 Y161.24
G1 F1800 X167.57 Y158.80 E715.46446
G0 F3000 X167.37 Y159.17
G1 F1800 X169.81 Y161.61 E715.55048
G0 F3000 X169.62 Y161.98
G1 F1800 X167.18 Y159.54 E715.63654
G0 F3000 X166.98 Y159.91
G1 F1800 X169.42 Y162.35 E715.72260
G0 F3000 X169.22 Y162.72
G1 F1800 X166.78 Y160.28 E715.80863
G0 F3000 X166.59 Y160.65
G1 F1800 X169.02 Y163.08 E715.89465
G0 F3000 X168.82 Y163.45
G1 F1800 X166.39 Y161.01 E715.98052
G0 F3000 X166.19 Y161.38
G1 F1800 X168.57 Y163.76 E716.06434
G0 F3000 X168.31 Y164.07
G1 F1800 X165.97 Y161.72 E716.14706
G0 F3000 X165.71 Y162.03
G1 F1800 X168.06 Y164.38 E716.22982
G0 F3000 X167.80 Y164.69
G1 F1800 X165.45 Y162.34 E716.31264
G0 F3000 X165.20 Y162.65
G1 F1800 X167.55 Y165.00 E716.39547
G0 F3000 X167.29 Y165.31
G1 F1800 X164.94 Y162.96 E716.47834
G0 F3000 X164.69 Y163.27
G1 F1800 X167.04 Y165.62 E716.56124
G0 F3000 X166.78 Y165.93
G1 F1800 X164.43 Y163.58 E716.64418
G0 F3000 X164.18 Y163.89
G1 F1800 X166.53 Y166.25 E716.72715
G0 F3000 X166.25 Y166.53
G1 F1800 X163.90 Y164.18 E716.80986
G0 F3000 X163.59 Y164.44
G1 F1800 X165.93 Y166.78 E716.89255
G0 F3000 X165.62 Y167.04
G1 F1800 X163.28 Y164.69 E716.97526
G0 F3000 X162.97 Y164.95
G1 F1800 X165.31 Y167.29 E717.05791
G0 F3000 X165.00 Y167.55
G1 F1800 X162.66 Y165.20 E717.14061
G0 F3000 X162.35 Y165.46
G1 F1800 X164.69 Y167.80 E717.22330
G0 F3000 X164.38 Y168.06
G1 F1800 X162.03 Y165.71 E717.30595
G0 F3000 X161.72 Y165.97
G1 F1800 X164.07 Y168.31 E717.38861
G0 F3000 X163.76 Y168.56
G1 F1800 X161.38 Y166.19 E717.47239
G0 F3000 X161.01 Y166.39
G1 F1800 X163.45 Y168.82 E717.55822
G0 F3000 X163.08 Y169.02
G1 F1800 X160.65 Y166.59 E717.64423
G0 F3000 X160.28 Y166.78
G1 F1800 X162.72 Y169.22 E717.73027
G0 F3000 X162.35 Y169.42
G1 F1800 X159.91 Y166.98 E717.81630
G0 F3000 X159.54 Y167.18
G1 F1800 X161.98 Y169.62 E717.90234
G0 F3000 X161.61 Y169.81
G1 F1800 X159.17 Y167.37 E717.98835
G0 F3000 X158.80 Y167.57
G1 F1800 X161.24 Y170.01 E718.07435
G0 F3000 X160.87 Y170.21
G1 F1800 X158.38 Y167.71 E718.16239
G0 F3000 X157.94 Y167.84
G1 F1800 X160.50 Y170.40 E718.25275
G0 F3000 X160.13 Y170.60
G1 F1800 X157.51 Y167.97 E718.34537
G0 F3000 X157.07 Y168.11
G1 F1800 X159.72 Y170.75 E718.43872
G0 F3000 X159.29 Y170.88
G1 F1800 X156.64 Y168.24 E718.53206
G0 F3000 X156.21 Y168.37
G1 F1800 X158.85 Y171.01 E718.62541
G0 F3000 X158.42 Y171.15
G1 F1800 X155.77 Y168.50 E718.71875
G0 F3000 X155.27 Y168.57
G1 F1800 X157.99 Y171.28 E718.81441
G0 F3000 X157.55 Y171.41
G1 F1800 X154.76 Y168.62 E718.91296
G0 F3000 X154.24 Y168.67
G1 F1800 X157.12 Y171.54 E719.01438
G0 F3000 X156.68 Y171.67
G1 F1800 X153.73 Y168.72 E719.11866
G0 F3000 X153.21 Y168.77
G1 F1800 X156.23 Y171.79 E719.22524
G0 F3000 X155.72 Y171.84
G1 F1800 X152.70 Y168.82 E719.33184
G0 F3000 X152.11 Y168.80
G1 F1800 X155.20 Y171.89 E719.44085
G0 F3000 X154.69 Y171.94
G1 F1800 X151.49 Y168.74 E719.55383
G0 F3000 X150.86 Y168.68
G1 F1800 X154.17 Y171.99 E719.67074
G0 F3000 X153.66 Y172.04
G1 F1800 X150.23 Y168.62 E719.79160
G0 F3000 X149.60 Y168.56
G1 F1800 X153.14 Y172.09 E719.91643
G0 F3000 X152.63 Y172.14
G1 F1800 X148.88 Y168.39 E720.04876
G0 F3000 X148.07 Y168.15
G1 F1800 X152.03 Y172.11 E720.18853
G0 F3000 X151.40 Y172.05
G1 F1800 X147.25 Y167.90 E720.33477
G0 F3000 X146.44 Y167.66
G1 F1800 X150.77 Y171.99 E720.48749
G0 F3000 X150.15 Y171.93
G1 F1800 X145.32 Y167.10 E720.65756
G0 F3000 X144.11 Y166.45
G1 F1800 X149.52 Y171.86 E720.84842
G0 F3000 X148.89 Y171.80
G1 F1800 X142.02 Y164.93 E721.09097
G0 F3000 X141.91 Y165.05
G0 X140.73 Y164.20
G0 X139.90 Y163.04
G0 X140.03 Y162.94
G1 F1800 X133.20 Y156.11 E721.33197
G0 F3000 X133.13 Y155.48
G1 F1800 X138.55 Y160.89 E721.52284
G0 F3000 X137.90 Y159.68
G1 F1800 X133.07 Y154.85 E721.69302
G0 F3000 X133.01 Y154.22
G1 F1800 X137.34 Y158.56 E721.84587
G0 F3000 X137.10 Y157.74
G1 F1800 X132.95 Y153.60 E721.99217
G0 F3000 X132.89 Y152.97
G1 F1800 X136.85 Y156.93 E722.13201
G0 F3000 X136.60 Y156.12
G1 F1800 X132.85 Y152.37 E722.26430
G0 F3000 X132.90 Y151.85
G1 F1800 X136.44 Y155.40 E722.38920
G0 F3000 X136.38 Y154.77
G1 F1800 X132.96 Y151.34 E722.51015
G0 F3000 X133.01 Y150.82
G1 F1800 X136.32 Y154.14 E722.62717
G0 F3000 X136.26 Y153.51
G1 F1800 X133.06 Y150.31 E722.74024
G0 F3000 X133.11 Y149.79
G1 F1800 X136.20 Y152.89 E722.84935
G0 F3000 X136.18 Y152.30
G1 F1800 X133.16 Y149.28 E722.95596
G0 F3000 X133.21 Y148.76
G1 F1800 X136.23 Y151.79 E723.06257
G0 F3000 X136.28 Y151.27
G1 F1800 X133.32 Y148.31 E723.16690
G0 F3000 X133.46 Y147.88
G1 F1800 X136.33 Y150.76 E723.26836
G0 F3000 X136.38 Y150.24
G1 F1800 X133.59 Y147.45 E723.36694
G0 F3000 X133.72 Y147.01
G1 F1800 X136.43 Y149.73 E723.46265
G0 F3000 X136.50 Y149.23
G1 F1800 X133.85 Y146.58 E723.55608
G0 F3000 X133.98 Y146.14
G1 F1800 X136.63 Y148.79 E723.64950
G0 F3000 X136.76 Y148.36
G1 F1800 X134.11 Y145.71 E723.74290
G0 F3000 X134.25 Y145.28
G1 F1800 X136.89 Y147.92 E723.83628
G0 F3000 X137.03 Y147.49
G1 F1800 X134.40 Y144.86 E723.92895
G0 F3000 X134.59 Y144.49
G1 F1800 X137.16 Y147.06 E724.01933
G0 F3000 X137.29 Y146.62
G1 F1800 X134.79 Y144.13 E724.10739
G0 F3000 X134.99 Y143.76
G1 F1800 X137.43 Y146.20 E724.19346
G0 F3000 X137.62 Y145.83
G1 F1800 X135.19 Y143.39 E724.27951
G0 F3000 X135.38 Y143.02
G1 F1800 X137.82 Y145.46 E724.36553
G0 F3000 X138.02 Y145.09
G1 F1800 X135.58 Y142.65 E724.45157
G0 F3000 X135.78 Y142.28
G1 F1800 X138.22 Y144.72 E724.53760
G0 F3000 X138.41 Y144.35
G1 F1800 X135.97 Y141.91 E724.62362
G0 F3000 X136.18 Y141.55
G1 F1800 X138.61 Y143.99 E724.70945
G0 F3000 X138.81 Y143.62
G1 F1800 X136.43 Y141.24 E724.79324
G0 F3000 X136.69 Y140.93
G1 F1800 X139.03 Y143.28 E724.87596
G0 F3000 X139.29 Y142.97
G1 F1800 X136.94 Y140.62 E724.95869
G0 F3000 X137.20 Y140.31
G1 F1800 X139.54 Y142.66 E725.04147
G0 F3000 X139.80 Y142.34
G1 F1800 X137.45 Y140.00 E725.12428
G0 F3000 X137.71 Y139.69
G1 F1800 X140.06 Y142.03 E725.20715
G0 F3000 X140.31 Y141.73
G1 F1800 X137.96 Y139.38 E725.29007
G0 F3000 X138.22 Y139.06
G1 F1800 X140.57 Y141.41 E725.37301
G0 F3000 X140.82 Y141.10
G1 F1800 X138.47 Y138.75 E725.45600
G0 F3000 X138.75 Y138.47
G1 F1800 X141.10 Y140.81 E725.53869
G0 F3000 X141.41 Y140.56
G1 F1800 X139.06 Y138.22 E725.62138
G0 F3000 X139.38 Y137.96
G1 F1800 X141.72 Y140.31 E725.70407
G0 F3000 X142.03 Y140.05
G1 F1800 X139.69 Y137.71 E725.78673
G0 F3000 X140.00 Y137.45
G1 F1800 X142.34 Y139.80 E725.86940
G0 F3000 X142.65 Y139.54
G1 F1800 X140.31 Y137.20 E725.95208
G0 F3000 X140.62 Y136.94
G1 F1800 X142.96 Y139.29 E726.03473
G0 F3000 X142.86 Y139.16
G0 X146.24 Y137.13
G0 X149.36 Y136.21
G0 X156.80 Y133.53
G0 X156.85 Y133.38
G1 F1800 X171.62 Y148.15 E726.55585
G0 F3000 X171.38 Y147.34
G1 F1800 X157.66 Y133.62 E727.03963
G0 F3000 X158.48 Y133.87
G1 F1800 X171.13 Y146.52 E727.48607
G0 F3000 X170.88 Y145.71
G1 F1800 X159.29 Y134.11 E727.89522
G0 F3000 X160.14 Y134.40
G1 F1800 X170.60 Y144.86 E728.26430
G0 F3000 X169.95 Y143.64
G1 F1800 X161.35 Y135.05 E728.56744
G0 F3000 X162.57 Y135.70
G1 F1800 X169.30 Y142.43 E728.80463
G0 F3000 X169.15 Y142.50
G0 X167.93 Y140.72
G0 X168.05 Y140.62
G1 F1800 X164.38 Y136.95 E728.93413
G0 F3000 X164.28 Y137.07
G0 X152.50 Y135.90
G0 X149.26 Y136.22
G0 X146.15 Y137.16
G0 X143.28 Y138.70
G0 X140.42 Y141.18
G0 X138.70 Y143.28
G0 X137.16 Y146.15
G0 X136.22 Y149.26
G0 X135.90 Y152.49
G0 X133.53 Y156.80
G0 X133.38 Y156.85
G1 F1800 X148.15 Y171.62 E729.45526
G0 F3000 X147.34 Y171.38
G1 F1800 X133.62 Y157.66 E729.93906
G0 F3000 X133.87 Y158.47
G1 F1800 X146.52 Y171.13 E730.38549
G0 F3000 X145.71 Y170.88
G1 F1800 X134.11 Y159.29 E730.79461
G0 F3000 X134.40 Y160.14
G1 F1800 X144.86 Y170.60 E731.16367
G0 F3000 X143.64 Y169.95
G1 F1800 X135.05 Y161.35 E731.46683
G0 F3000 X135.70 Y162.57
G1 F1800 X142.43 Y169.30 E731.70403
G0 F3000 X142.50 Y169.16
G0 X140.72 Y167.93
G0 X140.62 Y168.05
G1 F1800 X136.95 Y164.38 E731.83352
G0 F3000 X137.61 Y163.84
G1 F2400 E730.63352
G0 F3000 X142.48 Y145.89
;TYPE:WALL-OUTER
G1 F2400 E731.83352
G1 F1800 X141.87 Y145.56 E731.85068
G1 X141.71 Y145.37 E731.85689
G1 X141.62 Y145.12 E731.86354
G1 X141.62 Y144.22 E731.88584
G1 X141.71 Y143.97 E731.89254
G1 X141.87 Y143.78 E731.89878
G1 X142.47 Y143.45 E731.91579
G1 X142.83 Y143.36 E731.92510
G1 X143.19 Y143.45 E731.93435
G1 X143.80 Y143.78 E731.95149
G1 X143.96 Y143.97 E731.95767
G1 X144.05 Y144.22 E731.96436
G1 X144.05 Y145.11 E731.98661
G1 X143.96 Y145.37 E731.99335
G1 X143.80 Y145.56 E731.99956
G1 X143.20 Y145.89 E732.01658
G1 X142.84 Y145.98 E732.02590
G1 X142.48 Y145.89 E732.03510
G0 F3000 X142.68 Y145.79
;TYPE:FILL
G1 F1800 X141.76 Y144.87 E732.06749
G0 F3000 X141.76 Y144.31
G1 F1800 X143.19 Y145.73 E732.11774
G0 F3000 X143.55 Y145.53
G1 F1800 X141.94 Y143.92 E732.17464
G0 F3000 X142.29 Y143.71
G1 F1800 X143.84 Y145.26 E732.22943
G0 F3000 X143.91 Y144.76
G1 F1800 X142.69 Y143.54 E732.27240
G0 F3000 X143.49 Y143.77
G1 F1800 X143.87 Y144.16 E732.28612
G0 F3000 X143.03 Y144.50
G1 F2400 E731.08612
G0 F3000 X146.16 Y146.16
;TYPE:WALL-OUTER
G1 F2400 E732.28612
G1 F1800 X147.52 Y145.04 E732.33006
G1 X149.07 Y144.22 E732.37379
G1 X150.75 Y143.71 E732.41762
G1 X152.50 Y143.54 E732.46149
G1 X154.25 Y143.71 E732.50535
G1 X155.93 Y144.22 E732.54919
G1 X157.48 Y145.04 E732.59291
G1 X158.84 Y146.16 E732.63685
G1 X159.96 Y147.52 E732.68079
G1 X160.78 Y149.07 E732.72452
G1 X161.29 Y150.75 E732.76835
G1 X161.46 Y152.50 E732.81222
G1 X161.29 Y154.25 E732.85608
G1 X160.78 Y155.93 E732.89991
G1 X159.96 Y157.48 E732.94364
G1 X158.84 Y158.84 E732.98758
G1 X157.66 Y159.80 E733.02549
G1 X157.47 Y159.96 E733.03177
G1 X155.93 Y160.78 E733.07524
G1 X154.25 Y161.29 E733.11905
G1 X152.50 Y161.47 E733.16295
G1 X150.75 Y161.29 E733.20684
G1 X149.07 Y160.78 E733.25065
G1 X147.52 Y159.96 E733.29438
G1 X146.16 Y158.84 E733.33832
G1 X145.04 Y157.48 E733.38226
G1 X144.22 Y155.93 E733.42598
G1 X143.71 Y154.25 E733.46982
G1 X143.54 Y152.50 E733.51368
G1 X143.71 Y150.75 E733.55754
G1 X144.22 Y149.07 E733.60138
G1 X145.04 Y147.52 E733.64510
G1 X146.16 Y146.16 E733.68904
G0 F3000 X146.37 Y146.37
G0 X149.32 Y149.08
G0 X149.57 Y149.25
G1 F1800 X148.34 Y151.15 E733.74559
G1 X148.23 Y153.27 E733.79860
G1 X148.22 Y153.41 E733.80205
G1 X149.25 Y155.43 E733.85860
G1 X151.15 Y156.66 E733.91515
G1 X153.41 Y156.78 E733.97163
G1 X155.31 Y155.82 E734.02473
G1 X155.43 Y155.75 E734.02817
G1 X156.66 Y153.85 E734.08469
G1 X156.77 Y151.73 E734.13770
G1 X156.78 Y151.59 E734.14115
G1 X155.75 Y149.57 E734.19770
G1 X153.85 Y148.34 E734.25425
G1 X151.59 Y148.22 E734.31073
G1 X149.57 Y149.25 E734.36725
G0 F3000 X149.45 Y149.17
;TYPE:FILL
G1 F1800 X146.41 Y146.13 E734.47448
G0 F3000 X146.13 Y146.41
G1 F1800 X149.23 Y149.51 E734.58384
G0 F3000 X149.01 Y149.86
G1 F1800 X145.88 Y146.72 E734.69433
G0 F3000 X145.62 Y147.04
G1 F1800 X148.78 Y150.20 E734.80593
G0 F3000 X148.56 Y150.54
G1 F1800 X145.37 Y147.35 E734.91868
G0 F3000 X145.12 Y147.67
G1 F1800 X148.34 Y150.88 E735.03217
G0 F3000 X148.19 Y151.30
G1 F1800 X144.93 Y148.04 E735.14730
G0 F3000 X144.73 Y148.40
G1 F1800 X148.16 Y151.84 E735.26841
G0 F3000 X148.13 Y152.38
G1 F1800 X144.53 Y148.77 E735.39548
G0 F3000 X144.34 Y149.15
G1 F1800 X148.10 Y152.91 E735.52838
G0 F3000 X148.09 Y153.46
G1 F1800 X144.21 Y149.58 E735.66533
G0 F3000 X144.07 Y150.01
G1 F1800 X148.67 Y154.61 E735.82761
G0 F3000 X148.53 Y154.69
G0 X148.94 Y155.70
G0 X150.33 Y156.49
G0 X150.41 Y156.35
G1 F1800 X154.99 Y160.92 E735.98888
G0 F3000 X155.42 Y160.79
G1 F1800 X151.44 Y156.82 E736.12908
G0 F3000 X152.04 Y156.85
G1 F1800 X155.85 Y160.66 E736.26352
G0 F3000 X156.22 Y160.47
G1 F1800 X152.64 Y156.88 E736.39004
G0 F3000 X153.24 Y156.91
G1 F1800 X156.59 Y160.27 E736.50850
G0 F3000 X156.96 Y160.07
G1 F1800 X153.69 Y156.80 E736.62402
G0 F3000 X154.06 Y156.61
G1 F1800 X157.33 Y159.88 E736.73934
G0 F3000 X157.65 Y159.63
G1 F1800 X154.44 Y156.41 E736.85276
G0 F3000 X154.81 Y156.22
G1 F1800 X157.96 Y159.38 E736.96392
G0 F3000 X158.27 Y159.12
G1 F1800 X155.18 Y156.03 E737.07284
G0 F3000 X155.54 Y155.83
G1 F1800 X158.58 Y158.87 E737.18003
G0 F3000 X158.87 Y158.58
G1 F1800 X155.77 Y155.49 E737.28938
G0 F3000 X155.99 Y155.14
G1 F1800 X159.12 Y158.27 E737.39985
G0 F3000 X159.38 Y157.96
G1 F1800 X156.21 Y154.80 E737.51143
G0 F3000 X156.44 Y154.46
G1 F1800 X159.63 Y157.65 E737.62414
G0 F3000 X159.88 Y157.33
G1 F1800 X156.66 Y154.11 E737.73765
G0 F3000 X156.81 Y153.70
G1 F1800 X160.07 Y156.96 E737.85278
G0 F3000 X160.27 Y156.59
G1 F1800 X156.84 Y153.16 E737.97389
G0 F3000 X156.87 Y152.62
G1 F1800 X160.47 Y156.23 E738.10096
G0 F3000 X160.66 Y155.85
G1 F1800 X156.89 Y152.09 E738.23388
G0 F3000 X156.91 Y151.54
G1 F1800 X160.79 Y155.42 E738.37083
G0 F3000 X160.92 Y154.99
G1 F1800 X156.32 Y150.38 E738.53313
G0 F3000 X156.47 Y150.31
G0 X156.06 Y149.30
G0 X154.67 Y148.51
G0 X154.59 Y148.65
G1 F1800 X150.01 Y144.07 E738.69440
G0 F3000 X149.58 Y144.21
G1 F1800 X153.55 Y148.18 E738.83463
G0 F3000 X152.96 Y148.15
G1 F1800 X149.15 Y144.34 E738.96911
G0 F3000 X148.77 Y144.53
G1 F1800 X152.36 Y148.12 E739.09563
G0 F3000 X151.76 Y148.09
G1 F1800 X148.41 Y144.73 E739.21409
G0 F3000 X148.04 Y144.93
G1 F1800 X151.31 Y148.20 E739.32963
G0 F3000 X150.94 Y148.39
G1 F1800 X147.67 Y145.12 E739.44493
G0 F3000 X147.35 Y145.37
G1 F1800 X150.56 Y148.58 E739.55831
G0 F3000 X150.19 Y148.77
G1 F1800 X147.04 Y145.62 E739.66947
G0 F3000 X146.73 Y145.88
G1 F1800 X149.81 Y148.96 E739.77838
G0 F3000 X149.74 Y148.82
G0 X150.50 Y144.10
G0 X150.45 Y143.94
G1 F1800 X161.06 Y154.55 E740.15253
G0 F3000 X161.17 Y154.09
G1 F1800 X150.90 Y143.83 E740.51455
G0 F3000 X151.42 Y143.78
G1 F1800 X161.22 Y153.58 E740.86017
G0 F3000 X161.27 Y153.06
G1 F1800 X151.93 Y143.73 E741.18941
G0 F3000 X152.45 Y143.68
G1 F1800 X161.32 Y152.55 E741.50224
G0 F3000 X161.27 Y151.93
G1 F1800 X153.06 Y143.73 E741.79157
G0 F3000 X153.69 Y143.79
G1 F1800 X161.21 Y151.31 E742.05661
G0 F3000 X161.12 Y150.65
G1 F1800 X154.35 Y143.88 E742.29544
G0 F3000 X155.16 Y144.13
G1 F1800 X160.87 Y149.84 E742.49702
G0 F3000 X160.58 Y148.98
G1 F1800 X156.02 Y144.42 E742.65802
G0 F3000 X157.24 Y145.07
G1 F1800 X159.93 Y147.76 E742.75289
G0 F3000 X159.78 Y147.84
G0 X154.50 Y160.90
G0 X154.55 Y161.06
G1 F1800 X143.94 Y150.45 E743.12709
G0 F3000 X143.83 Y150.90
G1 F1800 X154.10 Y161.17 E743.48919
G0 F3000 X153.58 Y161.22
G1 F1800 X143.78 Y151.42 E743.83484
G0 F3000 X143.73 Y151.93
G1 F1800 X153.06 Y161.27 E744.16414
G0 F3000 X152.55 Y161.32
G1 F1800 X143.68 Y152.45 E744.47701
G0 F3000 X143.73 Y153.06
G1 F1800 X151.93 Y161.27 E744.76640
G0 F3000 X151.31 Y161.21
G1 F1800 X143.79 Y153.69 E745.03149
G0 F3000 X143.88 Y154.35
G1 F1800 X150.65 Y161.12 E745.27034
G0 F3000 X149.84 Y160.87
G1 F1800 X144.13 Y155.16 E745.47192
G0 F3000 X144.42 Y156.01
G1 F1800 X148.98 Y160.58 E745.63294
G0 F3000 X147.76 Y159.92
G1 F1800 X145.07 Y157.24 E745.72780
G0 F3000 X145.83 Y156.83
G1 F2400 E744.52780
G0 F3000 X149.95 Y141.44
;TYPE:WALL-OUTER
G1 F2400 E745.72780
G1 F1800 X149.59 Y141.33 E745.73710
G1 X149.33 Y141.07 E745.74634
G1 X148.98 Y140.48 E745.76339
G1 X148.94 Y140.23 E745.76965
G1 X149.00 Y139.97 E745.77629
G1 X149.46 Y139.20 E745.79868
G1 X149.67 Y139.03 E745.80533
G1 X149.90 Y138.95 E745.81152
G1 X150.59 Y138.98 E745.82862
G1 X150.94 Y139.09 E745.83791
G1 X151.20 Y139.35 E745.84716
G1 X151.55 Y139.94 E745.86421
G1 X151.59 Y140.19 E745.87047
G1 X151.53 Y140.45 E745.87711
G1 X151.07 Y141.22 E745.89950
G1 X150.87 Y141.39 E745.90615
G1 X150.63 Y141.47 E745.91233
G1 X149.95 Y141.44 E745.92943
G0 F3000 X150.07 Y141.31
;TYPE:FILL
G1 F1800 X149.10 Y140.33 E745.96383
G0 F3000 X149.22 Y139.88
G1 F1800 X150.65 Y141.31 E746.01438
G0 F3000 X150.99 Y141.09
G1 F1800 X149.43 Y139.53 E746.06943
G0 F3000 X149.67 Y139.21
G1 F1800 X151.20 Y140.73 E746.12327
G0 F3000 X151.41 Y140.38
G1 F1800 X150.13 Y139.10 E746.16818
G0 F3000 X150.78 Y139.19
G1 F1800 X151.17 Y139.57 E746.18176
G0 F3000 X150.43 Y140.01
G1 F2400 E744.98176
G0 F3000 X157.54 Y141.70
;TYPE:WALL-OUTER
G1 F2400 E746.18176
G1 F1800 X157.91 Y140.88 E746.20414
G1 X158.09 Y140.68 E746.21077
G1 X158.32 Y140.57 E746.21702
G1 X159.00 Y140.52 E746.23404
G1 X159.37 Y140.58 E746.24337
G1 X159.66 Y140.81 E746.25268
G1 X160.07 Y141.36 E746.26973
G1 X160.14 Y141.60 E746.27595
G1 X160.12 Y141.86 E746.28260
G1 X159.76 Y142.68 E746.30497
G1 X159.57 Y142.87 E746.31164
G1 X159.35 Y142.98 E746.31789
G1 X158.67 Y143.04 E746.33488
G1 X158.30 Y142.97 E746.34421
G1 X158.00 Y142.75 E746.35354
G1 X157.59 Y142.20 E746.37052
G1 X157.52 Y141.96 E746.37681
G1 X157.54 Y141.70 E746.38344
G0 F3000 X157.73 Y141.61
;TYPE:FILL
G1 F1800 X159.00 Y142.87 E746.42800
G0 F3000 X159.46 Y142.77
G1 F1800 X157.91 Y141.22 E746.48275
G0 F3000 X158.11 Y140.86
G1 F1800 X159.71 Y142.45 E746.53888
G0 F3000 X159.88 Y142.06
G1 F1800 X158.52 Y140.70 E746.58694
G0 F3000 X159.06 Y140.67
G1 F1800 X160.00 Y141.62 E746.62026
G0 F3000 X159.84 Y141.62
G0 X158.43 Y142.69
G0 X158.41 Y142.85
G1 F1800 X157.79 Y142.23 E746.64215
G0 F3000 X158.61 Y141.77
G1 F2400 E745.44215
G0 F3000 X163.36 Y147.24
;TYPE:WALL-OUTER
G1 F2400 E746.64215
G1 F1800 X163.65 Y147.00 E746.65147
G1 X164.01 Y146.93 E746.66067
G1 X164.70 Y146.98 E746.67779
G1 X164.92 Y147.08 E746.68394
G1 X165.11 Y147.27 E746.69070
G1 X165.49 Y148.08 E746.71296
G1 X165.52 Y148.35 E746.71970
G1 X165.45 Y148.59 E746.72586
G1 X165.05 Y149.14 E746.74294
G1 X164.76 Y149.38 E746.75227
G1 X164.40 Y149.45 E746.76144
G1 X163.71 Y149.40 E746.77864
G1 X163.49 Y149.30 E746.78479
G1 X163.29 Y149.11 E746.79153
G1 X162.92 Y148.30 E746.81379
G1 X162.89 Y148.03 E746.82053
G1 X162.96 Y147.79 E746.82673
G1 X163.36 Y147.24 E746.84378
G0 F3000 X163.46 Y147.34
;TYPE:FILL
G1 F1800 X165.04 Y148.92 E746.89955
G0 F3000 X164.75 Y149.20
G1 F1800 X163.22 Y147.66 E746.95365
G0 F3000 X163.03 Y148.04
G1 F1800 X164.29 Y149.30 E746.99803
G0 F3000 X163.64 Y149.22
G1 F1800 X163.37 Y148.95 E747.00748
G0 F3000 X163.52 Y148.88
G0 X163.83 Y147.28
G0 X163.80 Y147.12
G1 F1800 X165.28 Y148.59 E747.05952
G0 F3000 X165.34 Y148.09
G1 F1800 X164.35 Y147.09 E747.09442
G0 F3000 X164.29 Y147.95
G1 F2400 E745.89442
G0 F3000 X164.47 Y155.24
;TYPE:WALL-OUTER
G1 F2400 E747.09442
G1 F1800 X164.81 Y155.39 E747.10367
G1 X165.35 Y155.81 E747.12085
G1 X165.48 Y156.02 E747.12693
G1 X165.53 Y156.28 E747.13369
G1 X165.39 Y157.17 E747.15604
G1 X165.26 Y157.40 E747.16273
G1 X165.08 Y157.57 E747.16889
G1 X164.43 Y157.80 E747.18601
G1 X164.06 Y157.83 E747.19525
G1 X163.72 Y157.68 E747.20449
G1 X163.17 Y157.26 E747.22167
G1 X163.05 Y157.05 E747.22779
G1 X163.00 Y156.79 E747.23455
G1 X163.14 Y155.90 E747.25685
G1 X163.27 Y155.67 E747.26354
G1 X163.45 Y155.50 E747.26972
G1 X164.10 Y155.27 E747.28684
G1 X164.47 Y155.24 E747.29608
G0 F3000 X164.18 Y155.41
;TYPE:FILL
G1 F1800 X165.34 Y156.57 E747.33721
G0 F3000 X165.26 Y157.06
G1 F1800 X163.75 Y155.55 E747.39066
G0 F3000 X163.39 Y155.75
G1 F1800 X165.04 Y157.41 E747.44911
G0 F3000 X164.64 Y157.57
G1 F1800 X163.24 Y156.16 E747.49869
G0 F3000 X163.16 Y156.65
G1 F1800 X164.18 Y157.68 E747.53480
G0 F3000 X164.17 Y157.52
G0 X165.13 Y156.01
G0 X165.27 Y155.93
G1 F1800 X165.19 Y155.86 E747.53738
G0 F3000 X164.48 Y156.51
G1 F2400 E746.33738
G0 F3000 X159.69 Y162.15
;TYPE:WALL-OUTER
G1 F2400 E747.53738
G1 F1800 X159.92 Y162.44 E747.54663
G1 X160.19 Y163.07 E747.56376
G1 X160.20 Y163.31 E747.56992
G1 X160.11 Y163.57 E747.57665
G1 X159.56 Y164.28 E747.59894
G1 X159.34 Y164.42 E747.60564
G1 X159.09 Y164.47 E747.61187
G1 X158.42 Y164.36 E747.62885
G1 X158.08 Y164.21 E747.63823
G1 X157.85 Y163.92 E747.64747
G1 X157.58 Y163.29 E747.66457
G1 X157.57 Y163.04 E747.67071
G1 X157.65 Y162.78 E747.67744
G1 X158.20 Y162.08 E747.69980
G1 X158.43 Y161.94 E747.70649
G1 X158.67 Y161.88 E747.71264
G1 X159.35 Y161.99 E747.72970
G1 X159.69 Y162.15 E747.73900
G0 F3000 X158.96 Y162.07
;TYPE:FILL
G1 F1800 X160.05 Y163.16 E747.77756
G0 F3000 X159.92 Y163.59
G1 F1800 X158.43 Y162.10 E747.83016
G0 F3000 X158.14 Y162.38
