;-- START GCODE --
;Sliced for Type A Machines Series 1
;Sliced at: Sun 12-04-2015 17:03:14
;Basic settings: Layer height: 0.1 Walls: 0.4 Fill: 8
;Print Speed: 50 Support: 0
;Retraction Speed: 40 Retraction Distance: 1.2
;Print time: #P_TIME#
;Filament used: #F_AMNT#m #F_WGHT#g
;Filament cost: #F_COST#
M106 S255	 ;start with the fan on
G21        ;metric values
G90        ;absolute positioning
M106 S255    ;start with the fan on
G28     ;move to endstops
G29		;allows for auto-levelling
G1 X150 Y5  Z15.0 F12000 ;center and move the platform down 15mm
M109 S220 ;Heat To temp
G92 E0                  ;zero the extruded length
G1 F200 E30              ;extrude 30mm of feed stock
G92 E0                  ;zero the extruded length again
G1 X175 Y25  Z0 F12000 ;remove bugger
G1 X220 F12000 ;remove bugger
G1 X150 Y150  Z15 F12000 ;recenter and begin
G1 F12000

;Layer count: 83
;LAYER:-2
;RAFT
G0 F12000 X134.80 Y134.81 Z0.30
;TYPE:SUPPORT
G1 F2100 X138.58 Y131.71 E0.42639
G1 X142.92 Y129.38 E0.85653
G1 X147.62 Y127.96 E1.28501
G1 X151.91 Y127.53 E1.66155
G1 X152.42 Y127.47 E1.70654
G1 X157.36 Y127.95 E2.13949
G1 X162.07 Y129.38 E2.56976
G1 X166.38 Y131.68 E2.99574
G1 X170.17 Y134.79 E3.42398
G1 X172.95 Y138.17 E3.80646
G1 X173.30 Y138.58 E3.85320
G1 X175.60 Y142.90 E4.28075
G1 X177.04 Y147.62 E4.71102
G1 X177.52 Y152.50 E5.13959
G1 X177.04 Y157.38 E5.56790
G1 X175.71 Y161.78 E5.96890
G1 X175.51 Y162.28 E6.01585
G1 X173.31 Y166.40 E6.42403
G1 X170.21 Y170.18 E6.85017
G1 X166.42 Y173.29 E7.27831
G1 X162.08 Y175.62 E7.70872
G1 X157.38 Y177.04 E8.13718
G1 X152.50 Y177.52 E8.56549
G1 X147.62 Y177.04 E8.99380
G1 X143.22 Y175.71 E9.39481
G1 X142.72 Y175.51 E9.44176
G1 X138.60 Y173.31 E9.84993
G1 X134.82 Y170.21 E10.27608
G1 X131.69 Y166.40 E10.70651
G1 X129.40 Y162.10 E11.13257
G1 X127.96 Y157.38 E11.56284
G1 X127.48 Y152.50 E11.99141
G1 X127.95 Y147.64 E12.41742
G1 X129.38 Y142.93 E12.84769
G1 X131.68 Y138.62 E13.27379
G1 X134.80 Y134.81 E13.70420
G0 F12000 X134.50 Y135.01
G1 F2100 X134.50 Y169.98 E16.75753
G0 F12000 X135.50 Y170.90
G1 F2100 X135.50 Y134.10 E19.97063
G0 F12000 X136.50 Y133.28
G1 F2100 X136.50 Y171.72 E23.32692
G0 F12000 X137.50 Y172.54
G1 F2100 X137.50 Y132.46 E26.82631
G0 F12000 X138.50 Y131.64
G1 F2100 X138.50 Y173.36 E30.46879
G0 F12000 X139.50 Y173.91
G1 F2100 X139.50 Y131.10 E34.20626
G0 F12000 X140.50 Y130.56
G1 F2100 X140.50 Y174.44 E38.03716
G0 F12000 X141.50 Y174.97
G1 F2100 X141.50 Y130.03 E41.96156
G0 F12000 X142.50 Y129.49
G1 F2100 X142.50 Y175.51 E45.97938
G0 F12000 X143.50 Y175.90
G1 F2100 X143.50 Y129.10 E50.06565
G0 F12000 X144.50 Y128.79
G1 F2100 X144.50 Y176.21 E54.20500
G0 F12000 X145.50 Y176.51
G1 F2100 X145.50 Y128.49 E58.39735
G0 F12000 X146.50 Y128.19
G1 F2100 X146.50 Y176.81 E62.64269
G0 F12000 X147.50 Y177.12
G1 F2100 X147.50 Y127.88 E66.94103
G0 F12000 X148.50 Y127.77
G1 F2100 X148.50 Y177.23 E71.26007
G0 F12000 X149.50 Y177.33
G1 F2100 X149.50 Y127.67 E75.59639
G0 F12000 X150.50 Y127.57
G1 F2100 X150.50 Y177.43 E79.94991
G0 F12000 X151.50 Y177.53
G1 F2100 X151.50 Y127.47 E84.32071
G0 F12000 X152.50 Y127.37
G1 F2100 X152.50 Y177.63 E88.70880
G0 F12000 X153.50 Y177.53
G1 F2100 X153.50 Y127.47 E93.07970
G0 F12000 X154.50 Y127.57
G1 F2100 X154.50 Y177.43 E97.43330
G0 F12000 X155.50 Y177.33
G1 F2100 X155.50 Y127.67 E101.76971
G0 F12000 X156.50 Y127.77
G1 F2100 X156.50 Y177.24 E106.08883
G0 F12000 X157.50 Y177.12
G1 F2100 X157.50 Y127.89 E110.38673
G0 F12000 X158.50 Y128.19
G1 F2100 X158.50 Y176.81 E114.63182
G0 F12000 X159.50 Y176.51
G1 F2100 X159.50 Y128.49 E118.82390
G0 F12000 X160.50 Y128.80
G1 F2100 X160.50 Y176.21 E122.96317
G0 F12000 X161.50 Y175.90
G1 F2100 X161.50 Y129.10 E127.04944
G0 F12000 X162.50 Y129.49
G1 F2100 X162.50 Y175.51 E131.06726
G0 F12000 X163.50 Y174.97
G1 F2100 X163.50 Y130.03 E134.99166
G0 F12000 X164.50 Y130.56
G1 F2100 X164.50 Y174.44 E138.82255
G0 F12000 X165.50 Y173.90
G1 F2100 X165.50 Y131.09 E142.56011
G0 F12000 X166.50 Y131.65
G1 F2100 X166.50 Y173.36 E146.20216
G0 F12000 X167.50 Y172.54
G1 F2100 X167.50 Y132.46 E149.70111
G0 F12000 X168.50 Y133.28
G1 F2100 X168.50 Y171.72 E153.05696
G0 F12000 X169.50 Y170.90
G1 F2100 X169.50 Y134.10 E156.26963
G0 F12000 X170.50 Y135.02
G1 F2100 X170.50 Y169.99 E159.32305
G0 F12000 X171.50 Y168.77
G1 F2100 X171.50 Y136.23 E162.16378
G0 F12000 X172.50 Y137.45
G1 F2100 X172.50 Y167.55 E164.79192
G0 F12000 X173.50 Y166.26
G1 F2100 X173.50 Y138.74 E167.19481
G0 F12000 X174.50 Y140.61
G1 F2100 X174.50 Y164.39 E169.27090
G0 F12000 X175.50 Y162.52
G1 F2100 X175.50 Y142.48 E171.02012
G0 F12000 X176.50 Y145.48
G1 F2100 X176.50 Y159.53 E172.24679
G0 F12000 X177.50 Y153.81
G1 F2100 X177.50 Y151.19 E172.47641
G0 F12000 X133.50 Y136.23
G1 F2100 X133.50 Y168.76 E175.31671
G0 F12000 X132.50 Y167.55
G1 F2100 X132.50 Y137.46 E177.94398
G0 F12000 X131.50 Y138.74
G1 F2100 X131.50 Y166.26 E180.34687
G0 F12000 X130.50 Y164.39
G1 F2100 X130.50 Y140.61 E182.42287
G0 F12000 X129.50 Y142.48
G1 F2100 X129.50 Y162.52 E184.17209
G0 F12000 X128.50 Y159.52
G1 F2100 X128.50 Y145.48 E185.39815
G0 F12000 X127.50 Y151.18
G1 F2100 X127.50 Y153.81 E185.62812
M106 S255
;LAYER:-1
;RAFT
G0 F12000 X127.58 Y153.89 Z0.50
;TYPE:SUPPORT
G1 F3000 X151.11 Y177.41 E186.18148
G0 F12000 X150.48 Y177.35
G1 F3000 X127.64 Y154.51 E186.71865
G0 F12000 X127.71 Y155.14
G1 F3000 X149.86 Y177.29 E187.23958
G0 F12000 X149.23 Y177.23
G1 F3000 X127.77 Y155.77 E187.74432
G0 F12000 X127.83 Y156.40
G1 F3000 X148.60 Y177.17 E188.23285
G0 F12000 X147.97 Y177.11
G1 F3000 X127.89 Y157.02 E188.70516
G0 F12000 X128.03 Y157.73
G1 F3000 X147.27 Y176.97 E189.15759
G0 F12000 X146.46 Y176.72
G1 F3000 X128.28 Y158.54 E189.58508
G0 F12000 X128.53 Y159.36
G1 F3000 X145.64 Y176.47 E189.98762
G0 F12000 X144.83 Y176.23
G1 F3000 X128.78 Y160.17 E190.36524
G0 F12000 X129.02 Y160.98
G1 F3000 X144.02 Y175.98 E190.71793
G0 F12000 X143.21 Y175.73
G1 F3000 X129.27 Y161.80 E191.04566
G0 F12000 X129.77 Y162.86
G1 F3000 X142.14 Y175.23 E191.33658
G0 F12000 X140.92 Y174.58
G1 F3000 X130.42 Y164.08 E191.58363
G0 F12000 X131.07 Y165.29
G1 F3000 X139.71 Y173.93 E191.78683
G0 F12000 X138.35 Y173.14
G1 F3000 X131.86 Y166.65 E191.93943
G0 F12000 X134.46 Y169.82
G1 F3000 X135.21 Y170.57 E191.95698
G0 F12000 X151.74 Y177.48
G1 F3000 X127.52 Y153.26 E192.52658
G0 F12000 X127.46 Y152.63
G1 F3000 X152.37 Y177.54 E193.11238
G0 F12000 X152.91 Y177.51
G1 F3000 X127.48 Y152.09 E193.71020
G0 F12000 X127.54 Y151.58
G1 F3000 X153.42 Y177.46 E194.31894
G0 F12000 X153.94 Y177.41
G1 F3000 X127.59 Y151.06 E194.93862
G0 F12000 X127.64 Y150.55
G1 F3000 X154.45 Y177.36 E195.56921
G0 F12000 X154.97 Y177.31
G1 F3000 X127.69 Y150.03 E196.21073
G0 F12000 X127.74 Y149.52
G1 F3000 X155.48 Y177.26 E196.86317
G0 F12000 X155.99 Y177.21
G1 F3000 X127.79 Y149.00 E197.52652
G0 F12000 X127.84 Y148.49
G1 F3000 X156.51 Y177.16 E198.20080
G0 F12000 X157.02 Y177.11
G1 F3000 X127.89 Y147.97 E198.88598
G0 F12000 X127.97 Y147.49
G1 F3000 X157.51 Y177.03 E199.58086
G0 F12000 X157.95 Y176.90
G1 F3000 X128.10 Y147.05 E200.28285
G0 F12000 X128.23 Y146.62
G1 F3000 X158.38 Y176.77 E200.99196
G0 F12000 X158.82 Y176.64
G1 F3000 X128.36 Y146.18 E201.70818
G0 F12000 X128.49 Y145.75
G1 F3000 X159.25 Y176.50 E202.43153
G0 F12000 X159.69 Y176.37
G1 F3000 X128.63 Y145.31 E203.16199
G0 F12000 X128.76 Y144.88
G1 F3000 X160.12 Y176.24 E203.89958
G0 F12000 X160.55 Y176.11
G1 F3000 X128.89 Y144.44 E204.64427
G0 F12000 X129.02 Y144.01
G1 F3000 X160.99 Y175.98 E205.39608
G0 F12000 X161.42 Y175.85
G1 F3000 X129.15 Y143.58 E206.15500
G0 F12000 X129.28 Y143.14
G1 F3000 X161.85 Y175.71 E206.92104
G0 F12000 X162.26 Y175.55
G1 F3000 X129.44 Y142.74 E207.69277
G0 F12000 X129.64 Y142.37
G1 F3000 X162.63 Y175.35 E208.46850
G0 F12000 X163.00 Y175.16
G1 F3000 X129.84 Y142.00 E209.24827
G0 F12000 X130.04 Y141.63
G1 F3000 X163.36 Y174.96 E210.03207
G0 F12000 X163.73 Y174.76
G1 F3000 X130.23 Y141.26 E210.81987
G0 F12000 X130.43 Y140.90
G1 F3000 X164.10 Y174.56 E211.61171
G0 F12000 X164.47 Y174.37
G1 F3000 X130.63 Y140.53 E212.40759
G0 F12000 X130.82 Y140.16
G1 F3000 X164.84 Y174.17 E213.20750
G0 F12000 X165.21 Y173.97
G1 F3000 X131.02 Y139.79 E214.01143
G0 F12000 X131.22 Y139.42
G1 F3000 X165.57 Y173.78 E214.81938
G0 F12000 X165.94 Y173.58
G1 F3000 X131.42 Y139.05 E215.63136
G0 F12000 X131.61 Y138.68
G1 F3000 X166.31 Y173.38 E216.44738
G0 F12000 X166.64 Y173.15
G1 F3000 X131.85 Y138.36 E217.26549
G0 F12000 X132.11 Y138.05
G1 F3000 X166.95 Y172.89 E218.08491
G0 F12000 X167.26 Y172.63
G1 F3000 X132.36 Y137.74 E218.90563
G0 F12000 X132.62 Y137.43
G1 F3000 X167.57 Y172.38 E219.72767
G0 F12000 X167.88 Y172.12
G1 F3000 X132.87 Y137.12 E220.55103
G0 F12000 X133.13 Y136.81
G1 F3000 X168.19 Y171.87 E221.37571
G0 F12000 X168.50 Y171.62
G1 F3000 X133.38 Y136.49 E222.20171
G0 F12000 X133.64 Y136.18
G1 F3000 X168.81 Y171.36 E223.02902
G0 F12000 X169.12 Y171.10
G1 F3000 X133.89 Y135.87 E223.85764
G0 F12000 X134.15 Y135.56
G1 F3000 X169.44 Y170.85 E224.68759
G0 F12000 X169.75 Y170.59
G1 F3000 X134.40 Y135.25 E225.51884
G0 F12000 X134.66 Y134.94
G1 F3000 X170.06 Y170.34 E226.35141
G0 F12000 X170.34 Y170.06
G1 F3000 X134.94 Y134.66 E227.18406
G0 F12000 X135.25 Y134.40
G1 F3000 X170.60 Y169.75 E228.01540
G0 F12000 X170.85 Y169.44
G1 F3000 X135.56 Y134.15 E228.84542
G0 F12000 X135.87 Y133.89
G1 F3000 X171.11 Y169.13 E229.67413
G0 F12000 X171.36 Y168.82
G1 F3000 X136.18 Y133.64 E230.50151
G0 F12000 X136.49 Y133.38
G1 F3000 X171.62 Y168.51 E231.32757
G0 F12000 X171.87 Y168.19
G1 F3000 X136.80 Y133.13 E232.15231
G0 F12000 X137.12 Y132.87
G1 F3000 X172.13 Y167.88 E232.97574
G0 F12000 X172.38 Y167.57
G1 F3000 X137.43 Y132.62 E233.79787
G0 F12000 X137.74 Y132.36
G1 F3000 X172.64 Y167.26 E234.61868
G0 F12000 X172.89 Y166.95
G1 F3000 X138.05 Y132.11 E235.43817
G0 F12000 X138.36 Y131.85
G1 F3000 X173.15 Y166.64 E236.25635
G0 F12000 X173.39 Y166.31
G1 F3000 X138.69 Y131.62 E237.07237
G0 F12000 X139.06 Y131.42
G1 F3000 X173.58 Y165.94 E237.88434
G0 F12000 X173.78 Y165.58
G1 F3000 X139.43 Y131.22 E238.69229
G0 F12000 X139.79 Y131.03
G1 F3000 X173.98 Y165.21 E239.49620
G0 F12000 X174.17 Y164.84
G1 F3000 X140.16 Y130.83 E240.29611
G0 F12000 X140.53 Y130.63
G1 F3000 X174.37 Y164.47 E241.09200
G0 F12000 X174.57 Y164.10
G1 F3000 X140.90 Y130.43 E241.88384
G0 F12000 X141.27 Y130.24
G1 F3000 X174.76 Y163.73 E242.67165
G0 F12000 X174.96 Y163.37
G1 F3000 X141.63 Y130.04 E243.45544
G0 F12000 X142.00 Y129.84
G1 F3000 X175.16 Y163.00 E244.23520
G0 F12000 X175.36 Y162.63
G1 F3000 X142.37 Y129.64 E245.01095
G0 F12000 X142.74 Y129.45
G1 F3000 X175.55 Y162.26 E245.78258
G0 F12000 X175.71 Y161.85
G1 F3000 X143.14 Y129.28 E246.54851
G0 F12000 X143.58 Y129.15
G1 F3000 X175.85 Y161.42 E247.30743
G0 F12000 X175.98 Y160.99
G1 F3000 X144.01 Y129.02 E248.05924
G0 F12000 X144.44 Y128.89
G1 F3000 X176.11 Y160.55 E248.80393
G0 F12000 X176.24 Y160.12
G1 F3000 X144.88 Y128.76 E249.54154
G0 F12000 X145.31 Y128.62
G1 F3000 X176.37 Y159.69 E250.27202
G0 F12000 X176.50 Y159.25
G1 F3000 X145.75 Y128.49 E250.99539
G0 F12000 X146.18 Y128.36
G1 F3000 X176.64 Y158.82 E251.71169
G0 F12000 X176.77 Y158.38
G1 F3000 X146.62 Y128.23 E252.42086
G0 F12000 X147.05 Y128.10
G1 F3000 X176.90 Y157.95 E253.12292
G0 F12000 X177.03 Y157.52
G1 F3000 X147.48 Y127.97 E253.81789
G0 F12000 X147.97 Y127.89
G1 F3000 X177.11 Y157.03 E254.50309
G0 F12000 X177.16 Y156.51
G1 F3000 X148.49 Y127.84 E255.17740
G0 F12000 X149.00 Y127.79
G1 F3000 X177.21 Y156.00 E255.84083
G0 F12000 X177.26 Y155.48
G1 F3000 X149.51 Y127.73 E256.49340
G0 F12000 X150.03 Y127.68
G1 F3000 X177.31 Y154.97 E257.13506
G0 F12000 X177.36 Y154.45
G1 F3000 X150.54 Y127.63 E257.76584
G0 F12000 X151.05 Y127.58
G1 F3000 X177.41 Y153.94 E258.38574
G0 F12000 X177.46 Y153.42
G1 F3000 X151.57 Y127.53 E258.99476
G0 F12000 X152.08 Y127.47
G1 F3000 X177.51 Y152.91 E259.59292
G0 F12000 X177.54 Y152.37
G1 F3000 X152.63 Y127.46 E260.17872
G0 F12000 X153.26 Y127.52
G1 F3000 X177.48 Y151.74 E260.74831
G0 F12000 X177.42 Y151.11
G1 F3000 X153.89 Y127.58 E261.30170
G0 F12000 X154.51 Y127.64
G1 F3000 X177.35 Y150.49 E261.83889
G0 F12000 X177.29 Y149.86
G1 F3000 X155.14 Y127.71 E262.35983
G0 F12000 X155.77 Y127.77
G1 F3000 X177.23 Y149.23 E262.86459
G0 F12000 X177.17 Y148.60
G1 F3000 X156.40 Y127.83 E263.35314
G0 F12000 X157.02 Y127.89
G1 F3000 X177.11 Y147.97 E263.82546
G0 F12000 X176.97 Y147.27
G1 F3000 X157.74 Y128.04 E264.27776
G0 F12000 X158.55 Y128.28
G1 F3000 X176.72 Y146.46 E264.70515
G0 F12000 X176.47 Y145.64
G1 F3000 X159.36 Y128.53 E265.10766
G0 F12000 X160.17 Y128.77
G1 F3000 X176.22 Y144.83 E265.48525
G0 F12000 X175.98 Y144.01
G1 F3000 X160.98 Y129.02 E265.83796
G0 F12000 X161.79 Y129.26
G1 F3000 X175.73 Y143.20 E266.16574
G0 F12000 X175.23 Y142.14
G1 F3000 X162.86 Y129.77 E266.45670
G0 F12000 X164.07 Y130.42
G1 F3000 X174.58 Y140.92 E266.70379
G0 F12000 X173.93 Y139.71
G1 F3000 X165.29 Y131.07 E266.90701
G0 F12000 X166.69 Y131.90
G1 F3000 X173.16 Y138.37 E267.05933
G0 F12000 X170.53 Y135.18
G1 F3000 X169.79 Y134.44 E267.07685
;LAYER:-1
;RAFT
G0 F12000 X169.87 Y134.46 Z0.70
;TYPE:SUPPORT
G1 F2100 X135.13 Y134.46 E268.23227
G0 F12000 X134.72 Y134.82
G1 F2100 X170.28 Y134.82 E269.41517
G0 F12000 X170.58 Y135.18
G1 F2100 X134.42 Y135.18 E270.61772
G0 F12000 X134.13 Y135.54
G1 F2100 X170.87 Y135.54 E271.83990
G0 F12000 X171.17 Y135.90
G1 F2100 X133.83 Y135.90 E273.08173
G0 F12000 X133.54 Y136.26
G1 F2100 X171.47 Y136.26 E274.34322
G0 F12000 X171.76 Y136.62
G1 F2100 X133.24 Y136.62 E275.62434
G0 F12000 X132.95 Y136.98
G1 F2100 X172.06 Y136.98 E276.92508
G0 F12000 X172.35 Y137.34
G1 F2100 X132.65 Y137.34 E278.24547
G0 F12000 X132.36 Y137.70
G1 F2100 X172.65 Y137.70 E279.58552
G0 F12000 X172.95 Y138.06
G1 F2100 X132.07 Y138.06 E280.94520
G0 F12000 X131.77 Y138.42
G1 F2100 X173.24 Y138.42 E282.32453
G0 F12000 X173.47 Y138.78
G1 F2100 X131.53 Y138.78 E283.71946
G0 F12000 X131.34 Y139.14
G1 F2100 X173.66 Y139.14 E285.12722
G0 F12000 X173.86 Y139.50
G1 F2100 X131.15 Y139.50 E286.54777
G0 F12000 X130.95 Y139.86
G1 F2100 X174.05 Y139.86 E287.98118
G0 F12000 X174.24 Y140.22
G1 F2100 X130.76 Y140.22 E289.42736
G0 F12000 X130.57 Y140.58
G1 F2100 X174.43 Y140.58 E290.88635
G0 F12000 X174.63 Y140.94
G1 F2100 X130.38 Y140.94 E292.35814
G0 F12000 X130.18 Y141.30
G1 F2100 X174.82 Y141.30 E293.84274
G0 F12000 X175.01 Y141.66
G1 F2100 X129.99 Y141.66 E295.34015
G0 F12000 X129.80 Y142.02
G1 F2100 X175.20 Y142.02 E296.85036
G0 F12000 X175.40 Y142.38
G1 F2100 X129.60 Y142.38 E298.37334
G0 F12000 X129.41 Y142.74
G1 F2100 X175.59 Y142.74 E299.90916
G0 F12000 X175.73 Y143.10
G1 F2100 X129.26 Y143.10 E301.45456
G0 F12000 X129.16 Y143.46
G1 F2100 X175.84 Y143.46 E303.00724
G0 F12000 X175.95 Y143.82
G1 F2100 X129.05 Y143.82 E304.56721
G0 F12000 X128.94 Y144.18
G1 F2100 X176.06 Y144.18 E306.13439
G0 F12000 X176.17 Y144.54
G1 F2100 X128.83 Y144.54 E307.70886
G0 F12000 X128.72 Y144.90
G1 F2100 X176.28 Y144.90 E309.29061
G0 F12000 X176.39 Y145.26
G1 F2100 X128.61 Y145.26 E310.87962
G0 F12000 X128.50 Y145.62
G1 F2100 X176.50 Y145.62 E312.47590
G0 F12000 X176.61 Y145.98
G1 F2100 X128.39 Y145.98 E314.07947
G0 F12000 X128.28 Y146.34
G1 F2100 X176.72 Y146.34 E315.69033
G0 F12000 X176.83 Y146.70
G1 F2100 X128.18 Y146.70 E317.30843
G0 F12000 X128.07 Y147.06
G1 F2100 X176.94 Y147.06 E318.93379
G0 F12000 X177.05 Y147.42
G1 F2100 X127.96 Y147.42 E320.56643
G0 F12000 X127.88 Y147.78
G1 F2100 X177.12 Y147.78 E322.20413
G0 F12000 X177.15 Y148.14
G1 F2100 X127.84 Y148.14 E323.84415
G0 F12000 X127.81 Y148.50
G1 F2100 X177.19 Y148.50 E325.48657
G0 F12000 X177.22 Y148.86
G1 F2100 X127.77 Y148.86 E327.13132
G0 F12000 X127.74 Y149.22
G1 F2100 X177.26 Y149.22 E328.77846
G0 F12000 X177.30 Y149.58
G1 F2100 X127.70 Y149.58 E330.42793
G0 F12000 X127.67 Y149.94
G1 F2100 X177.33 Y149.94 E332.07979
G0 F12000 X177.37 Y150.30
G1 F2100 X127.63 Y150.30 E333.73402
G0 F12000 X127.60 Y150.66
G1 F2100 X177.40 Y150.66 E335.39057
G0 F12000 X177.44 Y151.02
G1 F2100 X127.56 Y151.02 E337.04952
G0 F12000 X127.53 Y151.38
G1 F2100 X177.47 Y151.38 E338.71080
G0 F12000 X177.51 Y151.74
G1 F2100 X127.49 Y151.74 E340.37447
G0 F12000 X127.45 Y152.10
G1 F2100 X177.54 Y152.10 E342.04047
G0 F12000 X177.58 Y152.46
G1 F2100 X127.42 Y152.46 E343.70887
G0 F12000 X127.45 Y152.82
G1 F2100 X177.55 Y152.82 E345.37540
G0 F12000 X177.52 Y153.18
G1 F2100 X127.48 Y153.18 E347.03954
G0 F12000 X127.52 Y153.54
G1 F2100 X177.48 Y153.54 E348.70135
G0 F12000 X177.44 Y153.90
G1 F2100 X127.55 Y153.90 E350.36076
G0 F12000 X127.59 Y154.26
G1 F2100 X177.41 Y154.26 E352.01785
G0 F12000 X177.37 Y154.62
G1 F2100 X127.62 Y154.62 E353.67254
G0 F12000 X127.66 Y154.98
G1 F2100 X177.34 Y154.98 E355.32490
G0 F12000 X177.30 Y155.34
G1 F2100 X127.69 Y155.34 E356.97487
G0 F12000 X127.73 Y155.70
G1 F2100 X177.27 Y155.70 E358.62251
G0 F12000 X177.23 Y156.06
G1 F2100 X127.77 Y156.06 E360.26776
G0 F12000 X127.80 Y156.42
G1 F2100 X177.20 Y156.42 E361.91067
G0 F12000 X177.16 Y156.78
G1 F2100 X127.84 Y156.78 E363.55120
G0 F12000 X127.87 Y157.14
G1 F2100 X177.13 Y157.14 E365.18939
G0 F12000 X177.07 Y157.50
G1 F2100 X127.93 Y157.50 E366.82376
G0 F12000 X128.04 Y157.86
G1 F2100 X176.96 Y157.86 E368.45085
G0 F12000 X176.85 Y158.22
G1 F2100 X128.15 Y158.22 E370.07068
G0 F12000 X128.26 Y158.58
G1 F2100 X176.74 Y158.58 E371.68323
G0 F12000 X176.63 Y158.94
G1 F2100 X128.37 Y158.94 E373.28847
G0 F12000 X128.48 Y159.30
G1 F2100 X176.52 Y159.30 E374.88645
G0 F12000 X176.41 Y159.66
G1 F2100 X128.59 Y159.66 E376.47715
G0 F12000 X128.70 Y160.02
G1 F2100 X176.30 Y160.02 E378.06057
G0 F12000 X176.19 Y160.38
G1 F2100 X128.81 Y160.38 E379.63666
G0 F12000 X128.92 Y160.74
G1 F2100 X176.09 Y160.74 E381.20551
G0 F12000 X175.98 Y161.10
G1 F2100 X129.03 Y161.10 E382.76707
G0 F12000 X129.14 Y161.46
G1 F2100 X175.87 Y161.46 E384.32135
G0 F12000 X175.75 Y161.82
G1 F2100 X129.25 Y161.82 E385.86828
G0 F12000 X129.37 Y162.18
G1 F2100 X175.61 Y162.18 E387.40640
G0 F12000 X175.44 Y162.54
G1 F2100 X129.56 Y162.54 E388.93224
G0 F12000 X129.75 Y162.90
G1 F2100 X175.25 Y162.90 E390.44531
G0 F12000 X175.05 Y163.26
G1 F2100 X129.95 Y163.26 E391.94554
G0 F12000 X130.14 Y163.62
G1 F2100 X174.86 Y163.62 E393.43300
G0 F12000 X174.67 Y163.98
G1 F2100 X130.33 Y163.98 E394.90766
G0 F12000 X130.52 Y164.34
G1 F2100 X174.47 Y164.34 E396.36950
G0 F12000 X174.28 Y164.70
G1 F2100 X130.72 Y164.70 E397.81855
G0 F12000 X130.91 Y165.06
G1 F2100 X174.09 Y165.06 E399.25479
G0 F12000 X173.90 Y165.42
G1 F2100 X131.10 Y165.42 E400.67819
G0 F12000 X131.29 Y165.78
G1 F2100 X173.71 Y165.78 E402.08882
G0 F12000 X173.51 Y166.14
G1 F2100 X131.49 Y166.14 E403.48661
G0 F12000 X131.70 Y166.50
G1 F2100 X173.30 Y166.50 E404.87040
G0 F12000 X173.01 Y166.86
G1 F2100 X131.99 Y166.86 E406.23453
G0 F12000 X132.29 Y167.22
G1 F2100 X172.71 Y167.22 E407.57900
G0 F12000 X172.42 Y167.58
G1 F2100 X132.58 Y167.58 E408.90382
G0 F12000 X132.88 Y167.94
G1 F2100 X172.12 Y167.94 E410.20901
G0 F12000 X171.83 Y168.30
G1 F2100 X133.18 Y168.30 E411.49455
G0 F12000 X133.47 Y168.66
G1 F2100 X171.53 Y168.66 E412.76043
G0 F12000 X171.24 Y169.02
G1 F2100 X133.77 Y169.02 E414.00666
G0 F12000 X134.06 Y169.38
G1 F2100 X170.94 Y169.38 E415.23322
G0 F12000 X170.65 Y169.74
G1 F2100 X134.36 Y169.74 E416.44017
G0 F12000 X134.65 Y170.10
G1 F2100 X170.35 Y170.10 E417.62745
G0 F12000 X169.96 Y170.46
G1 F2100 X135.03 Y170.46 E418.78916
G0 F12000 X135.47 Y170.82
G1 F2100 X169.52 Y170.82 E419.92171
G0 F12000 X169.08 Y171.18
G1 F2100 X135.91 Y171.18 E421.02501
G0 F12000 X136.35 Y171.54
G1 F2100 X168.65 Y171.54 E422.09915
G0 F12000 X168.21 Y171.90
G1 F2100 X136.79 Y171.90 E423.14411
G0 F12000 X137.23 Y172.26
G1 F2100 X167.77 Y172.26 E424.15988
G0 F12000 X167.33 Y172.62
G1 F2100 X137.67 Y172.62 E425.14647
G0 F12000 X138.11 Y172.98
G1 F2100 X166.89 Y172.98 E426.10383
G0 F12000 X166.45 Y173.34
G1 F2100 X138.55 Y173.34 E427.03199
G0 F12000 X139.21 Y173.70
G1 F2100 X165.78 Y173.70 E427.91575
G0 F12000 X165.11 Y174.06
G1 F2100 X139.88 Y174.06 E428.75480
G0 F12000 X140.56 Y174.42
G1 F2100 X164.44 Y174.42 E429.54912
G0 F12000 X163.77 Y174.78
G1 F2100 X141.23 Y174.78 E430.29870
G0 F12000 X141.90 Y175.14
G1 F2100 X163.09 Y175.14 E431.00355
G0 F12000 X162.42 Y175.50
G1 F2100 X142.58 Y175.50 E431.66366
G0 F12000 X143.52 Y175.86
G1 F2100 X161.48 Y175.86 E432.26128
G0 F12000 X160.30 Y176.22
G1 F2100 X144.70 Y176.22 E432.77997
G0 F12000 X145.89 Y176.58
G1 F2100 X159.11 Y176.58 E433.21977
G0 F12000 X157.92 Y176.94
G1 F2100 X147.07 Y176.94 E433.58061
G0 F12000 X149.62 Y177.30
G1 F2100 X155.38 Y177.30 E433.77202
G0 F12000 X169.43 Y134.10
G1 F2100 X135.57 Y134.10 E434.89818
G0 F12000 X136.01 Y133.74
G1 F2100 X168.99 Y133.74 E435.99510
G0 F12000 X168.55 Y133.38
G1 F2100 X136.45 Y133.38 E437.06275
G0 F12000 X136.89 Y133.02
G1 F2100 X168.11 Y133.02 E438.10116
G0 F12000 X167.67 Y132.66
G1 F2100 X137.33 Y132.66 E439.11028
G0 F12000 X137.77 Y132.30
G1 F2100 X167.23 Y132.30 E440.09015
G0 F12000 X166.79 Y131.94
G1 F2100 X138.21 Y131.94 E441.04079
G0 F12000 X138.70 Y131.58
G1 F2100 X166.31 Y131.58 E441.95931
G0 F12000 X165.64 Y131.22
G1 F2100 X139.37 Y131.22 E442.83312
G0 F12000 X140.04 Y130.86
G1 F2100 X164.97 Y130.86 E443.66222
G0 F12000 X164.29 Y130.50
G1 F2100 X140.71 Y130.50 E444.44663
G0 F12000 X141.38 Y130.14
G1 F2100 X163.62 Y130.14 E445.18634
G0 F12000 X162.95 Y129.78
G1 F2100 X142.05 Y129.78 E445.88134
G0 F12000 X142.72 Y129.42
G1 F2100 X162.28 Y129.42 E446.53164
G0 F12000 X161.22 Y129.06
G1 F2100 X143.78 Y129.06 E447.11197
G0 F12000 X144.96 Y128.70
G1 F2100 X160.03 Y128.70 E447.61326
G0 F12000 X158.84 Y128.34
G1 F2100 X146.15 Y128.34 E448.03553
G0 F12000 X147.33 Y127.98
G1 F2100 X157.65 Y127.98 E448.37878
G0 F12000 X154.59 Y127.62
G1 F2100 X150.42 Y127.62 E448.51727
;LAYER:-1
;RAFT
G0 F12000 X150.30 Y127.63 Z0.90
;TYPE:SUPPORT
G1 F2100 X150.30 Y177.37 E450.17143
G0 F12000 X149.94 Y177.33
G1 F2100 X149.94 Y127.67 E451.82323
G0 F12000 X149.58 Y127.70
G1 F2100 X149.58 Y177.29 E453.47267
G0 F12000 X149.22 Y177.26
G1 F2100 X149.22 Y127.74 E455.11974
G0 F12000 X148.86 Y127.77
G1 F2100 X148.86 Y177.22 E456.76446
G0 F12000 X148.50 Y177.19
G1 F2100 X148.50 Y127.81 E458.40681
G0 F12000 X148.14 Y127.84
G1 F2100 X148.14 Y177.15 E460.04680
G0 F12000 X147.78 Y177.12
G1 F2100 X147.78 Y127.88 E461.68446
G0 F12000 X147.42 Y127.95
G1 F2100 X147.42 Y177.04 E463.31720
G0 F12000 X147.06 Y176.93
G1 F2100 X147.06 Y128.06 E464.94269
G0 F12000 X146.70 Y128.17
G1 F2100 X146.70 Y176.82 E466.56090
G0 F12000 X146.34 Y176.72
G1 F2100 X146.34 Y128.28 E468.17182
G0 F12000 X145.98 Y128.39
G1 F2100 X145.98 Y176.61 E469.77549
G0 F12000 X145.62 Y176.50
G1 F2100 X145.62 Y128.50 E471.37191
G0 F12000 X145.26 Y128.61
G1 F2100 X145.26 Y176.39 E472.96104
G0 F12000 X144.90 Y176.28
G1 F2100 X144.90 Y128.72 E474.54290
G0 F12000 X144.54 Y128.83
G1 F2100 X144.54 Y176.17 E476.11750
G0 F12000 X144.18 Y176.06
G1 F2100 X144.18 Y128.94 E477.68481
G0 F12000 X143.82 Y129.05
G1 F2100 X143.82 Y175.95 E479.24488
G0 F12000 X143.46 Y175.84
G1 F2100 X143.46 Y129.16 E480.79766
G0 F12000 X143.10 Y129.26
G1 F2100 X143.10 Y175.72 E482.34290
G0 F12000 X142.74 Y175.58
G1 F2100 X142.74 Y129.41 E483.87848
G0 F12000 X142.38 Y129.60
G1 F2100 X142.38 Y175.39 E485.40143
G0 F12000 X142.02 Y175.20
G1 F2100 X142.02 Y129.80 E486.91157
G0 F12000 X141.66 Y129.99
G1 F2100 X141.66 Y175.01 E488.40888
G0 F12000 X141.30 Y174.82
G1 F2100 X141.30 Y130.18 E489.89338
G0 F12000 X140.94 Y130.38
G1 F2100 X140.94 Y174.62 E491.36504
G0 F12000 X140.58 Y174.43
G1 F2100 X140.58 Y130.57 E492.82390
G0 F12000 X140.22 Y130.76
G1 F2100 X140.22 Y174.24 E494.26991
G0 F12000 X139.86 Y174.05
G1 F2100 X139.86 Y130.96 E495.70313
G0 F12000 X139.50 Y131.15
G1 F2100 X139.50 Y173.85 E497.12350
G0 F12000 X139.14 Y173.66
G1 F2100 X139.14 Y131.34 E498.53107
G0 F12000 X138.78 Y131.53
G1 F2100 X138.78 Y173.47 E499.92580
G0 F12000 X138.42 Y173.23
G1 F2100 X138.42 Y131.76 E501.30513
G0 F12000 X138.06 Y132.06
G1 F2100 X138.06 Y172.94 E502.66484
G0 F12000 X137.70 Y172.64
G1 F2100 X137.70 Y132.35 E504.00492
G0 F12000 X137.34 Y132.65
G1 F2100 X137.34 Y172.35 E505.32538
G0 F12000 X136.98 Y172.05
G1 F2100 X136.98 Y132.94 E506.62622
G0 F12000 X136.62 Y133.24
G1 F2100 X136.62 Y171.76 E507.90743
G0 F12000 X136.26 Y171.46
G1 F2100 X136.26 Y133.53 E509.16902
G0 F12000 X135.90 Y133.83
G1 F2100 X135.90 Y171.17 E510.41099
G0 F12000 X135.54 Y170.88
G1 F2100 X135.54 Y134.12 E511.63337
G0 F12000 X135.18 Y134.42
G1 F2100 X135.18 Y170.58 E512.83612
G0 F12000 X134.82 Y170.28
G1 F2100 X134.82 Y134.71 E514.01925
G0 F12000 X134.46 Y135.13
G1 F2100 X134.46 Y169.86 E515.17447
G0 F12000 X134.10 Y169.42
G1 F2100 X134.10 Y135.57 E516.30043
G0 F12000 X133.74 Y136.01
G1 F2100 X133.74 Y168.99 E517.39718
G0 F12000 X133.38 Y168.55
G1 F2100 X133.38 Y136.45 E518.46473
G0 F12000 X133.02 Y136.89
G1 F2100 X133.02 Y168.11 E519.50305
G0 F12000 X132.66 Y167.67
G1 F2100 X132.66 Y137.33 E520.51216
G0 F12000 X132.30 Y137.77
G1 F2100 X132.30 Y167.23 E521.49207
G0 F12000 X131.94 Y166.79
G1 F2100 X131.94 Y138.21 E522.44275
G0 F12000 X131.58 Y138.69
G1 F2100 X131.58 Y166.31 E523.36166
G0 F12000 X131.22 Y165.64
G1 F2100 X131.22 Y139.36 E524.23577
G0 F12000 X130.86 Y140.03
G1 F2100 X130.86 Y164.97 E525.06511
G0 F12000 X130.50 Y164.29
G1 F2100 X130.50 Y140.71 E525.84965
G0 F12000 X130.14 Y141.38
G1 F2100 X130.14 Y163.62 E526.58939
G0 F12000 X129.78 Y162.95
G1 F2100 X129.78 Y142.05 E527.28432
G0 F12000 X129.42 Y142.72
G1 F2100 X129.42 Y162.27 E527.93446
G0 F12000 X129.06 Y161.21
G1 F2100 X129.06 Y143.78 E528.51405
G0 F12000 X128.70 Y144.97
G1 F2100 X128.70 Y160.02 E529.01478
G0 F12000 X128.34 Y158.84
G1 F2100 X128.34 Y146.16 E529.43665
G0 F12000 X127.98 Y147.35
G1 F2100 X127.98 Y157.66 E529.77963
G0 F12000 X127.62 Y154.57
G1 F2100 X127.62 Y150.43 E529.91740
G0 F12000 X150.66 Y127.60
G1 F2100 X150.66 Y177.40 E531.57392
G0 F12000 X151.02 Y177.44
G1 F2100 X151.02 Y127.56 E533.23277
G0 F12000 X151.38 Y127.53
G1 F2100 X151.38 Y177.47 E534.89401
G0 F12000 X151.74 Y177.51
G1 F2100 X151.74 Y127.49 E536.55758
G0 F12000 X152.10 Y127.45
G1 F2100 X152.10 Y177.54 E538.22371
G0 F12000 X152.46 Y177.58
G1 F2100 X152.46 Y127.41 E539.89231
G0 F12000 X152.82 Y127.45
G1 F2100 X152.82 Y177.55 E541.55881
G0 F12000 X153.18 Y177.52
G1 F2100 X153.18 Y127.48 E543.22295
G0 F12000 X153.54 Y127.52
G1 F2100 X153.54 Y177.48 E544.88472
G0 F12000 X153.90 Y177.44
G1 F2100 X153.90 Y127.55 E546.54414
G0 F12000 X154.26 Y127.59
G1 F2100 X154.26 Y177.41 E548.20119
G0 F12000 X154.62 Y177.37
G1 F2100 X154.62 Y127.62 E549.85588
G0 F12000 X154.98 Y127.66
G1 F2100 X154.98 Y177.34 E551.50825
G0 F12000 X155.34 Y177.30
G1 F2100 X155.34 Y127.69 E553.15821
G0 F12000 X155.70 Y127.73
G1 F2100 X155.70 Y177.27 E554.80585
G0 F12000 X156.06 Y177.23
G1 F2100 X156.06 Y127.77 E556.45110
G0 F12000 X156.42 Y127.80
G1 F2100 X156.42 Y177.20 E558.09402
G0 F12000 X156.78 Y177.16
G1 F2100 X156.78 Y127.84 E559.73454
G0 F12000 X157.14 Y127.87
G1 F2100 X157.14 Y177.13 E561.37274
G0 F12000 X157.50 Y177.07
G1 F2100 X157.50 Y127.93 E563.00694
G0 F12000 X157.86 Y128.04
G1 F2100 X157.86 Y176.96 E564.63389
G0 F12000 X158.22 Y176.85
G1 F2100 X158.22 Y128.15 E566.25359
G0 F12000 X158.58 Y128.26
G1 F2100 X158.58 Y176.74 E567.86605
G0 F12000 X158.94 Y176.63
G1 F2100 X158.94 Y128.37 E569.47121
G0 F12000 X159.30 Y128.48
G1 F2100 X159.30 Y176.52 E571.06913
G0 F12000 X159.66 Y176.41
G1 F2100 X159.66 Y128.59 E572.65980
G0 F12000 X160.02 Y128.70
G1 F2100 X160.02 Y176.30 E574.24321
G0 F12000 X160.38 Y176.19
G1 F2100 X160.38 Y128.81 E575.81941
G0 F12000 X160.74 Y128.91
G1 F2100 X160.74 Y176.09 E577.38832
G0 F12000 X161.10 Y175.98
G1 F2100 X161.10 Y129.02 E578.94999
G0 F12000 X161.46 Y129.13
G1 F2100 X161.46 Y175.87 E580.50440
G0 F12000 X161.82 Y175.76
G1 F2100 X161.82 Y129.24 E582.05156
G0 F12000 X162.18 Y129.37
G1 F2100 X162.18 Y175.63 E583.59021
G0 F12000 X162.54 Y175.44
G1 F2100 X162.54 Y129.56 E585.11602
G0 F12000 X162.90 Y129.75
G1 F2100 X162.90 Y175.24 E586.62902
G0 F12000 X163.26 Y175.05
G1 F2100 X163.26 Y129.95 E588.12918
G0 F12000 X163.62 Y130.14
G1 F2100 X163.62 Y174.86 E589.61654
G0 F12000 X163.98 Y174.66
G1 F2100 X163.98 Y130.33 E591.09107
G0 F12000 X164.34 Y130.52
G1 F2100 X164.34 Y174.47 E592.55278
G0 F12000 X164.70 Y174.28
G1 F2100 X164.70 Y130.72 E594.00166
G0 F12000 X165.06 Y130.91
G1 F2100 X165.06 Y174.09 E595.43773
G0 F12000 X165.42 Y173.89
G1 F2100 X165.42 Y131.10 E596.86097
G0 F12000 X165.78 Y131.29
G1 F2100 X165.78 Y173.70 E598.27140
G0 F12000 X166.14 Y173.51
G1 F2100 X166.14 Y131.49 E599.66899
G0 F12000 X166.50 Y131.71
G1 F2100 X166.50 Y173.30 E601.05251
G0 F12000 X166.86 Y173.01
G1 F2100 X166.86 Y132.00 E602.41641
G0 F12000 X167.22 Y132.29
G1 F2100 X167.22 Y172.71 E603.76072
G0 F12000 X167.58 Y172.41
G1 F2100 X167.58 Y132.59 E605.08537
G0 F12000 X167.94 Y132.88
G1 F2100 X167.94 Y172.12 E606.39039
G0 F12000 X168.30 Y171.82
G1 F2100 X168.30 Y133.18 E607.67583
G0 F12000 X168.66 Y133.47
G1 F2100 X168.66 Y171.53 E608.94161
G0 F12000 X169.02 Y171.23
G1 F2100 X169.02 Y133.76 E610.18777
G0 F12000 X169.38 Y134.06
G1 F2100 X169.38 Y170.94 E611.41431
G0 F12000 X169.74 Y170.64
G1 F2100 X169.74 Y134.35 E612.62125
G0 F12000 X170.10 Y134.65
G1 F2100 X170.10 Y170.34 E613.80854
G0 F12000 X170.46 Y169.97
G1 F2100 X170.46 Y135.04 E614.97025
G0 F12000 X170.82 Y135.48
G1 F2100 X170.82 Y169.53 E616.10279
G0 F12000 X171.18 Y169.09
G1 F2100 X171.18 Y135.91 E617.20616
G0 F12000 X171.54 Y136.35
G1 F2100 X171.54 Y168.65 E618.28036
G0 F12000 X171.90 Y168.21
G1 F2100 X171.90 Y136.79 E619.32543
G0 F12000 X172.26 Y137.23
G1 F2100 X172.26 Y167.77 E620.34129
G0 F12000 X172.62 Y167.33
G1 F2100 X172.62 Y137.66 E621.32802
G0 F12000 X172.98 Y138.10
G1 F2100 X172.98 Y166.89 E622.28558
G0 F12000 X173.34 Y166.45
G1 F2100 X173.34 Y138.54 E623.21397
G0 F12000 X173.70 Y139.21
G1 F2100 X173.70 Y165.79 E624.09806
G0 F12000 X174.06 Y165.12
G1 F2100 X174.06 Y139.88 E624.93734
G0 F12000 X174.42 Y140.56
G1 F2100 X174.42 Y164.44 E625.73186
G0 F12000 X174.78 Y163.77
G1 F2100 X174.78 Y141.23 E626.48158
G0 F12000 X175.14 Y141.90
G1 F2100 X175.14 Y163.10 E627.18646
G0 F12000 X175.50 Y162.42
G1 F2100 X175.50 Y142.58 E627.84657
G0 F12000 X175.86 Y143.53
G1 F2100 X175.86 Y161.48 E628.44369
G0 F12000 X176.22 Y160.30
G1 F2100 X176.22 Y144.71 E628.96205
G0 F12000 X176.58 Y145.89
G1 F2100 X176.58 Y159.11 E629.40169
G0 F12000 X176.94 Y157.92
G1 F2100 X176.94 Y147.07 E629.76256
G0 F12000 X177.30 Y149.62
G1 F2100 X177.30 Y155.38 E629.95404
;LAYER:0
G1 F2400 E628.75404
G0 F12000 X171.92 Y156.36 Z1.22
;TYPE:WALL-OUTER
G1 F2400 E629.95404
G1 F2100 X170.80 Y160.06 E630.01819
G1 X168.96 Y163.50 E630.08302
G1 X166.51 Y166.48 E630.14724
G1 X163.51 Y168.95 E630.21185
G1 X160.08 Y170.79 E630.27671
G1 X156.36 Y171.92 E630.34122
G1 X152.50 Y172.30 E630.40579
G1 X148.64 Y171.92 E630.47036
G1 X144.94 Y170.80 E630.53455
G1 X141.50 Y168.96 E630.59934
G1 X138.52 Y166.51 E630.66356
G1 X136.04 Y163.50 E630.72856
G1 X134.22 Y160.10 E630.79264
G1 X133.08 Y156.36 E630.85754
G1 X132.70 Y152.50 E630.92211
G1 X133.08 Y148.66 E630.98633
G1 X134.21 Y144.92 E631.05119
G1 X136.03 Y141.53 E631.11527
G1 X138.50 Y138.50 E631.18027
G1 X141.49 Y136.05 E631.24449
G1 X144.92 Y134.21 E631.30935
G1 X148.64 Y133.08 E631.37386
G1 X152.50 Y132.70 E631.43843
G1 X156.34 Y133.08 E631.50262
G1 X160.08 Y134.21 E631.56751
G1 X163.47 Y136.03 E631.63159
G1 X166.48 Y138.49 E631.69619
G1 X168.96 Y141.50 E631.76109
G1 X170.78 Y144.90 E631.82528
G1 X171.92 Y148.64 E631.89018
G1 X172.30 Y152.50 E631.95475
G1 X171.92 Y156.36 E632.01932
G0 F12000 X171.62 Y156.30
G0 X168.68 Y155.70
G0 X168.39 Y155.67
G1 F2100 X168.70 Y152.51 E632.07212
G1 X168.39 Y149.35 E632.12492
G1 X167.47 Y146.31 E632.17773
G1 X165.97 Y143.50 E632.23057
G1 X163.96 Y141.05 E632.28336
G1 X161.51 Y139.04 E632.33615
G1 X158.71 Y137.54 E632.38899
G1 X155.67 Y136.61 E632.44181
G1 X152.51 Y136.30 E632.49461
G1 X149.35 Y136.61 E632.54741
G1 X146.31 Y137.53 E632.60022
G1 X143.50 Y139.03 E632.65306
G1 X141.05 Y141.04 E632.70585
G1 X139.04 Y143.49 E632.75864
G1 X137.54 Y146.29 E632.81148
G1 X136.61 Y149.33 E632.86430
G1 X136.30 Y152.49 E632.91710
G1 X136.61 Y155.65 E632.96990
G1 X137.53 Y158.69 E633.02271
G1 X139.03 Y161.50 E633.07555
G1 X141.04 Y163.95 E633.12834
G1 X143.49 Y165.96 E633.18113
G1 X146.29 Y167.46 E633.23397
G1 X149.33 Y168.39 E633.28679
G1 X152.42 Y168.69 E633.33844
G1 X152.50 Y168.70 E633.33969
G1 X155.65 Y168.39 E633.39240
G1 X158.69 Y167.47 E633.44520
G1 X161.50 Y165.97 E633.49804
G1 X163.95 Y163.96 E633.55083
G1 X165.96 Y161.51 E633.60363
G1 X167.46 Y158.71 E633.65646
G1 X168.39 Y155.67 E633.70928
G0 F12000 X168.50 Y155.77
;TYPE:FILL
G1 F2100 X171.15 Y158.42 E633.77158
G0 F12000 X171.01 Y158.85
G1 F2100 X168.37 Y156.21 E633.83386
G0 F12000 X168.24 Y156.64
G1 F2100 X170.88 Y159.29 E633.89613
G0 F12000 X170.75 Y159.72
G1 F2100 X168.10 Y157.07 E633.95841
G0 F12000 X167.97 Y157.51
G1 F2100 X170.60 Y160.13 E634.02015
G0 F12000 X170.40 Y160.50
G1 F2100 X167.84 Y157.94 E634.08035
G0 F12000 X167.71 Y158.38
G1 F2100 X170.20 Y160.87 E634.13903
G0 F12000 X170.01 Y161.24
G1 F2100 X167.57 Y158.80 E634.19635
G0 F12000 X167.37 Y159.17
G1 F2100 X169.81 Y161.61 E634.25368
G0 F12000 X169.61 Y161.98
G1 F2100 X167.18 Y159.54 E634.31105
G0 F12000 X166.98 Y159.91
G1 F2100 X169.42 Y162.35 E634.36841
G0 F12000 X169.22 Y162.72
G1 F2100 X166.78 Y160.28 E634.42578
G0 F12000 X166.58 Y160.64
G1 F2100 X169.02 Y163.08 E634.48317
G0 F12000 X168.82 Y163.45
G1 F2100 X166.39 Y161.01 E634.54043
G0 F12000 X166.19 Y161.38
G1 F2100 X168.57 Y163.76 E634.59635
G0 F12000 X168.31 Y164.07
G1 F2100 X165.97 Y161.72 E634.65150
G0 F12000 X165.71 Y162.03
G1 F2100 X168.06 Y164.38 E634.70665
G0 F12000 X167.80 Y164.69
G1 F2100 X165.46 Y162.34 E634.76181
G0 F12000 X165.20 Y162.66
G1 F2100 X167.55 Y165.00 E634.81699
G0 F12000 X167.29 Y165.31
G1 F2100 X164.95 Y162.97 E634.87217
G0 F12000 X164.69 Y163.28
G1 F2100 X167.04 Y165.62 E634.92735
G0 F12000 X166.78 Y165.93
G1 F2100 X164.44 Y163.59 E634.98253
G0 F12000 X164.18 Y163.90
G1 F2100 X166.53 Y166.25 E635.03773
G0 F12000 X166.24 Y166.53
G1 F2100 X163.90 Y164.18 E635.09281
G0 F12000 X163.59 Y164.44
G1 F2100 X165.93 Y166.78 E635.14788
G0 F12000 X165.62 Y167.03
G1 F2100 X163.28 Y164.69 E635.20296
G0 F12000 X162.97 Y164.95
G1 F2100 X165.31 Y167.29 E635.25804
G0 F12000 X165.00 Y167.54
G1 F2100 X162.66 Y165.20 E635.31312
G0 F12000 X162.35 Y165.46
G1 F2100 X164.69 Y167.80 E635.36820
G0 F12000 X164.38 Y168.05
G1 F2100 X162.03 Y165.71 E635.42330
G0 F12000 X161.72 Y165.97
G1 F2100 X164.07 Y168.31 E635.47842
G0 F12000 X163.76 Y168.56
G1 F2100 X161.38 Y166.19 E635.53425
G0 F12000 X161.01 Y166.39
G1 F2100 X163.44 Y168.82 E635.59145
G0 F12000 X163.08 Y169.02
G1 F2100 X160.65 Y166.59 E635.64871
G0 F12000 X160.28 Y166.78
G1 F2100 X162.71 Y169.22 E635.70598
G0 F12000 X162.34 Y169.41
G1 F2100 X159.91 Y166.98 E635.76326
G0 F12000 X159.54 Y167.18
G1 F2100 X161.97 Y169.61 E635.82058
G0 F12000 X161.61 Y169.81
G1 F2100 X159.17 Y167.37 E635.87789
G0 F12000 X158.80 Y167.57
G1 F2100 X161.24 Y170.01 E635.93521
G0 F12000 X160.87 Y170.20
G1 F2100 X158.38 Y167.71 E635.99385
G0 F12000 X157.94 Y167.84
G1 F2100 X160.50 Y170.40 E636.05406
G0 F12000 X160.13 Y170.60
G1 F2100 X157.51 Y167.97 E636.11582
G0 F12000 X157.07 Y168.10
G1 F2100 X159.72 Y170.75 E636.17807
G0 F12000 X159.29 Y170.88
G1 F2100 X156.64 Y168.24 E636.24032
G0 F12000 X156.21 Y168.37
G1 F2100 X158.85 Y171.01 E636.30257
G0 F12000 X158.42 Y171.15
G1 F2100 X155.77 Y168.50 E636.36482
G0 F12000 X155.27 Y168.57
G1 F2100 X157.99 Y171.28 E636.42861
G0 F12000 X157.55 Y171.41
G1 F2100 X154.76 Y168.62 E636.49431
G0 F12000 X154.24 Y168.67
G1 F2100 X157.12 Y171.54 E636.56193
G0 F12000 X156.68 Y171.67
G1 F2100 X153.73 Y168.72 E636.63146
G0 F12000 X153.21 Y168.77
G1 F2100 X156.23 Y171.79 E636.70251
G0 F12000 X155.72 Y171.84
G1 F2100 X152.70 Y168.82 E636.77358
G0 F12000 X152.11 Y168.80
G1 F2100 X155.20 Y171.89 E636.84625
G0 F12000 X154.69 Y171.94
G1 F2100 X151.48 Y168.74 E636.92160
G0 F12000 X150.86 Y168.68
G1 F2100 X154.17 Y171.99 E636.99959
G0 F12000 X153.66 Y172.04
G1 F2100 X150.23 Y168.61 E637.08022
G0 F12000 X149.60 Y168.55
G1 F2100 X153.14 Y172.09 E637.16351
G0 F12000 X152.63 Y172.14
G1 F2100 X148.88 Y168.39 E637.25172
G0 F12000 X148.07 Y168.15
G1 F2100 X152.03 Y172.11 E637.34492
G0 F12000 X151.40 Y172.05
G1 F2100 X147.25 Y167.90 E637.44246
G0 F12000 X146.44 Y167.66
G1 F2100 X150.77 Y171.99 E637.54433
G0 F12000 X150.15 Y171.93
G1 F2100 X145.32 Y167.10 E637.65776
G0 F12000 X144.10 Y166.45
G1 F2100 X149.52 Y171.86 E637.78510
G0 F12000 X148.89 Y171.80
G1 F2100 X142.05 Y164.96 E637.94600
G0 F12000 X141.95 Y165.08
G0 X140.76 Y164.23
G0 X139.91 Y163.04
G0 X140.03 Y162.94
G1 F2100 X133.20 Y156.11 E638.10681
G0 F12000 X133.13 Y155.48
G1 F2100 X138.55 Y160.89 E638.23406
G0 F12000 X137.90 Y159.68
G1 F2100 X133.07 Y154.85 E638.34751
G0 F12000 X133.01 Y154.22
G1 F2100 X137.34 Y158.56 E638.44937
G0 F12000 X137.10 Y157.74
G1 F2100 X132.95 Y153.60 E638.54689
G0 F12000 X132.89 Y152.97
G1 F2100 X136.85 Y156.93 E638.64011
G0 F12000 X136.60 Y156.12
G1 F2100 X132.85 Y152.37 E638.72834
G0 F12000 X132.90 Y151.85
G1 F2100 X136.44 Y155.40 E638.81161
G0 F12000 X136.38 Y154.77
G1 F2100 X132.96 Y151.34 E638.89223
G0 F12000 X133.01 Y150.82
G1 F2100 X136.32 Y154.14 E638.97024
G0 F12000 X136.26 Y153.51
G1 F2100 X133.06 Y150.31 E639.04563
G0 F12000 X133.11 Y149.79
G1 F2100 X136.20 Y152.89 E639.11837
G0 F12000 X136.18 Y152.30
G1 F2100 X133.16 Y149.28 E639.18946
G0 F12000 X133.21 Y148.77
G1 F2100 X136.23 Y151.79 E639.26053
G0 F12000 X136.28 Y151.27
G1 F2100 X133.33 Y148.32 E639.33002
G0 F12000 X133.46 Y147.88
G1 F2100 X136.33 Y150.76 E639.39762
G0 F12000 X136.38 Y150.24
G1 F2100 X133.59 Y147.45 E639.46332
G0 F12000 X133.72 Y147.01
G1 F2100 X136.43 Y149.73 E639.52712
G0 F12000 X136.50 Y149.23
G1 F2100 X133.85 Y146.58 E639.58938
G0 F12000 X133.98 Y146.15
G1 F2100 X136.63 Y148.79 E639.65161
G0 F12000 X136.76 Y148.36
G1 F2100 X134.12 Y145.71 E639.71385
G0 F12000 X134.25 Y145.28
G1 F2100 X136.89 Y147.93 E639.77613
G0 F12000 X137.03 Y147.49
G1 F2100 X134.40 Y144.86 E639.83792
G0 F12000 X134.59 Y144.49
G1 F2100 X137.16 Y147.06 E639.89819
G0 F12000 X137.29 Y146.62
G1 F2100 X134.79 Y144.13 E639.95691
G0 F12000 X134.99 Y143.76
G1 F2100 X137.43 Y146.20 E640.01430
G0 F12000 X137.63 Y145.83
G1 F2100 X135.19 Y143.39 E640.07167
G0 F12000 X135.38 Y143.02
G1 F2100 X137.82 Y145.46 E640.12904
G0 F12000 X138.02 Y145.09
G1 F2100 X135.58 Y142.65 E640.18641
G0 F12000 X135.78 Y142.28
G1 F2100 X138.22 Y144.72 E640.24378
G0 F12000 X138.41 Y144.35
G1 F2100 X135.97 Y141.91 E640.30116
G0 F12000 X136.18 Y141.56
G1 F2100 X138.61 Y143.99 E640.35831
G0 F12000 X138.81 Y143.62
G1 F2100 X136.44 Y141.25 E640.41413
G0 F12000 X136.69 Y140.93
G1 F2100 X139.03 Y143.28 E640.46921
G0 F12000 X139.29 Y142.96
G1 F2100 X136.94 Y140.62 E640.52431
G0 F12000 X137.20 Y140.31
G1 F2100 X139.54 Y142.65 E640.57941
G0 F12000 X139.80 Y142.34
G1 F2100 X137.45 Y140.00 E640.63454
G0 F12000 X137.71 Y139.69
G1 F2100 X140.05 Y142.03 E640.68967
G0 F12000 X140.31 Y141.72
G1 F2100 X137.96 Y139.38 E640.74482
G0 F12000 X138.22 Y139.06
G1 F2100 X140.56 Y141.41 E640.79998
G0 F12000 X140.82 Y141.10
G1 F2100 X138.47 Y138.75 E640.85515
G0 F12000 X138.75 Y138.47
G1 F2100 X141.10 Y140.82 E640.91029
G0 F12000 X141.41 Y140.56
G1 F2100 X139.06 Y138.22 E640.96542
G0 F12000 X139.38 Y137.96
G1 F2100 X141.72 Y140.31 E641.02055
G0 F12000 X142.03 Y140.05
G1 F2100 X139.69 Y137.71 E641.07567
G0 F12000 X140.00 Y137.45
G1 F2100 X142.34 Y139.80 E641.13081
G0 F12000 X142.65 Y139.54
G1 F2100 X140.31 Y137.20 E641.18594
G0 F12000 X140.62 Y136.94
G1 F2100 X142.96 Y139.29 E641.24107
G0 F12000 X143.28 Y139.03
G1 F2100 X140.93 Y136.69 E641.29622
G0 F12000 X141.24 Y136.43
G1 F2100 X143.62 Y138.81 E641.35206
G0 F12000 X143.99 Y138.61
G1 F2100 X141.55 Y136.18 E641.40928
G0 F12000 X141.92 Y135.98
G1 F2100 X144.35 Y138.41 E641.46656
G0 F12000 X144.72 Y138.22
G1 F2100 X142.29 Y135.78 E641.52385
G0 F12000 X142.66 Y135.58
G1 F2100 X145.09 Y138.02 E641.58114
G0 F12000 X145.46 Y137.82
G1 F2100 X143.02 Y135.39 E641.63846
G0 F12000 X143.39 Y135.19
G1 F2100 X145.83 Y137.63 E641.69576
G0 F12000 X146.20 Y137.43
G1 F2100 X143.76 Y134.99 E641.75310
G0 F12000 X144.13 Y134.79
G1 F2100 X146.62 Y137.29 E641.81173
G0 F12000 X147.06 Y137.16
G1 F2100 X144.50 Y134.60 E641.87193
G0 F12000 X144.86 Y134.40
G1 F2100 X147.49 Y137.03 E641.93369
G0 F12000 X147.92 Y136.89
G1 F2100 X145.28 Y134.25 E641.99593
G0 F12000 X145.71 Y134.12
G1 F2100 X148.36 Y136.76 E642.05817
G0 F12000 X148.79 Y136.63
G1 F2100 X146.15 Y133.98 E642.12040
G0 F12000 X146.58 Y133.85
G1 F2100 X149.23 Y136.50 E642.18268
G0 F12000 X149.73 Y136.43
G1 F2100 X147.01 Y133.72 E642.24647
G0 F12000 X147.45 Y133.59
G1 F2100 X150.24 Y136.38 E642.31218
G0 F12000 X150.76 Y136.33
G1 F2100 X147.88 Y133.46 E642.37982
G0 F12000 X148.31 Y133.32
G1 F2100 X151.27 Y136.28 E642.44938
G0 F12000 X151.79 Y136.23
G1 F2100 X148.77 Y133.21 E642.52044
G0 F12000 X149.28 Y133.16
G1 F2100 X152.30 Y136.18 E642.59152
G0 F12000 X152.89 Y136.20
G1 F2100 X149.80 Y133.11 E642.66422
G0 F12000 X150.31 Y133.06
G1 F2100 X153.51 Y136.26 E642.73955
G0 F12000 X154.14 Y136.32
G1 F2100 X150.83 Y133.01 E642.81753
G0 F12000 X151.34 Y132.96
G1 F2100 X154.77 Y136.38 E642.89816
G0 F12000 X155.40 Y136.45
G1 F2100 X151.86 Y132.91 E642.98142
G0 F12000 X152.37 Y132.85
G1 F2100 X156.12 Y136.60 E643.06962
G0 F12000 X156.93 Y136.85
G1 F2100 X152.97 Y132.89 E643.16280
G0 F12000 X153.60 Y132.95
G1 F2100 X157.75 Y137.10 E643.26034
G0 F12000 X158.56 Y137.34
G1 F2100 X154.22 Y133.01 E643.36222
G0 F12000 X154.85 Y133.07
G1 F2100 X159.68 Y137.90 E643.47567
G0 F12000 X160.89 Y138.55
G1 F2100 X155.48 Y133.13 E643.60300
G0 F12000 X156.11 Y133.20
G1 F2100 X162.95 Y140.04 E643.76391
G0 F12000 X163.05 Y139.91
G0 X164.24 Y140.77
G0 X165.09 Y141.95
G0 X164.96 Y142.05
G1 F2100 X171.80 Y148.89 E643.92472
G0 F12000 X171.86 Y149.52
G1 F2100 X166.45 Y144.11 E644.05199
G0 F12000 X167.10 Y145.32
G1 F2100 X171.93 Y150.15 E644.16544
G0 F12000 X171.99 Y150.77
G1 F2100 X167.66 Y146.44 E644.26728
G0 F12000 X167.90 Y147.25
G1 F2100 X172.05 Y151.40 E644.36483
G0 F12000 X172.11 Y152.03
G1 F2100 X168.15 Y148.07 E644.45803
G0 F12000 X168.39 Y148.88
G1 F2100 X172.15 Y152.63 E644.54626
G0 F12000 X172.09 Y153.14
G1 F2100 X168.55 Y149.60 E644.62953
G0 F12000 X168.62 Y150.23
G1 F2100 X172.04 Y153.66 E644.71015
G0 F12000 X171.99 Y154.17
G1 F2100 X168.68 Y150.86 E644.78817
G0 F12000 X168.74 Y151.48
G1 F2100 X171.94 Y154.69 E644.86353
G0 F12000 X171.89 Y155.20
G1 F2100 X168.80 Y152.11 E644.93628
G0 F12000 X168.82 Y152.70
G1 F2100 X171.84 Y155.72 E645.00737
G0 F12000 X171.79 Y156.23
G1 F2100 X168.77 Y153.21 E645.07847
G0 F12000 X168.72 Y153.72
G1 F2100 X171.67 Y156.68 E645.14805
G0 F12000 X171.54 Y157.12
G1 F2100 X168.66 Y154.24 E645.21574
G0 F12000 X168.61 Y154.75
G1 F2100 X171.41 Y157.55 E645.28152
G0 F12000 X171.28 Y157.99
G1 F2100 X168.56 Y155.27 E645.34539
G0 F12000 X168.72 Y155.29
G0 X171.47 Y148.19
G0 X171.62 Y148.15
G1 F2100 X156.86 Y133.38 E645.69269
G0 F12000 X157.67 Y133.63
G1 F2100 X171.38 Y147.33 E646.01507
G0 F12000 X171.13 Y146.52
G1 F2100 X158.48 Y133.87 E646.31254
G0 F12000 X159.29 Y134.12
G1 F2100 X170.88 Y145.71 E646.58510
G0 F12000 X170.60 Y144.86
G1 F2100 X160.14 Y134.40 E646.83111
G0 F12000 X161.35 Y135.05
G1 F2100 X169.95 Y143.64 E647.03316
G0 F12000 X169.29 Y142.42
G1 F2100 X162.57 Y135.70 E647.19124
G0 F12000 X162.50 Y135.84
G0 X164.31 Y137.09
G0 X164.41 Y136.97
G1 F2100 X168.04 Y140.61 E647.27675
G0 F12000 X167.92 Y140.71
G0 X169.10 Y152.51
G0 X168.78 Y155.74
G0 X167.83 Y158.86
G0 X166.30 Y161.73
G0 X164.23 Y164.24
G0 X161.72 Y166.31
G0 X158.84 Y167.84
G0 X155.73 Y168.78
G0 X152.38 Y169.09
G0 X148.19 Y171.47
G0 X148.15 Y171.62
G1 F2100 X133.38 Y156.85 E647.62414
G0 F12000 X133.62 Y157.67
G1 F2100 X147.33 Y171.38 E647.94658
G0 F12000 X146.52 Y171.13
G1 F2100 X133.87 Y158.48 E648.24409
G0 F12000 X134.12 Y159.29
G1 F2100 X145.71 Y170.88 E648.51667
G0 F12000 X144.85 Y170.59
G1 F2100 X134.40 Y160.14 E648.76246
G0 F12000 X135.05 Y161.35
G1 F2100 X143.64 Y169.94 E648.96443
G0 F12000 X142.42 Y169.29
G1 F2100 X135.70 Y162.57 E649.12254
G0 F12000 X135.84 Y162.50
G0 X137.07 Y164.29
G0 X136.95 Y164.39
G1 F2100 X140.62 Y168.05 E649.20876
G0 F12000 X141.16 Y167.39
G1 F2400 E648.00876
G0 F12000 X164.19 Y156.59
;TYPE:WALL-OUTER
G1 F2400 E649.20876
G1 F2100 X164.21 Y156.47 E649.21075
G1 X164.28 Y156.43 E649.21203
G1 X164.34 Y156.49 E649.21333
G1 X164.32 Y156.60 E649.21533
G1 X164.25 Y156.64 E649.21663
G1 X164.19 Y156.59 E649.21793
G0 F12000 X160.79 Y155.90
G1 F2100 X160.78 Y155.94 E649.21862
G1 X159.97 Y157.45 E649.24716
G1 X158.86 Y158.82 E649.27640
G1 X157.49 Y159.94 E649.30580
G1 X155.95 Y160.77 E649.33492
G1 X155.92 Y160.79 E649.33546
G1 X154.27 Y161.29 E649.36423
G1 X152.50 Y161.47 E649.39376
G1 X150.77 Y161.29 E649.42264
G1 X150.74 Y161.29 E649.42316
G1 X149.10 Y160.79 E649.45170
G1 X149.06 Y160.78 E649.45240
G1 X147.54 Y159.97 E649.48100
G1 X147.52 Y159.95 E649.48148
G1 X146.18 Y158.85 E649.51034
G1 X145.07 Y157.51 E649.53926
G1 X144.23 Y155.95 E649.56878
G1 X143.71 Y154.27 E649.59801
G1 X143.71 Y154.24 E649.59842
G1 X143.54 Y152.50 E649.62755
G1 X143.70 Y150.78 E649.65632
G1 X143.71 Y150.74 E649.65694
G1 X144.21 Y149.10 E649.68549
G1 X144.22 Y149.06 E649.68618
G1 X145.03 Y147.55 E649.71472
G1 X146.14 Y146.18 E649.74396
G1 X147.49 Y145.07 E649.77303
G1 X149.05 Y144.23 E649.80255
G1 X150.73 Y143.71 E649.83178
G1 X152.50 Y143.54 E649.86131
G1 X154.23 Y143.71 E649.89020
G1 X154.26 Y143.71 E649.89070
G1 X155.90 Y144.21 E649.91925
G1 X155.94 Y144.22 E649.91994
G1 X157.45 Y145.03 E649.94848
G1 X158.82 Y146.14 E649.97772
G1 X159.93 Y147.49 E650.00680
G1 X160.77 Y149.05 E650.03631
G1 X161.29 Y150.73 E650.06554
G1 X161.46 Y152.50 E650.09507
G1 X161.30 Y154.22 E650.12385
G1 X161.29 Y154.26 E650.12447
G1 X160.79 Y155.90 E650.15302
G0 F12000 X160.51 Y155.81
G0 X156.96 Y153.87
G0 X156.66 Y153.85
G1 F2100 X156.78 Y151.66 E650.18957
G1 X156.78 Y151.59 E650.19064
G1 X155.75 Y149.57 E650.22836
G1 X153.91 Y148.37 E650.26497
G1 X153.85 Y148.33 E650.26617
G1 X153.79 Y148.33 E650.26715
G1 X151.59 Y148.22 E650.30372
G1 X149.57 Y149.25 E650.34141
G1 X148.37 Y151.09 E650.37802
G1 X148.34 Y151.15 E650.37912
G1 X148.22 Y153.34 E650.41566
G1 X148.22 Y153.41 E650.41673
G1 X149.25 Y155.43 E650.45445
G1 X151.15 Y156.67 E650.49225
G1 X151.21 Y156.67 E650.49324
G1 X153.41 Y156.78 E650.52981
G1 X155.37 Y155.78 E650.56635
G1 X155.43 Y155.75 E650.56748
G1 X156.66 Y153.85 E650.60520
G0 F12000 X156.81 Y153.70
;TYPE:FILL
G1 F2100 X160.07 Y156.96 E650.68196
G0 F12000 X160.27 Y156.59
G1 F2100 X156.84 Y153.16 E650.76268
G0 F12000 X156.87 Y152.62
G1 F2100 X160.47 Y156.22 E650.84737
G0 F12000 X160.66 Y155.85
G1 F2100 X156.89 Y152.09 E650.93595
G0 F12000 X156.91 Y151.54
G1 F2100 X160.79 Y155.42 E651.02720
G0 F12000 X160.92 Y154.99
G1 F2100 X156.32 Y150.38 E651.13538
G0 F12000 X156.47 Y150.31
G0 X156.06 Y149.30
G0 X154.68 Y148.52
G0 X154.59 Y148.65
G1 F2100 X150.02 Y144.08 E651.24295
G0 F12000 X150.45 Y143.94
G1 F2100 X161.06 Y154.55 E651.49238
G0 F12000 X161.17 Y154.10
G1 F2100 X150.91 Y143.84 E651.73369
G0 F12000 X151.42 Y143.78
G1 F2100 X161.22 Y153.58 E651.96409
G0 F12000 X161.27 Y153.06
G1 F2100 X151.94 Y143.73 E652.18355
G0 F12000 X152.45 Y143.68
G1 F2100 X161.32 Y152.55 E652.39209
G0 F12000 X161.26 Y151.93
G1 F2100 X153.06 Y143.73 E652.58493
G0 F12000 X153.69 Y143.79
G1 F2100 X161.20 Y151.30 E652.76154
G0 F12000 X161.11 Y150.65
G1 F2100 X154.35 Y143.88 E652.92069
G0 F12000 X155.16 Y144.13
G1 F2100 X160.87 Y149.84 E653.05491
G0 F12000 X160.57 Y148.98
G1 F2100 X156.02 Y144.42 E653.16206
G0 F12000 X157.23 Y145.07
G1 F2100 X159.91 Y147.74 E653.22488
G0 F12000 X159.76 Y147.82
G0 X153.56 Y148.02
G0 X153.56 Y148.18
G1 F2100 X149.58 Y144.21 E653.31827
G0 F12000 X149.15 Y144.34
G1 F2100 X152.96 Y148.15 E653.40780
G0 F12000 X152.36 Y148.12
G1 F2100 X148.78 Y144.53 E653.49208
G0 F12000 X148.41 Y144.73
G1 F2100 X151.76 Y148.09 E653.57096
G0 F12000 X151.31 Y148.20
G1 F2100 X148.04 Y144.93 E653.64784
G0 F12000 X147.68 Y145.13
G1 F2100 X150.94 Y148.39 E653.72455
G0 F12000 X150.56 Y148.58
G1 F2100 X147.35 Y145.37 E653.80011
G0 F12000 X147.04 Y145.62
G1 F2100 X150.19 Y148.77 E653.87416
G0 F12000 X149.81 Y148.96
G1 F2100 X146.73 Y145.88 E653.94668
G0 F12000 X146.42 Y146.14
G1 F2100 X149.45 Y149.17 E654.01806
G0 F12000 X149.23 Y149.51
G1 F2100 X146.13 Y146.41 E654.09094
G0 F12000 X145.88 Y146.73
G1 F2100 X149.01 Y149.86 E654.16456
G0 F12000 X148.78 Y150.20
G1 F2100 X145.62 Y147.04 E654.23891
G0 F12000 X145.37 Y147.35
G1 F2100 X148.56 Y150.54 E654.31400
G0 F12000 X148.34 Y150.88
G1 F2100 X145.12 Y147.67 E654.38966
G0 F12000 X144.93 Y148.04
G1 F2100 X148.19 Y151.30 E654.46641
G0 F12000 X148.16 Y151.84
G1 F2100 X144.73 Y148.41 E654.54713
G0 F12000 X144.53 Y148.77
G1 F2100 X148.13 Y152.38 E654.63183
G0 F12000 X148.10 Y152.91
G1 F2100 X144.34 Y149.15 E654.72040
G0 F12000 X144.21 Y149.58
G1 F2100 X148.09 Y153.46 E654.81165
G0 F12000 X148.67 Y154.61
G1 F2100 X144.07 Y150.01 E654.91983
G0 F12000 X143.94 Y150.45
G1 F2100 X154.55 Y161.05 E655.16928
G0 F12000 X154.98 Y160.92
G1 F2100 X150.41 Y156.35 E655.27680
G0 F12000 X151.44 Y156.82
G1 F2100 X155.42 Y160.79 E655.37026
G0 F12000 X155.85 Y160.66
G1 F2100 X152.04 Y156.85 E655.45987
G0 F12000 X152.64 Y156.88
G1 F2100 X156.22 Y160.47 E655.54417
G0 F12000 X156.59 Y160.27
G1 F2100 X153.24 Y156.91 E655.62308
G0 F12000 X153.69 Y156.80
G1 F2100 X156.96 Y160.07 E655.70002
G0 F12000 X157.33 Y159.87
G1 F2100 X154.06 Y156.61 E655.77679
G0 F12000 X154.44 Y156.42
G1 F2100 X157.65 Y159.63 E655.85238
G0 F12000 X157.96 Y159.37
G1 F2100 X154.81 Y156.23 E655.92642
G0 F12000 X155.19 Y156.03
G1 F2100 X158.27 Y159.12 E655.99894
G0 F12000 X158.58 Y158.86
G1 F2100 X155.54 Y155.83 E656.07032
G0 F12000 X155.77 Y155.49
G1 F2100 X158.87 Y158.58 E656.14319
G0 F12000 X159.12 Y158.27
G1 F2100 X155.99 Y155.14 E656.21680
G0 F12000 X156.21 Y154.80
G1 F2100 X159.37 Y157.96 E656.29114
G0 F12000 X159.63 Y157.65
G1 F2100 X156.44 Y154.46 E656.36624
G0 F12000 X156.66 Y154.11
G1 F2100 X159.88 Y157.33 E656.44192
G0 F12000 X159.74 Y157.26
G0 X154.08 Y161.01
G0 X154.09 Y161.16
G1 F2100 X143.83 Y150.90 E656.68324
G0 F12000 X143.78 Y151.42
G1 F2100 X153.58 Y161.21 E656.91365
G0 F12000 X153.06 Y161.27
G1 F2100 X143.73 Y151.93 E657.13316
G0 F12000 X143.68 Y152.45
G1 F2100 X152.55 Y161.32 E657.34175
G0 F12000 X151.93 Y161.27
G1 F2100 X143.73 Y153.06 E657.53465
G0 F12000 X143.79 Y153.69
G1 F2100 X151.31 Y161.21 E657.71136
G0 F12000 X150.65 Y161.12
G1 F2100 X143.88 Y154.35 E657.87056
G0 F12000 X144.13 Y155.16
G1 F2100 X149.84 Y160.87 E658.00478
G0 F12000 X148.98 Y160.58
G1 F2100 X144.43 Y156.02 E658.11191
G0 F12000 X145.09 Y157.26
G1 F2100 X147.76 Y159.93 E658.17471
G0 F12000 X148.17 Y159.17
G1 F2400 E656.97471
G0 F12000 X164.17 Y148.27
;TYPE:WALL-OUTER
G1 F2400 E658.17471
G1 F2100 X164.12 Y148.16 E658.17673
G1 X164.16 Y148.09 E658.17802
G1 X164.24 Y148.11 E658.17935
G1 X164.29 Y148.22 E658.18132
G1 X164.25 Y148.29 E658.18266
G1 X164.17 Y148.27 E658.18395
G0 F12000 X158.87 Y141.86
G1 F2100 X158.79 Y141.88 E658.18525
G1 X158.75 Y141.81 E658.18657
G1 X158.80 Y141.70 E658.18857
G1 X158.88 Y141.68 E658.18989
G1 X158.91 Y141.75 E658.19118
G1 X158.87 Y141.86 E658.19321
G0 F12000 X150.35 Y140.19
G1 F2100 X150.29 Y140.30 E658.19521
G1 X150.21 Y140.30 E658.19651
G1 X150.18 Y140.23 E658.19785
G1 X150.24 Y140.13 E658.19984
G1 X150.32 Y140.12 E658.20114
G1 X150.35 Y140.19 E658.20247
G1 F2400 E657.00247
G0 F12000 X142.90 Y144.61
G1 F2400 E658.20247
G1 F2100 X142.90 Y144.73 E658.20446
G1 X142.84 Y144.77 E658.20577
G1 X142.77 Y144.73 E658.20708
G1 X142.77 Y144.61 E658.20908
G1 X142.84 Y144.56 E658.21039
G1 X142.90 Y144.61 E658.21170
G0 F12000 X140.03 Y152.40
G1 F2100 X140.08 Y152.46 E658.21304
G1 X140.05 Y152.58 E658.21505
G1 X139.97 Y152.60 E658.21636
G1 X139.92 Y152.54 E658.21770
G1 X139.96 Y152.42 E658.21971
G1 X140.03 Y152.40 E658.22102
G0 F12000 X143.08 Y160.61
G1 F2100 X143.20 Y160.63 E658.22299
G1 X143.23 Y160.70 E658.22431
G1 X143.18 Y160.76 E658.22561
G1 X143.06 Y160.74 E658.22762
G1 X143.02 Y160.67 E658.22892
G1 X143.08 Y160.61 E658.23023
G1 F2400 E657.03023
G0 F12000 X150.72 Y164.77
G1 F2400 E658.23023
G1 F2100 X150.78 Y164.73 E658.23151
G1 X150.84 Y164.79 E658.23282
G1 X150.83 Y164.91 E658.23485
G1 X150.76 Y164.94 E658.23614
G1 X150.70 Y164.89 E658.23745
G1 X150.72 Y164.77 E658.23947
G0 F12000 X158.79 Y163.19
G1 F2100 X158.87 Y163.09 E658.24150
G1 X158.95 Y163.09 E658.24278
G1 X158.97 Y163.17 E658.24408
G1 X158.89 Y163.26 E658.24611
G1 X158.82 Y163.26 E658.24739
G1 X158.79 Y163.19 E658.24869
;LAYER:1
G0 F12000 X158.16 Y163.12 Z1.10
;TYPE:WALL-OUTER
G1 F2280 X158.65 Y162.50 E658.26182
G1 X159.39 Y162.53 E658.27415
G1 X159.60 Y163.24 E658.28650
G1 X159.12 Y163.86 E658.29959
G1 X158.37 Y163.83 E658.31196
G1 X158.16 Y163.12 E658.32428
G0 F12000 X158.35 Y163.24
;TYPE:FILL
G1 F2280 X158.94 Y162.65 E658.33831
G0 F12000 X159.33 Y162.82
G1 F2280 X158.48 Y163.68 E658.35846
G0 F12000 X159.01 Y163.71
G1 F2280 X159.19 Y163.53 E658.36271
G0 F12000 X159.14 Y163.49
G1 F2400 E657.16271
G0 F12000 X157.44 Y159.97
;TYPE:WALL-OUTER
G1 F2400 E658.36271
G1 F2280 X156.03 Y160.73 E658.38948
G1 X155.89 Y160.80 E658.39194
G1 X154.34 Y161.26 E658.41887
G1 X154.25 Y161.29 E658.42049
G1 X152.50 Y161.47 E658.44972
G1 X150.86 Y161.30 E658.47717
G1 X150.71 Y161.28 E658.47959
G1 X149.17 Y160.82 E658.50635
G1 X149.03 Y160.77 E658.50879
G1 X147.52 Y159.96 E658.53732
G1 X146.24 Y158.90 E658.56497
G1 X146.14 Y158.81 E658.56710
G1 X145.04 Y157.48 E658.59589
G1 X144.27 Y156.03 E658.62327
G1 X144.20 Y155.89 E658.62573
G1 X143.74 Y154.34 E658.65266
G1 X143.71 Y154.25 E658.65429
G1 X143.54 Y152.50 E658.68350
G1 X143.70 Y150.86 E658.71092
G1 X143.72 Y150.71 E658.71339
G1 X144.18 Y149.17 E658.74013
G1 X144.23 Y149.03 E658.74257
G1 X145.04 Y147.52 E658.77110
G1 X146.10 Y146.24 E658.79875
G1 X146.19 Y146.14 E658.80088
G1 X147.52 Y145.04 E658.82967
G1 X148.97 Y144.27 E658.85705
G1 X149.11 Y144.20 E658.85951
G1 X150.66 Y143.74 E658.88643
G1 X150.75 Y143.71 E658.88807
G1 X152.50 Y143.54 E658.91728
G1 X154.14 Y143.70 E658.94470
G1 X154.29 Y143.72 E658.94715
G1 X155.83 Y144.18 E658.97391
G1 X155.97 Y144.23 E658.97635
G1 X157.48 Y145.04 E659.00488
G1 X158.76 Y146.10 E659.03253
G1 X158.86 Y146.19 E659.03466
G1 X159.96 Y147.52 E659.06345
G1 X160.73 Y148.97 E659.09083
G1 X160.80 Y149.11 E659.09329
G1 X161.26 Y150.66 E659.12021
G1 X161.29 Y150.75 E659.12185
G1 X161.46 Y152.50 E659.15106
G1 X161.30 Y154.14 E659.17848
G1 X161.28 Y154.29 E659.18093
G1 X160.82 Y155.83 E659.20769
G1 X160.77 Y155.97 E659.21013
G1 X159.96 Y157.48 E659.23866
G1 X158.90 Y158.76 E659.26631
G1 X158.81 Y158.86 E659.26844
G1 X157.56 Y159.89 E659.29549
G1 X157.44 Y159.97 E659.29783
G0 F12000 X157.29 Y159.71
G0 X155.68 Y155.92
G0 X155.43 Y155.75
G1 F2280 X156.66 Y153.85 E659.33553
G1 X156.78 Y151.68 E659.37165
G1 X156.78 Y151.59 E659.37315
G1 X155.75 Y149.57 E659.41087
G1 X153.93 Y148.39 E659.44702
G1 X153.85 Y148.34 E659.44856
G1 X151.59 Y148.22 E659.48622
G1 X149.57 Y149.25 E659.52391
G1 X148.39 Y151.07 E659.56006
G1 X148.34 Y151.15 E659.56160
G1 X148.22 Y153.32 E659.59773
G1 X148.22 Y153.41 E659.59923
G1 X149.25 Y155.43 E659.63696
G1 X151.15 Y156.66 E659.67465
G1 X153.41 Y156.78 E659.71231
G1 X155.43 Y155.75 E659.74999
G0 F12000 X154.42 Y156.42
;TYPE:FILL
G1 F2280 X149.94 Y160.90 E659.85533
G0 F12000 X150.37 Y161.03
G1 F2280 X161.03 Y150.38 E660.10599
G0 F12000 X160.90 Y149.94
G1 F2280 X156.53 Y154.32 E660.20884
G0 F12000 X156.82 Y153.45
G1 F2280 X160.77 Y149.51 E660.30164
G0 F12000 X160.63 Y149.08
G1 F2280 X156.85 Y152.86 E660.39042
G0 F12000 X156.88 Y152.26
G1 F2280 X160.43 Y148.71 E660.47388
G0 F12000 X160.24 Y148.34
G1 F2280 X156.92 Y151.66 E660.55196
G0 F12000 X156.77 Y151.25
G1 F2280 X160.04 Y147.98 E660.62894
G0 F12000 X159.84 Y147.61
G1 F2280 X156.57 Y150.87 E660.70575
G0 F12000 X156.38 Y150.50
G1 F2280 X159.59 Y147.30 E660.78105
G0 F12000 X159.33 Y146.99
G1 F2280 X156.19 Y150.12 E660.85488
G0 F12000 X156.00 Y149.75
G1 F2280 X159.08 Y146.68 E660.92720
G0 F12000 X158.82 Y146.37
G1 F2280 X155.77 Y149.42 E660.99895
G0 F12000 X155.43 Y149.19
G1 F2280 X158.53 Y146.09 E661.07192
G0 F12000 X158.22 Y145.84
G1 F2280 X155.08 Y148.97 E661.14567
G0 F12000 X154.74 Y148.75
G1 F2280 X157.91 Y145.58 E661.22016
G0 F12000 X157.60 Y145.32
G1 F2280 X154.40 Y148.52 E661.29539
G0 F12000 X154.06 Y148.30
G1 F2280 X157.27 Y145.09 E661.37093
G0 F12000 X156.90 Y144.89
G1 F2280 X153.61 Y148.18 E661.44832
G0 F12000 X153.07 Y148.16
G1 F2280 X156.53 Y144.69 E661.52969
G0 F12000 X156.16 Y144.50
G1 F2280 X152.53 Y148.13 E661.61505
G0 F12000 X152.00 Y148.10
G1 F2280 X155.78 Y144.31 E661.70405
G0 F12000 X155.35 Y144.18
G1 F2280 X151.34 Y148.18 E661.79813
G0 F12000 X150.19 Y148.77
G1 F2280 X154.91 Y144.05 E661.90915
G0 F12000 X154.48 Y143.92
G1 F2280 X143.92 Y154.47 E662.15739
G0 F12000 X144.05 Y154.91
G1 F2280 X148.82 Y150.14 E662.26948
G0 F12000 X148.19 Y151.34
G1 F2280 X144.19 Y155.34 E662.36356
G0 F12000 X144.32 Y155.78
G1 F2280 X148.16 Y151.94 E662.45385
G0 F12000 X148.12 Y152.54
G1 F2280 X144.50 Y156.16 E662.53913
G0 F12000 X144.70 Y156.53
G1 F2280 X148.09 Y153.13 E662.61900
G0 F12000 X148.17 Y153.62
G1 F2280 X144.89 Y156.90 E662.69605
G0 F12000 X145.09 Y157.27
G1 F2280 X148.36 Y154.00 E662.77293
G0 F12000 X148.55 Y154.37
G1 F2280 X145.33 Y157.60 E662.84876
G0 F12000 X145.58 Y157.91
G1 F2280 X148.74 Y154.75 E662.92309
G0 F12000 X148.93 Y155.12
G1 F2280 X145.84 Y158.22 E662.99592
G0 F12000 X146.09 Y158.53
G1 F2280 X149.12 Y155.50 E663.06723
G0 F12000 X149.46 Y155.73
G1 F2280 X146.36 Y158.82 E663.13994
G0 F12000 X146.68 Y159.08
G1 F2280 X149.80 Y155.95 E663.21342
G0 F12000 X150.14 Y156.18
G1 F2280 X146.99 Y159.33 E663.28766
G0 F12000 X147.30 Y159.59
G1 F2280 X150.49 Y156.40 E663.36265
G0 F12000 X150.83 Y156.62
G1 F2280 X147.61 Y159.84 E663.43838
G0 F12000 X147.98 Y160.04
G1 F2280 X151.21 Y156.81 E663.51443
G0 F12000 X151.75 Y156.83
G1 F2280 X148.34 Y160.24 E663.59445
G0 F12000 X148.71 Y160.43
G1 F2280 X152.28 Y156.86 E663.67845
G0 F12000 X152.82 Y156.89
G1 F2280 X149.08 Y160.63 E663.76645
G0 F12000 X149.51 Y160.77
G1 F2280 X153.36 Y156.92 E663.85705
G0 F12000 X153.35 Y157.08
G0 X153.57 Y161.06
G0 X153.59 Y161.22
G1 F2280 X161.22 Y153.59 E664.03647
G0 F12000 X161.28 Y152.96
G1 F2280 X152.96 Y161.28 E664.23208
G0 F12000 X152.36 Y161.31
G1 F2280 X161.31 Y152.36 E664.44250
G0 F12000 X161.26 Y151.85
G1 F2280 X151.85 Y161.26 E664.66384
G0 F12000 X151.33 Y161.21
G1 F2280 X161.21 Y151.33 E664.89613
G0 F12000 X161.16 Y150.82
G1 F2280 X150.82 Y161.16 E665.13928
G0 F12000 X150.84 Y161.00
G0 X154.19 Y161.00
G0 X154.22 Y161.15
G1 F2280 X161.15 Y154.22 E665.30241
G0 F12000 X160.91 Y155.02
G1 F2280 X155.02 Y160.91 E665.44096
G0 F12000 X155.83 Y160.67
G1 F2280 X160.66 Y155.84 E665.55453
G0 F12000 X160.03 Y157.03
G1 F2280 X157.03 Y160.03 E665.62520
G0 F12000 X156.96 Y159.89
G0 X143.98 Y153.99
G0 X143.82 Y154.01
G1 F2280 X154.01 Y143.82 E665.86476
G0 F12000 X153.49 Y143.77
G1 F2280 X143.77 Y153.49 E666.09336
G0 F12000 X143.72 Y152.98
G1 F2280 X152.98 Y143.72 E666.31102
G0 F12000 X152.46 Y143.68
G1 F2280 X143.68 Y152.45 E666.51736
G0 F12000 X143.74 Y151.83
G1 F2280 X151.83 Y143.74 E666.70753
G0 F12000 X151.20 Y143.80
G1 F2280 X143.80 Y151.20 E666.88157
G0 F12000 X143.92 Y150.51
G1 F2280 X150.51 Y143.92 E667.03660
G0 F12000 X149.70 Y144.17
G1 F2280 X144.17 Y149.70 E667.16676
G0 F12000 X144.53 Y148.78
G1 F2280 X148.78 Y144.53 E667.26672
G0 F12000 X147.49 Y145.25
G1 F2280 X145.25 Y147.49 E667.31941
G0 F12000 X145.91 Y148.04
G1 F2400 E666.11941
G0 F12000 X163.73 Y156.05
;TYPE:WALL-OUTER
G1 F2400 E667.31941
G1 F2280 X164.39 Y155.72 E667.33176
G1 X164.92 Y156.24 E667.34409
G1 X164.80 Y157.02 E667.35721
G1 X164.14 Y157.35 E667.36953
G1 X163.61 Y156.83 E667.38188
G1 X163.73 Y156.05 E667.39496
G0 F12000 X163.77 Y156.69
;TYPE:FILL
G1 F2280 X164.47 Y155.99 E667.41139
G0 F12000 X164.75 Y156.27
G1 F2280 X164.00 Y157.02 E667.42910
G0 F12000 X164.22 Y157.15
G1 F2280 X163.77 Y156.70 E667.43971
G0 F12000 X163.84 Y156.71
G1 F2400 E666.23971
G0 F12000 X164.55 Y148.94
;TYPE:WALL-OUTER
G1 F2400 E667.43971
G1 F2280 X163.82 Y148.80 E667.45206
G1 X163.49 Y148.09 E667.46516
G1 X163.85 Y147.44 E667.47751
G1 X164.58 Y147.58 E667.48985
G1 X164.92 Y148.29 E667.50296
G1 X164.55 Y148.94 E667.51530
G0 F12000 X164.35 Y148.76
;TYPE:FILL
G1 F2280 X164.68 Y148.43 E667.52306
G0 F12000 X164.60 Y147.94
G1 F2280 X163.90 Y148.64 E667.53941
G0 F12000 X163.72 Y148.25
G1 F2280 X164.31 Y147.67 E667.55317
G0 F12000 X164.27 Y147.87
G1 F2400 E666.35317
G0 F12000 X159.22 Y142.38
;TYPE:WALL-OUTER
G1 F2400 E667.55317
G1 F2280 X158.50 Y142.53 E667.56550
G1 X158.12 Y141.89 E667.57788
G1 X158.44 Y141.17 E667.59094
G1 X159.17 Y141.02 E667.60331
G1 X159.54 Y141.66 E667.61567
G1 X159.22 Y142.38 E667.62878
G0 F12000 X158.92 Y142.30
;TYPE:FILL
G1 F2280 X159.25 Y141.98 E667.63647
G0 F12000 X159.24 Y141.42
G1 F2280 X158.46 Y142.20 E667.65472
G0 F12000 X158.33 Y141.76
G1 F2280 X158.87 Y141.23 E667.66730
G0 F12000 X158.40 Y141.78
G1 F2400 E666.46730
G0 F12000 X150.99 Y140.19
;TYPE:WALL-OUTER
G1 F2400 E667.66730
G1 F2280 X150.58 Y140.86 E667.68038
G1 X149.84 Y140.92 E667.69273
G1 X149.55 Y140.24 E667.70512
G1 X149.95 Y139.56 E667.71821
G1 X150.69 Y139.50 E667.73054
G1 X150.99 Y140.19 E667.74293
G0 F12000 X150.77 Y140.28
;TYPE:FILL
G1 F2280 X150.30 Y140.74 E667.75392
G0 F12000 X149.86 Y140.62
G1 F2280 X150.67 Y139.81 E667.77291
G0 F12000 X150.23 Y139.68
G1 F2280 X149.75 Y140.16 E667.78421
G1 X150.23 Y139.68 E667.79551
G0 F12000 X150.25 Y139.88
G1 F2400 E666.59551
G0 F12000 X143.44 Y144.27
;TYPE:WALL-OUTER
G1 F2400 E667.79551
G1 F2280 X143.44 Y145.06 E667.80861
G1 X142.84 Y145.50 E667.82096
G1 X142.23 Y145.06 E667.83330
G1 X142.23 Y144.27 E667.84641
G1 X142.84 Y143.84 E667.85875
G1 X143.44 Y144.27 E667.87110
G0 F12000 X143.30 Y144.35
;TYPE:FILL
G1 F2280 X142.54 Y145.11 E667.88894
G0 F12000 X142.37 Y144.71
G1 F2280 X142.97 Y144.11 E667.90308
G0 F12000 X143.30 Y144.92
G1 F2280 X143.04 Y145.17 E667.90908
G0 F12000 X143.23 Y144.47
G1 F2400 E666.70908
G0 F12000 X140.23 Y151.71
;TYPE:WALL-OUTER
G1 F2400 E667.90908
G1 F2280 X140.69 Y152.29 E667.92147
G1 X140.47 Y153.04 E667.93455
G1 X139.77 Y153.29 E667.94690
G1 X139.31 Y152.71 E667.95928
G1 X139.53 Y151.96 E667.97236
G1 X140.23 Y151.71 E667.98471
G0 F12000 X140.24 Y151.94
;TYPE:FILL
G1 F2280 X139.48 Y152.70 E668.00249
G0 F12000 X139.73 Y153.01
G1 F2280 X140.49 Y152.25 E668.02029
G0 F12000 X140.33 Y152.38
G1 F2400 E666.82029
G0 F12000 X142.84 Y160.02
;TYPE:WALL-OUTER
G1 F2400 E668.02029
G1 F2280 X143.62 Y160.16 E668.03339
G1 X143.94 Y160.83 E668.04576
G1 X143.41 Y161.35 E668.05810
G1 X142.63 Y161.21 E668.07121
G1 X142.31 Y160.54 E668.08355
G1 X142.84 Y160.02 E668.09591
G0 F12000 X143.25 Y160.23
;TYPE:FILL
G1 F2280 X142.62 Y160.87 E668.11076
G0 F12000 X142.94 Y161.12
G1 F2280 X143.60 Y160.45 E668.12650
G1 X142.94 Y161.12 E668.14223
G0 F12000 X142.95 Y161.06
G1 F2400 E666.94223
G0 F12000 X150.22 Y164.37
;TYPE:WALL-OUTER
G1 F2400 E668.14223
G1 F2280 X150.87 Y164.02 E668.15454
G1 X151.42 Y164.52 E668.16692
G1 X151.32 Y165.30 E668.18003
G1 X150.67 Y165.66 E668.19235
G1 X150.12 Y165.16 E668.20470
G1 X150.22 Y164.37 E668.21784
G0 F12000 X150.27 Y165.10
;TYPE:FILL
G1 F2280 X151.02 Y164.35 E668.23546
G0 F12000 X151.26 Y164.68
G1 F2280 X150.56 Y165.37 E668.25175
G0 F12000 X150.40 Y164.65
G1 F2400 E667.05175
G0 F12000 X149.29 Y168.38
;TYPE:WALL-OUTER
G1 F2400 E668.25175
G1 F2280 X149.34 Y168.39 E668.25248
G1 X152.31 Y168.68 E668.30225
G1 X152.50 Y168.70 E668.30532
G1 X155.64 Y168.39 E668.35779
G1 X158.66 Y167.48 E668.41034
G1 X158.70 Y167.47 E668.41102
G1 X161.48 Y165.98 E668.46345
G1 X163.96 Y163.96 E668.51658
G1 X165.96 Y161.52 E668.56904
G1 X167.46 Y158.72 E668.62186
G1 X168.38 Y155.71 E668.67424
G1 X168.39 Y155.66 E668.67497
G1 X168.70 Y152.50 E668.72783
G1 X168.39 Y149.36 E668.78028
G1 X167.48 Y146.34 E668.83283
G1 X167.47 Y146.30 E668.83351
G1 X165.98 Y143.52 E668.88594
G1 X163.96 Y141.04 E668.93907
G1 X161.52 Y139.04 E668.99153
G1 X158.72 Y137.54 E669.04435
G1 X155.71 Y136.62 E669.09673
G1 X155.66 Y136.61 E669.09746
G1 X152.50 Y136.30 E669.15032
G1 X149.36 Y136.61 E669.20277
G1 X146.34 Y137.52 E669.25532
G1 X146.30 Y137.53 E669.25600
G1 X143.52 Y139.02 E669.30843
G1 X141.04 Y141.04 E669.36156
G1 X139.04 Y143.48 E669.41402
G1 X137.54 Y146.28 E669.46684
G1 X136.62 Y149.29 E669.51922
G1 X136.61 Y149.34 E669.51995
G1 X136.30 Y152.50 E669.57281
G1 X136.61 Y155.64 E669.62526
G1 X137.52 Y158.66 E669.67781
G1 X137.53 Y158.70 E669.67849
G1 X139.02 Y161.48 E669.73092
G1 X141.04 Y163.96 E669.78405
G1 X143.48 Y165.96 E669.83651
G1 X146.28 Y167.46 E669.88933
G1 X149.29 Y168.38 E669.94171
G0 F12000 X149.20 Y168.66
G0 X148.70 Y171.62
G0 X148.64 Y171.92
G1 F2280 X144.92 Y170.79 E670.00622
G1 X141.50 Y168.96 E670.07070
G1 X138.50 Y166.50 E670.13531
G1 X136.04 Y163.50 E670.19993
G1 X134.24 Y160.14 E670.26320
G1 X133.08 Y156.36 E670.32892
G1 X132.70 Y152.50 E670.39346
G1 X133.08 Y148.64 E670.45803
G1 X134.21 Y144.92 E670.52254
G1 X136.00 Y141.56 E670.58589
G1 X138.50 Y138.50 E670.65157
G1 X141.50 Y136.04 E670.71623
G1 X144.92 Y134.21 E670.78070
G1 X148.64 Y133.08 E670.84522
G1 X152.50 Y132.70 E670.90979
G1 X156.36 Y133.08 E670.97436
G1 X160.08 Y134.21 E671.03887
G1 X163.45 Y136.01 E671.10252
G1 X166.50 Y138.50 E671.16795
G1 X168.96 Y141.50 E671.23256
G1 X170.76 Y144.86 E671.29584
G1 X171.92 Y148.64 E671.36155
G1 X172.30 Y152.50 E671.42609
G1 X171.92 Y156.36 E671.49066
G1 X170.79 Y160.08 E671.55517
G1 X168.96 Y163.50 E671.61965
G1 X166.50 Y166.50 E671.68426
G1 X163.50 Y168.96 E671.74888
G1 X160.08 Y170.79 E671.81335
G1 X156.36 Y171.92 E671.87787
G1 X152.50 Y172.30 E671.94244
G1 X148.64 Y171.92 E672.00701
G0 F12000 X148.68 Y171.78
;TYPE:FILL
G1 F2280 X151.70 Y168.76 E672.07808
G0 F12000 X152.22 Y168.81
G1 F2280 X149.19 Y171.83 E672.14916
G0 F12000 X149.71 Y171.88
G1 F2280 X152.78 Y168.81 E672.22144
G0 F12000 X153.41 Y168.75
G1 F2280 X150.22 Y171.93 E672.29633
G0 F12000 X150.74 Y171.98
G1 F2280 X154.04 Y168.69 E672.37388
G0 F12000 X154.66 Y168.63
G1 F2280 X151.25 Y172.03 E672.45403
G0 F12000 X151.77 Y172.09
G1 F2280 X155.29 Y168.56 E672.53682
G0 F12000 X155.99 Y168.43
G1 F2280 X152.28 Y172.14 E672.62394
G0 F12000 X152.86 Y172.12
G1 F2280 X156.80 Y168.19 E672.71645
G0 F12000 X157.61 Y167.94
G1 F2280 X153.49 Y172.06 E672.81326
G0 F12000 X154.12 Y172.00
G1 F2280 X158.42 Y167.70 E672.91436
G0 F12000 X159.47 Y167.21
G1 F2280 X154.75 Y171.94 E673.02542
G0 F12000 X155.37 Y171.88
G1 F2280 X160.69 Y166.56 E673.15035
G0 F12000 X160.76 Y166.71
G0 X161.70 Y166.31
G0 X162.53 Y165.51
G0 X162.43 Y165.39
G1 F2280 X156.00 Y171.81 E673.30142
G0 F12000 X156.71 Y171.66
G1 F2280 X171.66 Y156.72 E673.65303
G0 F12000 X171.81 Y156.00
G1 F2280 X165.40 Y162.41 E673.80374
G0 F12000 X165.53 Y162.51
G0 X166.29 Y161.74
G0 X166.70 Y160.77
G0 X166.56 Y160.69
G1 F2280 X171.87 Y155.37 E673.92881
G0 F12000 X171.94 Y154.75
G1 F2280 X167.21 Y159.47 E674.03991
G0 F12000 X167.69 Y158.42
G1 F2280 X172.00 Y154.12 E674.14113
G0 F12000 X172.06 Y153.49
G1 F2280 X167.94 Y157.61 E674.23796
G0 F12000 X168.19 Y156.80
G1 F2280 X172.12 Y152.87 E674.33044
G0 F12000 X172.13 Y152.28
G1 F2280 X168.44 Y155.98 E674.41743
G0 F12000 X168.56 Y155.29
G1 F2280 X172.09 Y151.77 E674.50021
G0 F12000 X172.03 Y151.25
G1 F2280 X168.63 Y154.66 E674.58033
G0 F12000 X168.69 Y154.03
G1 F2280 X171.98 Y150.74 E674.65782
G0 F12000 X171.93 Y150.22
G1 F2280 X168.75 Y153.41 E674.73268
G0 F12000 X168.81 Y152.78
G1 F2280 X171.88 Y149.71 E674.80489
G0 F12000 X171.83 Y149.19
G1 F2280 X168.81 Y152.22 E674.87593
G0 F12000 X168.76 Y151.70
G1 F2280 X171.78 Y148.68 E674.94696
G0 F12000 X171.65 Y148.25
G1 F2280 X168.71 Y151.19 E675.01609
G0 F12000 X168.66 Y150.67
G1 F2280 X171.52 Y147.81 E675.08328
G0 F12000 X171.38 Y147.38
G1 F2280 X168.61 Y150.15 E675.14852
G0 F12000 X168.56 Y149.64
G1 F2280 X171.25 Y146.95 E675.21179
G0 F12000 X171.12 Y146.51
G1 F2280 X168.48 Y149.16 E675.27389
G0 F12000 X168.34 Y148.72
G1 F2280 X170.98 Y146.08 E675.33594
G0 F12000 X170.85 Y145.65
G1 F2280 X168.21 Y148.29 E675.39796
G0 F12000 X168.08 Y147.85
G1 F2280 X170.72 Y145.22 E675.45992
G0 F12000 X170.57 Y144.80
G1 F2280 X167.95 Y147.42 E675.52139
G0 F12000 X167.82 Y146.98
G1 F2280 X170.37 Y144.44 E675.58130
G0 F12000 X170.17 Y144.07
G1 F2280 X167.69 Y146.55 E675.63965
G0 F12000 X167.54 Y146.13
G1 F2280 X169.97 Y143.70 E675.69697
G0 F12000 X169.78 Y143.33
G1 F2280 X167.34 Y145.76 E675.75426
G0 F12000 X167.14 Y145.40
G1 F2280 X169.58 Y142.96 E675.81158
G0 F12000 X169.38 Y142.59
G1 F2280 X166.95 Y145.03 E675.86890
G0 F12000 X166.75 Y144.66
G1 F2280 X169.19 Y142.22 E675.92622
G0 F12000 X168.99 Y141.85
G1 F2280 X166.55 Y144.29 E675.98357
G0 F12000 X166.35 Y143.92
G1 F2280 X168.78 Y141.50 E676.04052
G0 F12000 X168.52 Y141.19
G1 F2280 X166.16 Y143.55 E676.09610
G0 F12000 X165.92 Y143.22
G1 F2280 X168.27 Y140.88 E676.15128
G0 F12000 X168.01 Y140.57
G1 F2280 X165.67 Y142.91 E676.20644
G0 F12000 X165.41 Y142.60
G1 F2280 X167.76 Y140.26 E676.26158
G0 F12000 X167.50 Y139.95
G1 F2280 X165.16 Y142.29 E676.31671
G0 F12000 X164.90 Y141.98
G1 F2280 X167.25 Y139.63 E676.37186
G0 F12000 X166.99 Y139.32
G1 F2280 X164.65 Y141.67 E676.42700
G0 F12000 X164.39 Y141.36
G1 F2280 X166.74 Y139.01 E676.48212
G0 F12000 X166.48 Y138.70
G1 F2280 X164.14 Y141.05 E676.53726
G0 F12000 X163.85 Y140.77
G1 F2280 X166.19 Y138.43 E676.59243
G0 F12000 X165.88 Y138.18
G1 F2280 X163.54 Y140.52 E676.64755
G0 F12000 X163.22 Y140.26
G1 F2280 X165.57 Y137.92 E676.70268
G0 F12000 X165.26 Y137.67
G1 F2280 X162.91 Y140.01 E676.75778
G0 F12000 X162.60 Y139.75
G1 F2280 X164.95 Y137.41 E676.81286
G0 F12000 X164.63 Y137.16
G1 F2280 X162.29 Y139.50 E676.86793
G0 F12000 X161.98 Y139.24
G1 F2280 X164.32 Y136.90 E676.92298
G0 F12000 X164.01 Y136.65
G1 F2280 X161.67 Y138.99 E676.97803
G0 F12000 X161.32 Y138.78
G1 F2280 X163.70 Y136.40 E677.03408
G0 F12000 X163.39 Y136.14
G1 F2280 X160.95 Y138.58 E677.09145
G0 F12000 X160.58 Y138.38
G1 F2280 X163.02 Y135.94 E677.14888
G0 F12000 X162.65 Y135.74
G1 F2280 X160.21 Y138.19 E677.20632
G0 F12000 X159.84 Y137.99
G1 F2280 X162.28 Y135.55 E677.26371
G0 F12000 X161.92 Y135.35
G1 F2280 X159.48 Y137.79 E677.32112
G0 F12000 X159.11 Y137.59
G1 F2280 X161.55 Y135.15 E677.37853
G0 F12000 X161.18 Y134.96
G1 F2280 X158.74 Y137.40 E677.43602
G0 F12000 X158.30 Y137.27
G1 F2280 X160.81 Y134.76 E677.49504
G0 F12000 X160.44 Y134.56
G1 F2280 X157.87 Y137.14 E677.55561
G0 F12000 X157.43 Y137.00
G1 F2280 X160.07 Y134.37 E677.61769
G0 F12000 X159.65 Y134.22
G1 F2280 X157.00 Y136.87 E677.68000
G0 F12000 X156.57 Y136.74
G1 F2280 X159.22 Y134.09 E677.74230
G0 F12000 X158.78 Y133.96
G1 F2280 X156.13 Y136.61 E677.80460
G0 F12000 X155.70 Y136.47
G1 F2280 X158.35 Y133.83 E677.86684
G0 F12000 X157.91 Y133.70
G1 F2280 X155.19 Y136.42 E677.93098
G0 F12000 X154.67 Y136.37
G1 F2280 X157.48 Y133.57 E677.99701
G0 F12000 X157.04 Y133.43
G1 F2280 X154.16 Y136.32 E678.06496
G0 F12000 X153.64 Y136.27
G1 F2280 X156.61 Y133.30 E678.13483
G0 F12000 X156.15 Y133.20
G1 F2280 X153.12 Y136.22 E678.20587
G0 F12000 X152.61 Y136.17
G1 F2280 X155.63 Y133.15 E678.27696
G0 F12000 X155.12 Y133.10
G1 F2280 X152.01 Y136.21 E678.35010
G0 F12000 X151.38 Y136.27
G1 F2280 X154.60 Y133.05 E678.42588
G0 F12000 X154.09 Y133.00
G1 F2280 X150.75 Y136.33 E678.50429
G0 F12000 X150.13 Y136.39
G1 F2280 X153.57 Y132.95 E678.58533
G0 F12000 X153.06 Y132.90
G1 F2280 X149.50 Y136.45 E678.66901
G0 F12000 X148.74 Y136.65
G1 F2280 X152.54 Y132.84 E678.75846
G0 F12000 X151.92 Y132.90
G1 F2280 X147.93 Y136.89 E678.85242
G0 F12000 X147.12 Y137.14
G1 F2280 X151.30 Y132.96 E678.95065
G0 F12000 X150.67 Y133.02
G1 F2280 X146.31 Y137.38 E679.05319
G0 F12000 X145.12 Y138.00
G1 F2280 X150.04 Y133.08 E679.16891
G0 F12000 X149.41 Y133.15
G1 F2280 X143.91 Y138.65 E679.29845
G0 F12000 X143.83 Y138.51
G0 X141.43 Y140.34
G0 X141.53 Y140.46
G1 F2280 X148.79 Y133.21 E679.46906
G0 F12000 X148.01 Y133.42
G1 F2280 X133.42 Y148.01 E679.81233
G0 F12000 X133.21 Y148.79
G1 F2280 X140.46 Y141.54 E679.98279
G0 F12000 X140.33 Y141.44
G0 X138.52 Y143.82
G0 X138.66 Y143.90
G1 F2280 X133.15 Y149.41 E680.11252
G0 F12000 X133.08 Y150.04
G1 F2280 X138.01 Y145.12 E680.22831
G0 F12000 X137.39 Y146.30
G1 F2280 X133.02 Y150.67 E680.33099
G0 F12000 X132.96 Y151.30
G1 F2280 X137.14 Y147.12 E680.42932
G0 F12000 X136.89 Y147.93
G1 F2280 X132.90 Y151.92 E680.52327
G0 F12000 X132.85 Y152.54
G1 F2280 X136.65 Y148.74 E680.61264
G0 F12000 X136.45 Y149.50
G1 F2280 X132.90 Y153.06 E680.69627
G0 F12000 X132.95 Y153.57
G1 F2280 X136.39 Y150.13 E680.77727
G0 F12000 X136.33 Y150.75
G1 F2280 X133.00 Y154.09 E680.85564
G0 F12000 X133.05 Y154.60
G1 F2280 X136.27 Y151.38 E680.93139
G0 F12000 X136.21 Y152.01
G1 F2280 X133.10 Y155.12 E681.00448
G0 F12000 X133.15 Y155.63
G1 F2280 X136.17 Y152.61 E681.07552
G0 F12000 X136.22 Y153.13
G1 F2280 X133.20 Y156.15 E681.14655
G0 F12000 X133.31 Y156.61
G1 F2280 X136.27 Y153.64 E681.21633
G0 F12000 X136.32 Y154.16
G1 F2280 X133.44 Y157.04 E681.28416
G0 F12000 X133.57 Y157.47
G1 F2280 X136.37 Y154.67 E681.35007
G0 F12000 X136.42 Y155.19
G1 F2280 X133.70 Y157.91 E681.41402
G0 F12000 X133.84 Y158.34
G1 F2280 X136.48 Y155.70 E681.47614
G0 F12000 X136.61 Y156.13
G1 F2280 X133.97 Y158.77 E681.53822
G0 F12000 X134.10 Y159.20
G1 F2280 X136.74 Y156.57 E681.60026
G0 F12000 X136.87 Y157.00
G1 F2280 X134.24 Y159.64 E681.66225
G0 F12000 X134.37 Y160.07
G1 F2280 X137.00 Y157.44 E681.72420
G0 F12000 X137.13 Y157.87
G1 F2280 X134.56 Y160.44 E681.78464
G0 F12000 X134.76 Y160.81
G1 F2280 X137.26 Y158.31 E681.84352
G0 F12000 X137.40 Y158.74
G1 F2280 X134.96 Y161.18 E681.90088
G0 F12000 X135.16 Y161.55
G1 F2280 X137.59 Y159.11 E681.95820
G0 F12000 X137.79 Y159.48
G1 F2280 X135.35 Y161.91 E682.01551
G0 F12000 X135.55 Y162.28
G1 F2280 X137.99 Y159.85 E682.07283
G0 F12000 X138.18 Y160.21
G1 F2280 X135.75 Y162.65 E682.13017
G0 F12000 X135.94 Y163.02
G1 F2280 X138.38 Y160.58 E682.18749
G0 F12000 X138.58 Y160.95
G1 F2280 X136.14 Y163.39 E682.24482
G0 F12000 X136.39 Y163.70
G1 F2280 X138.78 Y161.32 E682.30089
G0 F12000 X138.99 Y161.67
G1 F2280 X136.65 Y164.01 E682.35606
G0 F12000 X136.90 Y164.32
G1 F2280 X139.25 Y161.98 E682.41122
G0 F12000 X139.50 Y162.29
G1 F2280 X137.16 Y164.64 E682.46639
G0 F12000 X137.41 Y164.95
G1 F2280 X139.75 Y162.60 E682.52154
G0 F12000 X140.01 Y162.91
G1 F2280 X137.66 Y165.26 E682.57668
G0 F12000 X137.92 Y165.57
G1 F2280 X140.26 Y163.22 E682.63180
G0 F12000 X140.52 Y163.54
G1 F2280 X138.18 Y165.88 E682.68693
G0 F12000 X138.43 Y166.19
G1 F2280 X140.77 Y163.85 E682.74207
G0 F12000 X141.05 Y164.14
G1 F2280 X138.70 Y166.48 E682.79723
G0 F12000 X139.01 Y166.74
G1 F2280 X141.36 Y164.39 E682.85241
G0 F12000 X141.67 Y164.65
G1 F2280 X139.32 Y166.99 E682.90756
G0 F12000 X139.63 Y167.25
G1 F2280 X141.98 Y164.90 E682.96270
G0 F12000 X142.29 Y165.16
G1 F2280 X139.95 Y167.50 E683.01785
G0 F12000 X140.26 Y167.76
G1 F2280 X142.60 Y165.41 E683.07300
G0 F12000 X142.91 Y165.67
G1 F2280 X140.57 Y168.01 E683.12815
G0 F12000 X140.88 Y168.27
G1 F2280 X143.22 Y165.92 E683.18329
G0 F12000 X143.56 Y166.15
G1 F2280 X141.19 Y168.52 E683.23898
G0 F12000 X141.50 Y168.78
G1 F2280 X143.93 Y166.35 E683.29602
G0 F12000 X144.29 Y166.55
G1 F2280 X141.85 Y168.99 E683.35344
G0 F12000 X142.22 Y169.19
G1 F2280 X144.66 Y166.75 E683.41085
G0 F12000 X145.03 Y166.94
G1 F2280 X142.59 Y169.38 E683.46826
G0 F12000 X142.96 Y169.58
G1 F2280 X145.40 Y167.14 E683.52562
G0 F12000 X145.77 Y167.34
G1 F2280 X143.33 Y169.78 E683.58301
G0 F12000 X143.70 Y169.98
G1 F2280 X146.13 Y167.54 E683.64036
G0 F12000 X146.55 Y167.69
G1 F2280 X144.06 Y170.17 E683.69886
G0 F12000 X144.43 Y170.37
G1 F2280 X146.99 Y167.82 E683.75890
G0 F12000 X147.42 Y167.95
G1 F2280 X144.80 Y170.57 E683.82049
G0 F12000 X145.20 Y170.73
G1 F2280 X147.85 Y168.08 E683.88277
G0 F12000 X148.29 Y168.21
G1 F2280 X145.64 Y170.86 E683.94507
G0 F12000 X146.07 Y170.99
G1 F2280 X148.72 Y168.34 E684.00738
G0 F12000 X149.15 Y168.48
G1 F2280 X146.51 Y171.13 E684.06966
G0 F12000 X146.94 Y171.26
G1 F2280 X149.64 Y168.56 E684.13316
G0 F12000 X150.15 Y168.61
G1 F2280 X147.37 Y171.39 E684.19856
G0 F12000 X147.81 Y171.52
G1 F2280 X150.67 Y168.66 E684.26588
G0 F12000 X151.19 Y168.71
G1 F2280 X148.24 Y171.65 E684.33509
G0 F12000 X148.29 Y171.50
G0 X157.48 Y171.26
G0 X157.53 Y171.42
G1 F2280 X171.42 Y157.53 E684.66179
G0 F12000 X171.17 Y158.34
G1 F2280 X158.34 Y171.17 E684.96358
G0 F12000 X159.15 Y170.93
G1 F2280 X170.93 Y159.15 E685.24048
G0 F12000 X170.68 Y159.96
G1 F2280 X159.96 Y170.68 E685.49248
G0 F12000 X161.15 Y170.06
G1 F2280 X170.06 Y161.15 E685.70194
G0 F12000 X169.41 Y162.37
G1 F2280 X162.37 Y169.41 E685.86752
G0 F12000 X162.29 Y169.26
G0 X163.75 Y168.37
G0 X163.85 Y168.49
G1 F2280 X168.49 Y163.85 E685.97660
G0 F12000 X168.37 Y163.75
G0 X169.10 Y152.50
G0 X168.78 Y149.28
G0 X167.83 Y146.14
G0 X166.31 Y143.30
G0 X164.24 Y140.76
G0 X161.74 Y138.71
G0 X158.87 Y137.17
G0 X155.75 Y136.22
G0 X152.50 Y135.90
G0 X147.25 Y133.82
G0 X147.20 Y133.66
G1 F2280 X133.66 Y147.20 E686.29496
G0 F12000 X133.91 Y146.39
G1 F2280 X146.39 Y133.91 E686.58843
G0 F12000 X145.57 Y134.16
G1 F2280 X134.16 Y145.57 E686.85699
G0 F12000 X134.51 Y144.66
G1 F2280 X144.66 Y134.51 E687.09566
G0 F12000 X143.44 Y135.16
G1 F2280 X135.16 Y143.44 E687.29041
G0 F12000 X135.81 Y142.23
G1 F2280 X142.22 Y135.81 E687.44128
G0 F12000 X142.30 Y135.95
G0 X140.20 Y137.50
G0 X140.09 Y137.37
G1 F2280 X137.41 Y140.06 E687.50450
G0 F12000 X138.07 Y140.60
;LAYER:2
G0 X138.71 Y138.71 Z1.20
G0 X138.50 Y138.50
;TYPE:WALL-OUTER
G1 F2520 X141.50 Y136.04 E687.56912
G1 X144.92 Y134.21 E687.63359
G1 X148.64 Y133.08 E687.69810
G1 X152.50 Y132.70 E687.76267
G1 X156.36 Y133.08 E687.82724
G1 X160.08 Y134.21 E687.89176
G1 X163.50 Y136.04 E687.95623
G1 X166.50 Y138.50 E688.02085
G1 X168.96 Y141.50 E688.08546
G1 X170.79 Y144.92 E688.14994
G1 X171.92 Y148.64 E688.21445
G1 X172.30 Y152.50 E688.27899
G1 X171.92 Y156.36 E688.34359
G1 X170.82 Y159.98 E688.40643
G1 X170.79 Y160.08 E688.40812
G1 X168.96 Y163.50 E688.47258
G1 X166.50 Y166.50 E688.53719
G1 X163.50 Y168.96 E688.60180
G1 X160.08 Y170.79 E688.66628
G1 X156.36 Y171.92 E688.73079
G1 X152.50 Y172.30 E688.79536
G1 X148.64 Y171.92 E688.85993
G1 X145.02 Y170.82 E688.92278
G1 X144.92 Y170.79 E688.92447
G1 X141.50 Y168.96 E688.98892
G1 X138.50 Y166.50 E689.05353
G1 X136.04 Y163.50 E689.11815
G1 X134.21 Y160.08 E689.18262
G1 X133.08 Y156.36 E689.24714
G1 X132.70 Y152.50 E689.31174
G1 X133.08 Y148.64 E689.37628
G1 X134.21 Y144.92 E689.44079
G1 X136.04 Y141.50 E689.50527
G1 X138.50 Y138.50 E689.56988
G0 F12000 X138.71 Y138.71
G0 X140.81 Y140.85
G0 X141.04 Y141.04
G1 F2520 X139.07 Y143.46 E689.62174
G1 X139.03 Y143.50 E689.62265
G1 X137.56 Y146.25 E689.67457
G1 X137.53 Y146.30 E689.67550
G1 X136.63 Y149.28 E689.72734
G1 X136.61 Y149.34 E689.72830
G1 X136.31 Y152.44 E689.78018
G1 X136.30 Y152.50 E689.78110
G1 X136.60 Y155.61 E689.83305
G1 X136.61 Y155.66 E689.83397
G1 X137.52 Y158.66 E689.88615
G1 X139.03 Y161.50 E689.93957
G1 X141.04 Y163.96 E689.99238
G1 X143.46 Y165.93 E690.04424
G1 X143.50 Y165.97 E690.04515
G1 X146.25 Y167.44 E690.09707
G1 X146.30 Y167.47 E690.09800
G1 X149.30 Y168.38 E690.15015
G1 X152.50 Y168.70 E690.20362
G1 X155.61 Y168.40 E690.25554
G1 X155.66 Y168.39 E690.25646
G1 X158.66 Y167.48 E690.30864
G1 X161.50 Y165.97 E690.36205
G1 X163.96 Y163.96 E690.41486
G1 X165.93 Y161.54 E690.46673
G1 X165.97 Y161.50 E690.46764
G1 X167.44 Y158.75 E690.51955
G1 X167.47 Y158.70 E690.52048
G1 X168.37 Y155.72 E690.57232
G1 X168.39 Y155.66 E690.57328
G1 X168.69 Y152.56 E690.62517
G1 X168.70 Y152.50 E690.62609
G1 X168.40 Y149.39 E690.67803
G1 X168.39 Y149.34 E690.67895
G1 X167.48 Y146.34 E690.73114
G1 X165.97 Y143.50 E690.78455
G1 X163.96 Y141.04 E690.83736
G1 X161.54 Y139.06 E690.88927
G1 X161.50 Y139.03 E690.89014
G1 X158.75 Y137.56 E690.94209
G1 X158.70 Y137.53 E690.94298
G1 X155.72 Y136.63 E690.99482
G1 X155.66 Y136.61 E690.99578
G1 X152.56 Y136.31 E691.04766
G1 X152.50 Y136.30 E691.04858
G1 X149.39 Y136.60 E691.10053
G1 X149.34 Y136.61 E691.10145
G1 X146.34 Y137.52 E691.15364
G1 X143.50 Y139.03 E691.20705
G1 X141.04 Y141.04 E691.25986
G0 F12000 X140.82 Y141.10
;TYPE:FILL
G1 F2520 X138.47 Y138.75 E691.31503
G0 F12000 X138.75 Y138.47
G1 F2520 X141.10 Y140.81 E691.37015
G0 F12000 X141.41 Y140.56
G1 F2520 X139.06 Y138.22 E691.42528
G0 F12000 X139.38 Y137.96
G1 F2520 X141.72 Y140.31 E691.48041
G0 F12000 X142.03 Y140.05
G1 F2520 X139.69 Y137.71 E691.53554
G0 F12000 X140.00 Y137.45
G1 F2520 X142.34 Y139.80 E691.59066
G0 F12000 X142.65 Y139.54
G1 F2520 X140.31 Y137.20 E691.64578
G0 F12000 X140.62 Y136.94
G1 F2520 X142.96 Y139.29 E691.70091
G0 F12000 X143.28 Y139.03
G1 F2520 X140.93 Y136.69 E691.75603
G0 F12000 X141.24 Y136.43
G1 F2520 X143.62 Y138.81 E691.81189
G0 F12000 X143.99 Y138.61
G1 F2520 X141.55 Y136.18 E691.86911
G0 F12000 X141.92 Y135.98
G1 F2520 X144.35 Y138.42 E691.92648
G0 F12000 X144.72 Y138.22
G1 F2520 X142.28 Y135.78 E691.98387
G0 F12000 X142.65 Y135.58
G1 F2520 X145.09 Y138.02 E692.04128
G0 F12000 X145.46 Y137.83
G1 F2520 X143.02 Y135.38 E692.09871
G0 F12000 X143.39 Y135.19
G1 F2520 X145.83 Y137.63 E692.15615
G0 F12000 X146.20 Y137.43
G1 F2520 X143.76 Y134.99 E692.21361
G0 F12000 X144.13 Y134.79
G1 F2520 X146.62 Y137.29 E692.27226
G0 F12000 X147.05 Y137.16
G1 F2520 X144.50 Y134.59 E692.33246
G0 F12000 X144.86 Y134.40
G1 F2520 X147.49 Y137.02 E692.39418
G0 F12000 X147.92 Y136.89
G1 F2520 X145.28 Y134.25 E692.45640
G0 F12000 X145.71 Y134.12
G1 F2520 X148.36 Y136.76 E692.51861
G0 F12000 X148.79 Y136.63
G1 F2520 X146.15 Y133.98 E692.58084
G0 F12000 X146.58 Y133.85
G1 F2520 X149.22 Y136.50 E692.64306
G0 F12000 X149.72 Y136.43
G1 F2520 X147.01 Y133.72 E692.70684
G0 F12000 X147.45 Y133.59
G1 F2520 X150.24 Y136.38 E692.77254
G0 F12000 X150.76 Y136.33
G1 F2520 X147.88 Y133.46 E692.84015
G0 F12000 X148.31 Y133.32
G1 F2520 X151.27 Y136.28 E692.90970
G0 F12000 X151.79 Y136.23
G1 F2520 X148.77 Y133.21 E692.98073
G0 F12000 X149.28 Y133.16
G1 F2520 X152.30 Y136.18 E693.05181
G0 F12000 X152.89 Y136.20
G1 F2520 X149.80 Y133.11 E693.12448
G0 F12000 X150.31 Y133.06
G1 F2520 X153.51 Y136.26 E693.19977
G0 F12000 X154.14 Y136.32
G1 F2520 X150.82 Y133.01 E693.27772
G0 F12000 X151.34 Y132.96
G1 F2520 X154.77 Y136.38 E693.35830
G0 F12000 X155.39 Y136.44
G1 F2520 X151.86 Y132.91 E693.44152
G0 F12000 X152.37 Y132.85
G1 F2520 X156.12 Y136.60 E693.52971
G0 F12000 X156.93 Y136.85
G1 F2520 X152.97 Y132.89 E693.62292
G0 F12000 X153.60 Y132.95
G1 F2520 X157.74 Y137.10 E693.72044
G0 F12000 X158.56 Y137.34
G1 F2520 X154.22 Y133.01 E693.82229
G0 F12000 X154.85 Y133.07
G1 F2520 X159.68 Y137.90 E693.93572
G0 F12000 X160.89 Y138.55
G1 F2520 X155.48 Y133.14 E694.06297
G0 F12000 X156.11 Y133.20
G1 F2520 X162.94 Y140.03 E694.22366
G0 F12000 X163.04 Y139.91
G0 X164.24 Y140.76
G0 X165.09 Y141.95
G0 X164.96 Y142.05
G1 F2520 X171.80 Y148.89 E694.38450
G0 F12000 X171.86 Y149.52
G1 F2520 X166.45 Y144.10 E694.51193
G0 F12000 X167.09 Y145.31
G1 F2520 X171.93 Y150.15 E694.62560
G0 F12000 X171.99 Y150.77
G1 F2520 X167.66 Y146.44 E694.72745
G0 F12000 X167.90 Y147.26
G1 F2520 X172.05 Y151.40 E694.82493
G0 F12000 X172.11 Y152.03
G1 F2520 X168.15 Y148.07 E694.91809
G0 F12000 X168.40 Y148.88
G1 F2520 X172.14 Y152.63 E695.00624
G0 F12000 X172.09 Y153.14
G1 F2520 X168.55 Y149.60 E695.08949
G0 F12000 X168.62 Y150.23
G1 F2520 X172.04 Y153.66 E695.17010
G0 F12000 X171.99 Y154.17
G1 F2520 X168.68 Y150.86 E695.24809
G0 F12000 X168.74 Y151.49
G1 F2520 X171.94 Y154.69 E695.32342
G0 F12000 X171.89 Y155.20
G1 F2520 X168.80 Y152.11 E695.39613
G0 F12000 X168.82 Y152.70
G1 F2520 X171.84 Y155.72 E695.46720
G0 F12000 X171.79 Y156.23
G1 F2520 X168.77 Y153.21 E695.53826
G0 F12000 X168.72 Y153.73
G1 F2520 X171.67 Y156.68 E695.60779
G0 F12000 X171.54 Y157.12
G1 F2520 X168.67 Y154.24 E695.67543
G0 F12000 X168.62 Y154.76
G1 F2520 X171.41 Y157.55 E695.74113
G0 F12000 X171.28 Y157.99
G1 F2520 X168.57 Y155.27 E695.80492
G0 F12000 X168.50 Y155.77
G1 F2520 X171.15 Y158.42 E695.86720
G0 F12000 X171.01 Y158.85
G1 F2520 X168.37 Y156.21 E695.92948
G0 F12000 X168.24 Y156.64
G1 F2520 X170.88 Y159.29 E695.99174
G0 F12000 X170.75 Y159.72
G1 F2520 X168.10 Y157.07 E696.05402
G0 F12000 X167.97 Y157.51
G1 F2520 X170.60 Y160.13 E696.11580
G0 F12000 X170.40 Y160.50
G1 F2520 X167.84 Y157.94 E696.17606
G0 F12000 X167.71 Y158.38
G1 F2520 X170.21 Y160.87 E696.23476
G0 F12000 X170.01 Y161.24
G1 F2520 X167.57 Y158.80 E696.29212
G0 F12000 X167.37 Y159.17
G1 F2520 X169.81 Y161.61 E696.34949
G0 F12000 X169.62 Y161.98
G1 F2520 X167.18 Y159.54 E696.40688
G0 F12000 X166.98 Y159.91
G1 F2520 X169.42 Y162.35 E696.46426
G0 F12000 X169.22 Y162.72
G1 F2520 X166.78 Y160.28 E696.52165
G0 F12000 X166.58 Y160.64
G1 F2520 X169.02 Y163.08 E696.57904
G0 F12000 X168.82 Y163.45
G1 F2520 X166.39 Y161.01 E696.63628
G0 F12000 X166.19 Y161.38
G1 F2520 X168.57 Y163.76 E696.69218
G0 F12000 X168.31 Y164.07
G1 F2520 X165.97 Y161.72 E696.74733
G0 F12000 X165.71 Y162.03
G1 F2520 X168.06 Y164.38 E696.80248
G0 F12000 X167.80 Y164.69
G1 F2520 X165.46 Y162.34 E696.85765
G0 F12000 X165.20 Y162.66
G1 F2520 X167.55 Y165.00 E696.91280
G0 F12000 X167.29 Y165.31
G1 F2520 X164.95 Y162.97 E696.96795
G0 F12000 X164.69 Y163.28
G1 F2520 X167.04 Y165.62 E697.02310
G0 F12000 X166.78 Y165.93
G1 F2520 X164.44 Y163.59 E697.07826
G0 F12000 X164.18 Y163.90
G1 F2520 X166.53 Y166.25 E697.13341
G0 F12000 X166.25 Y166.53
G1 F2520 X163.90 Y164.18 E697.18855
G0 F12000 X163.59 Y164.44
G1 F2520 X165.93 Y166.78 E697.24368
G0 F12000 X165.62 Y167.04
G1 F2520 X163.28 Y164.69 E697.29882
G0 F12000 X162.97 Y164.95
G1 F2520 X165.31 Y167.29 E697.35395
G0 F12000 X165.00 Y167.55
G1 F2520 X162.66 Y165.20 E697.40908
G0 F12000 X162.35 Y165.46
G1 F2520 X164.69 Y167.80 E697.46421
G0 F12000 X164.38 Y168.06
G1 F2520 X162.03 Y165.71 E697.51934
G0 F12000 X161.72 Y165.97
G1 F2520 X164.07 Y168.31 E697.57447
G0 F12000 X163.76 Y168.56
G1 F2520 X161.38 Y166.19 E697.63035
G0 F12000 X161.01 Y166.39
G1 F2520 X163.45 Y168.82 E697.68759
G0 F12000 X163.08 Y169.02
G1 F2520 X160.64 Y166.58 E697.74496
G0 F12000 X160.27 Y166.78
G1 F2520 X162.72 Y169.22 E697.80236
G0 F12000 X162.35 Y169.42
G1 F2520 X159.91 Y166.98 E697.85977
G0 F12000 X159.54 Y167.17
G1 F2520 X161.98 Y169.62 E697.91720
G0 F12000 X161.61 Y169.81
G1 F2520 X159.17 Y167.37 E697.97462
G0 F12000 X158.80 Y167.57
G1 F2520 X161.24 Y170.01 E698.03205
G0 F12000 X160.87 Y170.21
G1 F2520 X158.38 Y167.71 E698.09068
G0 F12000 X157.94 Y167.84
G1 F2520 X160.50 Y170.40 E698.15087
G0 F12000 X160.13 Y170.60
G1 F2520 X157.51 Y167.98 E698.21258
G0 F12000 X157.08 Y168.11
G1 F2520 X159.72 Y170.75 E698.27479
G0 F12000 X159.29 Y170.88
G1 F2520 X156.64 Y168.24 E698.33698
G0 F12000 X156.21 Y168.37
G1 F2520 X158.85 Y171.01 E698.39919
G0 F12000 X158.42 Y171.15
G1 F2520 X155.77 Y168.50 E698.46139
G0 F12000 X155.27 Y168.57
G1 F2520 X157.99 Y171.28 E698.52516
G0 F12000 X157.55 Y171.41
G1 F2520 X154.76 Y168.62 E698.59086
G0 F12000 X154.24 Y168.67
G1 F2520 X157.12 Y171.54 E698.65848
G0 F12000 X156.68 Y171.67
G1 F2520 X153.73 Y168.72 E698.72800
G0 F12000 X153.21 Y168.77
G1 F2520 X156.23 Y171.79 E698.79905
G0 F12000 X155.72 Y171.84
G1 F2520 X152.70 Y168.82 E698.87012
G0 F12000 X152.11 Y168.80
G1 F2520 X155.20 Y171.89 E698.94282
G0 F12000 X154.69 Y171.94
G1 F2520 X151.48 Y168.74 E699.01821
G0 F12000 X150.85 Y168.67
G1 F2520 X154.17 Y171.99 E699.09626
G0 F12000 X153.66 Y172.04
G1 F2520 X150.22 Y168.61 E699.17700
G0 F12000 X149.60 Y168.55
G1 F2520 X153.14 Y172.09 E699.26042
G0 F12000 X152.63 Y172.14
G1 F2520 X148.88 Y168.39 E699.34862
G0 F12000 X148.07 Y168.15
G1 F2520 X152.03 Y172.11 E699.44180
G0 F12000 X151.40 Y172.05
G1 F2520 X147.25 Y167.90 E699.53932
G0 F12000 X146.44 Y167.66
G1 F2520 X150.77 Y171.99 E699.64117
G0 F12000 X150.15 Y171.93
G1 F2520 X145.32 Y167.10 E699.75460
G0 F12000 X144.11 Y166.45
G1 F2520 X149.52 Y171.86 E699.88187
G0 F12000 X148.89 Y171.80
G1 F2520 X142.06 Y164.97 E700.04256
G0 F12000 X141.96 Y165.09
G0 X140.76 Y164.24
G0 X139.91 Y163.05
G0 X140.03 Y162.94
G1 F2520 X133.20 Y156.11 E700.20340
G0 F12000 X133.13 Y155.48
G1 F2520 X138.55 Y160.90 E700.33080
G0 F12000 X137.91 Y159.69
G1 F2520 X133.07 Y154.85 E700.44447
G0 F12000 X133.01 Y154.22
G1 F2520 X137.34 Y158.55 E700.54631
G0 F12000 X137.09 Y157.74
G1 F2520 X132.95 Y153.60 E700.64379
G0 F12000 X132.89 Y152.97
G1 F2520 X136.85 Y156.93 E700.73697
G0 F12000 X136.60 Y156.12
G1 F2520 X132.85 Y152.37 E700.82514
G0 F12000 X132.90 Y151.85
G1 F2520 X136.44 Y155.40 E700.90840
G0 F12000 X136.38 Y154.77
G1 F2520 X132.96 Y151.34 E700.98903
G0 F12000 X133.01 Y150.82
G1 F2520 X136.32 Y154.14 E701.06702
G0 F12000 X136.26 Y153.51
G1 F2520 X133.06 Y150.31 E701.14237
G0 F12000 X133.11 Y149.79
G1 F2520 X136.20 Y152.89 E701.21510
G0 F12000 X136.18 Y152.30
G1 F2520 X133.16 Y149.28 E701.28617
G0 F12000 X133.21 Y148.76
G1 F2520 X136.23 Y151.79 E701.35725
G0 F12000 X136.28 Y151.27
G1 F2520 X133.32 Y148.31 E701.42680
G0 F12000 X133.46 Y147.88
G1 F2520 X136.33 Y150.76 E701.49444
G0 F12000 X136.38 Y150.24
G1 F2520 X133.59 Y147.45 E701.56016
G0 F12000 X133.72 Y147.01
G1 F2520 X136.43 Y149.73 E701.62397
G0 F12000 X136.50 Y149.23
G1 F2520 X133.85 Y146.58 E701.68626
G0 F12000 X133.98 Y146.14
G1 F2520 X136.63 Y148.79 E701.74856
G0 F12000 X136.76 Y148.36
G1 F2520 X134.11 Y145.71 E701.81084
G0 F12000 X134.25 Y145.28
G1 F2520 X136.89 Y147.93 E701.87311
G0 F12000 X137.03 Y147.49
G1 F2520 X134.40 Y144.86 E701.93491
G0 F12000 X134.59 Y144.49
G1 F2520 X137.16 Y147.06 E701.99517
G0 F12000 X137.29 Y146.62
G1 F2520 X134.79 Y144.13 E702.05389
G0 F12000 X134.99 Y143.76
G1 F2520 X137.43 Y146.20 E702.11127
G0 F12000 X137.63 Y145.83
G1 F2520 X135.19 Y143.39 E702.16865
G0 F12000 X135.38 Y143.02
G1 F2520 X137.82 Y145.46 E702.22602
G0 F12000 X138.02 Y145.09
G1 F2520 X135.58 Y142.65 E702.28338
G0 F12000 X135.78 Y142.28
G1 F2520 X138.22 Y144.72 E702.34075
G0 F12000 X138.41 Y144.35
G1 F2520 X135.97 Y141.91 E702.39814
G0 F12000 X136.18 Y141.55
G1 F2520 X138.61 Y143.99 E702.45538
G0 F12000 X138.81 Y143.62
G1 F2520 X136.43 Y141.24 E702.51126
G0 F12000 X136.69 Y140.93
G1 F2520 X139.03 Y143.28 E702.56641
G0 F12000 X139.29 Y142.96
G1 F2520 X136.94 Y140.62 E702.62155
G0 F12000 X137.20 Y140.31
G1 F2520 X139.54 Y142.65 E702.67669
G0 F12000 X139.80 Y142.34
G1 F2520 X137.45 Y140.00 E702.73184
G0 F12000 X137.71 Y139.69
G1 F2520 X140.05 Y142.03 E702.78699
G0 F12000 X140.31 Y141.72
G1 F2520 X137.96 Y139.38 E702.84216
G0 F12000 X138.22 Y139.06
G1 F2520 X140.56 Y141.41 E702.89732
G0 F12000 X140.44 Y141.31
G0 X138.70 Y143.27
G0 X137.16 Y146.15
G0 X136.22 Y149.26
G0 X133.53 Y156.80
G0 X133.38 Y156.85
G1 F2520 X148.15 Y171.62 E703.24473
G0 F12000 X147.33 Y171.38
G1 F2520 X133.62 Y157.66 E703.56724
G0 F12000 X133.87 Y158.47
G1 F2520 X146.52 Y171.13 E703.86484
G0 F12000 X145.71 Y170.88
G1 F2520 X134.11 Y159.29 E704.13754
G0 F12000 X134.40 Y160.14
G1 F2520 X144.86 Y170.60 E704.38353
G0 F12000 X143.64 Y169.95
G1 F2520 X135.05 Y161.35 E704.58560
G0 F12000 X135.70 Y162.57
G1 F2520 X142.43 Y169.29 E704.74372
G0 F12000 X142.50 Y169.15
G0 X140.72 Y167.93
G0 X140.62 Y168.05
G1 F2520 X136.95 Y164.38 E704.83004
G0 F12000 X137.07 Y164.28
G0 X135.91 Y152.40
G0 X136.25 Y149.16
G0 X137.21 Y146.06
G0 X138.76 Y143.20
G0 X140.76 Y140.76
G0 X143.28 Y138.70
G0 X146.18 Y137.15
G0 X149.35 Y136.21
G0 X152.60 Y135.91
G0 X156.80 Y133.53
G0 X156.85 Y133.38
G1 F2520 X171.62 Y148.15 E705.17746
G0 F12000 X171.38 Y147.34
G1 F2520 X157.66 Y133.62 E705.49998
G0 F12000 X158.48 Y133.87
G1 F2520 X171.13 Y146.52 E705.79760
G0 F12000 X170.88 Y145.71
G1 F2520 X159.29 Y134.11 E706.07037
G0 F12000 X160.14 Y134.40
G1 F2520 X170.60 Y144.86 E706.31642
G0 F12000 X169.95 Y143.64
G1 F2520 X161.35 Y135.05 E706.51852
G0 F12000 X162.57 Y135.70
G1 F2520 X169.30 Y142.43 E706.67664
G0 F12000 X169.15 Y142.50
G0 X167.93 Y140.72
G0 X168.05 Y140.62
G1 F2520 X164.38 Y136.95 E706.76298
G0 F12000 X163.84 Y137.61
G1 F2400 E705.56298
G0 F12000 X143.85 Y144.10
;TYPE:WALL-OUTER
G1 F2400 E706.76298
G1 F2520 X143.85 Y145.23 E706.78182
G1 X143.83 Y145.29 E706.78283
G1 X143.80 Y145.33 E706.78369
G1 X143.00 Y145.77 E706.79879
G1 X142.84 Y145.81 E706.80161
G1 X142.67 Y145.77 E706.80440
G1 X141.87 Y145.33 E706.81957
G1 X141.84 Y145.29 E706.82043
G1 X141.82 Y145.24 E706.82138
G1 X141.82 Y144.10 E706.84023
G1 X141.84 Y144.04 E706.84124
G1 X141.87 Y144.01 E706.84206
G1 X142.67 Y143.57 E706.85718
G1 X142.83 Y143.53 E706.86000
G1 X143.00 Y143.57 E706.86279
G1 X143.80 Y144.01 E706.87799
G1 X143.83 Y144.05 E706.87880
G1 X143.85 Y144.10 E706.87976
G0 F12000 X143.71 Y144.56
;TYPE:FILL
G1 F2520 X142.83 Y143.68 E706.90053
G0 F12000 X142.44 Y143.85
G1 F2520 X143.71 Y145.12 E706.93041
G0 F12000 X143.40 Y145.38
G1 F2520 X142.07 Y144.05 E706.96169
G0 F12000 X141.96 Y144.50
G1 F2520 X143.04 Y145.58 E706.98709
G0 F12000 X142.28 Y145.39
G1 F2520 X141.96 Y145.07 E706.99464
G0 F12000 X142.97 Y144.79
G1 F2400 E705.79464
G0 F12000 X145.04 Y147.52
;TYPE:WALL-OUTER
G1 F2400 E706.99464
G1 F2520 X146.16 Y146.16 E707.02393
G1 X147.52 Y145.04 E707.05322
G1 X149.07 Y144.22 E707.08238
G1 X150.75 Y143.71 E707.11160
G1 X152.50 Y143.54 E707.14084
G1 X154.25 Y143.71 E707.17008
G1 X155.93 Y144.22 E707.19931
G1 X157.48 Y145.04 E707.22846
G1 X158.84 Y146.16 E707.25775
G1 X159.96 Y147.52 E707.28704
G1 X160.78 Y149.07 E707.31619
G1 X161.29 Y150.75 E707.34542
G1 X161.46 Y152.50 E707.37466
G1 X161.29 Y154.25 E707.40390
G1 X160.78 Y155.93 E707.43313
G1 X159.96 Y157.48 E707.46228
G1 X158.84 Y158.84 E707.49157
G1 X157.62 Y159.84 E707.51780
G1 X157.47 Y159.96 E707.52104
G1 X155.93 Y160.78 E707.55001
G1 X154.25 Y161.29 E707.57922
G1 X152.50 Y161.47 E707.60848
G1 X150.75 Y161.29 E707.63774
G1 X149.07 Y160.78 E707.66695
G1 X147.52 Y159.96 E707.69610
G1 X146.16 Y158.84 E707.72540
G1 X145.04 Y157.48 E707.75469
G1 X144.22 Y155.93 E707.78384
G1 X143.71 Y154.25 E707.81306
G1 X143.54 Y152.50 E707.84231
G1 X143.71 Y150.75 E707.87155
G1 X144.22 Y149.07 E707.90077
G1 X145.04 Y147.52 E707.92992
G0 F12000 X145.30 Y147.69
G0 X149.32 Y149.08
G0 X149.57 Y149.25
G1 F2520 X148.34 Y151.15 E707.96762
G1 X148.22 Y153.29 E708.00328
G1 X148.22 Y153.41 E708.00526
G1 X149.25 Y155.43 E708.04296
G1 X151.15 Y156.66 E708.08066
G1 X153.41 Y156.78 E708.11831
G1 X155.32 Y155.81 E708.15402
G1 X155.43 Y155.75 E708.15600
G1 X156.66 Y153.85 E708.19369
G1 X156.78 Y151.71 E708.22934
G1 X156.78 Y151.59 E708.23132
G1 X155.75 Y149.57 E708.26902
G1 X153.85 Y148.34 E708.30672
G1 X151.59 Y148.22 E708.34438
G1 X149.57 Y149.25 E708.38206
G0 F12000 X149.45 Y149.17
;TYPE:FILL
G1 F2520 X146.41 Y146.13 E708.45355
G0 F12000 X146.13 Y146.41
G1 F2520 X149.23 Y149.51 E708.52645
G0 F12000 X149.01 Y149.86
G1 F2520 X145.88 Y146.72 E708.60011
G0 F12000 X145.62 Y147.04
G1 F2520 X148.78 Y150.20 E708.67451
G0 F12000 X148.56 Y150.54
G1 F2520 X145.37 Y147.35 E708.74968
G0 F12000 X145.12 Y147.67
G1 F2520 X148.34 Y150.88 E708.82534
G0 F12000 X148.19 Y151.30
G1 F2520 X144.93 Y148.04 E708.90209
G0 F12000 X144.73 Y148.40
G1 F2520 X148.16 Y151.84 E708.98283
G0 F12000 X148.13 Y152.38
G1 F2520 X144.53 Y148.77 E709.06754
G0 F12000 X144.34 Y149.15
G1 F2520 X148.10 Y152.91 E709.15615
G0 F12000 X148.09 Y153.46
G1 F2520 X144.21 Y149.58 E709.24749
G0 F12000 X144.07 Y150.01
G1 F2520 X148.68 Y154.62 E709.35570
G0 F12000 X148.53 Y154.69
G0 X148.94 Y155.70
G0 X150.33 Y156.49
G0 X150.41 Y156.35
G1 F2520 X154.99 Y160.92 E709.46322
G0 F12000 X155.42 Y160.79
G1 F2520 X151.44 Y156.82 E709.55668
G0 F12000 X152.04 Y156.85
G1 F2520 X155.85 Y160.66 E709.64631
G0 F12000 X156.22 Y160.47
G1 F2520 X152.64 Y156.88 E709.73066
G0 F12000 X153.24 Y156.91
G1 F2520 X156.59 Y160.27 E709.80963
G0 F12000 X156.96 Y160.07
G1 F2520 X153.69 Y156.80 E709.88667
G0 F12000 X154.06 Y156.61
G1 F2520 X157.33 Y159.88 E709.96355
G0 F12000 X157.65 Y159.63
G1 F2520 X154.44 Y156.41 E710.03916
G0 F12000 X154.81 Y156.22
G1 F2520 X157.96 Y159.38 E710.11327
G0 F12000 X158.27 Y159.12
G1 F2520 X155.18 Y156.03 E710.18588
G0 F12000 X155.54 Y155.83
G1 F2520 X158.58 Y158.87 E710.25734
G0 F12000 X158.87 Y158.58
G1 F2520 X155.77 Y155.49 E710.33024
G0 F12000 X155.99 Y155.14
G1 F2520 X159.12 Y158.27 E710.40389
G0 F12000 X159.38 Y157.96
G1 F2520 X156.21 Y154.80 E710.47827
G0 F12000 X156.44 Y154.46
G1 F2520 X159.63 Y157.65 E710.55342
G0 F12000 X159.88 Y157.33
G1 F2520 X156.66 Y154.11 E710.62909
G0 F12000 X156.81 Y153.70
G1 F2520 X160.07 Y156.96 E710.70584
G0 F12000 X160.27 Y156.59
G1 F2520 X156.84 Y153.16 E710.78658
G0 F12000 X156.87 Y152.62
G1 F2520 X160.47 Y156.23 E710.87129
G0 F12000 X160.66 Y155.85
G1 F2520 X156.89 Y152.09 E710.95991
G0 F12000 X156.91 Y151.53
G1 F2520 X160.79 Y155.42 E711.05126
G0 F12000 X160.92 Y154.99
G1 F2520 X156.32 Y150.38 E711.15948
G0 F12000 X156.47 Y150.31
G0 X156.06 Y149.30
G0 X154.67 Y148.51
G0 X154.59 Y148.65
G1 F2520 X150.01 Y144.07 E711.26699
G0 F12000 X149.58 Y144.21
G1 F2520 X153.55 Y148.18 E711.36048
G0 F12000 X152.96 Y148.15
G1 F2520 X149.15 Y144.34 E711.45013
G0 F12000 X148.77 Y144.53
G1 F2520 X152.36 Y148.12 E711.53448
G0 F12000 X151.76 Y148.09
G1 F2520 X148.41 Y144.73 E711.61345
G0 F12000 X148.04 Y144.93
G1 F2520 X151.31 Y148.20 E711.69048
G0 F12000 X150.94 Y148.39
G1 F2520 X147.67 Y145.12 E711.76735
G0 F12000 X147.35 Y145.37
G1 F2520 X150.56 Y148.58 E711.84293
G0 F12000 X150.19 Y148.77
G1 F2520 X147.04 Y145.62 E711.91704
G0 F12000 X146.73 Y145.88
G1 F2520 X149.81 Y148.96 E711.98964
G0 F12000 X149.74 Y148.82
G0 X150.50 Y144.10
G0 X150.45 Y143.94
G1 F2520 X161.06 Y154.55 E712.23908
G0 F12000 X161.17 Y154.09
G1 F2520 X150.90 Y143.83 E712.48043
G0 F12000 X151.42 Y143.78
G1 F2520 X161.22 Y153.58 E712.71084
G0 F12000 X161.27 Y153.06
G1 F2520 X151.93 Y143.73 E712.93033
G0 F12000 X152.45 Y143.68
G1 F2520 X161.32 Y152.55 E713.13888
G0 F12000 X161.27 Y151.93
G1 F2520 X153.06 Y143.73 E713.33177
G0 F12000 X153.69 Y143.79
G1 F2520 X161.21 Y151.31 E713.50846
G0 F12000 X161.12 Y150.65
G1 F2520 X154.35 Y143.88 E713.66768
G0 F12000 X155.16 Y144.13
G1 F2520 X160.87 Y149.84 E713.80207
G0 F12000 X160.58 Y148.98
G1 F2520 X156.02 Y144.42 E713.90941
G0 F12000 X157.24 Y145.07
G1 F2520 X159.93 Y147.76 E713.97265
G0 F12000 X159.78 Y147.84
G0 X154.50 Y160.90
G0 X154.55 Y161.06
G1 F2520 X143.94 Y150.45 E714.22212
G0 F12000 X143.83 Y150.90
G1 F2520 X154.10 Y161.17 E714.46351
G0 F12000 X153.58 Y161.22
G1 F2520 X143.78 Y151.42 E714.69395
G0 F12000 X143.73 Y151.93
G1 F2520 X153.06 Y161.27 E714.91348
G0 F12000 X152.55 Y161.32
G1 F2520 X143.68 Y152.45 E715.12207
G0 F12000 X143.73 Y153.06
G1 F2520 X151.93 Y161.27 E715.31499
G0 F12000 X151.31 Y161.21
G1 F2520 X143.79 Y153.69 E715.49172
G0 F12000 X143.88 Y154.35
G1 F2520 X150.65 Y161.12 E715.65095
G0 F12000 X149.84 Y160.87
G1 F2520 X144.13 Y155.16 E715.78533
G0 F12000 X144.42 Y156.01
G1 F2520 X148.98 Y160.58 E715.89268
G0 F12000 X147.76 Y159.92
G1 F2520 X145.07 Y157.24 E715.95593
G0 F12000 X145.83 Y156.83
G1 F2400 E714.75593
G0 F12000 X149.84 Y141.24
;TYPE:WALL-OUTER
G1 F2400 E715.95593
G1 F2520 X149.68 Y141.19 E715.95877
G1 X149.56 Y141.07 E715.96156
G1 X149.10 Y140.28 E715.97670
G1 X149.09 Y140.23 E715.97754
G1 X149.10 Y140.18 E715.97849
G1 X149.69 Y139.20 E715.99743
G1 X149.73 Y139.16 E715.99837
G1 X149.78 Y139.15 E715.99918
G1 X150.69 Y139.19 E716.01434
G1 X150.85 Y139.24 E716.01715
G1 X150.97 Y139.36 E716.02003
G1 X151.43 Y140.14 E716.03512
G1 X151.44 Y140.19 E716.03596
G1 X151.43 Y140.25 E716.03691
G1 X150.84 Y141.22 E716.05585
G1 X150.80 Y141.26 E716.05679
G1 X150.75 Y141.27 E716.05760
G1 X149.84 Y141.24 E716.07276
G0 F12000 X149.87 Y141.10
;TYPE:FILL
G1 F2520 X149.56 Y140.79 E716.08002
G0 F12000 X149.40 Y140.52
G1 F2520 X150.59 Y139.32 E716.10815
G0 F12000 X150.34 Y139.31
G1 F2520 X151.27 Y140.24 E716.12991
G0 F12000 X151.06 Y140.59
G1 F2520 X149.78 Y139.32 E716.15989
G0 F12000 X149.57 Y139.67
G1 F2520 X150.84 Y140.94 E716.18986
G0 F12000 X150.46 Y141.12
G1 F2520 X149.36 Y140.02 E716.21566
G0 F12000 X150.30 Y140.35
G1 F2400 E715.01566
G0 F12000 X157.67 Y141.89
;TYPE:WALL-OUTER
G1 F2400 E716.21566
G1 F2520 X158.13 Y140.85 E716.23454
G1 X158.18 Y140.80 E716.23557
G1 X158.22 Y140.78 E716.23636
G1 X159.13 Y140.71 E716.25148
G1 X159.29 Y140.74 E716.25434
G1 X159.43 Y140.84 E716.25721
G1 X159.98 Y141.56 E716.27230
G1 X160.00 Y141.62 E716.27318
G1 X159.99 Y141.67 E716.27409
G1 X159.53 Y142.71 E716.29300
G1 X159.49 Y142.75 E716.29403
G1 X159.44 Y142.78 E716.29482
G1 X158.54 Y142.85 E716.30993
G1 X158.37 Y142.82 E716.31278
G1 X158.23 Y142.71 E716.31565
