;-- START GCODE --
;Sliced for Type A Machines Series 1
;Sliced at: Sat 11-04-2015 13:51:37
;Basic settings: Layer height: 0.05 Walls: 0.8 Fill: 25
;Print Speed: 80 Support: 0 
;Retraction Speed: 40 Retraction Distance: 1.2
;Print time: #P_TIME#
;Filament used: #F_AMNT#m #F_WGHT#g
;Filament cost: #F_COST#
M106 S255	 ;start with the fan on
G21        ;metric values
G90        ;absolute positioning
M106 S255    ;start with the fan on
G28     ;move to endstops
G29		;allows for auto-levelling
G1 X150 Y5  Z15.0 F12000 ;center and move the platform down 15mm
M109 S220 ;Heat To temp
G92 E0                  ;zero the extruded length
G1 F200 E30              ;extrude 30mm of feed stock
G92 E0                  ;zero the extruded length again
G1 X175 Y25  Z0 F12000 ;remove bugger
G1 X220 F12000 ;remove bugger
G1 X150 Y150  Z15 F12000 ;recenter and begin
G1 F12000

;Layer count: 96
;LAYER:0
M106 S255
G0 F12000 X141.46 Y141.46 Z0.25
;TYPE:SKIRT
G1 F1500 X143.47 Y139.80 E0.10842
G1 X143.83 Y139.51 E0.12754
G1 X146.52 Y138.07 E0.25457
G1 X149.46 Y137.18 E0.38196
G1 X152.04 Y136.93 E0.49012
G1 X152.49 Y136.88 E0.50868
G1 X155.10 Y137.14 E0.61770
G1 X155.56 Y137.19 E0.63689
G1 X158.47 Y138.07 E0.76369
G1 X160.77 Y139.30 E0.87200
G1 X161.18 Y139.52 E0.89112
G1 X163.18 Y141.16 E0.99883
G1 X163.54 Y141.45 E1.01818
G1 X165.20 Y143.47 E1.12669
G1 X165.49 Y143.83 E1.14580
G1 X166.71 Y146.11 E1.25334
G1 X166.71 Y146.11 E1.25339
G1 X166.93 Y146.52 E1.27267
G1 X167.82 Y149.45 E1.40021
G1 X168.12 Y152.50 E1.52746
G1 X167.82 Y155.55 E1.65470
G1 X167.06 Y158.04 E1.76315
G1 X166.93 Y158.48 E1.78225
G1 X165.49 Y161.18 E1.90923
G1 X163.84 Y163.19 E2.01738
G1 X163.55 Y163.54 E2.03650
G1 X161.53 Y165.20 E2.14495
G1 X161.17 Y165.49 E2.16407
G1 X158.47 Y166.93 E2.29120
G1 X155.55 Y167.82 E2.41846
G1 X152.50 Y168.12 E2.54571
G1 X149.45 Y167.82 E2.67296
G1 X146.96 Y167.06 E2.78136
G1 X146.52 Y166.93 E2.80053
G1 X143.82 Y165.49 E2.92749
G1 X141.81 Y163.84 E3.03556
G1 X141.46 Y163.55 E3.05474
G1 X139.51 Y161.17 E3.18219
G1 X138.29 Y158.88 E3.29026
G1 X138.07 Y158.48 E3.30917
G1 X137.18 Y155.55 E3.43671
G1 X136.88 Y152.50 E3.56391
G1 X137.14 Y149.90 E3.67248
G1 X137.19 Y149.44 E3.69167
G1 X138.07 Y146.52 E3.81855
G1 X139.30 Y144.23 E3.92683
G1 X139.52 Y143.82 E3.94590
G1 X141.46 Y141.46 E4.07305
G0 F12000 X141.74 Y141.74
G1 F1500 X143.72 Y140.11 E4.17979
G1 X144.05 Y139.85 E4.19728
G1 X146.68 Y138.44 E4.32108
G1 X149.53 Y137.58 E4.44517
G1 X152.06 Y137.33 E4.55082
G1 X152.49 Y137.28 E4.56866
G1 X155.06 Y137.53 E4.67598
G1 X155.48 Y137.58 E4.69354
G1 X158.32 Y138.44 E4.81707
G1 X160.58 Y139.65 E4.92372
G1 X160.96 Y139.85 E4.94125
G1 X162.93 Y141.47 E5.04736
G1 X163.26 Y141.74 E5.06503
G1 X164.89 Y143.72 E5.17185
G1 X165.15 Y144.05 E5.18937
G1 X166.36 Y146.31 E5.29571
G1 X166.36 Y146.31 E5.29576
G1 X166.56 Y146.67 E5.31301
G1 X167.42 Y149.53 E5.43724
G1 X167.72 Y152.50 E5.56123
G1 X167.42 Y155.47 E5.68517
G1 X166.68 Y157.93 E5.79197
G1 X166.55 Y158.33 E5.80946
G1 X165.15 Y160.95 E5.93318
G1 X163.53 Y162.93 E6.03968
G1 X163.26 Y163.26 E6.05714
G1 X161.27 Y164.89 E6.16400
G1 X160.95 Y165.15 E6.18143
G1 X158.32 Y166.56 E6.30529
G1 X155.47 Y167.42 E6.42929
G1 X152.50 Y167.72 E6.55328
G1 X149.53 Y167.42 E6.67724
G1 X147.07 Y166.68 E6.78402
G1 X146.67 Y166.55 E6.80151
G1 X144.05 Y165.15 E6.92522
G1 X142.07 Y163.53 E7.03151
G1 X141.74 Y163.26 E7.04921
G1 X139.85 Y160.95 E7.17339
G1 X138.64 Y158.69 E7.27980
G1 X138.64 Y158.69 E7.27984
G1 X138.44 Y158.33 E7.29718
G1 X137.58 Y155.47 E7.42141
G1 X137.28 Y152.50 E7.54540
G1 X137.53 Y149.94 E7.65225
G1 X137.58 Y149.52 E7.66977
G1 X138.44 Y146.68 E7.79344
G1 X139.65 Y144.41 E7.90007
G1 X139.85 Y144.05 E7.91748
G1 X141.74 Y141.74 E8.04138
G1 F2400 E6.84138
G0 F12000 X144.44 Y144.44
;TYPE:WALL-INNER
G1 F2400 E8.04138
G1 F1500 X146.13 Y143.05 E8.13234
G1 X148.14 Y141.97 E8.22713
G1 X150.28 Y141.32 E8.32004
G1 X152.46 Y141.11 E8.41106
G1 X152.50 Y141.10 E8.41303
G1 X154.67 Y141.32 E8.50364
G1 X154.72 Y141.32 E8.50577
G1 X156.86 Y141.97 E8.59863
G1 X158.79 Y143.00 E8.68959
G1 X158.83 Y143.02 E8.69146
G1 X160.52 Y144.41 E8.78254
G1 X160.56 Y144.44 E8.78455
G1 X161.95 Y146.13 E8.87542
G1 X163.01 Y148.10 E8.96828
G1 X163.03 Y148.14 E8.97021
G1 X163.68 Y150.28 E9.06312
G1 X163.90 Y152.50 E9.15598
G1 X163.68 Y154.72 E9.24885
G1 X163.04 Y156.81 E9.33974
G1 X161.98 Y158.83 E9.43463
G1 X160.59 Y160.52 E9.52559
G1 X160.56 Y160.56 E9.52759
G1 X158.83 Y161.97 E9.62036
G1 X156.86 Y163.03 E9.71332
G1 X154.72 Y163.68 E9.80617
G1 X152.50 Y163.90 E9.89904
G1 X150.28 Y163.68 E9.99191
G1 X148.19 Y163.04 E10.08279
G1 X146.17 Y161.97 E10.17770
G1 X144.44 Y160.56 E10.27055
G1 X143.03 Y158.83 E10.36341
G1 X141.99 Y156.90 E10.45440
G1 X141.97 Y156.86 E10.45633
G1 X141.32 Y154.72 E10.54924
G1 X141.10 Y152.50 E10.64210
G1 X141.32 Y150.33 E10.73284
G1 X141.32 Y150.28 E10.73497
G1 X141.97 Y148.14 E10.82787
G1 X143.00 Y146.21 E10.91875
G1 X143.02 Y146.17 E10.92069
G1 X144.44 Y144.44 E11.01366
G0 F12000 X145.31 Y145.26
G1 F1500 X144.08 Y146.76 E11.09431
G1 X144.02 Y146.83 E11.09815
G1 X143.09 Y148.57 E11.18001
G1 X142.52 Y150.42 E11.26064
G1 X142.49 Y150.50 E11.26431
G1 X142.31 Y152.41 E11.34393
G1 X142.30 Y152.50 E11.34769
G1 X142.48 Y154.40 E11.42690
G1 X142.49 Y154.49 E11.43074
G1 X143.06 Y156.37 E11.51264
G1 X144.00 Y158.14 E11.59575
G1 X145.26 Y159.69 E11.67882
G1 X146.76 Y160.92 E11.75944
G1 X146.83 Y160.98 E11.76328
G1 X148.57 Y161.91 E11.84520
G1 X150.43 Y162.48 E11.92600
G1 X150.51 Y162.51 E11.92985
G1 X152.19 Y162.67 E11.99999
G1 X152.50 Y162.70 E12.01278
G1 X154.41 Y162.51 E12.09244
G1 X154.50 Y162.50 E12.09625
G1 X156.37 Y161.94 E12.17774
G1 X158.14 Y161.00 E12.26088
G1 X159.69 Y159.74 E12.34392
G1 X160.92 Y158.24 E12.42457
G1 X160.98 Y158.17 E12.42841
G1 X161.91 Y156.43 E12.51033
G1 X162.48 Y154.58 E12.59094
G1 X162.51 Y154.50 E12.59461
G1 X162.69 Y152.59 E12.67419
G1 X162.70 Y152.50 E12.67791
G1 X162.52 Y150.60 E12.75733
G1 X162.51 Y150.51 E12.76104
G1 X161.95 Y148.68 E12.84047
G1 X161.93 Y148.60 E12.84414
G1 X161.00 Y146.86 E12.92609
G1 X159.74 Y145.31 E13.00913
G1 X158.24 Y144.07 E13.08990
G1 X158.17 Y144.02 E13.09362
G1 X156.43 Y143.09 E13.17550
G1 X154.58 Y142.52 E13.25615
G1 X154.50 Y142.49 E13.25982
G1 X152.59 Y142.31 E13.33940
G1 X152.50 Y142.30 E13.34316
G1 X150.60 Y142.48 E13.42250
G1 X150.51 Y142.49 E13.42621
G1 X148.69 Y143.05 E13.50558
G1 X148.60 Y143.07 E13.50941
G1 X146.86 Y144.00 E13.59129
G1 X145.31 Y145.26 E13.67432
G0 F12000 X145.59 Y145.55
;TYPE:WALL-OUTER
G1 F1500 X144.35 Y147.06 E13.75556
G1 X143.46 Y148.72 E13.83411
G1 X142.90 Y150.53 E13.91299
G1 X142.89 Y150.59 E13.91523
G1 X142.70 Y152.50 E13.99519
G1 X142.89 Y154.41 E14.07502
G1 X143.44 Y156.22 E14.15360
G1 X144.34 Y157.92 E14.23348
G1 X145.55 Y159.41 E14.31327
G1 X147.06 Y160.65 E14.39449
G1 X148.72 Y161.54 E14.47309
G1 X150.54 Y162.10 E14.55216
G1 X152.50 Y162.30 E14.63408
G1 X154.36 Y162.12 E14.71186
G1 X154.41 Y162.11 E14.71404
G1 X156.22 Y161.56 E14.79248
G1 X157.92 Y160.66 E14.87238
G1 X159.41 Y159.45 E14.95214
G1 X160.65 Y157.94 E15.03339
G1 X161.54 Y156.28 E15.11199
G1 X162.10 Y154.46 E15.19086
G1 X162.11 Y154.41 E15.19309
G1 X162.30 Y152.50 E15.27301
G1 X162.11 Y150.59 E15.35289
G1 X161.57 Y148.80 E15.43061
G1 X161.56 Y148.75 E15.43273
G1 X160.66 Y147.08 E15.51134
G1 X159.45 Y145.59 E15.59112
G1 X157.94 Y144.35 E15.67237
G1 X156.28 Y143.46 E15.75094
G1 X154.46 Y142.90 E15.82993
G1 X154.41 Y142.89 E15.83208
G1 X152.50 Y142.70 E15.91199
G1 X150.59 Y142.89 E15.99183
G1 X148.75 Y143.44 E16.07171
G1 X147.08 Y144.34 E16.15032
G1 X145.59 Y145.55 E16.23011
G0 F12000 X145.37 Y145.36
G0 X144.37 Y144.37
G0 X144.16 Y144.16
G1 F1500 X145.95 Y142.69 E16.32648
G1 X147.98 Y141.60 E16.42241
G1 X150.20 Y140.93 E16.51857
G1 X152.41 Y140.71 E16.61122
G1 X152.50 Y140.70 E16.61482
G1 X154.71 Y140.92 E16.70726
G1 X154.80 Y140.93 E16.71098
G1 X157.01 Y141.60 E16.80710
G1 X159.05 Y142.69 E16.90307
G1 X160.84 Y144.16 E16.99944
G1 X162.31 Y145.95 E17.09581
G1 X163.40 Y147.98 E17.19175
G1 X164.07 Y150.20 E17.28790
G1 X164.30 Y152.50 E17.38411
G1 X164.07 Y154.80 E17.48032
G1 X163.40 Y157.02 E17.57647
G1 X162.31 Y159.05 E17.67241
G1 X160.84 Y160.84 E17.76878
G1 X159.05 Y162.31 E17.86512
G1 X157.01 Y163.40 E17.96112
G1 X154.80 Y164.07 E18.05722
G1 X152.50 Y164.30 E18.15343
G1 X150.20 Y164.07 E18.24964
G1 X147.98 Y163.40 E18.34578
G1 X145.95 Y162.31 E18.44174
G1 X144.16 Y160.84 E18.53808
G1 X142.69 Y159.05 E18.63443
G1 X141.60 Y157.02 E18.73038
G1 X140.93 Y154.80 E18.82654
G1 X140.70 Y152.50 E18.92275
G1 X140.92 Y150.29 E19.01523
G1 X140.93 Y150.20 E19.01895
G1 X141.60 Y147.98 E19.11511
G1 X142.69 Y145.95 E19.21106
G1 X144.16 Y144.16 E19.30741
G0 F12000 X144.41 Y144.69
;TYPE:FILL
G1 F1500 X145.06 Y145.34 E19.34571
G0 F12000 X145.34 Y145.06
G1 F1500 X144.69 Y144.41 E19.38372
G0 F12000 X145.00 Y144.16
G1 F1500 X145.65 Y144.80 E19.42177
G0 F12000 X145.96 Y144.55
G1 F1500 X145.32 Y143.90 E19.45987
G0 F12000 X145.63 Y143.65
G1 F1500 X146.28 Y144.30 E19.49799
G0 F12000 X146.59 Y144.04
G1 F1500 X145.94 Y143.39 E19.53615
G0 F12000 X146.26 Y143.15
G1 F1500 X146.92 Y143.81 E19.57519
G0 F12000 X147.29 Y143.61
G1 F1500 X146.62 Y142.95 E19.61429
G0 F12000 X146.99 Y142.75
G1 F1500 X147.66 Y143.41 E19.65348
G0 F12000 X148.03 Y143.22
G1 F1500 X147.36 Y142.55 E19.69276
G0 F12000 X147.73 Y142.35
G1 F1500 X148.40 Y143.02 E19.73209
G0 F12000 X148.80 Y142.86
G1 F1500 X148.09 Y142.15 E19.77375
G0 F12000 X148.51 Y142.00
G1 F1500 X149.24 Y142.73 E19.81649
G0 F12000 X149.67 Y142.60
G1 F1500 X148.94 Y141.87 E19.85930
G0 F12000 X149.38 Y141.74
G1 F1500 X150.10 Y142.47 E19.90210
G0 F12000 X150.55 Y142.35
G1 F1500 X149.81 Y141.61 E19.94558
G0 F12000 X150.24 Y141.48
G1 F1500 X151.06 Y142.30 E19.99385
G0 F12000 X151.58 Y142.25
G1 F1500 X150.75 Y141.41 E20.04271
G0 F12000 X151.26 Y141.37
G1 F1500 X152.09 Y142.20 E20.09157
G0 F12000 X152.63 Y142.17
G1 F1500 X151.78 Y141.31 E20.14184
G0 F12000 X152.29 Y141.26
G1 F1500 X153.26 Y142.23 E20.19864
G0 F12000 X153.89 Y142.29
G1 F1500 X152.88 Y141.28 E20.25814
G0 F12000 X153.50 Y141.34
G1 F1500 X154.52 Y142.35 E20.31764
G0 F12000 X155.33 Y142.60
G1 F1500 X154.13 Y141.40 E20.38808
G0 F12000 X154.78 Y141.48
G1 F1500 X156.15 Y142.85 E20.46851
G0 F12000 X156.40 Y141.98
G1 F1500 X158.69 Y144.27 E20.60333
G0 F12000 X158.63 Y143.07
G1 F1500 X161.90 Y146.35 E20.79569
G0 F12000 X160.70 Y146.28
G1 F1500 X163.02 Y148.60 E20.93197
G0 F12000 X163.27 Y149.41
G1 F1500 X161.66 Y147.80 E21.02661
G0 F12000 X162.56 Y147.57
G1 F1500 X157.42 Y142.43 E21.32932
G0 F12000 X157.20 Y143.34
G1 F1500 X155.59 Y141.73 E21.42378
G0 F12000 X159.74 Y145.31
G0 X161.00 Y146.86
G0 X162.15 Y148.86
G1 F1500 X163.52 Y150.22 E21.50409
G0 F12000 X163.60 Y150.87
G1 F1500 X162.40 Y149.67 E21.57459
G0 F12000 X162.64 Y150.48
G1 F1500 X163.66 Y151.50 E21.63415
G0 F12000 X163.72 Y152.12
G1 F1500 X162.71 Y151.11 E21.69374
G0 F12000 X162.77 Y151.74
G1 F1500 X163.74 Y152.70 E21.75071
G0 F12000 X163.69 Y153.22
G1 F1500 X162.83 Y152.36 E21.80116
G0 F12000 X162.80 Y152.90
G1 F1500 X163.63 Y153.73 E21.85008
G0 F12000 X163.58 Y154.25
G1 F1500 X162.75 Y153.42 E21.89902
G0 F12000 X162.70 Y153.93
G1 F1500 X163.52 Y154.75 E21.94730
G0 F12000 X163.39 Y155.19
G1 F1500 X162.65 Y154.45 E21.99078
G0 F12000 X162.53 Y154.89
G1 F1500 X163.26 Y155.62 E22.03370
G0 F12000 X163.13 Y156.06
G1 F1500 X162.40 Y155.32 E22.07674
G0 F12000 X162.26 Y155.76
G1 F1500 X163.00 Y156.49 E22.11977
G0 F12000 X162.84 Y156.90
G1 F1500 X162.13 Y156.19 E22.16143
G0 F12000 X161.98 Y156.60
G1 F1500 X162.64 Y157.27 E22.20059
G0 F12000 X162.45 Y157.64
G1 F1500 X161.78 Y156.97 E22.23978
G0 F12000 X161.58 Y157.34
G1 F1500 X162.25 Y158.01 E22.27908
G0 F12000 X162.06 Y158.38
G1 F1500 X161.39 Y157.71 E22.31848
G0 F12000 X161.19 Y158.08
G1 F1500 X161.86 Y158.75 E22.35796
G0 F12000 X161.61 Y159.06
G1 F1500 X160.96 Y158.41 E22.39591
G0 F12000 X160.70 Y158.72
G1 F1500 X161.35 Y159.37 E22.43395
G0 F12000 X161.10 Y159.68
G1 F1500 X160.45 Y159.03 E22.47205
G0 F12000 X160.19 Y159.34
G1 F1500 X160.84 Y159.99 E22.51024
G0 F12000 X160.59 Y160.30
G1 F1500 X159.94 Y159.65 E22.54849
G0 F12000 X159.66 Y159.94
G1 F1500 X160.30 Y160.59 E22.58641
G0 F12000 X159.99 Y160.84
G1 F1500 X159.35 Y160.19 E22.62439
G0 F12000 X159.03 Y160.45
G1 F1500 X159.68 Y161.09 E22.66243
G0 F12000 X159.37 Y161.35
G1 F1500 X158.72 Y160.70 E22.70053
G0 F12000 X158.41 Y160.96
G1 F1500 X159.06 Y161.60 E22.73872
G0 F12000 X158.75 Y161.86
G1 F1500 X158.08 Y161.19 E22.77817
G0 F12000 X157.71 Y161.38
G1 F1500 X158.38 Y162.06 E22.81763
G0 F12000 X158.01 Y162.25
G1 F1500 X157.34 Y161.58 E22.85723
G0 F12000 X156.97 Y161.78
G1 F1500 X157.64 Y162.45 E22.89685
G0 F12000 X157.27 Y162.65
G1 F1500 X156.60 Y161.97 E22.93648
G0 F12000 X156.20 Y162.14
G1 F1500 X156.91 Y162.84 E22.97817
G0 F12000 X156.49 Y163.00
G1 F1500 X155.76 Y162.27 E23.02100
G0 F12000 X155.33 Y162.40
G1 F1500 X156.06 Y163.13 E23.06381
G0 F12000 X155.62 Y163.26
G1 F1500 X154.89 Y162.53 E23.10664
G0 F12000 X154.45 Y162.65
G1 F1500 X155.19 Y163.39 E23.15018
G0 F12000 X154.75 Y163.52
G1 F1500 X153.93 Y162.70 E23.19839
G0 F12000 X153.42 Y162.75
G1 F1500 X154.25 Y163.58 E23.24728
G0 F12000 X153.73 Y163.63
G1 F1500 X152.90 Y162.80 E23.29617
G0 F12000 X152.36 Y162.83
G1 F1500 X153.22 Y163.68 E23.34650
G0 F12000 X152.70 Y163.73
G1 F1500 X151.74 Y162.77 E23.40341
G0 F12000 X151.11 Y162.71
G1 F1500 X152.12 Y163.72 E23.46294
G0 F12000 X151.49 Y163.66
G1 F1500 X150.48 Y162.64 E23.52250
G0 F12000 X149.67 Y162.39
G1 F1500 X150.87 Y163.59 E23.59306
G0 F12000 X150.22 Y163.51
G1 F1500 X148.85 Y162.14 E23.67361
G0 F12000 X148.60 Y163.02
G1 F1500 X146.30 Y160.72 E23.80884
G0 F12000 X146.36 Y161.92
G1 F1500 X143.08 Y158.63 E24.00172
G0 F12000 X144.30 Y158.72
G1 F1500 X141.97 Y156.40 E24.13831
G0 F12000 X141.73 Y155.59
G1 F1500 X143.35 Y157.21 E24.23359
G0 F12000 X142.43 Y157.42
G1 F1500 X147.57 Y162.56 E24.53580
G0 F12000 X147.80 Y161.66
G1 F1500 X149.41 Y163.27 E24.63052
G0 F12000 X145.26 Y159.69
G0 X144.00 Y158.14
G0 X142.85 Y156.14
G1 F1500 X141.48 Y154.78 E24.71078
G0 F12000 X141.40 Y154.13
G1 F1500 X142.60 Y155.33 E24.78127
G0 F12000 X142.35 Y154.52
G1 F1500 X141.34 Y153.50 E24.84083
G0 F12000 X141.28 Y152.88
G1 F1500 X142.29 Y153.89 E24.90036
G0 F12000 X142.23 Y153.26
G1 F1500 X141.26 Y152.29 E24.95728
G0 F12000 X141.31 Y151.78
G1 F1500 X142.17 Y152.63 E25.00764
G0 F12000 X142.20 Y152.10
G1 F1500 X141.36 Y151.26 E25.05658
G0 F12000 X141.41 Y150.75
G1 F1500 X142.25 Y151.58 E25.10556
G0 F12000 X142.30 Y151.07
G1 F1500 X141.48 Y150.24 E25.15389
G0 F12000 X141.61 Y149.81
G1 F1500 X142.35 Y150.55 E25.19746
G0 F12000 X142.47 Y150.11
G1 F1500 X141.74 Y149.38 E25.24038
G0 F12000 X141.87 Y148.94
G1 F1500 X142.60 Y149.67 E25.28336
G0 F12000 X142.74 Y149.24
G1 F1500 X142.00 Y148.51 E25.32643
G0 F12000 X142.15 Y148.09
G1 F1500 X142.87 Y148.81 E25.36850
G0 F12000 X143.02 Y148.40
G1 F1500 X142.35 Y147.72 E25.40801
G0 F12000 X142.55 Y147.35
G1 F1500 X143.22 Y148.03 E25.44749
G0 F12000 X143.42 Y147.66
G1 F1500 X142.74 Y146.99 E25.48700
G0 F12000 X142.94 Y146.62
G1 F1500 X143.61 Y147.29 E25.52657
G0 F12000 X143.81 Y146.92
G1 F1500 X143.14 Y146.25 E25.56608
G0 F12000 X143.39 Y145.94
G1 F1500 X144.04 Y146.58 E25.60409
G0 F12000 X144.29 Y146.27
G1 F1500 X143.65 Y145.63 E25.64217
G0 F12000 X143.90 Y145.32
G1 F1500 X144.55 Y145.96 E25.68029
G0 F12000 X144.81 Y145.65
G1 F1500 X144.16 Y145.00 E25.71851
G1 F2400 E24.51851
G0 F12000 X146.44 Y147.55
;TYPE:WALL-INNER
G1 F2400 E25.71851
G1 F1500 X146.58 Y147.47 E25.72545
G1 X146.70 Y147.44 E25.73055
G1 X146.82 Y147.47 E25.73547
G1 X146.97 Y147.55 E25.74257
G1 X147.00 Y147.59 E25.74476
G1 X147.03 Y147.67 E25.74800
G1 X147.03 Y147.93 E25.75914
G1 X147.00 Y148.01 E25.76251
G1 X146.97 Y148.05 E25.76460
G1 X146.82 Y148.13 E25.77171
G1 X146.70 Y148.16 E25.77663
G1 X146.58 Y148.13 E25.78174
G1 X146.43 Y148.05 E25.78879
G1 X146.40 Y148.01 E25.79083
G1 X146.38 Y147.94 E25.79410
G1 X146.38 Y147.66 E25.80537
G1 X146.40 Y147.59 E25.80851
G1 X146.44 Y147.55 E25.81078
G0 F12000 X146.18 Y147.24
;TYPE:WALL-OUTER
G1 F1500 X146.44 Y147.09 E25.82305
G1 X146.70 Y147.03 E25.83439
G1 X146.96 Y147.09 E25.84565
G1 X147.22 Y147.24 E25.85806
G1 X147.35 Y147.39 E25.86636
G1 X147.43 Y147.59 E25.87535
G1 X147.43 Y148.00 E25.89239
G1 X147.35 Y148.21 E25.90151
G1 X147.23 Y148.36 E25.90971
G1 X146.97 Y148.51 E25.92209
G1 X146.70 Y148.57 E25.93339
G1 X146.44 Y148.50 E25.94480
G1 X146.18 Y148.37 E25.95694
G1 X146.05 Y148.21 E25.96533
G1 X145.98 Y148.01 E25.97430
G1 X145.97 Y147.60 E25.99138
G1 X146.05 Y147.39 E26.00041
G1 X146.18 Y147.24 E26.00873
G0 F12000 X146.53 Y147.66
;TYPE:FILL
G1 F1500 X146.83 Y147.96 E26.02649
G1 F2400 E24.82649
G0 F12000 X148.43 Y149.78
;TYPE:WALL-INNER
G1 F2400 E26.02649
G1 F1500 X149.04 Y149.03 E26.06678
G1 X149.78 Y148.43 E26.10645
G1 X150.63 Y147.98 E26.14648
G1 X151.55 Y147.70 E26.18646
G1 X152.38 Y147.62 E26.22130
G1 X152.50 Y147.60 E26.22635
G1 X153.34 Y147.68 E26.26111
G1 X153.45 Y147.70 E26.26608
G1 X154.37 Y147.98 E26.30606
G1 X155.12 Y148.37 E26.34105
G1 X155.22 Y148.43 E26.34590
G1 X155.96 Y149.04 E26.38588
G1 X156.57 Y149.78 E26.42564
G1 X157.03 Y150.63 E26.46588
G1 X157.27 Y151.43 E26.50076
G1 X157.30 Y151.54 E26.50563
G1 X157.38 Y152.38 E26.54059
G1 X157.40 Y152.50 E26.54553
G1 X157.32 Y153.33 E26.58036
G1 X157.30 Y153.46 E26.58542
G1 X157.06 Y154.26 E26.62030
G1 X157.02 Y154.37 E26.62536
G1 X156.63 Y155.12 E26.66029
G1 X156.57 Y155.22 E26.66520
G1 X156.04 Y155.87 E26.70015
G1 X155.96 Y155.96 E26.70505
G1 X155.31 Y156.50 E26.74012
G1 X155.22 Y156.57 E26.74526
G1 X154.37 Y157.02 E26.78501
G1 X153.57 Y157.27 E26.82002
G1 X153.46 Y157.30 E26.82486
G1 X152.62 Y157.38 E26.85995
G1 X152.50 Y157.40 E26.86488
G1 X151.66 Y157.31 E26.89968
G1 X151.54 Y157.30 E26.90469
G1 X150.74 Y157.06 E26.93957
G1 X150.62 Y157.02 E26.94467
G1 X149.88 Y156.63 E26.97960
G1 X149.78 Y156.57 E26.98431
G1 X149.13 Y156.04 E27.01949
G1 X149.04 Y155.96 E27.02439
G1 X148.43 Y155.22 E27.06442
G1 X147.98 Y154.37 E27.10430
G1 X147.70 Y153.45 E27.14428
G1 X147.62 Y152.62 E27.17912
G1 X147.60 Y152.50 E27.18417
G1 X147.68 Y151.66 E27.21892
G1 X147.70 Y151.55 E27.22390
G1 X147.98 Y150.63 E27.26388
G1 X148.37 Y149.88 E27.29881
G1 X148.43 Y149.78 E27.30357
G0 F12000 X149.65 Y151.35
G1 F1500 X149.53 Y151.53 E27.31273
G1 X149.46 Y152.92 E27.37047
G1 X149.44 Y153.14 E27.37976
G1 X150.18 Y154.59 E27.44716
G1 X151.53 Y155.47 E27.51443
G1 X153.15 Y155.56 E27.58162
G1 X154.40 Y154.92 E27.63980
G1 X154.59 Y154.82 E27.64895
G1 X155.47 Y153.46 E27.71607
G1 X155.54 Y152.08 E27.77373
G1 X155.56 Y151.86 E27.78302
G1 X154.82 Y150.41 E27.85048
G1 X153.65 Y149.65 E27.90861
G1 X153.47 Y149.53 E27.91771
G1 X151.85 Y149.44 E27.98494
G1 X150.41 Y150.18 E28.05218
G1 X149.65 Y151.35 E28.11018
G0 F12000 X149.92 Y151.66
;TYPE:WALL-OUTER
G1 F1500 X149.86 Y152.95 E28.16368
G1 X149.85 Y153.06 E28.16839
G1 X150.49 Y154.31 E28.22673
G1 X151.66 Y155.08 E28.28507
G1 X153.06 Y155.15 E28.34336
G1 X154.21 Y154.56 E28.39702
G1 X154.31 Y154.51 E28.40170
G1 X155.08 Y153.34 E28.45999
G1 X155.14 Y152.05 E28.51344
G1 X155.15 Y151.94 E28.51815
G1 X154.51 Y150.69 E28.57655
G1 X153.34 Y149.92 E28.63489
G1 X151.94 Y149.85 E28.69318
G1 X150.69 Y150.49 E28.75149
G1 X149.92 Y151.66 E28.80979
G0 F12000 X149.63 Y151.65
G0 X147.88 Y150.59
G0 X147.60 Y150.47
G1 F1500 X148.09 Y149.56 E28.85285
G1 X148.75 Y148.75 E28.89622
G1 X149.56 Y148.09 E28.93953
G1 X150.47 Y147.60 E28.98256
G1 X151.47 Y147.30 E29.02575
G1 X152.50 Y147.20 E29.06894
G1 X153.53 Y147.30 E29.11217
G1 X154.53 Y147.60 E29.15529
G1 X155.44 Y148.09 E29.19835
G1 X156.25 Y148.75 E29.24169
G1 X156.91 Y149.56 E29.28494
G1 X157.40 Y150.47 E29.32819
G1 X157.70 Y151.47 E29.37121
G1 X157.80 Y152.50 E29.41444
G1 X157.70 Y153.53 E29.45763
G1 X157.40 Y154.53 E29.50081
G1 X156.91 Y155.44 E29.54386
G1 X156.25 Y156.25 E29.58717
G1 X155.57 Y156.80 E29.62377
G1 X155.44 Y156.91 E29.63078
G1 X154.53 Y157.40 E29.67356
G1 X153.54 Y157.70 E29.71666
G1 X152.50 Y157.80 E29.75994
G1 X151.47 Y157.70 E29.80317
G1 X150.47 Y157.40 E29.84631
G1 X149.56 Y156.91 E29.88934
G1 X148.75 Y156.25 E29.93267
G1 X148.09 Y155.44 E29.97601
G1 X147.60 Y154.53 E30.01903
G1 X147.30 Y153.53 E30.06223
G1 X147.20 Y152.50 E30.10542
G1 X147.30 Y151.47 E30.14865
G1 X147.60 Y150.47 E30.19176
G0 F12000 X148.11 Y150.66
;TYPE:FILL
G1 F1500 X149.37 Y151.91 E30.26558
G0 F12000 X149.44 Y151.42
G1 F1500 X148.31 Y150.29 E30.33179
G0 F12000 X148.51 Y149.92
G1 F1500 X149.66 Y151.07 E30.39952
G0 F12000 X149.88 Y150.73
G1 F1500 X148.75 Y149.60 E30.46596
G0 F12000 X149.01 Y149.29
G1 F1500 X150.11 Y150.39 E30.53046
G0 F12000 X150.34 Y150.06
G1 F1500 X149.29 Y149.01 E30.59208
G0 F12000 X149.60 Y148.75
G1 F1500 X150.71 Y149.87 E30.65740
G0 F12000 X151.09 Y149.67
G1 F1500 X149.93 Y148.51 E30.72581
G0 F12000 X150.29 Y148.31
G1 F1500 X151.46 Y149.48 E30.79463
G0 F12000 X151.85 Y149.30
G1 F1500 X150.66 Y148.12 E30.86448
G0 F12000 X151.09 Y147.98
G1 F1500 X152.44 Y149.33 E30.94409
G0 F12000 X153.04 Y149.37
G1 F1500 X151.53 Y147.85 E31.03334
G0 F12000 X152.03 Y147.79
G1 F1500 X153.86 Y149.62 E31.14088
G0 F12000 X154.95 Y148.44
G1 F1500 X156.56 Y150.05 E31.23548
G0 F12000 X157.01 Y151.07
G1 F1500 X153.93 Y147.99 E31.41711
G0 F12000 X153.18 Y147.81
G1 F1500 X157.19 Y151.81 E31.65258
G0 F12000 X157.25 Y152.44
G1 F1500 X152.56 Y147.75 E31.92852
G0 F12000 X155.32 Y151.07
G1 F1500 X157.21 Y152.97 E32.03982
G0 F12000 X157.15 Y153.47
G1 F1500 X155.69 Y152.01 E32.12584
G0 F12000 X155.66 Y152.55
G1 F1500 X157.02 Y153.91 E32.20586
G0 F12000 X156.88 Y154.34
G1 F1500 X155.63 Y153.08 E32.27962
G0 F12000 X155.56 Y153.58
G1 F1500 X156.69 Y154.71 E32.34591
G0 F12000 X156.49 Y155.07
G1 F1500 X155.34 Y153.92 E32.41364
G0 F12000 X155.12 Y154.27
G1 F1500 X156.25 Y155.40 E32.48008
G0 F12000 X155.99 Y155.71
G1 F1500 X154.89 Y154.61 E32.54464
G0 F12000 X154.66 Y154.94
G1 F1500 X155.71 Y155.99 E32.60626
G0 F12000 X155.40 Y156.24
G1 F1500 X154.28 Y155.13 E32.67158
G0 F12000 X153.91 Y155.32
G1 F1500 X155.07 Y156.49 E32.74008
G0 F12000 X154.71 Y156.69
G1 F1500 X153.53 Y155.51 E32.80893
G0 F12000 X153.15 Y155.69
G1 F1500 X154.34 Y156.88 E32.87884
G0 F12000 X153.91 Y157.02
G1 F1500 X152.55 Y155.66 E32.95851
G0 F12000 X151.96 Y155.63
G1 F1500 X153.47 Y157.15 E33.04776
G0 F12000 X152.97 Y157.21
G1 F1500 X151.13 Y155.38 E33.15556
G0 F12000 X150.05 Y156.56
G1 F1500 X148.44 Y154.95 E33.25022
G0 F12000 X147.99 Y153.93
G1 F1500 X151.07 Y157.01 E33.43185
G0 F12000 X151.81 Y157.19
G1 F1500 X147.81 Y153.18 E33.66721
G0 F12000 X147.75 Y152.56
G1 F1500 X152.44 Y157.25 E33.94302
G0 F12000 X149.68 Y153.93
G1 F1500 X147.79 Y152.03 E34.05444
G0 F12000 X147.85 Y151.53
G1 F1500 X149.31 Y152.99 E34.14063
G0 F12000 X149.34 Y152.45
G1 F1500 X147.98 Y151.09 E34.22074
G1 F2400 E33.02074
G0 F12000 X150.98 Y145.44
;TYPE:WALL-INNER
G1 F2400 E34.22074
G1 F1500 X150.89 Y145.35 E34.22586
G1 X150.80 Y145.20 E34.23290
G1 X150.80 Y145.15 E34.23492
G1 X150.81 Y145.07 E34.23831
G1 X150.95 Y144.84 E34.24943
G1 X151.01 Y144.79 E34.25294
G1 X151.06 Y144.78 E34.25483
G1 X151.23 Y144.78 E34.26187
G1 X151.34 Y144.82 E34.26696
G1 X151.43 Y144.91 E34.27207
G1 X151.52 Y145.05 E34.27908
G1 X151.52 Y145.10 E34.28097
G1 X151.51 Y145.18 E34.28448
G1 X151.37 Y145.41 E34.29558
G1 X151.31 Y145.46 E34.29900
G1 X151.26 Y145.48 E34.30108
G1 X151.09 Y145.47 E34.30803
G1 X150.98 Y145.44 E34.31308
G0 F12000 X150.76 Y145.79
;TYPE:WALL-OUTER
G1 F1500 X150.57 Y145.59 E34.32457
G1 X150.42 Y145.34 E34.33678
G1 X150.39 Y145.14 E34.34515
G1 X150.43 Y144.93 E34.35413
G1 X150.64 Y144.58 E34.37112
G1 X150.81 Y144.44 E34.38037
G1 X151.00 Y144.37 E34.38852
G1 X151.29 Y144.38 E34.40080
G1 X151.56 Y144.47 E34.41225
G1 X151.75 Y144.66 E34.42354
G1 X151.90 Y144.91 E34.43580
G1 X151.93 Y145.11 E34.44400
G1 X151.89 Y145.32 E34.45303
G1 X151.68 Y145.68 E34.47016
G1 X151.51 Y145.81 E34.47929
G1 X151.32 Y145.88 E34.48753
G1 X151.03 Y145.87 E34.49977
G1 X150.76 Y145.79 E34.51109
G0 F12000 X150.97 Y145.31
G1 F2400 E33.31109
G0 F12000 X155.95 Y146.06
;TYPE:WALL-INNER
G1 F2400 E34.51109
G1 F1500 X156.06 Y145.81 E34.52244
G1 X156.11 Y145.75 E34.52562
G1 X156.16 Y145.73 E34.52785
G1 X156.33 Y145.72 E34.53486
G1 X156.44 Y145.74 E34.53967
G1 X156.54 Y145.82 E34.54512
G1 X156.64 Y145.95 E34.55194
G1 X156.66 Y146.00 E34.55402
G1 X156.65 Y146.07 E34.55723
G1 X156.54 Y146.32 E34.56868
G1 X156.49 Y146.38 E34.57185
G1 X156.44 Y146.40 E34.57397
G1 X156.28 Y146.42 E34.58086
G1 X156.15 Y146.39 E34.58609
G1 X156.06 Y146.32 E34.59119
G1 X155.96 Y146.19 E34.59807
G1 X155.94 Y146.14 E34.60019
G1 X155.95 Y146.06 E34.60345
G0 F12000 X155.55 Y145.96
;TYPE:WALL-OUTER
G1 F1500 X155.72 Y145.58 E34.62063
G1 X155.87 Y145.43 E34.62974
G1 X156.05 Y145.34 E34.63794
G1 X156.34 Y145.31 E34.65009
G1 X156.61 Y145.36 E34.66150
G1 X156.83 Y145.53 E34.67296
G1 X157.01 Y145.77 E34.68532
G1 X157.06 Y145.96 E34.69344
G1 X157.05 Y146.17 E34.70245
G1 X156.88 Y146.55 E34.71968
G1 X156.73 Y146.71 E34.72871
G1 X156.55 Y146.79 E34.73695
G1 X156.26 Y146.82 E34.74913
G1 X155.99 Y146.77 E34.76062
G1 X155.77 Y146.60 E34.77212
G1 X155.59 Y146.37 E34.78419
G1 X155.54 Y146.18 E34.79256
G1 X155.55 Y145.96 E34.80148
G0 F12000 X156.14 Y145.96
;TYPE:FILL
G1 F1500 X156.42 Y146.24 E34.81801
G1 F2400 E33.61801
G0 F12000 X159.28 Y149.66
;TYPE:WALL-INNER
G1 F2400 E34.81801
G1 F1500 X159.37 Y149.59 E34.82306
G1 X159.49 Y149.56 E34.82827
G1 X159.66 Y149.57 E34.83515
G1 X159.71 Y149.60 E34.83736
G1 X159.76 Y149.65 E34.84065
G1 X159.88 Y149.90 E34.85176
G1 X159.88 Y149.98 E34.85510
G1 X159.87 Y150.03 E34.85730
G1 X159.77 Y150.16 E34.86429
G1 X159.68 Y150.24 E34.86929
G1 X159.55 Y150.26 E34.87446
G1 X159.39 Y150.25 E34.88133
G1 X159.34 Y150.23 E34.88362
G1 X159.28 Y150.17 E34.88680
G1 X159.17 Y149.93 E34.89794
G1 X159.16 Y149.85 E34.90141
G1 X159.18 Y149.80 E34.90351
G1 X159.28 Y149.66 E34.91042
G0 F12000 X158.98 Y149.39
;TYPE:WALL-OUTER
G1 F1500 X159.20 Y149.21 E34.92189
G1 X159.46 Y149.16 E34.93316
G1 X159.76 Y149.18 E34.94553
G1 X159.94 Y149.27 E34.95377
G1 X160.09 Y149.42 E34.96276
G1 X160.27 Y149.79 E34.97993
G1 X160.29 Y150.01 E34.98899
G1 X160.24 Y150.20 E34.99725
G1 X160.06 Y150.44 E35.00951
G1 X159.85 Y150.61 E35.02095
G1 X159.58 Y150.66 E35.03222
G1 X159.29 Y150.65 E35.04459
G1 X159.11 Y150.56 E35.05287
G1 X158.95 Y150.41 E35.06189
G1 X158.78 Y150.03 E35.07897
G1 X158.76 Y149.82 E35.08807
G1 X158.81 Y149.62 E35.09632
G1 X158.98 Y149.39 E35.10854
G0 F12000 X159.32 Y149.75
G1 F2400 E33.90854
G0 F12000 X159.61 Y154.57
;TYPE:WALL-INNER
G1 F2400 E35.10854
G1 F1500 X159.73 Y154.62 E35.11382
G1 X159.86 Y154.72 E35.12060
G1 X159.89 Y154.76 E35.12273
G1 X159.90 Y154.84 E35.12603
G1 X159.86 Y155.11 E35.13739
G1 X159.82 Y155.17 E35.14052
G1 X159.78 Y155.21 E35.14284
G1 X159.63 Y155.26 E35.14964
G1 X159.50 Y155.28 E35.15478
G1 X159.39 Y155.23 E35.16005
G1 X159.26 Y155.13 E35.16683
G1 X159.23 Y155.08 E35.16900
G1 X159.22 Y155.00 E35.17230
G1 X159.26 Y154.74 E35.18362
G1 X159.29 Y154.67 E35.18674
G1 X159.34 Y154.63 E35.18907
G1 X159.49 Y154.58 E35.19587
G1 X159.61 Y154.57 E35.20100
G0 F12000 X159.68 Y154.16
;TYPE:WALL-OUTER
G1 F1500 X159.93 Y154.26 E35.21241
G1 X160.17 Y154.45 E35.22480
G1 X160.27 Y154.62 E35.23294
G1 X160.31 Y154.83 E35.24188
G1 X160.24 Y155.24 E35.25917
G1 X160.14 Y155.43 E35.26823
G1 X159.99 Y155.56 E35.27645
G1 X159.71 Y155.66 E35.28877
G1 X159.44 Y155.68 E35.30008
G1 X159.19 Y155.58 E35.31158
G1 X158.95 Y155.40 E35.32382
G1 X158.85 Y155.22 E35.33205
G1 X158.81 Y155.01 E35.34103
G1 X158.88 Y154.60 E35.35824
G1 X158.98 Y154.41 E35.36723
G1 X159.13 Y154.28 E35.37556
G1 X159.41 Y154.18 E35.38781
G1 X159.68 Y154.16 E35.39912
G0 F12000 X159.67 Y154.69
G1 F2400 E34.19912
G0 F12000 X156.55 Y158.62
;TYPE:WALL-INNER
G1 F2400 E35.39912
G1 F1500 X156.63 Y158.72 E35.40421
G1 X156.69 Y158.87 E35.41100
G1 X156.69 Y158.93 E35.41325
G1 X156.67 Y159.00 E35.41657
G1 X156.50 Y159.21 E35.42778
G1 X156.44 Y159.25 E35.43091
G1 X156.38 Y159.26 E35.43325
G1 X156.22 Y159.24 E35.44019
G1 X156.11 Y159.19 E35.44520
G1 X156.03 Y159.09 E35.45020
G1 X155.97 Y158.94 E35.45728
G1 X155.97 Y158.89 E35.45936
G1 X155.99 Y158.81 E35.46268
G1 X156.16 Y158.60 E35.47398
G1 X156.22 Y158.56 E35.47715
G1 X156.28 Y158.55 E35.47941
G1 X156.43 Y158.57 E35.48611
G1 X156.55 Y158.62 E35.49145
G0 F12000 X156.80 Y158.30
;TYPE:WALL-OUTER
G1 F1500 X156.97 Y158.52 E35.50293
G1 X157.09 Y158.78 E35.51504
G1 X157.09 Y158.98 E35.52335
G1 X157.03 Y159.19 E35.53245
G1 X156.77 Y159.52 E35.54961
G1 X156.59 Y159.63 E35.55852
G1 X156.40 Y159.67 E35.56689
G1 X156.10 Y159.63 E35.57918
G1 X155.85 Y159.51 E35.59053
G1 X155.69 Y159.30 E35.60167
G1 X155.57 Y159.03 E35.61418
G1 X155.56 Y158.83 E35.62237
G1 X155.63 Y158.62 E35.63143
G1 X155.89 Y158.30 E35.64864
G1 X156.07 Y158.18 E35.65757
G1 X156.26 Y158.14 E35.66592
G1 X156.55 Y158.19 E35.67805
G1 X156.80 Y158.30 E35.68949
G0 F12000 X156.54 Y158.75
G1 F2400 E34.48949
G0 F12000 X151.80 Y159.81
;TYPE:WALL-INNER
G1 F2400 E35.68949
G1 F1500 X151.77 Y160.08 E35.70084
G1 X151.73 Y160.15 E35.70419
G1 X151.69 Y160.18 E35.70634
G1 X151.54 Y160.24 E35.71315
G1 X151.42 Y160.26 E35.71830
G1 X151.30 Y160.21 E35.72351
G1 X151.17 Y160.12 E35.73025
G1 X151.14 Y160.07 E35.73254
G1 X151.12 Y160.00 E35.73579
G1 X151.16 Y159.73 E35.74701
G1 X151.19 Y159.66 E35.75032
G1 X151.23 Y159.62 E35.75250
G1 X151.38 Y159.56 E35.75938
G1 X151.51 Y159.55 E35.76454
G1 X151.62 Y159.59 E35.76962
G1 X151.76 Y159.69 E35.77656
G1 X151.78 Y159.73 E35.77879
G1 X151.80 Y159.81 E35.78189
G0 F12000 X152.21 Y159.79
;TYPE:WALL-OUTER
G1 F1500 X152.16 Y160.20 E35.79907
G1 X152.06 Y160.39 E35.80819
G1 X151.91 Y160.53 E35.81631
G1 X151.64 Y160.63 E35.82853
G1 X151.37 Y160.67 E35.83996
G1 X151.11 Y160.57 E35.85138
G1 X150.87 Y160.40 E35.86360
G1 X150.77 Y160.23 E35.87192
G1 X150.72 Y160.02 E35.88091
G1 X150.77 Y159.61 E35.89804
G1 X150.87 Y159.42 E35.90704
G1 X151.01 Y159.28 E35.91533
G1 X151.28 Y159.17 E35.92757
G1 X151.56 Y159.14 E35.93900
G1 X151.81 Y159.24 E35.95039
G1 X152.05 Y159.41 E35.96259
G1 X152.16 Y159.58 E35.97096
G1 X152.21 Y159.79 E35.97991
G0 F12000 X151.71 Y159.97
G1 F2400 E34.77991
G0 F12000 X147.18 Y157.58
;TYPE:WALL-INNER
G1 F2400 E35.97991
G1 F1500 X147.07 Y157.72 E35.98689
G1 X147.03 Y157.74 E35.98905
G1 X146.95 Y157.75 E35.99225
G1 X146.69 Y157.71 E36.00352
G1 X146.62 Y157.67 E36.00682
G1 X146.58 Y157.63 E36.00900
G1 X146.53 Y157.47 E36.01589
G1 X146.52 Y157.35 E36.02102
G1 X146.57 Y157.24 E36.02612
G1 X146.68 Y157.10 E36.03310
G1 X146.72 Y157.08 E36.03524
G1 X146.80 Y157.07 E36.03845
G1 X147.06 Y157.11 E36.04972
G1 X147.13 Y157.15 E36.05302
G1 X147.17 Y157.19 E36.05520
G1 X147.22 Y157.35 E36.06209
G1 X147.23 Y157.47 E36.06730
G1 X147.18 Y157.58 E36.07230
G0 F12000 X147.52 Y157.79
;TYPE:WALL-OUTER
G1 F1500 X147.34 Y158.02 E36.08447
G1 X147.17 Y158.12 E36.09279
G1 X146.95 Y158.16 E36.10182
G1 X146.55 Y158.09 E36.11891
G1 X146.36 Y157.98 E36.12798
G1 X146.23 Y157.83 E36.13624
G1 X146.13 Y157.55 E36.14838
G1 X146.12 Y157.28 E36.15992
G1 X146.23 Y157.03 E36.17131
G1 X146.41 Y156.80 E36.18350
G1 X146.58 Y156.70 E36.19183
G1 X146.80 Y156.66 E36.20085
G1 X147.20 Y156.73 E36.21795
G1 X147.39 Y156.84 E36.22702
G1 X147.52 Y156.99 E36.23528
G1 X147.62 Y157.27 E36.24741
G1 X147.63 Y157.54 E36.25896
G1 X147.52 Y157.79 E36.27038
G0 F12000 X147.09 Y157.56
G1 F2400 E35.07038
G0 F12000 X145.19 Y152.81
;TYPE:WALL-INNER
G1 F2400 E36.27038
G1 F1500 X145.03 Y152.85 E36.27729
G1 X144.90 Y152.84 E36.28249
G1 X144.79 Y152.78 E36.28767
G1 X144.68 Y152.67 E36.29446
G1 X144.66 Y152.62 E36.29673
G1 X144.65 Y152.54 E36.29998
G1 X144.72 Y152.28 E36.31122
G1 X144.77 Y152.22 E36.31446
G1 X144.81 Y152.19 E36.31659
G1 X144.97 Y152.15 E36.32353
G1 X145.10 Y152.16 E36.32865
G1 X145.21 Y152.22 E36.33394
G1 X145.32 Y152.33 E36.34067
G1 X145.35 Y152.38 E36.34295
G1 X145.35 Y152.46 E36.34620
G1 X145.28 Y152.72 E36.35743
G1 X145.23 Y152.78 E36.36068
G1 X145.19 Y152.81 E36.36280
G0 F12000 X145.35 Y153.19
;TYPE:WALL-OUTER
G1 F1500 X145.06 Y153.25 E36.37504
G1 X144.79 Y153.24 E36.38653
G1 X144.55 Y153.10 E36.39785
G1 X144.34 Y152.90 E36.41020
G1 X144.26 Y152.72 E36.41837
G1 X144.25 Y152.50 E36.42754
G1 X144.36 Y152.10 E36.44447
G1 X144.49 Y151.93 E36.45356
G1 X144.65 Y151.81 E36.46181
G1 X144.94 Y151.75 E36.47410
G1 X145.21 Y151.76 E36.48554
G1 X145.45 Y151.90 E36.49688
G1 X145.66 Y152.10 E36.50923
G1 X145.74 Y152.28 E36.51740
G1 X145.75 Y152.50 E36.52657
G1 X145.64 Y152.90 E36.54351
G1 X145.51 Y153.07 E36.55259
G1 X145.35 Y153.19 E36.56084
G0 F12000 X144.81 Y152.68
;LAYER:1
G0 X144.63 Y152.81 Z0.30
;TYPE:WALL-INNER
G1 F2280 X144.56 Y152.65 E36.56239
G1 X144.55 Y152.43 E36.56421
G1 X144.58 Y152.32 E36.56512
G1 X144.70 Y152.15 E36.56692
G1 X144.86 Y152.04 E36.56850
G1 X144.87 Y152.04 E36.56858
G1 X145.13 Y152.05 E36.57075
G1 X145.37 Y152.19 E36.57302
G1 X145.44 Y152.35 E36.57457
G1 X145.45 Y152.57 E36.57639
G1 X145.42 Y152.68 E36.57730
G1 X145.30 Y152.85 E36.57910
G1 X145.14 Y152.96 E36.58066
G1 X145.13 Y152.96 E36.58077
G1 X144.87 Y152.95 E36.58292
G1 X144.63 Y152.81 E36.58520
G0 F12000 X144.40 Y153.15
;TYPE:WALL-OUTER
G1 F2280 X144.30 Y153.05 E36.58636
G1 X144.17 Y152.74 E36.58912
G1 X144.14 Y152.38 E36.59214
G1 X144.21 Y152.15 E36.59417
G1 X144.42 Y151.85 E36.59716
G1 X144.69 Y151.67 E36.59993
G1 X144.84 Y151.63 E36.60112
G1 X145.25 Y151.65 E36.60453
G1 X145.60 Y151.85 E36.60795
G1 X145.70 Y151.95 E36.60911
G1 X145.83 Y152.26 E36.61187
G1 X145.86 Y152.62 E36.61489
G1 X145.79 Y152.85 E36.61692
G1 X145.58 Y153.15 E36.61991
G1 X145.31 Y153.33 E36.62268
G1 X145.17 Y153.37 E36.62386
G1 X144.76 Y153.35 E36.62728
G1 X144.40 Y153.15 E36.63070
G0 F12000 X144.80 Y152.75
;TYPE:FILL
G1 F2280 X145.26 Y152.29 E36.63609
G1 F2400 E35.43609
G0 F12000 X147.60 Y152.50
;TYPE:WALL-INNER
G1 F2400 E36.63609
G1 F2280 X147.70 Y151.55 E36.64404
G1 X147.98 Y150.63 E36.65204
G1 X148.35 Y149.92 E36.65869
G1 X148.43 Y149.78 E36.66002
G1 X149.04 Y149.04 E36.66801
G1 X149.78 Y148.43 E36.67595
G1 X150.49 Y148.05 E36.68266
G1 X150.62 Y147.98 E36.68396
G1 X151.55 Y147.70 E36.69197
G1 X152.34 Y147.62 E36.69862
G1 X152.50 Y147.60 E36.69995
G1 X153.45 Y147.70 E36.70790
G1 X154.37 Y147.98 E36.71590
G1 X155.08 Y148.35 E36.72255
G1 X155.22 Y148.43 E36.72388
G1 X155.84 Y148.94 E36.73054
G1 X155.96 Y149.04 E36.73188
G1 X156.47 Y149.66 E36.73852
G1 X156.57 Y149.78 E36.73984
G1 X157.03 Y150.63 E36.74786
G1 X157.30 Y151.54 E36.75580
G1 X157.38 Y152.34 E36.76248
G1 X157.40 Y152.50 E36.76379
G1 X157.30 Y153.46 E36.77177
G1 X157.03 Y154.37 E36.77974
G1 X156.65 Y155.08 E36.78640
G1 X156.57 Y155.22 E36.78773
G1 X155.96 Y155.96 E36.79571
G1 X155.22 Y156.57 E36.80367
G1 X154.51 Y156.95 E36.81038
G1 X154.37 Y157.02 E36.81168
G1 X153.46 Y157.30 E36.81966
G1 X152.66 Y157.38 E36.82635
G1 X152.50 Y157.40 E36.82766
G1 X151.70 Y157.32 E36.83429
G1 X151.52 Y157.30 E36.83580
G1 X150.63 Y157.02 E36.84361
G1 X149.92 Y156.65 E36.85027
G1 X149.78 Y156.57 E36.85156
G1 X149.04 Y155.96 E36.85957
G1 X148.43 Y155.22 E36.86755
G1 X148.05 Y154.51 E36.87422
G1 X147.98 Y154.38 E36.87552
G1 X147.70 Y153.45 E36.88353
G1 X147.62 Y152.66 E36.89018
G1 X147.60 Y152.50 E36.89151
G0 F12000 X149.46 Y152.91
G1 F2280 X149.44 Y153.15 E36.89345
G1 X150.18 Y154.59 E36.90689
G1 X151.53 Y155.47 E36.92035
G1 X153.15 Y155.56 E36.93378
G1 X154.38 Y154.93 E36.94531
G1 X154.59 Y154.82 E36.94725
G1 X155.47 Y153.46 E36.96068
G1 X155.54 Y152.09 E36.97216
G1 X155.56 Y151.85 E36.97410
G1 X154.82 Y150.41 E36.98755
G1 X153.47 Y149.53 E37.00101
G1 X151.85 Y149.44 E37.01445
G1 X150.41 Y150.18 E37.02789
G1 X149.53 Y151.53 E37.04133
G1 X149.46 Y152.91 E37.05282
G0 F12000 X149.85 Y153.06
;TYPE:WALL-OUTER
G1 F2280 X150.49 Y154.31 E37.06448
G1 X151.66 Y155.08 E37.07614
G1 X153.06 Y155.15 E37.08780
G1 X154.20 Y154.57 E37.09842
G1 X154.31 Y154.51 E37.09947
G1 X155.08 Y153.34 E37.11113
G1 X155.15 Y151.94 E37.12278
G1 X154.51 Y150.69 E37.13444
G1 X153.34 Y149.92 E37.14611
G1 X151.94 Y149.85 E37.15777
G1 X150.69 Y150.49 E37.16943
G1 X149.92 Y151.66 E37.18109
G1 X149.85 Y153.06 E37.19275
G0 F12000 X149.55 Y153.05
G0 X147.60 Y153.47
G0 X147.30 Y153.53
G1 F2280 X147.20 Y152.50 E37.20139
G1 X147.30 Y151.46 E37.21004
G1 X147.60 Y150.47 E37.21866
G1 X148.09 Y149.56 E37.22727
G1 X148.75 Y148.75 E37.23594
G1 X149.56 Y148.09 E37.24459
G1 X150.47 Y147.60 E37.25323
G1 X151.47 Y147.30 E37.26184
G1 X152.50 Y147.20 E37.27048
G1 X153.54 Y147.30 E37.27914
G1 X154.53 Y147.60 E37.28775
G1 X155.44 Y148.09 E37.29637
G1 X156.25 Y148.75 E37.30503
G1 X156.91 Y149.56 E37.31368
G1 X157.40 Y150.47 E37.32233
G1 X157.70 Y151.47 E37.33094
G1 X157.80 Y152.50 E37.33958
G1 X157.70 Y153.53 E37.34823
G1 X157.40 Y154.53 E37.35686
G1 X156.91 Y155.44 E37.36547
G1 X156.25 Y156.25 E37.37413
G1 X155.44 Y156.91 E37.38279
G1 X154.53 Y157.40 E37.39143
G1 X153.53 Y157.70 E37.40003
G1 X152.50 Y157.80 E37.40867
G1 X151.47 Y157.70 E37.41732
G1 X150.47 Y157.40 E37.42596
G1 X149.56 Y156.91 E37.43456
G1 X148.75 Y156.25 E37.44323
G1 X148.09 Y155.44 E37.45188
G1 X147.60 Y154.53 E37.46052
G1 X147.30 Y153.53 E37.46914
G0 F12000 X147.83 Y153.40
;TYPE:FILL
G1 F2280 X149.37 Y151.85 E37.48726
G0 F12000 X149.34 Y152.45
G1 F2280 X147.96 Y153.83 E37.50351
G0 F12000 X148.09 Y154.27
G1 F2280 X149.31 Y153.05 E37.51786
G0 F12000 X149.45 Y153.47
G1 F2280 X148.28 Y154.64 E37.53164
G0 F12000 X148.48 Y155.01
G1 F2280 X149.64 Y153.85 E37.54535
G0 F12000 X149.83 Y154.22
G1 F2280 X148.71 Y155.34 E37.55853
G0 F12000 X148.97 Y155.65
G1 F2280 X150.02 Y154.60 E37.57096
G0 F12000 X150.33 Y154.85
G1 F2280 X149.24 Y155.95 E37.58380
G0 F12000 X149.55 Y156.20
G1 F2280 X150.68 Y155.08 E37.59701
G0 F12000 X151.02 Y155.30
G1 F2280 X149.86 Y156.46 E37.61060
G0 F12000 X150.23 Y156.65
G1 F2280 X151.36 Y155.52 E37.62390
G0 F12000 X151.82 Y155.62
G1 F2280 X150.60 Y156.85 E37.63832
G0 F12000 X151.02 Y157.00
G1 F2280 X152.36 Y155.65 E37.65413
G0 F12000 X152.90 Y155.68
G1 F2280 X151.45 Y157.13 E37.67115
G0 F12000 X151.94 Y157.20
G1 F2280 X153.73 Y155.41 E37.69218
G0 F12000 X154.74 Y156.67
G1 F2280 X156.67 Y154.74 E37.71484
G0 F12000 X157.06 Y153.79
G1 F2280 X153.79 Y157.06 E37.75327
G0 F12000 X153.08 Y157.20
G1 F2280 X157.20 Y153.08 E37.80172
G0 F12000 X157.25 Y152.46
G1 F2280 X152.46 Y157.25 E37.85805
G0 F12000 X155.55 Y153.60
G1 F2280 X157.20 Y151.94 E37.87747
G0 F12000 X157.13 Y151.45
G1 F2280 X155.64 Y152.94 E37.89500
G0 F12000 X155.67 Y152.35
G1 F2280 X157.00 Y151.02 E37.91062
G0 F12000 X156.85 Y150.60
G1 F2280 X155.67 Y151.78 E37.92443
G0 F12000 X155.48 Y151.40
G1 F2280 X156.65 Y150.23 E37.93818
G0 F12000 X156.45 Y149.86
G1 F2280 X155.29 Y151.03 E37.95183
G0 F12000 X155.10 Y150.65
G1 F2280 X156.20 Y149.55 E37.96475
G0 F12000 X155.95 Y149.24
G1 F2280 X154.90 Y150.29 E37.97711
G0 F12000 X154.55 Y150.07
G1 F2280 X155.66 Y148.97 E37.99007
G0 F12000 X155.34 Y148.71
G1 F2280 X154.21 Y149.84 E38.00341
G0 F12000 X153.87 Y149.62
G1 F2280 X155.01 Y148.48 E38.01690
G0 F12000 X154.65 Y148.28
G1 F2280 X153.52 Y149.40 E38.03010
G0 F12000 X152.99 Y149.36
G1 F2280 X154.27 Y148.09 E38.04509
G0 F12000 X153.84 Y147.96
G1 F2280 X152.46 Y149.34 E38.06131
G0 F12000 X151.92 Y149.31
G1 F2280 X153.40 Y147.83 E38.07868
G0 F12000 X152.88 Y147.78
G1 F2280 X150.88 Y149.78 E38.10222
G0 F12000 X149.80 Y150.86
G1 F2280 X147.78 Y152.88 E38.12594
G0 F12000 X147.76 Y152.34
G1 F2280 X152.34 Y147.76 E38.17975
G0 F12000 X151.71 Y147.82
G1 F2280 X147.82 Y151.71 E38.22547
G0 F12000 X148.03 Y150.94
G1 F2280 X150.94 Y148.03 E38.25973
G0 F12000 X149.83 Y148.56
G1 F2280 X148.57 Y149.83 E38.27460
G1 F2400 E37.07460
G0 F12000 X146.95 Y148.21
;TYPE:WALL-INNER
G1 F2400 E38.27460
G1 F2280 X146.70 Y148.27 E38.27677
G1 X146.45 Y148.21 E38.27890
G1 X146.44 Y148.20 E38.27906
G1 X146.32 Y148.06 E38.28057
G1 X146.24 Y147.85 E38.28241
G1 X146.24 Y147.75 E38.28332
G1 X146.32 Y147.54 E38.28512
G1 X146.45 Y147.39 E38.28678
G1 X146.70 Y147.33 E38.28894
G1 X146.96 Y147.40 E38.29121
G1 X147.08 Y147.54 E38.29277
G1 X147.16 Y147.75 E38.29459
G1 X147.16 Y147.85 E38.29549
G1 X147.08 Y148.06 E38.29731
G1 X146.95 Y148.21 E38.29897
G0 F12000 X147.10 Y148.59
;TYPE:WALL-OUTER
G1 F2280 X146.70 Y148.69 E38.30239
G1 X146.30 Y148.59 E38.30579
G1 X146.18 Y148.52 E38.30696
G1 X145.97 Y148.26 E38.30974
G1 X145.84 Y147.93 E38.31271
G1 X145.84 Y147.68 E38.31479
G1 X145.97 Y147.34 E38.31777
G1 X146.18 Y147.08 E38.32054
G1 X146.30 Y147.01 E38.32173
G1 X146.70 Y146.92 E38.32513
G1 X147.10 Y147.01 E38.32854
G1 X147.22 Y147.08 E38.32972
G1 X147.44 Y147.34 E38.33250
G1 X147.56 Y147.68 E38.33547
G1 X147.56 Y147.93 E38.33754
G1 X147.44 Y148.26 E38.34053
G1 X147.22 Y148.52 E38.34330
G1 X147.10 Y148.59 E38.34447
G0 F12000 X146.70 Y147.95
G1 F2400 E37.14447
G0 F12000 X150.72 Y145.33
;TYPE:WALL-INNER
G1 F2400 E38.34447
G1 F2280 X150.70 Y145.15 E38.34598
G1 X150.74 Y144.94 E38.34780
G1 X150.80 Y144.84 E38.34871
G1 X150.97 Y144.71 E38.35055
G1 X151.14 Y144.65 E38.35207
G1 X151.16 Y144.65 E38.35222
G1 X151.40 Y144.72 E38.35433
G1 X151.59 Y144.91 E38.35652
G1 X151.59 Y144.92 E38.35663
G1 X151.62 Y145.10 E38.35814
G1 X151.58 Y145.31 E38.35998
G1 X151.52 Y145.41 E38.36087
G1 X151.35 Y145.55 E38.36272
G1 X151.18 Y145.61 E38.36424
G1 X151.16 Y145.61 E38.36438
G1 X150.92 Y145.53 E38.36650
G1 X150.72 Y145.33 E38.36881
G0 F12000 X150.42 Y145.60
;TYPE:WALL-OUTER
G1 F2280 X150.34 Y145.47 E38.37001
G1 X150.29 Y145.14 E38.37279
G1 X150.36 Y144.79 E38.37575
G1 X150.49 Y144.58 E38.37785
G1 X150.77 Y144.35 E38.38081
G1 X151.08 Y144.24 E38.38358
G1 X151.22 Y144.25 E38.38476
G1 X151.62 Y144.37 E38.38816
G1 X151.91 Y144.66 E38.39158
G1 X151.98 Y144.78 E38.39275
G1 X152.03 Y145.11 E38.39552
G1 X151.96 Y145.46 E38.39848
G1 X151.83 Y145.67 E38.40056
G1 X151.55 Y145.90 E38.40354
G1 X151.24 Y146.01 E38.40631
G1 X151.10 Y146.01 E38.40749
G1 X150.70 Y145.88 E38.41090
G1 X150.42 Y145.60 E38.41429
G0 F12000 X151.07 Y145.24
G1 F2400 E37.21429
G0 F12000 X155.86 Y145.93
;TYPE:WALL-INNER
G1 F2400 E38.41429
G1 F2280 X155.91 Y145.83 E38.41523
G1 X156.06 Y145.67 E38.41703
G1 X156.22 Y145.59 E38.41859
G1 X156.24 Y145.59 E38.41871
G1 X156.49 Y145.63 E38.42085
G1 X156.71 Y145.81 E38.42314
G1 X156.75 Y145.98 E38.42465
G1 X156.74 Y146.20 E38.42647
G1 X156.69 Y146.30 E38.42739
G1 X156.54 Y146.46 E38.42921
G1 X156.38 Y146.54 E38.43075
G1 X156.36 Y146.54 E38.43087
G1 X156.11 Y146.50 E38.43303
G1 X155.89 Y146.33 E38.43530
G1 X155.84 Y146.15 E38.43682
G1 X155.86 Y145.93 E38.43864
G0 F12000 X155.47 Y145.83
;TYPE:WALL-OUTER
G1 F2280 X155.57 Y145.60 E38.44074
G1 X155.81 Y145.35 E38.44370
G1 X156.12 Y145.20 E38.44649
G1 X156.26 Y145.19 E38.44766
G1 X156.66 Y145.26 E38.45107
G1 X156.98 Y145.51 E38.45444
G1 X157.07 Y145.63 E38.45568
G1 X157.16 Y145.94 E38.45841
G1 X157.13 Y146.30 E38.46138
G1 X157.03 Y146.53 E38.46348
G1 X156.78 Y146.79 E38.46646
G1 X156.49 Y146.94 E38.46922
G1 X156.34 Y146.95 E38.47040
G1 X155.94 Y146.88 E38.47382
G1 X155.61 Y146.62 E38.47725
G1 X155.53 Y146.51 E38.47840
G1 X155.44 Y146.19 E38.48119
G1 X155.47 Y145.83 E38.48414
G0 F12000 X155.99 Y146.09
;TYPE:FILL
G1 F2280 X156.33 Y145.75 E38.48814
G1 F2400 E37.28814
G0 F12000 X159.32 Y149.49
;TYPE:WALL-INNER
G1 F2400 E38.48814
G1 F2280 X159.58 Y149.44 E38.49031
G1 X159.59 Y149.44 E38.49041
G1 X159.76 Y149.52 E38.49197
G1 X159.91 Y149.67 E38.49381
G1 X159.96 Y149.77 E38.49469
G1 X159.98 Y149.99 E38.49651
G1 X159.93 Y150.17 E38.49807
G1 X159.72 Y150.34 E38.50033
G1 X159.47 Y150.39 E38.50248
G1 X159.46 Y150.39 E38.50260
G1 X159.29 Y150.31 E38.50414
G1 X159.13 Y150.16 E38.50596
G1 X159.09 Y150.06 E38.50686
G1 X159.07 Y149.84 E38.50870
G1 X159.11 Y149.66 E38.51023
G1 X159.32 Y149.49 E38.51249
G0 F12000 X159.15 Y149.11
;TYPE:WALL-OUTER
G1 F2280 X159.55 Y149.03 E38.51586
G1 X159.69 Y149.04 E38.51706
G1 X159.99 Y149.19 E38.51984
G1 X160.25 Y149.44 E38.52282
G1 X160.35 Y149.66 E38.52489
G1 X160.38 Y150.02 E38.52787
G1 X160.30 Y150.34 E38.53064
G1 X160.22 Y150.46 E38.53183
G1 X159.90 Y150.72 E38.53523
G1 X159.50 Y150.79 E38.53862
G1 X159.35 Y150.78 E38.53983
G1 X159.05 Y150.64 E38.54259
G1 X158.80 Y150.39 E38.54558
G1 X158.69 Y150.16 E38.54764
G1 X158.66 Y149.81 E38.55063
G1 X158.75 Y149.49 E38.55337
G1 X158.83 Y149.37 E38.55460
G1 X159.15 Y149.11 E38.55799
G0 F12000 X159.66 Y149.83
G1 F2400 E37.35799
G0 F12000 X159.63 Y154.45
;TYPE:WALL-INNER
G1 F2400 E38.55799
G1 F2280 X159.88 Y154.56 E38.56027
G1 X159.98 Y154.72 E38.56182
G1 X160.02 Y154.94 E38.56362
G1 X160.00 Y155.05 E38.56454
G1 X159.90 Y155.24 E38.56636
G1 X159.76 Y155.36 E38.56790
G1 X159.74 Y155.37 E38.56803
G1 X159.49 Y155.39 E38.57016
G1 X159.24 Y155.28 E38.57237
G1 X159.14 Y155.12 E38.57398
G1 X159.10 Y154.90 E38.57581
G1 X159.12 Y154.79 E38.57672
G1 X159.22 Y154.60 E38.57852
G1 X159.37 Y154.47 E38.58019
G1 X159.63 Y154.45 E38.58235
G0 F12000 X159.70 Y154.05
;TYPE:WALL-OUTER
G1 F2280 X160.07 Y154.21 E38.58577
G1 X160.19 Y154.29 E38.58696
G1 X160.36 Y154.58 E38.58973
G1 X160.42 Y154.93 E38.59267
G1 X160.38 Y155.18 E38.59479
G1 X160.21 Y155.49 E38.59775
G1 X159.96 Y155.71 E38.60052
G1 X159.83 Y155.76 E38.60172
G1 X159.42 Y155.79 E38.60510
G1 X159.04 Y155.63 E38.60853
G1 X158.93 Y155.55 E38.60972
G1 X158.76 Y155.26 E38.61248
G1 X158.69 Y154.91 E38.61545
G1 X158.73 Y154.66 E38.61753
G1 X158.91 Y154.35 E38.62052
G1 X159.15 Y154.13 E38.62327
G1 X159.29 Y154.08 E38.62448
G1 X159.70 Y154.05 E38.62786
G0 F12000 X159.72 Y154.93
G1 F2400 E37.42786
G0 F12000 X156.62 Y158.53
;TYPE:WALL-INNER
G1 F2400 E38.62786
G1 F2280 X156.79 Y158.75 E38.63012
G1 X156.79 Y158.93 E38.63166
G1 X156.72 Y159.15 E38.63351
G1 X156.65 Y159.23 E38.63443
G1 X156.47 Y159.35 E38.63622
G1 X156.29 Y159.39 E38.63778
G1 X156.28 Y159.38 E38.63789
G1 X156.04 Y159.28 E38.64005
G1 X155.88 Y159.08 E38.64219
G1 X155.87 Y159.06 E38.64232
G1 X155.87 Y158.88 E38.64386
G1 X155.94 Y158.67 E38.64567
G1 X156.00 Y158.58 E38.64660
G1 X156.19 Y158.47 E38.64841
G1 X156.37 Y158.43 E38.64995
G1 X156.39 Y158.43 E38.65010
G1 X156.62 Y158.53 E38.65222
G0 F12000 X156.87 Y158.21
;TYPE:WALL-OUTER
G1 F2280 X157.13 Y158.53 E38.65565
G1 X157.18 Y158.66 E38.65681
G1 X157.19 Y158.99 E38.65957
G1 X157.08 Y159.34 E38.66259
G1 X156.93 Y159.53 E38.66463
G1 X156.62 Y159.72 E38.66764
G1 X156.30 Y159.79 E38.67037
G1 X156.16 Y159.77 E38.67156
G1 X155.78 Y159.60 E38.67500
G1 X155.53 Y159.28 E38.67837
G1 X155.47 Y159.15 E38.67956
G1 X155.47 Y158.82 E38.68233
G1 X155.58 Y158.48 E38.68533
G1 X155.73 Y158.28 E38.68739
G1 X156.03 Y158.09 E38.69038
G1 X156.36 Y158.02 E38.69312
G1 X156.50 Y158.04 E38.69435
G1 X156.87 Y158.21 E38.69772
G0 F12000 X156.61 Y159.04
;TYPE:FILL
G1 F2280 X156.47 Y159.18 E38.69931
G1 F2400 E37.49931
G0 F12000 X151.92 Y159.90
;TYPE:WALL-INNER
G1 F2400 E38.69931
G1 F2280 X151.91 Y160.01 E38.70026
G1 X151.81 Y160.21 E38.70207
G1 X151.67 Y160.34 E38.70362
G1 X151.41 Y160.37 E38.70587
G1 X151.15 Y160.27 E38.70815
G1 X151.05 Y160.11 E38.70969
G1 X151.00 Y159.90 E38.71150
G1 X151.01 Y159.79 E38.71241
G1 X151.12 Y159.60 E38.71424
G1 X151.25 Y159.47 E38.71579
G1 X151.52 Y159.43 E38.71804
G1 X151.77 Y159.53 E38.72031
G1 X151.87 Y159.69 E38.72186
G1 X151.92 Y159.90 E38.72366
G0 F12000 X152.33 Y159.88
;TYPE:WALL-OUTER
G1 F2280 X152.30 Y160.13 E38.72577
G1 X152.13 Y160.45 E38.72874
G1 X151.90 Y160.68 E38.73149
G1 X151.76 Y160.73 E38.73268
G1 X151.35 Y160.78 E38.73608
G1 X150.97 Y160.63 E38.73950
G1 X150.86 Y160.55 E38.74068
G1 X150.68 Y160.27 E38.74346
G1 X150.60 Y159.92 E38.74641
G1 X150.63 Y159.68 E38.74849
G1 X150.79 Y159.35 E38.75148
G1 X151.03 Y159.13 E38.75425
G1 X151.16 Y159.07 E38.75540
G1 X151.57 Y159.03 E38.75884
G1 X151.95 Y159.17 E38.76224
G1 X152.07 Y159.25 E38.76342
G1 X152.25 Y159.53 E38.76620
G1 X152.33 Y159.88 E38.76916
G0 F12000 X151.54 Y159.59
;TYPE:FILL
G1 F2280 X151.16 Y159.97 E38.77357
G1 F2400 E37.57357
G0 F12000 X147.23 Y157.74
;TYPE:WALL-INNER
G1 F2400 E38.77357
G1 F2280 X147.06 Y157.83 E38.77513
G1 X146.85 Y157.87 E38.77694
G1 X146.74 Y157.85 E38.77785
G1 X146.55 Y157.74 E38.77967
G1 X146.43 Y157.60 E38.78121
G1 X146.41 Y157.33 E38.78349
G1 X146.52 Y157.08 E38.78576
G1 X146.69 Y156.99 E38.78730
G1 X146.90 Y156.95 E38.78912
G1 X147.01 Y156.97 E38.79002
G1 X147.20 Y157.08 E38.79184
G1 X147.32 Y157.22 E38.79338
G1 X147.34 Y157.49 E38.79566
G1 X147.23 Y157.74 E38.79793
G0 F12000 X147.58 Y157.94
;TYPE:WALL-OUTER
G1 F2280 X147.49 Y158.05 E38.79910
G1 X147.20 Y158.22 E38.80188
G1 X146.85 Y158.28 E38.80486
G1 X146.60 Y158.23 E38.80693
G1 X146.29 Y158.06 E38.80991
G1 X146.08 Y157.80 E38.81268
G1 X146.03 Y157.67 E38.81386
G1 X146.00 Y157.26 E38.81728
G1 X146.17 Y156.88 E38.82068
G1 X146.26 Y156.77 E38.82186
G1 X146.55 Y156.61 E38.82463
G1 X146.90 Y156.54 E38.82761
G1 X147.15 Y156.59 E38.82968
G1 X147.46 Y156.76 E38.83266
G1 X147.67 Y157.02 E38.83543
G1 X147.72 Y157.15 E38.83661
G1 X147.75 Y157.56 E38.84003
G1 X147.58 Y157.94 E38.84343
G0 F12000 X147.13 Y157.21
;TYPE:FILL
G1 F2280 X146.68 Y157.66 E38.84866
G1 F2400 E37.64866
G0 F12000 X145.26 Y159.68
;TYPE:WALL-INNER
G1 F2400 E38.84866
G1 F2280 X146.83 Y160.98 E38.86562
G1 X148.51 Y161.88 E38.88148
G1 X148.60 Y161.93 E38.88230
G1 X150.46 Y162.49 E38.89844
G1 X152.50 Y162.70 E38.91551
G1 X154.39 Y162.52 E38.93133
G1 X154.49 Y162.51 E38.93215
G1 X156.37 Y161.94 E38.94844
G1 X158.13 Y161.00 E38.96507
G1 X159.68 Y159.74 E38.98167
G1 X160.98 Y158.17 E38.99864
G1 X161.91 Y156.44 E39.01494
G1 X162.50 Y154.53 E39.03156
G1 X162.69 Y152.60 E39.04767
G1 X162.70 Y152.50 E39.04849
G1 X162.52 Y150.61 E39.06435
G1 X162.51 Y150.51 E39.06517
G1 X161.94 Y148.63 E39.08146
G1 X161.00 Y146.87 E39.09808
G1 X159.74 Y145.32 E39.11469
G1 X158.17 Y144.02 E39.13166
G1 X156.44 Y143.09 E39.14796
G1 X154.53 Y142.50 E39.16457
G1 X152.60 Y142.31 E39.18073
G1 X152.50 Y142.30 E39.18151
G1 X150.61 Y142.48 E39.19736
G1 X150.51 Y142.49 E39.19818
G1 X148.63 Y143.06 E39.21447
G1 X146.87 Y144.00 E39.23110
G1 X145.32 Y145.26 E39.24771
G1 X144.02 Y146.83 E39.26467
G1 X143.12 Y148.51 E39.28051
G1 X143.07 Y148.60 E39.28131
G1 X142.50 Y150.47 E39.29761
G1 X142.31 Y152.40 E39.31371
G1 X142.30 Y152.50 E39.31453
G1 X142.48 Y154.39 E39.33038
G1 X142.49 Y154.49 E39.33120
G1 X143.06 Y156.37 E39.34749
G1 X144.00 Y158.13 E39.36412
G1 X145.26 Y159.68 E39.38073
G0 F12000 X144.44 Y160.56
G1 F2280 X143.03 Y158.83 E39.39930
G1 X141.97 Y156.86 E39.41789
G1 X141.32 Y154.72 E39.43647
G1 X141.10 Y152.50 E39.45504
G1 X141.31 Y150.35 E39.47301
G1 X141.32 Y150.28 E39.47361
G1 X141.97 Y148.14 E39.49219
G1 X143.03 Y146.17 E39.51078
G1 X144.44 Y144.44 E39.52935
G1 X146.17 Y143.02 E39.54792
G1 X148.14 Y141.97 E39.56651
G1 X150.28 Y141.32 E39.58509
G1 X152.43 Y141.11 E39.60308
G1 X152.50 Y141.10 E39.60367
G1 X154.65 Y141.31 E39.62163
G1 X154.72 Y141.32 E39.62223
G1 X156.86 Y141.97 E39.64081
G1 X158.83 Y143.02 E39.65939
G1 X160.56 Y144.44 E39.67797
G1 X161.98 Y146.17 E39.69655
G1 X163.03 Y148.14 E39.71513
G1 X163.68 Y150.28 E39.73371
G1 X163.90 Y152.50 E39.75228
G1 X163.68 Y154.72 E39.77086
G1 X163.05 Y156.79 E39.78883
G1 X163.03 Y156.86 E39.78945
G1 X161.98 Y158.83 E39.80802
G1 X160.56 Y160.56 E39.82659
G1 X158.83 Y161.97 E39.84516
G1 X156.86 Y163.03 E39.86376
G1 X154.72 Y163.68 E39.88233
G1 X152.50 Y163.90 E39.90090
G1 X150.28 Y163.68 E39.91948
G1 X148.21 Y163.05 E39.93745
G1 X148.14 Y163.03 E39.93806
G1 X146.17 Y161.97 E39.95664
G1 X144.44 Y160.56 E39.97521
G0 F12000 X144.16 Y160.84
;TYPE:WALL-OUTER
G1 F2280 X142.69 Y159.05 E39.99448
G1 X141.60 Y157.02 E40.01367
G1 X140.93 Y154.80 E40.03290
G1 X140.70 Y152.50 E40.05215
G1 X140.93 Y150.20 E40.07138
G1 X141.60 Y147.98 E40.09061
G1 X142.69 Y145.95 E40.10981
G1 X144.16 Y144.16 E40.12907
G1 X145.95 Y142.69 E40.14835
G1 X147.98 Y141.60 E40.16754
G1 X150.20 Y140.93 E40.18677
G1 X152.50 Y140.70 E40.20601
G1 X154.80 Y140.93 E40.22525
G1 X157.01 Y141.60 E40.24447
G1 X159.05 Y142.69 E40.26367
G1 X160.84 Y144.16 E40.28294
G1 X162.31 Y145.95 E40.30221
G1 X163.40 Y147.98 E40.32140
G1 X164.07 Y150.20 E40.34063
G1 X164.30 Y152.50 E40.35987
G1 X164.07 Y154.80 E40.37912
G1 X163.40 Y157.02 E40.39835
G1 X162.31 Y159.05 E40.41753
G1 X160.84 Y160.84 E40.43681
G1 X159.05 Y162.31 E40.45608
G1 X157.01 Y163.40 E40.47528
G1 X154.80 Y164.07 E40.49450
G1 X152.50 Y164.30 E40.51374
G1 X150.20 Y164.07 E40.53298
G1 X147.98 Y163.40 E40.55221
G1 X145.95 Y162.31 E40.57140
G1 X144.16 Y160.84 E40.59067
G0 F12000 X144.37 Y160.63
G0 X145.31 Y159.59
G0 X145.54 Y159.40
G1 F2280 X147.06 Y160.65 E40.60697
G1 X148.70 Y161.53 E40.62248
G1 X148.75 Y161.56 E40.62297
G1 X150.55 Y162.10 E40.63856
G1 X152.50 Y162.30 E40.65489
G1 X154.41 Y162.11 E40.67086
G1 X156.21 Y161.57 E40.68652
G1 X157.91 Y160.67 E40.70250
G1 X159.40 Y159.46 E40.71844
G1 X160.65 Y157.94 E40.73475
G1 X161.54 Y156.28 E40.75040
G1 X162.10 Y154.45 E40.76636
G1 X162.29 Y152.56 E40.78218
G1 X162.30 Y152.50 E40.78265
G1 X162.11 Y150.59 E40.79864
G1 X161.57 Y148.79 E40.81429
G1 X160.67 Y147.09 E40.83027
G1 X159.46 Y145.60 E40.84622
G1 X157.94 Y144.35 E40.86253
G1 X156.28 Y143.46 E40.87818
G1 X154.45 Y142.90 E40.89414
G1 X152.56 Y142.71 E40.90996
G1 X152.50 Y142.70 E40.91043
G1 X150.59 Y142.89 E40.92641
G1 X148.79 Y143.43 E40.94206
G1 X147.09 Y144.33 E40.95805
G1 X145.60 Y145.54 E40.97400
G1 X144.35 Y147.06 E40.99030
G1 X143.44 Y148.75 E41.00628
G1 X142.90 Y150.55 E41.02193
G1 X142.71 Y152.44 E41.03774
G1 X142.70 Y152.50 E41.03822
G1 X142.89 Y154.41 E41.05419
G1 X143.43 Y156.21 E41.06985
G1 X144.33 Y157.91 E41.08582
G1 X145.54 Y159.40 E41.10178
G0 F12000 X145.29 Y159.89
;TYPE:FILL
G1 F2280 X144.64 Y160.54 E41.10945
G0 F12000 X144.37 Y160.25
G1 F2280 X145.02 Y159.60 E41.11706
G0 F12000 X144.76 Y159.29
G1 F2280 X144.12 Y159.94 E41.12467
G0 F12000 X143.86 Y159.63
G1 F2280 X144.51 Y158.98 E41.13229
G0 F12000 X144.25 Y158.67
G1 F2280 X143.61 Y159.32 E41.13992
G0 F12000 X143.35 Y159.01
G1 F2280 X144.00 Y158.36 E41.14755
G0 F12000 X143.78 Y158.02
G1 F2280 X143.11 Y158.69 E41.15543
G0 F12000 X142.91 Y158.32
G1 F2280 X143.58 Y157.65 E41.16332
G0 F12000 X143.38 Y157.28
G1 F2280 X142.71 Y157.95 E41.17123
G0 F12000 X142.51 Y157.58
G1 F2280 X143.19 Y156.91 E41.17916
G0 F12000 X142.99 Y156.54
G1 F2280 X142.32 Y157.21 E41.18711
G0 F12000 X142.12 Y156.84
G1 F2280 X142.84 Y156.12 E41.19559
G0 F12000 X142.71 Y155.69
G1 F2280 X141.98 Y156.42 E41.20413
G0 F12000 X141.85 Y155.98
G1 F2280 X142.58 Y155.25 E41.21269
G0 F12000 X142.45 Y154.82
G1 F2280 X141.72 Y155.55 E41.22125
G0 F12000 X141.59 Y155.12
G1 F2280 X142.34 Y154.36 E41.23010
G0 F12000 X142.29 Y153.85
G1 F2280 X141.46 Y154.68 E41.23989
G0 F12000 X141.41 Y154.16
G1 F2280 X142.24 Y153.33 E41.24967
G0 F12000 X142.19 Y152.82
G1 F2280 X141.36 Y153.65 E41.25944
G0 F12000 X141.31 Y153.13
G1 F2280 X142.18 Y152.26 E41.26972
G0 F12000 X142.25 Y151.63
G1 F2280 X141.25 Y152.62 E41.28136
G0 F12000 X141.29 Y152.01
G1 F2280 X142.31 Y151.00 E41.29333
G0 F12000 X142.40 Y150.35
G1 F2280 X141.35 Y151.39 E41.30558
G0 F12000 X141.41 Y150.76
G1 F2280 X142.64 Y149.53 E41.32001
G0 F12000 X142.89 Y148.72
G1 F2280 X141.53 Y150.09 E41.33605
G0 F12000 X141.77 Y149.27
G1 F2280 X143.45 Y147.59 E41.35578
G0 F12000 X142.54 Y147.38
G1 F2280 X147.38 Y142.53 E41.41274
G0 F12000 X147.59 Y143.46
G1 F2280 X149.27 Y141.77 E41.43258
G0 F12000 X148.46 Y142.02
G1 F2280 X145.76 Y144.72 E41.46434
G0 F12000 X146.03 Y143.32
G1 F2280 X143.32 Y146.02 E41.49616
G0 F12000 X144.73 Y145.75
G1 F2280 X142.02 Y148.46 E41.52801
G0 F12000 X146.87 Y144.00
G0 X148.72 Y142.89
G1 F2280 X150.09 Y141.52 E41.54405
G0 F12000 X150.76 Y141.41
G1 F2280 X149.53 Y142.64 E41.55847
G0 F12000 X150.35 Y142.40
G1 F2280 X151.39 Y141.35 E41.57073
G0 F12000 X152.02 Y141.29
G1 F2280 X151.00 Y142.30 E41.58263
G0 F12000 X151.63 Y142.24
G1 F2280 X152.62 Y141.25 E41.59425
G0 F12000 X153.13 Y141.31
G1 F2280 X152.26 Y142.18 E41.60454
G0 F12000 X152.81 Y142.19
G1 F2280 X153.65 Y141.36 E41.61434
G0 F12000 X154.16 Y141.41
G1 F2280 X153.33 Y142.24 E41.62416
G0 F12000 X153.84 Y142.29
G1 F2280 X154.68 Y141.46 E41.63401
G0 F12000 X155.12 Y141.59
G1 F2280 X154.35 Y142.35 E41.64296
G0 F12000 X154.82 Y142.45
G1 F2280 X155.55 Y141.72 E41.65156
G0 F12000 X155.98 Y141.85
G1 F2280 X155.25 Y142.58 E41.66016
G0 F12000 X155.68 Y142.71
G1 F2280 X156.42 Y141.98 E41.66878
G0 F12000 X156.84 Y142.12
G1 F2280 X156.12 Y142.85 E41.67734
G0 F12000 X156.54 Y142.99
G1 F2280 X157.21 Y142.32 E41.68524
G0 F12000 X157.58 Y142.51
G1 F2280 X156.91 Y143.19 E41.69314
G0 F12000 X157.28 Y143.38
G1 F2280 X157.95 Y142.71 E41.70104
G0 F12000 X158.32 Y142.91
G1 F2280 X157.65 Y143.58 E41.70895
G0 F12000 X158.01 Y143.78
G1 F2280 X158.69 Y143.10 E41.71685
G0 F12000 X159.01 Y143.35
G1 F2280 X158.36 Y144.00 E41.72444
G0 F12000 X158.67 Y144.25
G1 F2280 X159.32 Y143.60 E41.73206
G0 F12000 X159.63 Y143.86
G1 F2280 X158.98 Y144.51 E41.73970
G0 F12000 X159.29 Y144.76
G1 F2280 X159.94 Y144.11 E41.74734
G0 F12000 X160.25 Y144.37
G1 F2280 X159.60 Y145.02 E41.75501
G0 F12000 X159.90 Y145.29
G1 F2280 X160.54 Y144.64 E41.76261
G0 F12000 X160.80 Y144.95
G1 F2280 X160.15 Y145.60 E41.77022
G0 F12000 X160.41 Y145.91
G1 F2280 X161.05 Y145.26 E41.77784
G0 F12000 X161.31 Y145.58
G1 F2280 X160.66 Y146.22 E41.78548
G0 F12000 X160.91 Y146.54
G1 F2280 X161.56 Y145.89 E41.79312
G0 F12000 X161.82 Y146.20
G1 F2280 X161.16 Y146.86 E41.80090
G0 F12000 X161.35 Y147.23
G1 F2280 X162.02 Y146.56 E41.80881
G0 F12000 X162.22 Y146.93
G1 F2280 X161.55 Y147.60 E41.81672
G0 F12000 X161.74 Y147.97
G1 F2280 X162.42 Y147.29 E41.82465
G0 F12000 X162.62 Y147.66
G1 F2280 X161.94 Y148.34 E41.83259
G0 F12000 X162.11 Y148.73
G1 F2280 X162.81 Y148.03 E41.84080
G0 F12000 X162.97 Y148.44
G1 F2280 X162.25 Y149.16 E41.84935
G0 F12000 X162.38 Y149.60
G1 F2280 X163.10 Y148.87 E41.85791
G0 F12000 X163.24 Y149.30
G1 F2280 X162.51 Y150.03 E41.86646
G0 F12000 X162.64 Y150.47
G1 F2280 X163.37 Y149.74 E41.87502
G0 F12000 X163.50 Y150.17
G1 F2280 X162.69 Y150.98 E41.88451
G0 F12000 X162.74 Y151.49
G1 F2280 X163.57 Y150.66 E41.89429
G0 F12000 X163.62 Y151.18
G1 F2280 X162.79 Y152.01 E41.90406
G0 F12000 X162.84 Y152.53
G1 F2280 X163.68 Y151.69 E41.91389
G0 F12000 X163.73 Y152.21
G1 F2280 X162.78 Y153.16 E41.92507
G0 F12000 X162.71 Y153.79
G1 F2280 X163.73 Y152.77 E41.93705
G0 F12000 X163.67 Y153.40
G1 F2280 X162.65 Y154.42 E41.94905
G0 F12000 X162.44 Y155.20
G1 F2280 X163.60 Y154.03 E41.96280
G0 F12000 X163.54 Y154.65
G1 F2280 X162.18 Y156.01 E41.97879
G0 F12000 X163.06 Y156.27
G1 F2280 X161.12 Y158.21 E42.00164
G0 F12000 X162.03 Y158.43
G1 F2280 X158.43 Y162.03 E42.04400
G0 F12000 X158.22 Y161.11
G1 F2280 X156.26 Y163.06 E42.06701
G0 F12000 X155.45 Y163.31
G1 F2280 X157.01 Y161.76 E42.08528
G0 F12000 X157.21 Y162.68
G1 F2280 X162.68 Y157.21 E42.14958
G0 F12000 X161.77 Y157.00
G1 F2280 X163.31 Y155.45 E42.16772
G0 F12000 X159.68 Y159.74
G0 X158.13 Y161.00
G0 X156.00 Y162.19
G1 F2280 X154.65 Y163.54 E42.18360
G0 F12000 X154.03 Y163.61
G1 F2280 X155.19 Y162.44 E42.19732
G0 F12000 X154.41 Y162.65
G1 F2280 X153.40 Y163.67 E42.20925
G0 F12000 X152.77 Y163.73
G1 F2280 X153.79 Y162.71 E42.22118
G0 F12000 X153.16 Y162.78
G1 F2280 X152.21 Y163.73 E42.23237
G0 F12000 X151.69 Y163.68
G1 F2280 X152.53 Y162.84 E42.24224
G0 F12000 X152.01 Y162.79
G1 F2280 X151.18 Y163.62 E42.25206
G0 F12000 X150.66 Y163.57
G1 F2280 X151.50 Y162.74 E42.26191
G0 F12000 X150.99 Y162.68
G1 F2280 X150.17 Y163.50 E42.27151
G0 F12000 X149.74 Y163.37
G1 F2280 X150.47 Y162.63 E42.28017
G0 F12000 X150.03 Y162.51
G1 F2280 X149.30 Y163.24 E42.28875
G0 F12000 X148.87 Y163.10
G1 F2280 X149.60 Y162.38 E42.29733
G0 F12000 X149.16 Y162.24
G1 F2280 X148.44 Y162.97 E42.30591
G0 F12000 X148.03 Y162.81
G1 F2280 X148.73 Y162.11 E42.31414
G0 F12000 X148.33 Y161.94
G1 F2280 X147.66 Y162.62 E42.32204
G0 F12000 X147.29 Y162.42
G1 F2280 X147.97 Y161.75 E42.32995
G0 F12000 X147.60 Y161.55
G1 F2280 X146.93 Y162.22 E42.33784
G0 F12000 X146.56 Y162.02
G1 F2280 X147.23 Y161.35 E42.34573
G0 F12000 X146.86 Y161.16
G1 F2280 X146.20 Y161.82 E42.35351
G0 F12000 X145.89 Y161.56
G1 F2280 X146.53 Y160.92 E42.36111
G0 F12000 X146.22 Y160.66
G1 F2280 X145.57 Y161.31 E42.36873
G0 F12000 X145.26 Y161.05
G1 F2280 X145.91 Y160.40 E42.37638
G0 F12000 X145.60 Y160.15
G1 F2280 X144.95 Y160.80 E42.38403
;LAYER:2
G0 F12000 X144.51 Y160.62 Z0.35
;TYPE:WALL-INNER
G1 F3120 X144.44 Y160.56 E42.38479
G1 X143.03 Y158.83 E42.40338
G1 X141.97 Y156.86 E42.42197
G1 X141.32 Y154.72 E42.44054
G1 X141.10 Y152.50 E42.45912
G1 X141.32 Y150.28 E42.47769
G1 X141.97 Y148.14 E42.49626
G1 X143.03 Y146.17 E42.51485
G1 X144.44 Y144.44 E42.53342
G1 X146.17 Y143.02 E42.55200
G1 X148.14 Y141.97 E42.57058
G1 X150.28 Y141.32 E42.58916
G1 X152.50 Y141.10 E42.60774
G1 X154.72 Y141.32 E42.62631
G1 X156.86 Y141.97 E42.64488
G1 X158.83 Y143.02 E42.66347
G1 X160.56 Y144.44 E42.68205
G1 X161.98 Y146.17 E42.70062
G1 X163.03 Y148.14 E42.71920
G1 X163.68 Y150.28 E42.73779
G1 X163.90 Y152.50 E42.75636
G1 X163.68 Y154.72 E42.77493
G1 X163.06 Y156.77 E42.79271
G1 X163.03 Y156.86 E42.79349
G1 X161.98 Y158.83 E42.81209
G1 X160.56 Y160.56 E42.83067
G1 X158.90 Y161.92 E42.84847
G1 X158.83 Y161.98 E42.84925
G1 X156.86 Y163.03 E42.86783
G1 X154.72 Y163.68 E42.88640
G1 X152.50 Y163.90 E42.90498
G1 X150.28 Y163.68 E42.92355
G1 X148.23 Y163.06 E42.94136
G1 X148.14 Y163.03 E42.94211
G1 X146.17 Y161.97 E42.96072
G1 X144.51 Y160.62 E42.97851
G0 F12000 X145.25 Y159.67
G1 F3120 X145.71 Y160.06 E42.98346
G1 X146.75 Y160.92 E42.99470
G1 X146.83 Y160.98 E42.99556
G1 X148.60 Y161.93 E43.01220
G1 X150.40 Y162.47 E43.02789
G1 X150.51 Y162.51 E43.02880
G1 X152.50 Y162.70 E43.04546
G1 X154.39 Y162.52 E43.06124
G1 X154.49 Y162.50 E43.06211
G1 X156.31 Y161.96 E43.07788
G1 X156.41 Y161.92 E43.07875
G1 X158.08 Y161.03 E43.09450
G1 X158.17 Y160.98 E43.09535
G1 X159.67 Y159.75 E43.11154
G1 X160.06 Y159.29 E43.11649
G1 X160.91 Y158.26 E43.12765
G1 X160.98 Y158.17 E43.12856
G1 X161.93 Y156.40 E43.14524
G1 X162.47 Y154.60 E43.16093
G1 X162.51 Y154.49 E43.16184
G1 X162.69 Y152.61 E43.17756
G1 X162.70 Y152.50 E43.17845
G1 X162.52 Y150.61 E43.19428
G1 X162.51 Y150.51 E43.19515
G1 X161.96 Y148.69 E43.21092
G1 X161.93 Y148.59 E43.21179
G1 X161.03 Y146.92 E43.22753
G1 X160.98 Y146.83 E43.22839
G1 X159.75 Y145.33 E43.24459
G1 X159.29 Y144.94 E43.24953
G1 X158.26 Y144.09 E43.26069
G1 X158.17 Y144.02 E43.26160
G1 X156.50 Y143.13 E43.27735
G1 X156.41 Y143.07 E43.27825
G1 X154.60 Y142.53 E43.29397
G1 X154.49 Y142.49 E43.29488
G1 X152.61 Y142.31 E43.31060
G1 X152.50 Y142.30 E43.31150
G1 X150.61 Y142.48 E43.32732
G1 X150.51 Y142.49 E43.32819
G1 X148.69 Y143.04 E43.34395
G1 X148.59 Y143.07 E43.34482
G1 X146.92 Y143.97 E43.36058
G1 X146.83 Y144.02 E43.36144
G1 X145.33 Y145.25 E43.37763
G1 X144.94 Y145.71 E43.38257
G1 X144.09 Y146.74 E43.39374
G1 X144.02 Y146.83 E43.39464
G1 X143.13 Y148.50 E43.41039
G1 X143.07 Y148.59 E43.41129
G1 X142.53 Y150.40 E43.42701
G1 X142.49 Y150.50 E43.42791
G1 X142.31 Y152.39 E43.44365
G1 X142.30 Y152.50 E43.44454
G1 X142.48 Y154.39 E43.46036
G1 X142.49 Y154.49 E43.46124
G1 X143.04 Y156.31 E43.47700
G1 X143.08 Y156.41 E43.47787
G1 X143.97 Y158.08 E43.49362
G1 X144.02 Y158.17 E43.49448
G1 X145.25 Y159.67 E43.51067
G0 F12000 X145.54 Y159.39
;TYPE:WALL-OUTER
G1 F3120 X145.96 Y159.75 E43.51529
G1 X147.06 Y160.65 E43.52704
G1 X148.75 Y161.56 E43.54302
G1 X150.52 Y162.09 E43.55842
G1 X150.59 Y162.11 E43.55898
G1 X152.50 Y162.30 E43.57497
G1 X154.35 Y162.12 E43.59041
G1 X154.41 Y162.11 E43.59094
G1 X156.19 Y161.57 E43.60638
G1 X156.25 Y161.55 E43.60693
G1 X157.94 Y160.65 E43.62290
G1 X159.39 Y159.46 E43.63847
G1 X159.75 Y159.04 E43.64308
G1 X160.61 Y157.99 E43.65430
G1 X160.65 Y157.95 E43.65482
G1 X161.56 Y156.25 E43.67082
G1 X162.09 Y154.48 E43.68622
G1 X162.11 Y154.41 E43.68678
G1 X162.29 Y152.57 E43.70221
G1 X162.30 Y152.50 E43.70275
G1 X162.12 Y150.65 E43.71820
G1 X162.11 Y150.59 E43.71875
G1 X161.57 Y148.81 E43.73418
G1 X161.56 Y148.75 E43.73473
G1 X160.65 Y147.06 E43.75069
G1 X159.46 Y145.61 E43.76627
G1 X159.04 Y145.25 E43.77088
G1 X157.99 Y144.39 E43.78211
G1 X157.95 Y144.35 E43.78263
G1 X156.31 Y143.48 E43.79807
G1 X156.25 Y143.44 E43.79860
G1 X154.48 Y142.91 E43.81402
G1 X154.41 Y142.89 E43.81458
G1 X152.57 Y142.71 E43.83002
G1 X152.50 Y142.70 E43.83055
G1 X150.65 Y142.88 E43.84601
G1 X150.59 Y142.89 E43.84654
G1 X148.81 Y143.43 E43.86197
G1 X148.75 Y143.44 E43.86252
G1 X147.06 Y144.35 E43.87850
G1 X145.61 Y145.54 E43.89407
G1 X145.25 Y145.96 E43.89868
G1 X144.39 Y147.01 E43.90991
G1 X144.35 Y147.05 E43.91043
G1 X143.48 Y148.69 E43.92585
G1 X143.45 Y148.75 E43.92640
G1 X142.91 Y150.52 E43.94182
G1 X142.89 Y150.59 E43.94238
G1 X142.71 Y152.43 E43.95782
G1 X142.70 Y152.50 E43.95835
G1 X142.88 Y154.35 E43.97381
G1 X142.89 Y154.41 E43.97434
G1 X143.43 Y156.19 E43.98978
G1 X143.45 Y156.25 E43.99033
G1 X144.35 Y157.94 E44.00630
G1 X145.54 Y159.39 E44.02187
G0 F12000 X145.34 Y159.62
G0 X144.37 Y160.63
G0 X144.16 Y160.84
G1 F3120 X142.69 Y159.05 E44.04114
G1 X141.60 Y157.02 E44.06033
G1 X140.93 Y154.80 E44.07956
G1 X140.70 Y152.50 E44.09882
G1 X140.93 Y150.20 E44.11804
G1 X141.60 Y147.98 E44.13727
G1 X142.69 Y145.95 E44.15647
G1 X144.16 Y144.16 E44.17573
G1 X145.95 Y142.69 E44.19501
G1 X147.98 Y141.60 E44.21420
G1 X150.20 Y140.93 E44.23343
G1 X152.50 Y140.70 E44.25267
G1 X154.80 Y140.93 E44.27191
G1 X157.01 Y141.60 E44.29113
G1 X159.05 Y142.69 E44.31033
G1 X160.84 Y144.16 E44.32960
G1 X162.31 Y145.95 E44.34887
G1 X163.40 Y147.98 E44.36806
G1 X164.07 Y150.20 E44.38729
G1 X164.30 Y152.50 E44.40652
G1 X164.07 Y154.80 E44.42578
G1 X163.40 Y157.02 E44.44501
G1 X162.31 Y159.05 E44.46419
G1 X160.84 Y160.84 E44.48347
G1 X159.05 Y162.31 E44.50274
G1 X157.01 Y163.40 E44.52194
G1 X154.80 Y164.07 E44.54116
G1 X152.50 Y164.30 E44.56040
G1 X150.20 Y164.07 E44.57964
G1 X147.98 Y163.40 E44.59887
G1 X145.95 Y162.31 E44.61806
G1 X144.16 Y160.84 E44.63733
G0 F12000 X144.37 Y160.63
G0 X146.31 Y160.74
;TYPE:FILL
G1 F3120 X148.59 Y163.02 E44.66420
G0 F12000 X149.41 Y163.27
G1 F3120 X147.80 Y161.66 E44.68313
G0 F12000 X147.58 Y162.57
G1 F3120 X142.43 Y157.42 E44.74370
G0 F12000 X143.34 Y157.20
G1 F3120 X141.73 Y155.59 E44.76267
G0 F12000 X141.48 Y154.78
G1 F3120 X142.85 Y156.14 E44.77876
G0 F12000 X142.60 Y155.33
G1 F3120 X141.40 Y154.13 E44.79287
G0 F12000 X141.34 Y153.50
G1 F3120 X142.36 Y154.52 E44.80481
G0 F12000 X142.29 Y153.89
G1 F3120 X141.28 Y152.88 E44.81673
G0 F12000 X141.26 Y152.29
G1 F3120 X142.23 Y153.26 E44.82813
G0 F12000 X142.17 Y152.64
G1 F3120 X141.31 Y151.78 E44.83821
G0 F12000 X141.36 Y151.26
G1 F3120 X142.20 Y152.09 E44.84799
G0 F12000 X142.25 Y151.58
G1 F3120 X141.41 Y150.75 E44.85779
G0 F12000 X141.48 Y150.24
G1 F3120 X142.30 Y151.07 E44.86745
G0 F12000 X142.35 Y150.55
G1 F3120 X141.61 Y149.81 E44.87615
G0 F12000 X141.74 Y149.38
G1 F3120 X142.47 Y150.11 E44.88474
G0 F12000 X142.60 Y149.67
G1 F3120 X141.87 Y148.94 E44.89333
G0 F12000 X142.00 Y148.51
G1 F3120 X142.73 Y149.24 E44.90192
G0 F12000 X142.87 Y148.80
G1 F3120 X142.15 Y148.09 E44.91030
G0 F12000 X142.35 Y147.72
G1 F3120 X143.02 Y148.40 E44.91820
G0 F12000 X143.22 Y148.03
G1 F3120 X142.55 Y147.35 E44.92609
G0 F12000 X142.74 Y146.99
G1 F3120 X143.42 Y147.66 E44.93400
G0 F12000 X143.61 Y147.29
G1 F3120 X142.94 Y146.62 E44.94190
G0 F12000 X143.14 Y146.25
G1 F3120 X143.81 Y146.92 E44.94979
G0 F12000 X144.04 Y146.58
G1 F3120 X143.39 Y145.94 E44.95736
G0 F12000 X143.65 Y145.63
G1 F3120 X144.29 Y146.27 E44.96494
G0 F12000 X144.55 Y145.96
G1 F3120 X143.90 Y145.32 E44.97254
G0 F12000 X144.16 Y145.00
G1 F3120 X144.80 Y145.65 E44.98015
G0 F12000 X145.06 Y145.34
G1 F3120 X144.41 Y144.69 E44.98781
G0 F12000 X144.69 Y144.41
G1 F3120 X145.34 Y145.06 E44.99541
G0 F12000 X145.65 Y144.80
G1 F3120 X145.00 Y144.16 E45.00300
G0 F12000 X145.32 Y143.90
G1 F3120 X145.96 Y144.55 E45.01060
G0 F12000 X146.27 Y144.29
G1 F3120 X145.63 Y143.65 E45.01818
G0 F12000 X145.94 Y143.39
G1 F3120 X146.58 Y144.04 E45.02575
G0 F12000 X146.92 Y143.81
G1 F3120 X146.25 Y143.14 E45.03364
G0 F12000 X146.62 Y142.94
G1 F3120 X147.29 Y143.61 E45.04153
G0 F12000 X147.66 Y143.41
G1 F3120 X146.99 Y142.74 E45.04943
G0 F12000 X147.36 Y142.55
G1 F3120 X148.03 Y143.22 E45.05732
G0 F12000 X148.40 Y143.02
G1 F3120 X147.72 Y142.35 E45.06521
G0 F12000 X148.09 Y142.15
G1 F3120 X148.80 Y142.86 E45.07357
G0 F12000 X149.24 Y142.73
G1 F3120 X148.51 Y142.00 E45.08213
G0 F12000 X148.94 Y141.87
G1 F3120 X149.67 Y142.60 E45.09069
G0 F12000 X150.10 Y142.47
G1 F3120 X149.38 Y141.74 E45.09926
G0 F12000 X149.81 Y141.61
G1 F3120 X150.55 Y142.35 E45.10796
G0 F12000 X151.07 Y142.30
G1 F3120 X150.25 Y141.48 E45.11762
G0 F12000 X150.75 Y141.41
G1 F3120 X151.58 Y142.25 E45.12740
G0 F12000 X152.10 Y142.20
G1 F3120 X151.26 Y141.37 E45.13718
G0 F12000 X151.78 Y141.31
G1 F3120 X152.63 Y142.17 E45.14725
G0 F12000 X153.26 Y142.23
G1 F3120 X152.29 Y141.26 E45.15862
G0 F12000 X152.88 Y141.28
G1 F3120 X153.89 Y142.29 E45.17052
G0 F12000 X154.52 Y142.35
G1 F3120 X153.50 Y141.34 E45.18242
G0 F12000 X154.13 Y141.40
G1 F3120 X155.33 Y142.60 E45.19652
G0 F12000 X156.14 Y142.85
G1 F3120 X154.78 Y141.48 E45.21256
G0 F12000 X155.59 Y141.73
G1 F3120 X157.20 Y143.34 E45.23149
G0 F12000 X157.42 Y142.43
G1 F3120 X162.57 Y147.58 E45.29212
G0 F12000 X161.66 Y147.80
G1 F3120 X163.27 Y149.41 E45.31107
G0 F12000 X163.52 Y150.22
G1 F3120 X162.15 Y148.86 E45.32712
G0 F12000 X162.40 Y149.67
G1 F3120 X163.60 Y150.87 E45.34121
G0 F12000 X163.66 Y151.50
G1 F3120 X162.64 Y150.48 E45.35314
G0 F12000 X162.70 Y151.11
G1 F3120 X163.72 Y152.12 E45.36506
G0 F12000 X163.74 Y152.70
G1 F3120 X162.77 Y151.74 E45.37646
G0 F12000 X162.83 Y152.36
G1 F3120 X163.69 Y153.22 E45.38653
G0 F12000 X163.63 Y153.73
G1 F3120 X162.80 Y152.90 E45.39631
G0 F12000 X162.75 Y153.42
G1 F3120 X163.58 Y154.25 E45.40610
G0 F12000 X163.52 Y154.75
G1 F3120 X162.70 Y153.93 E45.41576
G0 F12000 X162.65 Y154.45
G1 F3120 X163.39 Y155.19 E45.42447
G0 F12000 X163.26 Y155.62
G1 F3120 X162.53 Y154.89 E45.43306
G0 F12000 X162.40 Y155.33
G1 F3120 X163.13 Y156.06 E45.44164
G0 F12000 X163.00 Y156.49
G1 F3120 X162.27 Y155.76 E45.45022
G0 F12000 X162.13 Y156.19
G1 F3120 X162.85 Y156.91 E45.45858
G0 F12000 X162.65 Y157.28
G1 F3120 X161.98 Y156.60 E45.46648
G0 F12000 X161.78 Y156.97
G1 F3120 X162.45 Y157.64 E45.47437
G0 F12000 X162.25 Y158.01
G1 F3120 X161.58 Y157.34 E45.48227
G0 F12000 X161.39 Y157.71
G1 F3120 X162.06 Y158.38 E45.49017
G0 F12000 X161.86 Y158.75
G1 F3120 X161.19 Y158.08 E45.49806
G0 F12000 X160.96 Y158.41
G1 F3120 X161.61 Y159.06 E45.50565
G0 F12000 X161.35 Y159.37
G1 F3120 X160.71 Y158.73 E45.51323
G0 F12000 X160.45 Y159.04
G1 F3120 X161.10 Y159.68 E45.52084
G0 F12000 X160.84 Y159.99
G1 F3120 X160.19 Y159.35 E45.52846
G0 F12000 X159.94 Y159.65
G1 F3120 X160.59 Y160.31 E45.53612
G0 F12000 X160.30 Y160.59
G1 F3120 X159.66 Y159.94 E45.54371
G0 F12000 X159.35 Y160.20
G1 F3120 X159.99 Y160.84 E45.55131
G0 F12000 X159.68 Y161.10
G1 F3120 X159.04 Y160.45 E45.55889
G0 F12000 X158.73 Y160.71
G1 F3120 X159.37 Y161.35 E45.56648
G0 F12000 X159.06 Y161.60
G1 F3120 X158.41 Y160.96 E45.57406
G0 F12000 X158.08 Y161.19
G1 F3120 X158.75 Y161.86 E45.58197
G0 F12000 X158.38 Y162.06
G1 F3120 X157.71 Y161.38 E45.58986
G0 F12000 X157.34 Y161.58
G1 F3120 X158.01 Y162.25 E45.59775
G0 F12000 X157.64 Y162.45
G1 F3120 X156.97 Y161.78 E45.60564
G0 F12000 X156.60 Y161.98
G1 F3120 X157.27 Y162.65 E45.61352
G0 F12000 X156.91 Y162.84
G1 F3120 X156.19 Y162.13 E45.62188
G0 F12000 X155.76 Y162.27
G1 F3120 X156.49 Y163.00 E45.63045
G0 F12000 X156.06 Y163.13
G1 F3120 X155.33 Y162.40 E45.63901
G0 F12000 X154.89 Y162.53
G1 F3120 X155.62 Y163.26 E45.64758
G0 F12000 X155.19 Y163.39
G1 F3120 X154.45 Y162.65 E45.65630
G0 F12000 X153.93 Y162.70
G1 F3120 X154.75 Y163.52 E45.66595
G0 F12000 X154.25 Y163.58
G1 F3120 X153.42 Y162.75 E45.67575
G0 F12000 X152.90 Y162.80
G1 F3120 X153.73 Y163.63 E45.68554
G0 F12000 X153.22 Y163.68
G1 F3120 X152.36 Y162.83 E45.69561
G0 F12000 X151.74 Y162.77
G1 F3120 X152.70 Y163.73 E45.70700
G0 F12000 X152.12 Y163.72
G1 F3120 X151.11 Y162.70 E45.71891
G0 F12000 X150.48 Y162.64
G1 F3120 X151.49 Y163.66 E45.73081
G0 F12000 X150.87 Y163.59
G1 F3120 X149.67 Y162.40 E45.74490
G0 F12000 X148.86 Y162.15
G1 F3120 X150.22 Y163.51 E45.76092
G0 F12000 X146.36 Y161.92
G1 F3120 X143.08 Y158.63 E45.79952
G0 F12000 X144.26 Y158.68
G1 F3120 X141.98 Y156.40 E45.82635
G0 F12000 X142.53 Y150.40
G0 X144.02 Y146.83
G0 X146.83 Y144.02
G0 X150.51 Y142.50
G0 X154.49 Y142.50
G0 X156.40 Y141.98
G1 F3120 X158.68 Y144.26 E45.85315
G0 F12000 X158.63 Y143.08
G1 F3120 X161.92 Y146.37 E45.89182
G0 F12000 X160.74 Y146.31
G1 F3120 X163.02 Y148.60 E45.91867
G1 F2400 E44.71867
G0 F12000 X147.43 Y157.20
;TYPE:WALL-INNER
G1 F2400 E45.91867
G1 F3120 X147.45 Y157.51 E45.92125
G1 X147.33 Y157.79 E45.92382
G1 X147.10 Y157.92 E45.92598
G1 X146.78 Y157.98 E45.92874
G1 X146.49 Y157.81 E45.93150
G1 X146.32 Y157.62 E45.93366
G1 X146.30 Y157.31 E45.93625
G1 X146.42 Y157.03 E45.93881
G1 X146.65 Y156.90 E45.94098
G1 X146.98 Y156.84 E45.94374
G1 X147.26 Y157.00 E45.94650
G1 X147.43 Y157.20 E45.94866
G0 F12000 X147.82 Y157.04
;TYPE:WALL-OUTER
G1 F3120 X147.86 Y157.58 E45.95316
G1 X147.64 Y158.08 E45.95765
G1 X147.24 Y158.31 E45.96149
G1 X146.75 Y158.39 E45.96564
G1 X146.66 Y158.38 E45.96635
G1 X146.23 Y158.13 E45.97053
G1 X145.93 Y157.78 E45.97435
G1 X145.89 Y157.24 E45.97885
G1 X146.11 Y156.74 E45.98334
G1 X146.51 Y156.51 E45.98718
G1 X147.00 Y156.43 E45.99133
G1 X147.09 Y156.44 E45.99205
G1 X147.52 Y156.69 E45.99623
G1 X147.82 Y157.04 E46.00005
G0 F12000 X147.31 Y157.49
;TYPE:FILL
G1 F3120 X146.82 Y157.01 E46.00574
G0 F12000 X146.61 Y157.08
G1 F3120 X147.22 Y157.69 E46.01290
G0 F12000 X146.80 Y157.83
G1 F3120 X146.45 Y157.48 E46.01705
G1 F2400 E44.81705
G0 F12000 X149.04 Y155.96
;TYPE:WALL-INNER
G1 F2400 E46.01705
G1 F3120 X148.43 Y155.22 E46.02504
G1 X147.98 Y154.37 E46.03302
G1 X147.75 Y153.64 E46.03936
G1 X147.70 Y153.45 E46.04102
G1 X147.60 Y152.50 E46.04897
G1 X147.70 Y151.55 E46.05694
G1 X147.92 Y150.82 E46.06328
G1 X147.98 Y150.63 E46.06494
G1 X148.43 Y149.78 E46.07290
G1 X149.04 Y149.04 E46.08090
G1 X149.78 Y148.43 E46.08889
G1 X150.63 Y147.98 E46.09687
G1 X151.36 Y147.75 E46.10321
G1 X151.55 Y147.70 E46.10487
G1 X152.50 Y147.60 E46.11282
G1 X153.45 Y147.70 E46.12079
G1 X154.18 Y147.92 E46.12713
G1 X154.37 Y147.98 E46.12879
G1 X155.22 Y148.43 E46.13678
G1 X155.96 Y149.04 E46.14475
G1 X156.57 Y149.78 E46.15270
G1 X157.03 Y150.63 E46.16075
G1 X157.25 Y151.36 E46.16707
G1 X157.30 Y151.55 E46.16872
G1 X157.40 Y152.50 E46.17668
G1 X157.30 Y153.46 E46.18465
G1 X157.03 Y154.37 E46.19261
G1 X156.57 Y155.22 E46.20065
G1 X156.09 Y155.81 E46.20695
G1 X155.97 Y155.96 E46.20856
G1 X155.37 Y156.44 E46.21494
G1 X155.21 Y156.57 E46.21666
G1 X154.37 Y157.02 E46.22457
G1 X153.46 Y157.30 E46.23254
G1 X152.50 Y157.40 E46.24054
G1 X151.74 Y157.32 E46.24685
G1 X151.54 Y157.30 E46.24851
G1 X150.82 Y157.08 E46.25483
G1 X150.63 Y157.02 E46.25650
G1 X149.78 Y156.57 E46.26445
G1 X149.04 Y155.96 E46.27245
G0 F12000 X150.18 Y154.59
G1 F3120 X151.53 Y155.47 E46.28591
G1 X153.15 Y155.56 E46.29934
G1 X154.37 Y154.93 E46.31076
G1 X154.59 Y154.82 E46.31281
G1 X155.47 Y153.46 E46.32623
G1 X155.54 Y152.10 E46.33759
G1 X155.56 Y151.85 E46.33965
G1 X154.82 Y150.41 E46.35311
G1 X153.47 Y149.53 E46.36657
G1 X151.85 Y149.44 E46.38001
G1 X150.41 Y150.18 E46.39345
G1 X149.53 Y151.53 E46.40689
G1 X149.46 Y152.90 E46.41826
G1 X149.44 Y153.15 E46.42031
G1 X150.18 Y154.59 E46.43377
G0 F12000 X150.49 Y154.31
;TYPE:WALL-OUTER
G1 F3120 X151.66 Y155.08 E46.44544
G1 X153.06 Y155.15 E46.45709
G1 X154.19 Y154.58 E46.46761
G1 X154.31 Y154.51 E46.46876
G1 X155.08 Y153.34 E46.48042
G1 X155.14 Y152.08 E46.49091
G1 X155.15 Y151.94 E46.49206
G1 X154.51 Y150.69 E46.50373
G1 X153.34 Y149.92 E46.51540
G1 X151.94 Y149.85 E46.52706
G1 X150.69 Y150.49 E46.53872
G1 X149.92 Y151.66 E46.55038
G1 X149.86 Y152.92 E46.56088
G1 X149.85 Y153.06 E46.56203
G1 X150.49 Y154.31 E46.57369
G0 F12000 X150.32 Y154.56
G0 X148.97 Y156.03
G0 X148.75 Y156.25
G1 F3120 X148.09 Y155.44 E46.58236
G1 X147.60 Y154.53 E46.59096
G1 X147.30 Y153.53 E46.59960
G1 X147.20 Y152.50 E46.60824
G1 X147.30 Y151.47 E46.61689
G1 X147.60 Y150.47 E46.62551
G1 X148.09 Y149.56 E46.63412
G1 X148.75 Y148.75 E46.64280
G1 X149.56 Y148.09 E46.65146
G1 X150.47 Y147.60 E46.66006
G1 X151.47 Y147.30 E46.66870
G1 X152.50 Y147.20 E46.67734
G1 X153.53 Y147.30 E46.68599
G1 X154.53 Y147.60 E46.69461
G1 X155.44 Y148.09 E46.70322
G1 X156.25 Y148.75 E46.71189
G1 X156.91 Y149.56 E46.72054
G1 X157.40 Y150.47 E46.72919
G1 X157.70 Y151.47 E46.73779
G1 X157.80 Y152.50 E46.74644
G1 X157.70 Y153.53 E46.75508
G1 X157.40 Y154.53 E46.76369
G1 X156.91 Y155.44 E46.77234
G1 X156.25 Y156.25 E46.78098
G1 X155.63 Y156.75 E46.78765
G1 X155.43 Y156.91 E46.78975
G1 X154.53 Y157.40 E46.79826
G1 X153.54 Y157.70 E46.80688
G1 X152.50 Y157.80 E46.81554
G1 X151.47 Y157.70 E46.82418
G1 X150.47 Y157.40 E46.83281
G1 X149.56 Y156.91 E46.84142
G1 X148.75 Y156.25 E46.85009
G0 F12000 X150.05 Y156.56
;TYPE:FILL
G1 F3120 X148.44 Y154.94 E46.86906
G0 F12000 X147.99 Y153.93
G1 F3120 X151.07 Y157.01 E46.90539
G0 F12000 X151.81 Y157.19
G1 F3120 X147.81 Y153.18 E46.95246
G0 F12000 X147.75 Y152.56
G1 F3120 X152.44 Y157.25 E47.00762
G0 F12000 X152.97 Y157.21
G1 F3120 X151.13 Y155.38 E47.02918
G0 F12000 X151.96 Y155.63
G1 F3120 X153.47 Y157.15 E47.04704
G0 F12000 X153.91 Y157.02
G1 F3120 X152.55 Y155.66 E47.06298
G0 F12000 X153.15 Y155.69
G1 F3120 X154.34 Y156.88 E47.07696
G0 F12000 X154.71 Y156.69
G1 F3120 X153.53 Y155.51 E47.09073
G0 F12000 X153.91 Y155.32
G1 F3120 X155.07 Y156.49 E47.10443
G0 F12000 X155.39 Y156.24
G1 F3120 X154.28 Y155.13 E47.11749
G0 F12000 X154.66 Y154.94
G1 F3120 X155.71 Y155.99 E47.12982
G0 F12000 X155.99 Y155.71
G1 F3120 X154.89 Y154.61 E47.14274
G0 F12000 X155.12 Y154.27
G1 F3120 X156.25 Y155.40 E47.15603
G0 F12000 X156.49 Y155.07
G1 F3120 X155.34 Y153.92 E47.16957
G0 F12000 X155.56 Y153.58
G1 F3120 X156.69 Y154.71 E47.18283
G0 F12000 X156.88 Y154.34
G1 F3120 X155.63 Y153.08 E47.19759
G0 F12000 X155.66 Y152.55
G1 F3120 X157.02 Y153.91 E47.21361
G0 F12000 X157.15 Y153.47
G1 F3120 X155.69 Y152.01 E47.23083
G0 F12000 X155.32 Y151.07
G1 F3120 X157.21 Y152.97 E47.25309
G0 F12000 X157.25 Y152.44
G1 F3120 X152.56 Y147.75 E47.30824
G0 F12000 X152.03 Y147.79
G1 F3120 X153.86 Y149.62 E47.32977
G0 F12000 X153.04 Y149.37
G1 F3120 X151.53 Y147.85 E47.34762
G0 F12000 X151.09 Y147.98
G1 F3120 X152.44 Y149.33 E47.36354
G0 F12000 X151.85 Y149.30
G1 F3120 X150.66 Y148.12 E47.37751
G0 F12000 X150.29 Y148.31
G1 F3120 X151.46 Y149.48 E47.39128
G0 F12000 X151.09 Y149.67
G1 F3120 X149.92 Y148.51 E47.40496
G0 F12000 X149.60 Y148.75
G1 F3120 X150.71 Y149.87 E47.41802
G0 F12000 X150.34 Y150.06
G1 F3120 X149.29 Y149.01 E47.43034
G0 F12000 X149.01 Y149.29
G1 F3120 X150.11 Y150.39 E47.44324
G0 F12000 X149.88 Y150.73
G1 F3120 X148.75 Y149.60 E47.45652
G0 F12000 X148.51 Y149.92
G1 F3120 X149.66 Y151.07 E47.47007
G0 F12000 X149.44 Y151.42
G1 F3120 X148.31 Y150.29 E47.48331
G0 F12000 X148.11 Y150.66
G1 F3120 X149.37 Y151.91 E47.49806
G0 F12000 X149.34 Y152.45
G1 F3120 X147.98 Y151.09 E47.51406
G0 F12000 X147.85 Y151.53
G1 F3120 X149.31 Y152.99 E47.53126
G0 F12000 X149.68 Y153.93
G1 F3120 X147.79 Y152.03 E47.55353
G0 F12000 X153.18 Y147.81
G1 F3120 X157.19 Y151.81 E47.60063
G0 F12000 X157.01 Y151.07
G1 F3120 X153.93 Y147.99 E47.63694
G0 F12000 X154.95 Y148.44
G1 F3120 X156.56 Y150.05 E47.65584
G1 F2400 E46.45584
G0 F12000 X151.82 Y159.43
;TYPE:WALL-INNER
G1 F2400 E47.65584
G1 F3120 X151.96 Y159.65 E47.65799
G1 X152.04 Y159.97 E47.66076
G1 X151.89 Y160.27 E47.66352
G1 X151.70 Y160.45 E47.66568
G1 X151.39 Y160.49 E47.66826
G1 X151.10 Y160.38 E47.67082
G1 X150.96 Y160.16 E47.67300
G1 X150.89 Y159.83 E47.67575
G1 X151.04 Y159.54 E47.67852
G1 X151.23 Y159.36 E47.68068
G1 X151.53 Y159.32 E47.68325
G1 X151.82 Y159.43 E47.68582
G0 F12000 X152.09 Y159.10
;TYPE:WALL-OUTER
G1 F3120 X152.34 Y159.49 E47.68965
G1 X152.45 Y159.98 E47.69380
G1 X152.44 Y160.07 E47.69455
G1 X152.21 Y160.51 E47.69869
G1 X151.88 Y160.83 E47.70252
G1 X151.34 Y160.89 E47.70702
G1 X150.84 Y160.70 E47.71152
G1 X150.59 Y160.31 E47.71534
G1 X150.48 Y159.83 E47.71950
G1 X150.49 Y159.74 E47.72023
G1 X150.71 Y159.29 E47.72439
G1 X151.05 Y158.98 E47.72823
G1 X151.58 Y158.91 E47.73271
G1 X152.09 Y159.10 E47.73722
G0 F12000 X151.56 Y159.48
;TYPE:FILL
G1 F3120 X151.84 Y159.91 E47.74054
G1 X151.17 Y159.65 E47.74705
G1 X151.55 Y160.32 E47.75347
G1 F2400 E46.55347
G0 F12000 X155.78 Y159.12
;TYPE:WALL-INNER
G1 F2400 E47.75347
G1 F3120 X155.77 Y158.87 E47.75563
G1 X155.87 Y158.55 E47.75839
G1 X156.16 Y158.37 E47.76116
G1 X156.41 Y158.32 E47.76331
G1 X156.69 Y158.44 E47.76586
G1 X156.88 Y158.69 E47.76846
G1 X156.89 Y158.94 E47.77060
G1 X156.78 Y159.26 E47.77340
G1 X156.51 Y159.44 E47.77612
G1 X156.25 Y159.49 E47.77831
G1 X155.97 Y159.37 E47.78087
G1 X155.78 Y159.12 E47.78345
G0 F12000 X155.38 Y159.27
;TYPE:WALL-OUTER
G1 F3120 X155.37 Y158.81 E47.78727
G1 X155.53 Y158.33 E47.79144
G1 X155.58 Y158.26 E47.79218
G1 X156.00 Y158.00 E47.79634
G1 X156.45 Y157.90 E47.80017
G1 X156.94 Y158.12 E47.80464
G1 X157.28 Y158.54 E47.80914
G1 X157.29 Y159.00 E47.81297
G1 X157.13 Y159.48 E47.81714
G1 X157.08 Y159.55 E47.81790
G1 X156.66 Y159.81 E47.82200
G1 X156.21 Y159.91 E47.82587
G1 X155.71 Y159.69 E47.83036
G1 X155.38 Y159.27 E47.83484
G0 F12000 X155.91 Y159.02
;TYPE:FILL
G1 F3120 X156.21 Y159.32 E47.83835
G0 F12000 X156.64 Y159.19
G1 F3120 X156.06 Y158.60 E47.84524
G0 F12000 X156.56 Y158.54
G1 F3120 X156.69 Y158.67 E47.84680
G1 F2400 E46.64680
G0 F12000 X159.18 Y155.38
;TYPE:WALL-INNER
G1 F2400 E47.84680
G1 F3120 X159.05 Y155.16 E47.84896
G1 X158.99 Y154.83 E47.85172
G1 X159.15 Y154.54 E47.85448
G1 X159.34 Y154.37 E47.85664
G1 X159.65 Y154.34 E47.85920
G1 X159.94 Y154.46 E47.86181
G1 X160.07 Y154.68 E47.86392
G1 X160.13 Y155.01 E47.86672
G1 X159.97 Y155.30 E47.86948
G1 X159.78 Y155.47 E47.87162
G1 X159.47 Y155.50 E47.87418
G1 X159.18 Y155.38 E47.87677
G0 F12000 X158.90 Y155.70
;TYPE:WALL-OUTER
G1 F3120 X158.67 Y155.30 E47.88061
G1 X158.58 Y154.81 E47.88475
G1 X158.59 Y154.72 E47.88550
G1 X158.83 Y154.28 E47.88964
G1 X159.18 Y153.98 E47.89349
G1 X159.71 Y153.93 E47.89797
G1 X160.21 Y154.15 E47.90248
G1 X160.45 Y154.54 E47.90630
G1 X160.54 Y155.03 E47.91047
G1 X160.53 Y155.12 E47.91120
G1 X160.29 Y155.56 E47.91535
G1 X159.94 Y155.86 E47.91919
G1 X159.40 Y155.91 E47.92367
G1 X158.90 Y155.70 E47.92818
G0 F12000 X159.59 Y155.35
;TYPE:FILL
G1 F3120 X159.25 Y154.72 E47.93344
G1 X159.92 Y155.11 E47.93988
G1 F2400 E46.73988
G0 F12000 X159.47 Y150.50
;TYPE:WALL-INNER
G1 F2400 E47.93988
G1 F3120 X159.23 Y150.39 E47.94204
G1 X159.00 Y150.16 E47.94480
G1 X158.97 Y149.83 E47.94757
G1 X159.03 Y149.57 E47.94973
G1 X159.28 Y149.38 E47.95229
G1 X159.58 Y149.32 E47.95487
G1 X159.81 Y149.43 E47.95701
G1 X160.05 Y149.67 E47.95980
G1 X160.08 Y150.00 E47.96254
G1 X160.01 Y150.25 E47.96472
G1 X159.77 Y150.44 E47.96727
G1 X159.47 Y150.50 E47.96984
G0 F12000 X159.42 Y150.92
;TYPE:WALL-OUTER
G1 F3120 X159.00 Y150.72 E47.97368
G1 X158.65 Y150.37 E47.97784
G1 X158.61 Y150.29 E47.97857
G1 X158.56 Y149.79 E47.98273
G1 X158.68 Y149.35 E47.98657
G1 X159.10 Y149.01 E47.99105
G1 X159.63 Y148.90 E47.99552
G1 X160.05 Y149.10 E47.99937
G1 X160.40 Y149.46 E48.00353
G1 X160.44 Y149.54 E48.00426
G1 X160.48 Y150.03 E48.00841
G1 X160.36 Y150.48 E48.01226
G1 X159.94 Y150.82 E48.01674
G1 X159.42 Y150.92 E48.02122
G0 F12000 X159.66 Y150.32
;TYPE:FILL
G1 F3120 X159.26 Y149.64 E48.02752
G1 X159.93 Y150.03 E48.03392
G1 F2400 E46.83392
G0 F12000 X156.60 Y146.54
;TYPE:WALL-INNER
G1 F2400 E48.03392
G1 F3120 X156.36 Y146.66 E48.03610
G1 X156.06 Y146.60 E48.03867
G1 X155.82 Y146.41 E48.04124
G1 X155.75 Y146.16 E48.04340
G1 X155.77 Y145.83 E48.04615
G1 X156.00 Y145.59 E48.04893
G1 X156.24 Y145.48 E48.05109
G1 X156.54 Y145.53 E48.05365
G1 X156.78 Y145.72 E48.05623
G1 X156.85 Y145.97 E48.05838
G1 X156.83 Y146.30 E48.06115
G1 X156.60 Y146.54 E48.06389
G0 F12000 X156.84 Y146.87
;TYPE:WALL-OUTER
G1 F3120 X156.42 Y147.07 E48.06774
G1 X155.89 Y146.98 E48.07222
G1 X155.47 Y146.65 E48.07672
G1 X155.34 Y146.20 E48.08057
G1 X155.38 Y145.71 E48.08469
G1 X155.41 Y145.63 E48.08542
G1 X155.76 Y145.26 E48.08959
G1 X156.18 Y145.06 E48.09344
G1 X156.71 Y145.15 E48.09791
G1 X157.13 Y145.49 E48.10241
G1 X157.26 Y145.93 E48.10623
G1 X157.22 Y146.43 E48.11039
G1 X157.19 Y146.51 E48.11109
G1 X156.84 Y146.87 E48.11527
G0 F12000 X156.56 Y146.38
;TYPE:FILL
G1 F3120 X155.99 Y145.81 E48.12199
G0 F12000 X156.14 Y145.68
G1 F3120 X156.54 Y146.36 E48.12843
G1 X155.90 Y146.00 E48.13454
G1 F2400 E46.93454
G0 F12000 X151.72 Y145.10
;TYPE:WALL-INNER
G1 F2400 E48.13454
G1 F3120 X151.66 Y145.42 E48.13732
G1 X151.40 Y145.64 E48.14009
G1 X151.15 Y145.72 E48.14224
G1 X150.86 Y145.63 E48.14480
G1 X150.64 Y145.41 E48.14740
G1 X150.60 Y145.15 E48.14956
G1 X150.66 Y144.83 E48.15231
G1 X150.92 Y144.62 E48.15506
G1 X151.17 Y144.53 E48.15724
G1 X151.46 Y144.62 E48.15978
G1 X151.68 Y144.84 E48.16238
G1 X151.72 Y145.10 E48.16452
G0 F12000 X152.13 Y145.11
;TYPE:WALL-OUTER
G1 F3120 X152.03 Y145.60 E48.16867
G1 X151.99 Y145.67 E48.16936
G1 X151.60 Y145.99 E48.17355
G1 X151.16 Y146.14 E48.17740
G1 X150.65 Y145.98 E48.18188
G1 X150.26 Y145.60 E48.18637
G1 X150.19 Y145.14 E48.19023
G1 X150.29 Y144.65 E48.19437
G1 X150.33 Y144.58 E48.19507
G1 X150.72 Y144.26 E48.19926
G1 X151.16 Y144.11 E48.20309
G1 X151.67 Y144.27 E48.20756
G1 X152.06 Y144.65 E48.21206
G1 X152.13 Y145.11 E48.21590
G0 F12000 X151.57 Y145.07
;TYPE:FILL
G1 F3120 X151.19 Y144.69 E48.22038
G0 F12000 X150.82 Y144.88
G1 F3120 X151.39 Y145.45 E48.22713
G0 F12000 X151.21 Y145.55
G1 F3120 X150.75 Y145.09 E48.23252
G1 F2400 E47.03252
G0 F12000 X147.17 Y147.49
;TYPE:WALL-INNER
G1 F2400 E48.23252
G1 F3120 X147.28 Y147.80 E48.23528
G1 X147.17 Y148.11 E48.23803
G1 X147.00 Y148.31 E48.24018
G1 X146.70 Y148.39 E48.24277
G1 X146.40 Y148.31 E48.24533
G1 X146.24 Y148.11 E48.24748
G1 X146.12 Y147.80 E48.25025
G1 X146.24 Y147.49 E48.25301
G1 X146.40 Y147.29 E48.25517
G1 X146.70 Y147.21 E48.25772
G1 X147.00 Y147.29 E48.26031
G1 X147.17 Y147.49 E48.26247
G0 F12000 X147.52 Y147.29
;TYPE:WALL-OUTER
G1 F3120 X147.69 Y147.76 E48.26663
G1 X147.69 Y147.84 E48.26734
G1 X147.52 Y148.31 E48.27149
G1 X147.22 Y148.67 E48.27534
G1 X146.70 Y148.80 E48.27983
G1 X146.18 Y148.67 E48.28431
G1 X145.88 Y148.31 E48.28816
G1 X145.71 Y147.84 E48.29230
G1 X145.71 Y147.76 E48.29302
G1 X145.88 Y147.29 E48.29717
G1 X146.18 Y146.93 E48.30103
G1 X146.70 Y146.80 E48.30550
G1 X147.22 Y146.93 E48.31000
G1 X147.52 Y147.29 E48.31384
G0 F12000 X147.08 Y147.93
;TYPE:FILL
G1 F3120 X146.55 Y147.39 E48.32015
G0 F12000 X146.39 Y147.52
G1 F3120 X146.98 Y148.11 E48.32714
G0 F12000 X146.80 Y148.22
G1 F3120 X146.30 Y147.71 E48.33304
G1 F2400 E47.13304
G0 F12000 X145.16 Y151.94
;TYPE:WALL-INNER
G1 F2400 E48.33304
G1 F3120 X145.43 Y152.09 E48.33564
G1 X145.53 Y152.33 E48.33779
G1 X145.56 Y152.66 E48.34055
G1 X145.36 Y152.93 E48.34328
G1 X145.15 Y153.07 E48.34545
G1 X144.84 Y153.06 E48.34803
G1 X144.57 Y152.91 E48.35060
G1 X144.47 Y152.67 E48.35276
G1 X144.44 Y152.34 E48.35551
G1 X144.64 Y152.07 E48.35826
G1 X144.85 Y151.93 E48.36043
G1 X145.16 Y151.94 E48.36299
G0 F12000 X145.28 Y151.54
;TYPE:WALL-OUTER
G1 F3120 X145.75 Y151.81 E48.36749
G1 X145.93 Y152.23 E48.37130
G1 X145.96 Y152.73 E48.37547
G1 X145.94 Y152.81 E48.37620
G1 X145.65 Y153.22 E48.38033
G1 X145.26 Y153.48 E48.38419
G1 X144.72 Y153.46 E48.38867
G1 X144.26 Y153.19 E48.39317
G1 X144.07 Y152.77 E48.39698
G1 X144.04 Y152.27 E48.40115
G1 X144.06 Y152.18 E48.40188
G1 X144.35 Y151.78 E48.40602
G1 X144.74 Y151.52 E48.40987
G1 X145.28 Y151.54 E48.41436
G0 F12000 X145.00 Y152.07
;TYPE:FILL
G1 F3120 X145.40 Y152.47 E48.41912
G0 F12000 X145.22 Y152.85
G1 F3120 X144.65 Y152.29 E48.42577
G0 F12000 X144.60 Y152.52
G1 F3120 X145.01 Y152.93 E48.43061
;LAYER:3
G0 F12000 X145.20 Y153.16 Z0.40
;TYPE:WALL-INNER
G1 F3960 X144.81 Y153.16 E48.43386
G1 X144.49 Y152.97 E48.43697
G1 X144.37 Y152.70 E48.43940
G1 X144.35 Y152.31 E48.44261
G1 X144.57 Y152.00 E48.44584
G1 X144.80 Y151.84 E48.44816
G1 X145.19 Y151.84 E48.45141
G1 X145.51 Y152.03 E48.45453
G1 X145.63 Y152.30 E48.45697
G1 X145.66 Y152.69 E48.46017
G1 X145.43 Y153.00 E48.46338
G1 X145.20 Y153.16 E48.46571
G0 F12000 X145.38 Y153.52
;TYPE:WALL-OUTER
G1 F3960 X145.30 Y153.56 E48.46644
G1 X144.69 Y153.56 E48.47148
G1 X144.21 Y153.26 E48.47627
G1 X144.19 Y153.25 E48.47640
G1 X144.14 Y153.16 E48.47726
G1 X143.98 Y152.79 E48.48061
G1 X143.94 Y152.20 E48.48558
G1 X144.29 Y151.71 E48.49060
G1 X144.62 Y151.48 E48.49394
G1 X144.70 Y151.44 E48.49468
G1 X145.31 Y151.43 E48.49971
G1 X145.80 Y151.74 E48.50452
G1 X145.86 Y151.84 E48.50550
G1 X146.02 Y152.20 E48.50883
G1 X146.06 Y152.80 E48.51381
G1 X145.71 Y153.29 E48.51882
G1 X145.38 Y153.52 E48.52217
G0 F12000 X144.82 Y153.01
;TYPE:FILL
G1 F3960 X145.49 Y152.34 E48.53001
G0 F12000 X145.41 Y152.14
G1 F3960 X144.65 Y152.90 E48.53891
G0 F12000 X144.54 Y152.73
G1 F3960 X145.24 Y152.03 E48.54715
G1 F2400 E47.34715
G0 F12000 X147.60 Y152.50
;TYPE:WALL-INNER
G1 F2400 E48.54715
G1 F3960 X147.70 Y151.55 E48.55512
G1 X147.98 Y150.63 E48.56312
G1 X148.32 Y149.99 E48.56912
G1 X148.43 Y149.78 E48.57108
G1 X149.04 Y149.04 E48.57908
G1 X149.78 Y148.43 E48.58703
G1 X150.42 Y148.09 E48.59307
G1 X150.63 Y147.98 E48.59505
G1 X151.55 Y147.70 E48.60304
G1 X152.50 Y147.60 E48.61101
G1 X153.45 Y147.70 E48.61898
G1 X154.37 Y147.98 E48.62697
G1 X155.01 Y148.32 E48.63299
G1 X155.22 Y148.43 E48.63494
G1 X155.96 Y149.04 E48.64293
G1 X156.57 Y149.78 E48.65089
G1 X157.03 Y150.63 E48.65893
G1 X157.24 Y151.32 E48.66493
G1 X157.30 Y151.55 E48.66689
G1 X157.40 Y152.50 E48.67486
G1 X157.30 Y153.46 E48.68284
G1 X157.09 Y154.15 E48.68886
G1 X157.03 Y154.37 E48.69082
G1 X156.68 Y155.01 E48.69684
G1 X156.57 Y155.22 E48.69880
G1 X155.96 Y155.96 E48.70679
G1 X155.40 Y156.42 E48.71280
G1 X155.23 Y156.56 E48.71469
G1 X154.58 Y156.91 E48.72078
G1 X154.37 Y157.03 E48.72278
G1 X153.68 Y157.23 E48.72878
G1 X153.45 Y157.30 E48.73075
G1 X152.50 Y157.40 E48.73873
G1 X151.78 Y157.33 E48.74472
G1 X151.54 Y157.30 E48.74670
G1 X150.85 Y157.09 E48.75271
G1 X150.63 Y157.02 E48.75468
G1 X149.99 Y156.68 E48.76070
G1 X149.78 Y156.57 E48.76262
G1 X149.04 Y155.96 E48.77064
G1 X148.43 Y155.22 E48.77863
G1 X148.09 Y154.58 E48.78465
G1 X147.98 Y154.37 E48.78662
G1 X147.70 Y153.45 E48.79461
G1 X147.60 Y152.50 E48.80257
G0 F12000 X149.46 Y152.89
G1 F3960 X149.44 Y153.15 E48.80474
G1 X150.18 Y154.59 E48.81820
G1 X151.53 Y155.47 E48.83165
G1 X153.15 Y155.56 E48.84509
G1 X154.36 Y154.94 E48.85639
G1 X154.59 Y154.82 E48.85853
G1 X155.47 Y153.46 E48.87198
G1 X155.54 Y152.11 E48.88322
G1 X155.56 Y151.85 E48.88539
G1 X154.82 Y150.41 E48.89886
G1 X153.68 Y149.67 E48.91017
G1 X153.46 Y149.53 E48.91232
G1 X151.85 Y149.44 E48.92575
G1 X150.41 Y150.18 E48.93920
G1 X149.67 Y151.32 E48.95049
G1 X149.53 Y151.54 E48.95265
G1 X149.46 Y152.89 E48.96389
G0 F12000 X149.86 Y152.91
;TYPE:WALL-OUTER
G1 F3960 X149.85 Y153.06 E48.96514
G1 X150.49 Y154.31 E48.97681
G1 X151.66 Y155.08 E48.98847
G1 X153.06 Y155.15 E49.00013
G1 X154.31 Y154.51 E49.01180
G1 X155.08 Y153.34 E49.02346
G1 X155.14 Y152.09 E49.03384
G1 X155.15 Y151.94 E49.03510
G1 X154.51 Y150.69 E49.04677
G1 X153.34 Y149.92 E49.05844
G1 X151.94 Y149.85 E49.07010
G1 X150.69 Y150.49 E49.08176
G1 X149.92 Y151.66 E49.09342
G1 X149.86 Y152.91 E49.10381
G0 F12000 X149.56 Y152.90
G0 X147.60 Y153.47
G0 X147.30 Y153.53
G1 F3960 X147.20 Y152.50 E49.11245
G1 X147.30 Y151.47 E49.12110
G1 X147.60 Y150.47 E49.12972
G1 X148.09 Y149.56 E49.13833
G1 X148.75 Y148.75 E49.14701
G1 X149.56 Y148.09 E49.15565
G1 X150.47 Y147.60 E49.16430
G1 X151.47 Y147.30 E49.17291
G1 X152.50 Y147.20 E49.18155
G1 X153.53 Y147.30 E49.19020
G1 X154.53 Y147.60 E49.19882
G1 X155.44 Y148.09 E49.20743
G1 X156.25 Y148.75 E49.21610
G1 X156.91 Y149.56 E49.22475
G1 X157.40 Y150.47 E49.23340
G1 X157.70 Y151.47 E49.24200
G1 X157.80 Y152.50 E49.25065
G1 X157.70 Y153.53 E49.25929
G1 X157.40 Y154.53 E49.26792
G1 X156.91 Y155.44 E49.27653
G1 X156.25 Y156.25 E49.28519
G1 X155.45 Y156.90 E49.29377
G1 X154.53 Y157.40 E49.30249
G1 X153.54 Y157.70 E49.31109
G1 X152.50 Y157.80 E49.31974
G1 X151.47 Y157.70 E49.32838
G1 X150.47 Y157.40 E49.33702
G1 X149.56 Y156.91 E49.34562
G1 X148.75 Y156.25 E49.35429
G1 X148.09 Y155.44 E49.36294
G1 X147.60 Y154.53 E49.37159
G1 X147.30 Y153.53 E49.38020
G0 F12000 X147.83 Y153.40
;TYPE:FILL
G1 F3960 X149.37 Y151.85 E49.39832
G0 F12000 X149.34 Y152.45
G1 F3960 X147.96 Y153.83 E49.41457
G0 F12000 X148.09 Y154.27
G1 F3960 X149.31 Y153.05 E49.42890
G0 F12000 X149.45 Y153.47
G1 F3960 X148.28 Y154.64 E49.44267
G0 F12000 X148.48 Y155.01
G1 F3960 X149.64 Y153.85 E49.45637
G0 F12000 X149.83 Y154.22
G1 F3960 X148.71 Y155.34 E49.46955
G0 F12000 X148.97 Y155.65
G1 F3960 X150.02 Y154.60 E49.48198
G0 F12000 X150.33 Y154.85
G1 F3960 X149.24 Y155.95 E49.49482
G0 F12000 X149.55 Y156.20
G1 F3960 X150.68 Y155.08 E49.50805
G0 F12000 X151.02 Y155.30
G1 F3960 X149.86 Y156.46 E49.52166
G0 F12000 X150.23 Y156.65
G1 F3960 X151.36 Y155.52 E49.53496
G0 F12000 X151.82 Y155.62
G1 F3960 X150.60 Y156.85 E49.54939
G0 F12000 X151.02 Y157.00
G1 F3960 X152.36 Y155.65 E49.56520
G0 F12000 X152.90 Y155.68
G1 F3960 X151.45 Y157.13 E49.58222
G0 F12000 X151.94 Y157.20
G1 F3960 X153.73 Y155.41 E49.60323
G0 F12000 X154.75 Y156.66
G1 F3960 X156.67 Y154.74 E49.62585
G0 F12000 X157.06 Y153.79
G1 F3960 X153.79 Y157.06 E49.66426
G0 F12000 X153.08 Y157.20
G1 F3960 X157.20 Y153.08 E49.71270
G0 F12000 X157.25 Y152.46
G1 F3960 X152.46 Y157.25 E49.76901
G0 F12000 X155.55 Y153.60
G1 F3960 X157.20 Y151.94 E49.78843
G0 F12000 X157.13 Y151.45
G1 F3960 X155.64 Y152.94 E49.80595
G0 F12000 X155.67 Y152.34
G1 F3960 X157.00 Y151.02 E49.82154
G0 F12000 X156.85 Y150.60
G1 F3960 X155.67 Y151.78 E49.83537
G0 F12000 X155.48 Y151.40
G1 F3960 X156.65 Y150.23 E49.84912
G0 F12000 X156.46 Y149.86
G1 F3960 X155.29 Y151.03 E49.86278
G0 F12000 X155.10 Y150.65
G1 F3960 X156.20 Y149.55 E49.87572
G0 F12000 X155.95 Y149.24
G1 F3960 X154.90 Y150.29 E49.88809
G0 F12000 X154.55 Y150.07
G1 F3960 X155.66 Y148.97 E49.90105
G0 F12000 X155.34 Y148.71
G1 F3960 X154.21 Y149.85 E49.91439
G0 F12000 X153.87 Y149.62
G1 F3960 X155.01 Y148.48 E49.92788
G0 F12000 X154.65 Y148.28
G1 F3960 X153.52 Y149.40 E49.94109
G0 F12000 X152.99 Y149.36
G1 F3960 X154.27 Y148.09 E49.95608
G0 F12000 X153.84 Y147.96
G1 F3960 X152.46 Y149.34 E49.97230
G0 F12000 X151.92 Y149.31
G1 F3960 X153.40 Y147.83 E49.98966
G0 F12000 X152.88 Y147.78
G1 F3960 X150.88 Y149.78 E50.01319
G0 F12000 X149.80 Y150.86
G1 F3960 X147.78 Y152.88 E50.03693
G0 F12000 X147.76 Y152.34
G1 F3960 X152.34 Y147.76 E50.09074
G0 F12000 X151.71 Y147.82
G1 F3960 X147.82 Y151.71 E50.13647
G0 F12000 X148.03 Y150.94
G1 F3960 X150.94 Y148.03 E50.17071
G0 F12000 X149.83 Y148.57
G1 F3960 X148.57 Y149.83 E50.18553
G0 F12000 X147.14 Y148.46
G0 X147.06 Y148.39
;TYPE:WALL-INNER
G1 F3960 X146.70 Y148.49 E50.18866
G1 X146.34 Y148.39 E50.19183
G1 X146.15 Y148.17 E50.19425
G1 X146.02 Y147.80 E50.19747
G1 X146.15 Y147.44 E50.20069
G1 X146.34 Y147.21 E50.20312
G1 X146.70 Y147.11 E50.20624
G1 X147.06 Y147.21 E50.20942
G1 X147.25 Y147.44 E50.21183
G1 X147.38 Y147.80 E50.21506
G1 X147.25 Y148.17 E50.21829
G1 X147.06 Y148.39 E50.22070
G0 F12000 X147.35 Y148.67
;TYPE:WALL-OUTER
G1 F3960 X147.26 Y148.75 E50.22165
G1 X146.70 Y148.91 E50.22649
G1 X146.14 Y148.75 E50.23133
G1 X146.13 Y148.75 E50.23142
G1 X146.05 Y148.67 E50.23234
G1 X145.80 Y148.37 E50.23563
G1 X145.59 Y147.80 E50.24062
G1 X145.80 Y147.23 E50.24564
G1 X146.05 Y146.93 E50.24892
G1 X146.14 Y146.85 E50.24992
G1 X146.70 Y146.69 E50.25474
G1 X147.26 Y146.85 E50.25959
G1 X147.27 Y146.86 E50.25968
G1 X147.35 Y146.93 E50.26055
G1 X147.60 Y147.24 E50.26390
G1 X147.81 Y147.80 E50.26888
G1 X147.60 Y148.37 E50.27389
G1 X147.35 Y148.67 E50.27722
G0 F12000 X146.67 Y148.34
;TYPE:FILL
G1 F3960 X147.22 Y147.78 E50.28379
G0 F12000 X147.04 Y147.40
G1 F3960 X146.31 Y148.13 E50.29242
G0 F12000 X146.22 Y147.65
G1 F3960 X146.59 Y147.28 E50.29677
G1 F2400 E49.09677
G0 F12000 X150.55 Y145.45
;TYPE:WALL-INNER
G1 F2400 E50.29677
G1 F3960 X150.50 Y145.15 E50.29925
G1 X150.58 Y144.78 E50.30244
G1 X150.88 Y144.53 E50.30566
G1 X151.15 Y144.43 E50.30808
G1 X151.52 Y144.53 E50.31123
G1 X151.77 Y144.81 E50.31437
G1 X151.82 Y145.10 E50.31682
G1 X151.74 Y145.47 E50.32000
G1 X151.44 Y145.72 E50.32323
G1 X151.17 Y145.82 E50.32566
G1 X150.81 Y145.72 E50.32880
G1 X150.55 Y145.45 E50.33194
G0 F12000 X150.16 Y145.54
;TYPE:WALL-OUTER
G1 F3960 X150.09 Y145.15 E50.33531
G1 X150.21 Y144.56 E50.34029
G1 X150.68 Y144.18 E50.34530
G1 X151.05 Y144.05 E50.34858
G1 X151.16 Y144.03 E50.34952
G1 X151.73 Y144.17 E50.35441
G1 X152.12 Y144.60 E50.35920
G1 X152.16 Y144.71 E50.36019
G1 X152.22 Y145.11 E50.36355
G1 X152.11 Y145.69 E50.36852
G1 X151.65 Y146.08 E50.37351
G1 X151.26 Y146.21 E50.37686
G1 X151.16 Y146.23 E50.37774
G1 X151.15 Y146.23 E50.37783
G1 X150.59 Y146.08 E50.38264
G1 X150.20 Y145.66 E50.38744
G1 X150.19 Y145.64 E50.38759
G1 X150.16 Y145.54 E50.38844
G0 F12000 X150.72 Y145.42
;TYPE:FILL
G1 F3960 X151.46 Y144.68 E50.39719
G0 F12000 X151.66 Y145.04
G1 F3960 X151.06 Y145.64 E50.40434
G0 F12000 X150.70 Y144.87
G1 F3960 X150.79 Y144.78 E50.40546
G1 F2400 E49.20546
G0 F12000 X155.68 Y145.79
;TYPE:WALL-INNER
G1 F2400 E50.40546
G1 F3960 X155.94 Y145.51 E50.40868
G1 X156.21 Y145.38 E50.41112
G1 X156.58 Y145.43 E50.41424
G1 X156.87 Y145.68 E50.41738
G1 X156.95 Y145.96 E50.41983
G1 X156.92 Y146.34 E50.42302
G1 X156.65 Y146.63 E50.42628
G1 X156.39 Y146.75 E50.42868
G1 X156.02 Y146.70 E50.43182
G1 X155.73 Y146.46 E50.43496
G1 X155.65 Y146.17 E50.43742
G1 X155.68 Y145.79 E50.44062
G0 F12000 X155.29 Y145.62
;TYPE:WALL-OUTER
G1 F3960 X155.71 Y145.18 E50.44565
G1 X156.06 Y145.01 E50.44895
G1 X156.16 Y144.97 E50.44985
G1 X156.75 Y145.05 E50.45473
G1 X157.20 Y145.43 E50.45960
G1 X157.24 Y145.53 E50.46054
G1 X157.35 Y145.92 E50.46388
G1 X157.31 Y146.51 E50.46885
G1 X156.90 Y146.95 E50.47388
G1 X156.53 Y147.13 E50.47721
G1 X156.44 Y147.16 E50.47809
G1 X155.85 Y147.08 E50.48299
G1 X155.40 Y146.71 E50.48787
G1 X155.35 Y146.60 E50.48880
G1 X155.25 Y146.22 E50.49215
G1 X155.29 Y145.62 E50.49711
G0 F12000 X155.80 Y145.99
;TYPE:FILL
G1 F3960 X156.26 Y145.53 E50.50253
G0 F12000 X156.51 Y145.56
G1 F3960 X155.82 Y146.26 E50.51068
G0 F12000 X155.92 Y146.44
G1 F3960 X156.67 Y145.69 E50.51946
G0 F12000 X156.80 Y146.13
G1 F3960 X156.32 Y146.60 E50.52504
G1 F2400 E49.32504
G0 F12000 X158.94 Y149.53
;TYPE:WALL-INNER
G1 F2400 E50.52504
G1 F3960 X159.23 Y149.28 E50.52820
G1 X159.60 Y149.22 E50.53132
G1 X159.87 Y149.35 E50.53377
G1 X160.14 Y149.63 E50.53699
G1 X160.18 Y150.01 E50.54021
G1 X160.10 Y150.29 E50.54264
G1 X159.82 Y150.54 E50.54576
G1 X159.44 Y150.60 E50.54894
G1 X159.18 Y150.48 E50.55136
G1 X158.91 Y150.20 E50.55456
G1 X158.87 Y149.81 E50.55781
G1 X158.94 Y149.53 E50.56022
G0 F12000 X158.56 Y149.40
;TYPE:WALL-OUTER
G1 F3960 X158.61 Y149.29 E50.56120
G1 X159.05 Y148.91 E50.56607
G1 X159.62 Y148.82 E50.57087
G1 X159.64 Y148.82 E50.57097
G1 X159.74 Y148.85 E50.57188
G1 X160.10 Y149.02 E50.57519
G1 X160.52 Y149.44 E50.58018
G1 X160.58 Y150.05 E50.58520
G1 X160.48 Y150.43 E50.58848
G1 X160.44 Y150.53 E50.58941
G1 X160.00 Y150.92 E50.59429
G1 X159.42 Y151.01 E50.59917
G1 X159.31 Y150.98 E50.60013
G1 X158.94 Y150.81 E50.60346
G1 X158.52 Y150.38 E50.60843
G1 X158.46 Y149.78 E50.61346
G1 X158.56 Y149.40 E50.61673
G0 F12000 X159.01 Y149.85
;TYPE:FILL
G1 F3960 X159.48 Y149.39 E50.62221
G0 F12000 X159.71 Y149.43
G1 F3960 X159.04 Y150.11 E50.63016
G0 F12000 X159.32 Y150.39
G1 F3960 X160.01 Y149.71 E50.63822
G1 F2400 E49.43822
G0 F12000 X159.66 Y154.24
;TYPE:WALL-INNER
G1 F2400 E50.63822
G1 F3960 X160.01 Y154.40 E50.64139
G1 X160.16 Y154.65 E50.64381
G1 X160.23 Y155.03 E50.64705
G1 X160.05 Y155.37 E50.65027
G1 X159.83 Y155.56 E50.65270
G1 X159.45 Y155.61 E50.65581
G1 X159.11 Y155.45 E50.65898
G1 X158.96 Y155.19 E50.66142
G1 X158.88 Y154.81 E50.66464
G1 X159.07 Y154.48 E50.66785
G1 X159.29 Y154.28 E50.67030
G1 X159.66 Y154.24 E50.67342
G0 F12000 X159.73 Y153.82
;TYPE:WALL-OUTER
G1 F3960 X160.26 Y154.07 E50.67826
G1 X160.34 Y154.16 E50.67928
G1 X160.54 Y154.50 E50.68255
G1 X160.65 Y155.09 E50.68758
G1 X160.36 Y155.62 E50.69258
G1 X160.07 Y155.88 E50.69585
G1 X159.97 Y155.94 E50.69682
G1 X159.39 Y156.02 E50.70167
G1 X158.85 Y155.77 E50.70657
G1 X158.78 Y155.68 E50.70752
G1 X158.58 Y155.34 E50.71085
G1 X158.47 Y154.75 E50.71584
G1 X158.75 Y154.22 E50.72083
G1 X159.06 Y153.96 E50.72416
G1 X159.15 Y153.90 E50.72513
G1 X159.73 Y153.82 E50.72996
G0 F12000 X159.79 Y154.45
;TYPE:FILL
G1 F3960 X159.09 Y155.15 E50.73819
G0 F12000 X159.38 Y155.42
G1 F3960 X160.04 Y154.76 E50.74589
G1 F2400 E49.54589
G0 F12000 X156.75 Y158.36
;TYPE:WALL-INNER
G1 F2400 E50.74589
