;-- START GCODE --
;Sliced for Type A Machines Series 1
;Sliced at: Wed 22-07-2015 01:47:00
;Basic settings: Layer height: 0.3 Walls: 0.8 Fill: 17
;Print Speed: 40 Support: 0
;Retraction Speed: 40 Retraction Distance: 3
;Print time: #P_TIME#
;Filament used: #F_AMNT#m #F_WGHT#g
;Filament cost: #F_COST#
M106 S255	 ;start with the fan on
G21        ;metric values
G90        ;absolute positioning
M106 S255    ;start with the fan on
G28     ;move to endstops
G29		;allows for auto-levelling
G1 X150 Y5  Z15.0 F12000 ;center and move the platform down 15mm
M109 S230 ;Heat To temp
G92 E0                  ;zero the extruded length
G1 F200 E30              ;extrude 30mm of feed stock
G92 E0                  ;zero the extruded length again
G1 X175 Y25  Z0 F12000 ;remove bugger
G1 X220 F12000 ;remove bugger
G1 X150 Y150  Z15 F12000 ;recenter and begin
G1 F12000

;Layer count: 124
;LAYER:0
M106 S255
G0 F12000 X132.49 Y133.00 Z0.30
;TYPE:SKIRT
G1 F2400 X170.96 Y133.00 E1.81455
G1 X170.96 Y171.48 E3.62911
G1 X132.49 Y171.48 E5.44366
G1 X132.49 Y133.00 E7.25822
G0 F12000 X132.88 Y133.40
G1 F2400 X170.56 Y133.40 E9.03505
G1 X170.56 Y171.08 E10.81188
G1 X132.88 Y171.08 E12.58871
G1 X132.88 Y133.40 E14.36554
G0 F12000 X133.28 Y133.80
G1 F2400 X170.16 Y133.80 E16.10464
G1 X170.16 Y170.68 E17.84374
G1 X133.28 Y170.68 E19.58285
G1 X133.28 Y133.80 E21.32195
G0 F12000 X133.69 Y134.20
G1 F2400 X169.76 Y134.20 E23.02333
G1 X169.76 Y170.28 E24.72471
G1 X133.69 Y170.28 E26.42609
G1 X133.69 Y134.20 E28.12746
G0 F12000 X134.09 Y134.60
G1 F2400 X169.36 Y134.60 E29.79112
G1 X169.36 Y169.88 E31.45477
G1 X134.09 Y169.88 E33.11842
G1 X134.09 Y134.60 E34.78207
G0 F12000 X134.49 Y135.00
G1 F2400 X168.96 Y135.00 E36.40800
G1 X168.96 Y169.48 E38.03393
G1 X134.49 Y169.48 E39.65986
G1 X134.49 Y135.00 E41.28578
G0 F12000 X134.88 Y135.40
G1 F2400 X168.56 Y135.40 E42.87398
G1 X168.56 Y169.08 E44.46219
G1 X134.88 Y169.08 E46.05039
G1 X134.88 Y135.40 E47.63859
G0 F12000 X135.28 Y135.80
G1 F2400 X168.16 Y135.80 E49.18906
G1 X168.16 Y168.68 E50.73954
G1 X135.28 Y168.68 E52.29001
G1 X135.28 Y135.80 E53.84049
G0 F12000 X135.69 Y136.20
G1 F2400 X167.76 Y136.20 E55.35324
G1 X167.76 Y168.28 E56.86599
G1 X135.69 Y168.28 E58.37874
G1 X135.69 Y136.20 E59.89149
G0 F12000 X136.09 Y136.60
G1 F2400 X167.36 Y136.60 E61.36651
G1 X167.36 Y167.88 E62.84154
G1 X136.09 Y167.88 E64.31656
G1 X136.09 Y136.60 E65.79159
G0 F12000 X136.49 Y137.00
G1 F2400 X166.96 Y137.00 E67.22889
G1 X166.96 Y167.48 E68.66619
G1 X136.49 Y167.48 E70.10348
G1 X136.49 Y137.00 E71.54078
G0 F12000 X136.88 Y137.40
G1 F2400 X166.56 Y137.40 E72.94036
G1 X166.56 Y167.08 E74.33993
G1 X136.88 Y167.08 E75.73950
G1 X136.88 Y137.40 E77.13908
G0 F12000 X137.28 Y137.80
G1 F2400 X166.16 Y137.80 E78.50092
G1 X166.16 Y166.68 E79.86277
G1 X137.28 Y166.68 E81.22462
G1 X137.28 Y137.80 E82.58647
G0 F12000 X137.69 Y138.20
G1 F2400 X165.76 Y138.20 E83.91059
G1 X165.76 Y166.28 E85.23471
G1 X137.69 Y166.28 E86.55883
G1 X137.69 Y138.20 E87.88295
G0 F12000 X138.09 Y138.60
G1 F2400 X165.36 Y138.60 E89.16935
G1 X165.36 Y165.88 E90.45575
G1 X138.09 Y165.88 E91.74214
G1 X138.09 Y138.60 E93.02854
G0 F12000 X138.49 Y139.00
G1 F2400 X164.96 Y139.00 E94.27721
G1 X164.96 Y165.48 E95.52588
G1 X138.49 Y165.48 E96.77455
G1 X138.49 Y139.00 E98.02322
G0 F12000 X138.88 Y139.40
G1 F2400 X164.56 Y139.40 E99.23417
G1 X164.56 Y165.08 E100.44511
G1 X138.88 Y165.08 E101.65606
G1 X138.88 Y139.40 E102.86700
G0 F12000 X139.28 Y139.80
G1 F2400 X164.16 Y139.80 E104.04022
G1 X164.16 Y164.68 E105.21344
G1 X139.28 Y164.68 E106.38666
G1 X139.28 Y139.80 E107.55988
G0 F12000 X139.69 Y140.20
G1 F2400 X163.76 Y140.20 E108.69538
G1 X163.76 Y164.28 E109.83087
G1 X139.69 Y164.28 E110.96636
G1 X139.69 Y140.20 E112.10186
G0 F12000 X140.09 Y140.60
G1 F2400 X163.36 Y140.60 E113.19963
G1 X163.36 Y163.88 E114.29739
G1 X140.09 Y163.88 E115.39516
G1 X140.09 Y140.60 E116.49293
G0 F12000 X140.88 Y141.40
;TYPE:WALL-INNER
G1 F2400 X162.56 Y141.40 E117.51525
G1 X162.56 Y163.08 E118.53756
G1 X140.88 Y163.08 E119.55988
G1 X140.88 Y141.40 E120.58220
G0 F12000 X140.49 Y141.00
;TYPE:WALL-OUTER
G1 F2400 X162.96 Y141.00 E121.64224
G1 X162.96 Y163.48 E122.70228
G1 X140.49 Y163.48 E123.76233
G1 X140.49 Y141.00 E124.82237
G0 F12000 X141.26 Y141.54
;TYPE:FILL
G1 F2400 X162.42 Y162.71 E126.23376
G0 F12000 X162.09 Y162.94
G1 F2400 X141.02 Y141.87 E127.63879
G0 F12000 X141.02 Y142.44
G1 F2400 X161.53 Y162.94 E129.00614
G0 F12000 X160.96 Y162.94
G1 F2400 X141.02 Y143.00 E130.33574
G0 F12000 X141.02 Y143.57
G1 F2400 X160.40 Y162.94 E131.62759
G0 F12000 X159.83 Y162.94
G1 F2400 X141.02 Y144.13 E132.88177
G0 F12000 X141.02 Y144.70
G1 F2400 X159.26 Y162.94 E134.09819
G0 F12000 X158.70 Y162.94
G1 F2400 X141.02 Y145.27 E135.27688
G0 F12000 X141.02 Y145.83
G1 F2400 X158.13 Y162.94 E136.41788
G0 F12000 X157.57 Y162.94
G1 F2400 X141.02 Y146.40 E137.52113
G0 F12000 X141.02 Y146.96
G1 F2400 X157.00 Y162.94 E138.58664
G0 F12000 X156.44 Y162.94
G1 F2400 X141.02 Y147.53 E139.61443
G0 F12000 X141.02 Y148.09
G1 F2400 X155.87 Y162.94 E140.60451
G0 F12000 X155.30 Y162.94
G1 F2400 X141.02 Y148.66 E141.55685
G0 F12000 X141.02 Y149.23
G1 F2400 X154.74 Y162.94 E142.47147
G0 F12000 X154.17 Y162.94
G1 F2400 X141.02 Y149.79 E143.34838
G0 F12000 X141.02 Y150.36
G1 F2400 X153.61 Y162.94 E144.18754
G0 F12000 X153.04 Y162.94
G1 F2400 X141.02 Y150.92 E144.98895
G0 F12000 X141.02 Y151.49
G1 F2400 X152.48 Y162.94 E145.75269
G0 F12000 X151.91 Y162.94
G1 F2400 X141.02 Y152.06 E146.47868
G0 F12000 X141.02 Y152.62
G1 F2400 X151.34 Y162.94 E147.16692
G0 F12000 X150.78 Y162.94
G1 F2400 X141.02 Y153.19 E147.81748
G0 F12000 X141.02 Y153.75
G1 F2400 X150.21 Y162.94 E148.43030
G0 F12000 X149.65 Y162.94
G1 F2400 X141.02 Y154.32 E149.00537
G0 F12000 X141.02 Y154.88
G1 F2400 X149.08 Y162.94 E149.54275
G0 F12000 X148.52 Y162.94
G1 F2400 X141.02 Y155.45 E150.04240
G0 F12000 X141.02 Y156.01
G1 F2400 X147.95 Y162.94 E150.50429
G0 F12000 X147.38 Y162.94
G1 F2400 X141.02 Y156.58 E150.92847
G0 F12000 X141.02 Y157.15
G1 F2400 X146.82 Y162.94 E151.31494
G0 F12000 X146.25 Y162.94
G1 F2400 X141.02 Y157.71 E151.66367
G0 F12000 X141.02 Y158.28
G1 F2400 X145.69 Y162.94 E151.97468
G0 F12000 X145.12 Y162.94
G1 F2400 X141.02 Y158.84 E152.24797
G0 F12000 X141.02 Y159.41
G1 F2400 X144.56 Y162.94 E152.48352
G0 F12000 X143.99 Y162.94
G1 F2400 X141.02 Y159.97 E152.68132
G0 F12000 X141.02 Y160.54
G1 F2400 X143.43 Y162.94 E152.84145
G0 F12000 X142.86 Y162.94
G1 F2400 X141.02 Y161.11 E152.96382
G0 F12000 X141.02 Y161.67
G1 F2400 X142.29 Y162.94 E153.04845
G0 F12000 X141.73 Y162.94
G1 F2400 X141.02 Y162.24 E153.09540
G0 F12000 X141.02 Y162.80
G1 F2400 X141.16 Y162.94 E153.10461
G0 F12000 X162.42 Y162.14
G1 F2400 X141.82 Y141.54 E154.47829
G0 F12000 X142.39 Y141.54
G1 F2400 X162.42 Y161.57 E155.81426
G0 F12000 X162.42 Y161.01
G1 F2400 X142.96 Y141.54 E157.11248
G0 F12000 X143.52 Y141.54
G1 F2400 X162.42 Y160.44 E158.37299
G0 F12000 X162.42 Y159.88
G1 F2400 X144.09 Y141.54 E159.59579
G0 F12000 X144.65 Y141.54
G1 F2400 X162.42 Y159.31 E160.78084
G0 F12000 X162.42 Y158.75
G1 F2400 X145.22 Y141.54 E161.92817
G0 F12000 X145.78 Y141.54
G1 F2400 X162.42 Y158.18 E163.03780
G0 F12000 X162.42 Y157.62
G1 F2400 X146.35 Y141.54 E164.10967
G0 F12000 X146.92 Y141.54
G1 F2400 X162.42 Y157.05 E165.14384
G0 F12000 X162.42 Y156.48
G1 F2400 X147.48 Y141.54 E166.14029
G0 F12000 X148.05 Y141.54
G1 F2400 X162.42 Y155.92 E167.09899
G0 F12000 X162.42 Y155.35
G1 F2400 X148.61 Y141.54 E168.01995
G0 F12000 X149.18 Y141.54
G1 F2400 X162.42 Y154.79 E168.90322
G0 F12000 X162.42 Y154.22
G1 F2400 X149.75 Y141.54 E169.74875
G0 F12000 X150.31 Y141.54
G1 F2400 X162.42 Y153.66 E170.55654
G0 F12000 X162.42 Y153.09
G1 F2400 X150.88 Y141.54 E171.32664
G0 F12000 X151.44 Y141.54
G1 F2400 X162.42 Y152.52 E172.05900
G0 F12000 X162.42 Y151.96
G1 F2400 X152.01 Y141.54 E172.75361
G0 F12000 X152.57 Y141.54
G1 F2400 X162.42 Y151.39 E173.41051
G0 F12000 X162.42 Y150.83
G1 F2400 X153.14 Y141.54 E174.02969
G0 F12000 X153.71 Y141.54
G1 F2400 X162.42 Y150.26 E174.61113
G0 F12000 X162.42 Y149.69
G1 F2400 X154.27 Y141.54 E175.15485
G0 F12000 X154.84 Y141.54
G1 F2400 X162.42 Y149.13 E175.66086
G0 F12000 X162.42 Y148.56
G1 F2400 X155.40 Y141.54 E176.12913
G0 F12000 X155.97 Y141.54
G1 F2400 X162.42 Y148.00 E176.55968
G0 F12000 X162.42 Y147.43
G1 F2400 X156.53 Y141.54 E176.95252
G0 F12000 X157.10 Y141.54
G1 F2400 X162.42 Y146.87 E177.30761
G0 F12000 X162.42 Y146.30
G1 F2400 X157.66 Y141.54 E177.62495
G0 F12000 X158.23 Y141.54
G1 F2400 X162.42 Y145.74 E177.90462
G0 F12000 X162.42 Y145.17
G1 F2400 X158.80 Y141.54 E178.14654
G0 F12000 X159.36 Y141.54
G1 F2400 X162.42 Y144.60 E178.35071
G0 F12000 X162.42 Y144.04
G1 F2400 X159.93 Y141.54 E178.51720
G0 F12000 X160.49 Y141.54
G1 F2400 X162.42 Y143.47 E178.64595
G0 F12000 X162.42 Y142.91
G1 F2400 X161.06 Y141.54 E178.73694
G0 F12000 X161.62 Y141.54
G1 F2400 X162.42 Y142.34 E178.79026
G0 F12000 X162.42 Y141.78
G1 F2400 X162.19 Y141.54 E178.80584
;LAYER:1
G0 F12000 X162.56 Y141.40 Z0.60
;TYPE:WALL-INNER
G1 F2400 X162.56 Y163.08 E179.82815
G1 X140.88 Y163.08 E180.85047
G1 X140.88 Y141.40 E181.87279
G1 X162.56 Y141.40 E182.89510
G0 F12000 X162.96 Y141.00
;TYPE:WALL-OUTER
G1 F2400 X162.96 Y163.48 E183.95515
G1 X140.49 Y163.48 E185.01519
G1 X140.49 Y141.00 E186.07523
G1 X162.96 Y141.00 E187.13527
G0 F12000 X162.42 Y141.63
;TYPE:FILL
G1 F2400 X141.11 Y162.94 E188.55637
G0 F12000 X141.03 Y162.46
G1 F2400 X161.95 Y141.54 E189.95166
G0 F12000 X161.38 Y141.54
G1 F2400 X141.03 Y161.90 E191.30927
G0 F12000 X141.03 Y161.33
G1 F2400 X160.82 Y141.54 E192.62914
G0 F12000 X160.25 Y141.54
G1 F2400 X141.03 Y160.77 E193.91125
G0 F12000 X141.03 Y160.20
G1 F2400 X159.69 Y141.54 E195.15569
G0 F12000 X159.12 Y141.54
G1 F2400 X141.03 Y159.64 E196.36238
G0 F12000 X141.03 Y159.07
G1 F2400 X158.55 Y141.54 E197.53133
G0 F12000 X157.99 Y141.54
G1 F2400 X141.03 Y158.50 E198.66259
G0 F12000 X141.03 Y157.94
G1 F2400 X157.42 Y141.54 E199.75611
G0 F12000 X156.86 Y141.54
G1 F2400 X141.03 Y157.37 E200.81188
G0 F12000 X141.03 Y156.81
G1 F2400 X156.29 Y141.54 E201.82994
G0 F12000 X155.72 Y141.54
G1 F2400 X141.03 Y156.24 E202.81028
G0 F12000 X141.03 Y155.68
G1 F2400 X155.16 Y141.54 E203.75288
G0 F12000 X154.59 Y141.54
G1 F2400 X141.03 Y155.11 E204.65776
G0 F12000 X141.03 Y154.54
G1 F2400 X154.03 Y141.54 E205.52494
G0 F12000 X153.46 Y141.54
G1 F2400 X141.03 Y153.98 E206.35436
G0 F12000 X141.03 Y153.41
G1 F2400 X152.90 Y141.54 E207.14604
G0 F12000 X152.33 Y141.54
G1 F2400 X141.03 Y152.85 E207.90004
G0 F12000 X141.03 Y152.28
G1 F2400 X151.76 Y141.54 E208.61629
G0 F12000 X151.20 Y141.54
G1 F2400 X141.03 Y151.72 E209.29479
G0 F12000 X141.03 Y151.15
G1 F2400 X150.63 Y141.54 E209.93562
G0 F12000 X150.07 Y141.54
G1 F2400 X141.03 Y150.59 E210.53870
G0 F12000 X141.03 Y150.02
G1 F2400 X149.50 Y141.54 E211.10403
G0 F12000 X148.94 Y141.54
G1 F2400 X141.03 Y149.45 E211.63168
G0 F12000 X141.03 Y148.89
G1 F2400 X148.37 Y141.54 E212.12159
G0 F12000 X147.81 Y141.54
G1 F2400 X141.03 Y148.32 E212.57375
G0 F12000 X141.03 Y147.76
G1 F2400 X147.24 Y141.54 E212.98822
G0 F12000 X146.67 Y141.54
G1 F2400 X141.03 Y147.19 E213.36496
G0 F12000 X141.03 Y146.62
G1 F2400 X146.11 Y141.54 E213.70394
G0 F12000 X145.54 Y141.54
G1 F2400 X141.03 Y146.06 E214.00521
G0 F12000 X141.03 Y145.49
G1 F2400 X144.98 Y141.54 E214.26877
G0 F12000 X144.41 Y141.54
G1 F2400 X141.03 Y144.93 E214.49459
G0 F12000 X141.03 Y144.36
G1 F2400 X143.85 Y141.54 E214.68269
G0 F12000 X143.28 Y141.54
G1 F2400 X141.03 Y143.80 E214.83307
G0 F12000 X141.03 Y143.23
G1 F2400 X142.71 Y141.54 E214.94571
G0 F12000 X142.15 Y141.54
G1 F2400 X141.03 Y142.66 E215.02060
G0 F12000 X141.03 Y142.10
G1 F2400 X141.58 Y141.54 E215.05782
G0 F12000 X162.42 Y142.20
G1 F2400 X141.68 Y162.94 E216.44120
G0 F12000 X142.25 Y162.94
G1 F2400 X162.42 Y142.76 E217.78688
G0 F12000 X162.42 Y143.33
G1 F2400 X142.81 Y162.94 E219.09480
G0 F12000 X143.38 Y162.94
G1 F2400 X162.42 Y143.89 E220.36502
G0 F12000 X162.42 Y144.46
G1 F2400 X143.94 Y162.94 E221.59752
G0 F12000 X144.51 Y162.94
G1 F2400 X162.42 Y145.03 E222.79227
G0 F12000 X162.42 Y145.59
G1 F2400 X145.07 Y162.94 E223.94931
G0 F12000 X145.64 Y162.94
G1 F2400 X162.42 Y146.16 E225.06864
G0 F12000 X162.42 Y146.72
G1 F2400 X146.21 Y162.94 E226.15022
G0 F12000 X146.77 Y162.94
G1 F2400 X162.42 Y147.29 E227.19408
G0 F12000 X162.42 Y147.85
G1 F2400 X147.34 Y162.94 E228.20020
G0 F12000 X147.90 Y162.94
G1 F2400 X162.42 Y148.42 E229.16861
G0 F12000 X162.42 Y148.99
G1 F2400 X148.47 Y162.94 E230.09930
G0 F12000 X149.03 Y162.94
G1 F2400 X162.42 Y149.55 E230.99225
G0 F12000 X162.42 Y150.12
G1 F2400 X149.60 Y162.94 E231.84748
G0 F12000 X150.16 Y162.94
G1 F2400 X162.42 Y150.68 E232.66497
G0 F12000 X162.42 Y151.25
G1 F2400 X150.73 Y162.94 E233.44474
G0 F12000 X151.30 Y162.94
G1 F2400 X162.42 Y151.81 E234.18681
G0 F12000 X162.42 Y152.38
G1 F2400 X151.86 Y162.94 E234.89112
G0 F12000 X152.43 Y162.94
G1 F2400 X162.42 Y152.94 E235.55772
G0 F12000 X162.42 Y153.51
G1 F2400 X152.99 Y162.94 E236.18661
G0 F12000 X153.56 Y162.94
G1 F2400 X162.42 Y154.08 E236.77775
G0 F12000 X162.42 Y154.64
G1 F2400 X154.12 Y162.94 E237.33118
G0 F12000 X154.69 Y162.94
G1 F2400 X162.42 Y155.21 E237.84689
G0 F12000 X162.42 Y155.77
G1 F2400 X155.26 Y162.94 E238.32486
G0 F12000 X155.82 Y162.94
G1 F2400 X162.42 Y156.34 E238.76511
G0 F12000 X162.42 Y156.91
G1 F2400 X156.39 Y162.94 E239.16766
G0 F12000 X156.95 Y162.94
G1 F2400 X162.42 Y157.47 E239.53245
G0 F12000 X162.42 Y158.04
G1 F2400 X157.52 Y162.94 E239.85953
G0 F12000 X158.09 Y162.94
G1 F2400 X162.42 Y158.60 E240.14887
G0 F12000 X162.42 Y159.17
G1 F2400 X158.65 Y162.94 E240.40049
G0 F12000 X159.22 Y162.94
G1 F2400 X162.42 Y159.73 E240.61436
G0 F12000 X162.42 Y160.30
G1 F2400 X159.78 Y162.94 E240.79053
G0 F12000 X160.35 Y162.94
G1 F2400 X162.42 Y160.87 E240.92897
G0 F12000 X162.42 Y161.43
G1 F2400 X160.91 Y162.94 E241.02968
G0 F12000 X161.48 Y162.94
G1 F2400 X162.42 Y162.00 E241.09266
G0 F12000 X162.42 Y162.56
G1 F2400 X162.04 Y162.94 E241.11794
;LAYER:2
G0 F12000 X162.56 Y163.08 Z0.90
;TYPE:WALL-INNER
G1 F2400 X140.88 Y163.08 E242.14026
G1 X140.88 Y141.40 E243.16257
G1 X162.56 Y141.40 E244.18489
G1 X162.56 Y163.08 E245.20721
G0 F12000 X162.96 Y163.48
;TYPE:WALL-OUTER
G1 F2400 X140.49 Y163.48 E246.26725
G1 X140.49 Y141.00 E247.32729
G1 X162.96 Y141.00 E248.38734
G1 X162.96 Y163.48 E249.44738
G0 F12000 X162.42 Y162.71
;TYPE:FILL
G1 F2400 X141.26 Y141.54 E250.85878
G0 F12000 X141.02 Y141.87
G1 F2400 X162.09 Y162.94 E252.26380
G0 F12000 X161.53 Y162.94
G1 F2400 X141.02 Y142.44 E253.63115
G0 F12000 X141.02 Y143.00
G1 F2400 X160.96 Y162.94 E254.96075
G0 F12000 X160.40 Y162.94
G1 F2400 X141.02 Y143.57 E256.25260
G0 F12000 X141.02 Y144.13
G1 F2400 X159.83 Y162.94 E257.50678
G0 F12000 X159.26 Y162.94
G1 F2400 X141.02 Y144.70 E258.72320
G0 F12000 X141.02 Y145.27
G1 F2400 X158.70 Y162.94 E259.90189
G0 F12000 X158.13 Y162.94
G1 F2400 X141.02 Y145.83 E261.04289
G0 F12000 X141.02 Y146.40
G1 F2400 X157.57 Y162.94 E262.14614
G0 F12000 X157.00 Y162.94
G1 F2400 X141.02 Y146.96 E263.21165
G0 F12000 X141.02 Y147.53
G1 F2400 X156.44 Y162.94 E264.23944
G0 F12000 X155.87 Y162.94
G1 F2400 X141.02 Y148.09 E265.22952
G0 F12000 X141.02 Y148.66
G1 F2400 X155.30 Y162.94 E266.18186
G0 F12000 X154.74 Y162.94
G1 F2400 X141.02 Y149.23 E267.09648
G0 F12000 X141.02 Y149.79
G1 F2400 X154.17 Y162.94 E267.97339
G0 F12000 X153.61 Y162.94
G1 F2400 X141.02 Y150.36 E268.81255
G0 F12000 X141.02 Y150.92
G1 F2400 X153.04 Y162.94 E269.61396
G0 F12000 X152.48 Y162.94
G1 F2400 X141.02 Y151.49 E270.37770
G0 F12000 X141.02 Y152.06
G1 F2400 X151.91 Y162.94 E271.10369
G0 F12000 X151.34 Y162.94
G1 F2400 X141.02 Y152.62 E271.79193
G0 F12000 X141.02 Y153.19
G1 F2400 X150.78 Y162.94 E272.44249
G0 F12000 X150.21 Y162.94
G1 F2400 X141.02 Y153.75 E273.05531
G0 F12000 X141.02 Y154.32
G1 F2400 X149.65 Y162.94 E273.63038
G0 F12000 X149.08 Y162.94
G1 F2400 X141.02 Y154.88 E274.16776
G0 F12000 X141.02 Y155.45
G1 F2400 X148.52 Y162.94 E274.66741
G0 F12000 X147.95 Y162.94
G1 F2400 X141.02 Y156.01 E275.12930
G0 F12000 X141.02 Y156.58
G1 F2400 X147.38 Y162.94 E275.55348
G0 F12000 X146.82 Y162.94
G1 F2400 X141.02 Y157.15 E275.93995
G0 F12000 X141.02 Y157.71
G1 F2400 X146.25 Y162.94 E276.28868
G0 F12000 X145.69 Y162.94
G1 F2400 X141.02 Y158.28 E276.59969
G0 F12000 X141.02 Y158.84
G1 F2400 X145.12 Y162.94 E276.87298
G0 F12000 X144.56 Y162.94
G1 F2400 X141.02 Y159.41 E277.10853
G0 F12000 X141.02 Y159.97
G1 F2400 X143.99 Y162.94 E277.30633
G0 F12000 X143.43 Y162.94
G1 F2400 X141.02 Y160.54 E277.46646
G0 F12000 X141.02 Y161.11
G1 F2400 X142.86 Y162.94 E277.58883
G0 F12000 X142.29 Y162.94
G1 F2400 X141.02 Y161.67 E277.67346
G0 F12000 X141.02 Y162.24
G1 F2400 X141.73 Y162.94 E277.72041
G0 F12000 X141.16 Y162.94
G1 F2400 X141.02 Y162.80 E277.72962
G0 F12000 X141.82 Y141.54
G1 F2400 X162.42 Y162.14 E279.10330
G0 F12000 X162.42 Y161.57
G1 F2400 X142.39 Y141.54 E280.43927
G0 F12000 X142.96 Y141.54
G1 F2400 X162.42 Y161.01 E281.73749
G0 F12000 X162.42 Y160.44
G1 F2400 X143.52 Y141.54 E282.99800
G0 F12000 X144.09 Y141.54
G1 F2400 X162.42 Y159.88 E284.22080
G0 F12000 X162.42 Y159.31
G1 F2400 X144.65 Y141.54 E285.40585
G0 F12000 X145.22 Y141.54
G1 F2400 X162.42 Y158.75 E286.55318
G0 F12000 X162.42 Y158.18
G1 F2400 X145.78 Y141.54 E287.66281
G0 F12000 X146.35 Y141.54
G1 F2400 X162.42 Y157.62 E288.73468
G0 F12000 X162.42 Y157.05
G1 F2400 X146.92 Y141.54 E289.76885
G0 F12000 X147.48 Y141.54
G1 F2400 X162.42 Y156.48 E290.76530
G0 F12000 X162.42 Y155.92
G1 F2400 X148.05 Y141.54 E291.72400
G0 F12000 X148.61 Y141.54
G1 F2400 X162.42 Y155.35 E292.64496
G0 F12000 X162.42 Y154.79
G1 F2400 X149.18 Y141.54 E293.52823
G0 F12000 X149.75 Y141.54
G1 F2400 X162.42 Y154.22 E294.37376
G0 F12000 X162.42 Y153.66
G1 F2400 X150.31 Y141.54 E295.18155
G0 F12000 X150.88 Y141.54
G1 F2400 X162.42 Y153.09 E295.95165
G0 F12000 X162.42 Y152.52
G1 F2400 X151.44 Y141.54 E296.68401
G0 F12000 X152.01 Y141.54
G1 F2400 X162.42 Y151.96 E297.37862
G0 F12000 X162.42 Y151.39
G1 F2400 X152.57 Y141.54 E298.03552
G0 F12000 X153.14 Y141.54
G1 F2400 X162.42 Y150.83 E298.65470
G0 F12000 X162.42 Y150.26
G1 F2400 X153.71 Y141.54 E299.23614
G0 F12000 X154.27 Y141.54
G1 F2400 X162.42 Y149.69 E299.77986
G0 F12000 X162.42 Y149.13
G1 F2400 X154.84 Y141.54 E300.28587
G0 F12000 X155.40 Y141.54
G1 F2400 X162.42 Y148.56 E300.75414
G0 F12000 X162.42 Y148.00
G1 F2400 X155.97 Y141.54 E301.18469
G0 F12000 X156.53 Y141.54
G1 F2400 X162.42 Y147.43 E301.57753
G0 F12000 X162.42 Y146.87
G1 F2400 X157.10 Y141.54 E301.93262
G0 F12000 X157.66 Y141.54
G1 F2400 X162.42 Y146.30 E302.24996
G0 F12000 X162.42 Y145.74
G1 F2400 X158.23 Y141.54 E302.52963
G0 F12000 X158.80 Y141.54
G1 F2400 X162.42 Y145.17 E302.77155
G0 F12000 X162.42 Y144.60
G1 F2400 X159.36 Y141.54 E302.97572
G0 F12000 X159.93 Y141.54
G1 F2400 X162.42 Y144.04 E303.14221
G0 F12000 X162.42 Y143.47
G1 F2400 X160.49 Y141.54 E303.27096
G0 F12000 X161.06 Y141.54
G1 F2400 X162.42 Y142.91 E303.36195
G0 F12000 X162.42 Y142.34
G1 F2400 X161.62 Y141.54 E303.41527
G0 F12000 X162.19 Y141.54
G1 F2400 X162.42 Y141.78 E303.43085
;LAYER:3
G0 F12000 X162.56 Y141.40 Z1.20
;TYPE:WALL-INNER
G1 F1560 X162.56 Y163.08 E304.45316
G1 X140.88 Y163.08 E305.47548
G1 X140.88 Y141.40 E306.49780
G1 X162.56 Y141.40 E307.52011
G0 F12000 X162.96 Y141.00
;TYPE:WALL-OUTER
G1 F1560 X162.96 Y163.48 E308.58016
G1 X140.49 Y163.48 E309.64020
G1 X140.49 Y141.00 E310.70024
G1 X162.96 Y141.00 E311.76028
G0 F12000 X162.66 Y141.21
G0 X161.14 Y141.54
;TYPE:FILL
G1 F1560 X141.03 Y161.66 E313.10202
G0 F12000 X141.02 Y157.66
G1 F1560 X146.31 Y162.94 E313.45455
G0 F12000 X146.40 Y162.94
G1 F1560 X162.42 Y146.91 E314.52332
G0 F12000 X162.42 Y145.79
G1 F1560 X158.17 Y141.54 E314.80672
G0 F12000 X154.49 Y141.54
G1 F1560 X141.03 Y155.01 E315.70484
G0 F12000 X141.02 Y151.00
G1 F1560 X152.96 Y162.94 E316.50098
G0 F12000 X153.05 Y162.94
G1 F1560 X162.42 Y153.57 E317.12607
G0 F12000 X162.42 Y152.44
G1 F1560 X151.52 Y141.54 E317.85316
G0 F12000 X147.84 Y141.54
G1 F1560 X141.03 Y148.36 E318.30758
G0 F12000 X141.02 Y144.35
G1 F1560 X159.62 Y162.94 E319.54742
G0 F12000 X159.70 Y162.94
G1 F1560 X162.42 Y160.22 E319.72888
G0 F12000 X162.42 Y159.10
G1 F1560 X144.87 Y141.54 E320.89960
G0 F12000 X141.19 Y141.54
G1 F1560 X141.03 Y141.70 E320.91040
;LAYER:4
G0 F12000 X140.88 Y141.40 Z1.50
;TYPE:WALL-INNER
G1 F1560 X162.56 Y141.40 E321.93272
G1 X162.56 Y163.08 E322.95503
G1 X140.88 Y163.08 E323.97735
G1 X140.88 Y141.40 E324.99967
G0 F12000 X140.49 Y141.00
;TYPE:WALL-OUTER
G1 F1560 X162.96 Y141.00 E326.05971
G1 X162.96 Y163.48 E327.11975
G1 X140.49 Y163.48 E328.17980
G1 X140.49 Y141.00 E329.23984
G0 F12000 X141.03 Y141.70
;TYPE:FILL
G1 F1560 X141.19 Y141.54 E329.25064
G0 F12000 X141.02 Y144.35
G1 F1560 X159.62 Y162.94 E330.49048
G0 F12000 X159.70 Y162.94
G1 F1560 X162.42 Y160.22 E330.67194
G0 F12000 X162.42 Y159.10
G1 F1560 X144.87 Y141.54 E331.84265
G0 F12000 X147.84 Y141.54
G1 F1560 X141.03 Y148.36 E332.29708
G0 F12000 X141.02 Y151.00
G1 F1560 X152.96 Y162.94 E333.09323
G0 F12000 X153.05 Y162.94
G1 F1560 X162.42 Y153.57 E333.71831
G0 F12000 X162.42 Y152.44
G1 F1560 X151.52 Y141.54 E334.44540
G0 F12000 X154.49 Y141.54
G1 F1560 X141.03 Y155.01 E335.34352
G0 F12000 X141.02 Y157.66
G1 F1560 X146.31 Y162.94 E335.69604
G0 F12000 X146.40 Y162.94
G1 F1560 X162.42 Y146.91 E336.76482
G0 F12000 X162.42 Y145.79
G1 F1560 X158.17 Y141.54 E337.04821
G0 F12000 X161.14 Y141.54
G1 F1560 X141.03 Y161.66 E338.38995
;LAYER:5
G0 F12000 X140.88 Y163.08 Z1.80
;TYPE:WALL-INNER
G1 F1560 X140.88 Y141.40 E339.41227
G1 X162.56 Y141.40 E340.43459
G1 X162.56 Y163.08 E341.45690
G1 X140.88 Y163.08 E342.47922
G0 F12000 X140.49 Y163.48
;TYPE:WALL-OUTER
G1 F1560 X140.49 Y141.00 E343.53926
G1 X162.96 Y141.00 E344.59931
G1 X162.96 Y163.48 E345.65935
G1 X140.49 Y163.48 E346.71939
G0 F12000 X140.69 Y163.18
G0 X141.03 Y161.66
;TYPE:FILL
G1 F1560 X161.14 Y141.54 E348.06113
G0 F12000 X158.17 Y141.54
G1 F1560 X162.42 Y145.79 E348.34453
G0 F12000 X162.42 Y146.91
G1 F1560 X146.40 Y162.94 E349.41330
G0 F12000 X146.31 Y162.94
G1 F1560 X141.02 Y157.66 E349.76583
G0 F12000 X141.03 Y155.01
G1 F1560 X154.49 Y141.54 E350.66394
G0 F12000 X151.52 Y141.54
G1 F1560 X162.42 Y152.44 E351.39103
G0 F12000 X162.42 Y153.57
G1 F1560 X153.05 Y162.94 E352.01612
G0 F12000 X152.96 Y162.94
G1 F1560 X141.02 Y151.00 E352.81227
G0 F12000 X141.03 Y148.36
G1 F1560 X147.84 Y141.54 E353.26669
G0 F12000 X144.87 Y141.54
G1 F1560 X162.42 Y159.10 E354.43740
G0 F12000 X162.42 Y160.22
G1 F1560 X159.70 Y162.94 E354.61887
G0 F12000 X159.62 Y162.94
G1 F1560 X141.02 Y144.35 E355.85870
G0 F12000 X141.03 Y141.70
G1 F1560 X141.19 Y141.54 E355.86951
;LAYER:6
G0 F12000 X140.88 Y141.40 Z2.10
;TYPE:WALL-INNER
G1 F1560 X162.56 Y141.40 E356.89182
G1 X162.56 Y163.08 E357.91414
G1 X140.88 Y163.08 E358.93646
G1 X140.88 Y141.40 E359.95877
G0 F12000 X140.49 Y141.00
;TYPE:WALL-OUTER
G1 F1560 X162.96 Y141.00 E361.01882
G1 X162.96 Y163.48 E362.07886
G1 X140.49 Y163.48 E363.13890
G1 X140.49 Y141.00 E364.19895
G0 F12000 X141.03 Y141.70
;TYPE:FILL
G1 F1560 X141.19 Y141.54 E364.20975
G0 F12000 X141.02 Y144.35
G1 F1560 X159.62 Y162.94 E365.44958
G0 F12000 X159.70 Y162.94
G1 F1560 X162.42 Y160.22 E365.63105
G0 F12000 X162.42 Y159.10
G1 F1560 X144.87 Y141.54 E366.80176
G0 F12000 X147.84 Y141.54
G1 F1560 X141.03 Y148.36 E367.25619
G0 F12000 X141.02 Y151.00
G1 F1560 X152.96 Y162.94 E368.05233
G0 F12000 X153.05 Y162.94
G1 F1560 X162.42 Y153.57 E368.67742
G0 F12000 X162.42 Y152.44
G1 F1560 X151.52 Y141.54 E369.40451
G0 F12000 X154.49 Y141.54
G1 F1560 X141.03 Y155.01 E370.30262
G0 F12000 X141.02 Y157.66
G1 F1560 X146.31 Y162.94 E370.65515
G0 F12000 X146.40 Y162.94
G1 F1560 X162.42 Y146.91 E371.72392
G0 F12000 X162.42 Y145.79
G1 F1560 X158.17 Y141.54 E372.00732
G0 F12000 X161.14 Y141.54
G1 F1560 X141.03 Y161.66 E373.34906
;LAYER:7
G0 F12000 X140.88 Y163.08 Z2.40
;TYPE:WALL-INNER
G1 F1560 X140.88 Y141.40 E374.37138
G1 X162.56 Y141.40 E375.39369
G1 X162.56 Y163.08 E376.41601
G1 X140.88 Y163.08 E377.43833
G0 F12000 X140.49 Y163.48
;TYPE:WALL-OUTER
G1 F1560 X140.49 Y141.00 E378.49837
G1 X162.96 Y141.00 E379.55841
G1 X162.96 Y163.48 E380.61846
G1 X140.49 Y163.48 E381.67850
G0 F12000 X140.69 Y163.18
G0 X141.03 Y161.66
;TYPE:FILL
G1 F1560 X161.14 Y141.54 E383.02024
G0 F12000 X158.17 Y141.54
G1 F1560 X162.42 Y145.79 E383.30364
G0 F12000 X162.42 Y146.91
G1 F1560 X146.40 Y162.94 E384.37241
G0 F12000 X146.31 Y162.94
G1 F1560 X141.02 Y157.66 E384.72494
G0 F12000 X141.03 Y155.01
G1 F1560 X154.49 Y141.54 E385.62305
G0 F12000 X151.52 Y141.54
G1 F1560 X162.42 Y152.44 E386.35014
G0 F12000 X162.42 Y153.57
G1 F1560 X153.05 Y162.94 E386.97523
G0 F12000 X152.96 Y162.94
G1 F1560 X141.02 Y151.00 E387.77137
G0 F12000 X141.03 Y148.36
G1 F1560 X147.84 Y141.54 E388.22580
G0 F12000 X144.87 Y141.54
G1 F1560 X162.42 Y159.10 E389.39651
G0 F12000 X162.42 Y160.22
G1 F1560 X159.70 Y162.94 E389.57797
G0 F12000 X159.62 Y162.94
G1 F1560 X141.02 Y144.35 E390.81781
G0 F12000 X141.03 Y141.70
G1 F1560 X141.19 Y141.54 E390.82861
;LAYER:8
G0 F12000 X140.88 Y141.40 Z2.70
;TYPE:WALL-INNER
G1 F1560 X162.56 Y141.40 E391.85093
G1 X162.56 Y163.08 E392.87325
G1 X140.88 Y163.08 E393.89556
G1 X140.88 Y141.40 E394.91788
G0 F12000 X140.49 Y141.00
;TYPE:WALL-OUTER
G1 F1560 X162.96 Y141.00 E395.97792
G1 X162.96 Y163.48 E397.03797
G1 X140.49 Y163.48 E398.09801
G1 X140.49 Y141.00 E399.15805
G0 F12000 X141.03 Y141.70
;TYPE:FILL
G1 F1560 X141.19 Y141.54 E399.16886
G0 F12000 X141.02 Y144.35
G1 F1560 X159.62 Y162.94 E400.40869
G0 F12000 X159.70 Y162.94
G1 F1560 X162.42 Y160.22 E400.59016
G0 F12000 X162.42 Y159.10
G1 F1560 X144.87 Y141.54 E401.76087
G0 F12000 X147.84 Y141.54
G1 F1560 X141.03 Y148.36 E402.21529
G0 F12000 X141.02 Y151.00
G1 F1560 X152.96 Y162.94 E403.01144
G0 F12000 X153.05 Y162.94
G1 F1560 X162.42 Y153.57 E403.63653
G0 F12000 X162.42 Y152.44
G1 F1560 X151.52 Y141.54 E404.36361
G0 F12000 X154.49 Y141.54
G1 F1560 X141.03 Y155.01 E405.26173
G0 F12000 X141.02 Y157.66
G1 F1560 X146.31 Y162.94 E405.61425
G0 F12000 X146.40 Y162.94
G1 F1560 X162.42 Y146.91 E406.68303
G0 F12000 X162.42 Y145.79
G1 F1560 X158.17 Y141.54 E406.96643
G0 F12000 X161.14 Y141.54
G1 F1560 X141.03 Y161.66 E408.30817
;LAYER:9
G0 F12000 X140.88 Y163.08 Z3.00
;TYPE:WALL-INNER
G1 F1560 X140.88 Y141.40 E409.33048
G1 X162.56 Y141.40 E410.35280
G1 X162.56 Y163.08 E411.37512
G1 X140.88 Y163.08 E412.39744
G0 F12000 X140.49 Y163.48
;TYPE:WALL-OUTER
G1 F1560 X140.49 Y141.00 E413.45748
G1 X162.96 Y141.00 E414.51752
G1 X162.96 Y163.48 E415.57756
G1 X140.49 Y163.48 E416.63761
G0 F12000 X140.69 Y163.18
G0 X141.03 Y161.66
;TYPE:FILL
G1 F1560 X161.14 Y141.54 E417.97934
G0 F12000 X158.17 Y141.54
G1 F1560 X162.42 Y145.79 E418.26274
G0 F12000 X162.42 Y146.91
G1 F1560 X146.40 Y162.94 E419.33152
G0 F12000 X146.31 Y162.94
G1 F1560 X141.02 Y157.66 E419.68404
G0 F12000 X141.03 Y155.01
G1 F1560 X154.49 Y141.54 E420.58216
G0 F12000 X151.52 Y141.54
G1 F1560 X162.42 Y152.44 E421.30925
G0 F12000 X162.42 Y153.57
G1 F1560 X153.05 Y162.94 E421.93433
G0 F12000 X152.96 Y162.94
G1 F1560 X141.02 Y151.00 E422.73048
G0 F12000 X141.03 Y148.36
G1 F1560 X147.84 Y141.54 E423.18491
G0 F12000 X144.87 Y141.54
G1 F1560 X162.42 Y159.10 E424.35562
G0 F12000 X162.42 Y160.22
G1 F1560 X159.70 Y162.94 E424.53708
G0 F12000 X159.62 Y162.94
G1 F1560 X141.02 Y144.35 E425.77692
G0 F12000 X141.03 Y141.70
G1 F1560 X141.19 Y141.54 E425.78772
;LAYER:10
G0 F12000 X140.88 Y141.40 Z3.30
;TYPE:WALL-INNER
G1 F1560 X162.56 Y141.40 E426.81004
G1 X162.56 Y163.08 E427.83236
G1 X140.88 Y163.08 E428.85467
G1 X140.88 Y141.40 E429.87699
G0 F12000 X140.49 Y141.00
;TYPE:WALL-OUTER
G1 F1560 X162.96 Y141.00 E430.93703
G1 X162.96 Y163.48 E431.99707
G1 X140.49 Y163.48 E433.05712
G1 X140.49 Y141.00 E434.11716
G0 F12000 X141.03 Y141.70
;TYPE:FILL
G1 F1560 X141.19 Y141.54 E434.12796
G0 F12000 X141.02 Y144.35
G1 F1560 X159.62 Y162.94 E435.36780
G0 F12000 X159.70 Y162.94
G1 F1560 X162.42 Y160.22 E435.54926
G0 F12000 X162.42 Y159.10
G1 F1560 X144.87 Y141.54 E436.71997
G0 F12000 X147.84 Y141.54
G1 F1560 X141.03 Y148.36 E437.17440
G0 F12000 X141.02 Y151.00
G1 F1560 X152.96 Y162.94 E437.97055
G0 F12000 X153.05 Y162.94
G1 F1560 X162.42 Y153.57 E438.59563
G0 F12000 X162.42 Y152.44
G1 F1560 X151.52 Y141.54 E439.32272
G0 F12000 X154.49 Y141.54
G1 F1560 X141.03 Y155.01 E440.22084
G0 F12000 X141.02 Y157.66
G1 F1560 X146.31 Y162.94 E440.57336
G0 F12000 X146.40 Y162.94
G1 F1560 X162.42 Y146.91 E441.64214
G0 F12000 X162.42 Y145.79
G1 F1560 X158.17 Y141.54 E441.92554
G0 F12000 X161.14 Y141.54
G1 F1560 X141.03 Y161.66 E443.26727
;LAYER:11
G0 F12000 X140.88 Y163.08 Z3.60
;TYPE:WALL-INNER
G1 F1560 X140.88 Y141.40 E444.28959
G1 X162.56 Y141.40 E445.31191
G1 X162.56 Y163.08 E446.33423
G1 X140.88 Y163.08 E447.35654
G0 F12000 X140.49 Y163.48
;TYPE:WALL-OUTER
G1 F1560 X140.49 Y141.00 E448.41659
G1 X162.96 Y141.00 E449.47663
G1 X162.96 Y163.48 E450.53667
G1 X140.49 Y163.48 E451.59671
G0 F12000 X140.69 Y163.18
G0 X141.03 Y161.66
;TYPE:FILL
G1 F1560 X161.14 Y141.54 E452.93845
G0 F12000 X158.17 Y141.54
G1 F1560 X162.42 Y145.79 E453.22185
G0 F12000 X162.42 Y146.91
G1 F1560 X146.40 Y162.94 E454.29063
G0 F12000 X146.31 Y162.94
G1 F1560 X141.02 Y157.66 E454.64315
G0 F12000 X141.03 Y155.01
G1 F1560 X154.49 Y141.54 E455.54127
G0 F12000 X151.52 Y141.54
G1 F1560 X162.42 Y152.44 E456.26835
G0 F12000 X162.42 Y153.57
G1 F1560 X153.05 Y162.94 E456.89344
G0 F12000 X152.96 Y162.94
G1 F1560 X141.02 Y151.00 E457.68959
G0 F12000 X141.03 Y148.36
G1 F1560 X147.84 Y141.54 E458.14401
G0 F12000 X144.87 Y141.54
G1 F1560 X162.42 Y159.10 E459.31472
G0 F12000 X162.42 Y160.22
G1 F1560 X159.70 Y162.94 E459.49619
G0 F12000 X159.62 Y162.94
G1 F1560 X141.02 Y144.35 E460.73602
G0 F12000 X141.03 Y141.70
G1 F1560 X141.19 Y141.54 E460.74683
;LAYER:12
G0 F12000 X140.88 Y141.40 Z3.90
;TYPE:WALL-INNER
G1 F1560 X162.56 Y141.40 E461.76915
G1 X162.56 Y163.08 E462.79146
G1 X140.88 Y163.08 E463.81378
G1 X140.88 Y141.40 E464.83610
G0 F12000 X140.49 Y141.00
;TYPE:WALL-OUTER
G1 F1560 X162.96 Y141.00 E465.89614
G1 X162.96 Y163.48 E466.95618
G1 X140.49 Y163.48 E468.01622
G1 X140.49 Y141.00 E469.07627
G0 F12000 X141.03 Y141.70
;TYPE:FILL
G1 F1560 X141.19 Y141.54 E469.08707
G0 F12000 X141.02 Y144.35
G1 F1560 X159.62 Y162.94 E470.32691
G0 F12000 X159.70 Y162.94
G1 F1560 X162.42 Y160.22 E470.50837
G0 F12000 X162.42 Y159.10
G1 F1560 X144.87 Y141.54 E471.67908
G0 F12000 X147.84 Y141.54
G1 F1560 X141.03 Y148.36 E472.13351
G0 F12000 X141.02 Y151.00
G1 F1560 X152.96 Y162.94 E472.92965
G0 F12000 X153.05 Y162.94
G1 F1560 X162.42 Y153.57 E473.55474
G0 F12000 X162.42 Y152.44
G1 F1560 X151.52 Y141.54 E474.28183
G0 F12000 X154.49 Y141.54
G1 F1560 X141.03 Y155.01 E475.17994
G0 F12000 X141.02 Y157.66
G1 F1560 X146.31 Y162.94 E475.53247
G0 F12000 X146.40 Y162.94
G1 F1560 X162.42 Y146.91 E476.60124
G0 F12000 X162.42 Y145.79
G1 F1560 X158.17 Y141.54 E476.88464
G0 F12000 X161.14 Y141.54
G1 F1560 X141.03 Y161.66 E478.22638
;LAYER:13
G0 F12000 X140.88 Y163.08 Z4.20
;TYPE:WALL-INNER
G1 F1560 X140.88 Y141.40 E479.24870
G1 X162.56 Y141.40 E480.27102
G1 X162.56 Y163.08 E481.29333
G1 X140.88 Y163.08 E482.31565
G0 F12000 X140.49 Y163.48
;TYPE:WALL-OUTER
G1 F1560 X140.49 Y141.00 E483.37569
G1 X162.96 Y141.00 E484.43574
G1 X162.96 Y163.48 E485.49578
G1 X140.49 Y163.48 E486.55582
G0 F12000 X140.69 Y163.18
G0 X141.03 Y161.66
;TYPE:FILL
G1 F1560 X161.14 Y141.54 E487.89756
G0 F12000 X158.17 Y141.54
G1 F1560 X162.42 Y145.79 E488.18096
G0 F12000 X162.42 Y146.91
G1 F1560 X146.40 Y162.94 E489.24973
G0 F12000 X146.31 Y162.94
G1 F1560 X141.02 Y157.66 E489.60226
G0 F12000 X141.03 Y155.01
G1 F1560 X154.49 Y141.54 E490.50037
G0 F12000 X151.52 Y141.54
G1 F1560 X162.42 Y152.44 E491.22746
G0 F12000 X162.42 Y153.57
G1 F1560 X153.05 Y162.94 E491.85255
G0 F12000 X152.96 Y162.94
G1 F1560 X141.02 Y151.00 E492.64869
G0 F12000 X141.03 Y148.36
G1 F1560 X147.84 Y141.54 E493.10312
G0 F12000 X144.87 Y141.54
G1 F1560 X162.42 Y159.10 E494.27383
G0 F12000 X162.42 Y160.22
G1 F1560 X159.70 Y162.94 E494.45530
G0 F12000 X159.62 Y162.94
G1 F1560 X141.02 Y144.35 E495.69513
G0 F12000 X141.03 Y141.70
G1 F1560 X141.19 Y141.54 E495.70594
;LAYER:14
G0 F12000 X140.88 Y141.40 Z4.50
;TYPE:WALL-INNER
G1 F1560 X162.56 Y141.40 E496.72825
G1 X162.56 Y163.08 E497.75057
G1 X140.88 Y163.08 E498.77289
G1 X140.88 Y141.40 E499.79520
G0 F12000 X140.49 Y141.00
;TYPE:WALL-OUTER
G1 F1560 X162.96 Y141.00 E500.85525
G1 X162.96 Y163.48 E501.91529
G1 X140.49 Y163.48 E502.97533
G1 X140.49 Y141.00 E504.03537
G0 F12000 X141.03 Y141.70
;TYPE:FILL
G1 F1560 X141.19 Y141.54 E504.04618
G0 F12000 X141.02 Y144.35
G1 F1560 X159.62 Y162.94 E505.28601
G0 F12000 X159.70 Y162.94
G1 F1560 X162.42 Y160.22 E505.46748
G0 F12000 X162.42 Y159.10
G1 F1560 X144.87 Y141.54 E506.63819
G0 F12000 X147.84 Y141.54
G1 F1560 X141.03 Y148.36 E507.09261
G0 F12000 X141.02 Y151.00
G1 F1560 X152.96 Y162.94 E507.88876
G0 F12000 X153.05 Y162.94
G1 F1560 X162.42 Y153.57 E508.51385
G0 F12000 X162.42 Y152.44
G1 F1560 X151.52 Y141.54 E509.24094
G0 F12000 X154.49 Y141.54
G1 F1560 X141.03 Y155.01 E510.13905
G0 F12000 X141.02 Y157.66
G1 F1560 X146.31 Y162.94 E510.49158
G0 F12000 X146.40 Y162.94
G1 F1560 X162.42 Y146.91 E511.56035
G0 F12000 X162.42 Y145.79
G1 F1560 X158.17 Y141.54 E511.84375
G0 F12000 X161.14 Y141.54
G1 F1560 X141.03 Y161.66 E513.18549
;LAYER:15
G0 F12000 X140.88 Y163.08 Z4.80
;TYPE:WALL-INNER
G1 F1560 X140.88 Y141.40 E514.20781
G1 X162.56 Y141.40 E515.23012
G1 X162.56 Y163.08 E516.25244
G1 X140.88 Y163.08 E517.27476
G0 F12000 X140.49 Y163.48
;TYPE:WALL-OUTER
G1 F1560 X140.49 Y141.00 E518.33480
G1 X162.96 Y141.00 E519.39484
G1 X162.96 Y163.48 E520.45488
G1 X140.49 Y163.48 E521.51493
G0 F12000 X140.69 Y163.18
G0 X141.03 Y161.66
;TYPE:FILL
G1 F1560 X161.14 Y141.54 E522.85667
G0 F12000 X158.17 Y141.54
G1 F1560 X162.42 Y145.79 E523.14007
G0 F12000 X162.42 Y146.91
G1 F1560 X146.40 Y162.94 E524.20884
G0 F12000 X146.31 Y162.94
G1 F1560 X141.02 Y157.66 E524.56136
G0 F12000 X141.03 Y155.01
G1 F1560 X154.49 Y141.54 E525.45948
G0 F12000 X151.52 Y141.54
G1 F1560 X162.42 Y152.44 E526.18657
G0 F12000 X162.42 Y153.57
G1 F1560 X153.05 Y162.94 E526.81166
G0 F12000 X152.96 Y162.94
G1 F1560 X141.02 Y151.00 E527.60780
G0 F12000 X141.03 Y148.36
G1 F1560 X147.84 Y141.54 E528.06223
G0 F12000 X144.87 Y141.54
G1 F1560 X162.42 Y159.10 E529.23294
G0 F12000 X162.42 Y160.22
G1 F1560 X159.70 Y162.94 E529.41440
G0 F12000 X159.62 Y162.94
G1 F1560 X141.02 Y144.35 E530.65424
G0 F12000 X141.03 Y141.70
G1 F1560 X141.19 Y141.54 E530.66504
;LAYER:16
G0 F12000 X140.88 Y141.40 Z5.10
;TYPE:WALL-INNER
G1 F1560 X162.56 Y141.40 E531.68736
G1 X162.56 Y163.08 E532.70968
G1 X140.88 Y163.08 E533.73199
G1 X140.88 Y141.40 E534.75431
G0 F12000 X140.49 Y141.00
;TYPE:WALL-OUTER
G1 F1560 X162.96 Y141.00 E535.81435
G1 X162.96 Y163.48 E536.87440
G1 X140.49 Y163.48 E537.93444
G1 X140.49 Y141.00 E538.99448
G0 F12000 X141.03 Y141.70
;TYPE:FILL
G1 F1560 X141.19 Y141.54 E539.00528
G0 F12000 X141.02 Y144.35
G1 F1560 X159.62 Y162.94 E540.24512
G0 F12000 X159.70 Y162.94
G1 F1560 X162.42 Y160.22 E540.42658
G0 F12000 X162.42 Y159.10
G1 F1560 X144.87 Y141.54 E541.59730
G0 F12000 X147.84 Y141.54
G1 F1560 X141.03 Y148.36 E542.05172
G0 F12000 X141.02 Y151.00
G1 F1560 X152.96 Y162.94 E542.84787
G0 F12000 X153.05 Y162.94
G1 F1560 X162.42 Y153.57 E543.47295
G0 F12000 X162.42 Y152.44
G1 F1560 X151.52 Y141.54 E544.20004
G0 F12000 X154.49 Y141.54
G1 F1560 X141.03 Y155.01 E545.09816
G0 F12000 X141.02 Y157.66
G1 F1560 X146.31 Y162.94 E545.45068
G0 F12000 X146.40 Y162.94
G1 F1560 X162.42 Y146.91 E546.51946
G0 F12000 X162.42 Y145.79
G1 F1560 X158.17 Y141.54 E546.80286
G0 F12000 X161.14 Y141.54
G1 F1560 X141.03 Y161.66 E548.14460
;LAYER:17
G0 F12000 X140.88 Y163.08 Z5.40
;TYPE:WALL-INNER
G1 F1560 X140.88 Y141.40 E549.16691
G1 X162.56 Y141.40 E550.18923
G1 X162.56 Y163.08 E551.21155
G1 X140.88 Y163.08 E552.23386
G0 F12000 X140.49 Y163.48
;TYPE:WALL-OUTER
G1 F1560 X140.49 Y141.00 E553.29391
G1 X162.96 Y141.00 E554.35395
G1 X162.96 Y163.48 E555.41399
G1 X140.49 Y163.48 E556.47403
G0 F12000 X140.69 Y163.18
G0 X141.03 Y161.66
;TYPE:FILL
G1 F1560 X161.14 Y141.54 E557.81577
G0 F12000 X158.17 Y141.54
G1 F1560 X162.42 Y145.79 E558.09917
G0 F12000 X162.42 Y146.91
G1 F1560 X146.40 Y162.94 E559.16795
G0 F12000 X146.31 Y162.94
G1 F1560 X141.02 Y157.66 E559.52047
G0 F12000 X141.03 Y155.01
G1 F1560 X154.49 Y141.54 E560.41859
G0 F12000 X151.52 Y141.54
G1 F1560 X162.42 Y152.44 E561.14568
G0 F12000 X162.42 Y153.57
G1 F1560 X153.05 Y162.94 E561.77076
G0 F12000 X152.96 Y162.94
G1 F1560 X141.02 Y151.00 E562.56691
G0 F12000 X141.03 Y148.36
G1 F1560 X147.84 Y141.54 E563.02134
G0 F12000 X144.87 Y141.54
G1 F1560 X162.42 Y159.10 E564.19205
G0 F12000 X162.42 Y160.22
G1 F1560 X159.70 Y162.94 E564.37351
G0 F12000 X159.62 Y162.94
G1 F1560 X141.02 Y144.35 E565.61335
G0 F12000 X141.03 Y141.70
G1 F1560 X141.19 Y141.54 E565.62415
;LAYER:18
G0 F12000 X140.88 Y141.40 Z5.70
;TYPE:WALL-INNER
G1 F1560 X162.56 Y141.40 E566.64647
G1 X162.56 Y163.08 E567.66878
G1 X140.88 Y163.08 E568.69110
G1 X140.88 Y141.40 E569.71342
G0 F12000 X140.49 Y141.00
;TYPE:WALL-OUTER
G1 F1560 X162.96 Y141.00 E570.77346
G1 X162.96 Y163.48 E571.83350
G1 X140.49 Y163.48 E572.89355
G1 X140.49 Y141.00 E573.95359
G0 F12000 X141.03 Y141.70
;TYPE:FILL
G1 F1560 X141.19 Y141.54 E573.96439
G0 F12000 X141.02 Y144.35
G1 F1560 X159.62 Y162.94 E575.20423
G0 F12000 X159.70 Y162.94
G1 F1560 X162.42 Y160.22 E575.38569
G0 F12000 X162.42 Y159.10
G1 F1560 X144.87 Y141.54 E576.55640
G0 F12000 X147.84 Y141.54
G1 F1560 X141.03 Y148.36 E577.01083
G0 F12000 X141.02 Y151.00
G1 F1560 X152.96 Y162.94 E577.80698
G0 F12000 X153.05 Y162.94
G1 F1560 X162.42 Y153.57 E578.43206
G0 F12000 X162.42 Y152.44
G1 F1560 X151.52 Y141.54 E579.15915
G0 F12000 X154.49 Y141.54
G1 F1560 X141.03 Y155.01 E580.05727
G0 F12000 X141.02 Y157.66
G1 F1560 X146.31 Y162.94 E580.40979
G0 F12000 X146.40 Y162.94
G1 F1560 X162.42 Y146.91 E581.47857
G0 F12000 X162.42 Y145.79
G1 F1560 X158.17 Y141.54 E581.76197
G0 F12000 X161.14 Y141.54
G1 F1560 X141.03 Y161.66 E583.10370
;LAYER:19
G0 F12000 X140.88 Y163.08 Z6.00
;TYPE:WALL-INNER
G1 F1560 X140.88 Y141.40 E584.12602
G1 X162.56 Y141.40 E585.14834
G1 X162.56 Y163.08 E586.17065
G1 X140.88 Y163.08 E587.19297
G0 F12000 X140.49 Y163.48
;TYPE:WALL-OUTER
G1 F1560 X140.49 Y141.00 E588.25301
G1 X162.96 Y141.00 E589.31306
G1 X162.96 Y163.48 E590.37310
G1 X140.49 Y163.48 E591.43314
G0 F12000 X140.69 Y163.18
G0 X141.03 Y161.66
;TYPE:FILL
G1 F1560 X161.14 Y141.54 E592.77488
G0 F12000 X158.17 Y141.54
G1 F1560 X162.42 Y145.79 E593.05828
G0 F12000 X162.42 Y146.91
G1 F1560 X146.40 Y162.94 E594.12706
G0 F12000 X146.31 Y162.94
G1 F1560 X141.02 Y157.66 E594.47958
G0 F12000 X141.03 Y155.01
G1 F1560 X154.49 Y141.54 E595.37769
G0 F12000 X151.52 Y141.54
G1 F1560 X162.42 Y152.44 E596.10478
G0 F12000 X162.42 Y153.57
G1 F1560 X153.05 Y162.94 E596.72987
G0 F12000 X152.96 Y162.94
G1 F1560 X141.02 Y151.00 E597.52602
G0 F12000 X141.03 Y148.36
G1 F1560 X147.84 Y141.54 E597.98044
G0 F12000 X144.87 Y141.54
G1 F1560 X162.42 Y159.10 E599.15115
G0 F12000 X162.42 Y160.22
G1 F1560 X159.70 Y162.94 E599.33262
G0 F12000 X159.62 Y162.94
G1 F1560 X141.02 Y144.35 E600.57245
G0 F12000 X141.03 Y141.70
G1 F1560 X141.19 Y141.54 E600.58326
;LAYER:20
G0 F12000 X140.88 Y141.40 Z6.30
;TYPE:WALL-INNER
G1 F1560 X162.56 Y141.40 E601.60557
G1 X162.56 Y163.08 E602.62789
G1 X140.88 Y163.08 E603.65021
G1 X140.88 Y141.40 E604.67252
G0 F12000 X140.49 Y141.00
;TYPE:WALL-OUTER
G1 F1560 X162.96 Y141.00 E605.73257
G1 X162.96 Y163.48 E606.79261
G1 X140.49 Y163.48 E607.85265
G1 X140.49 Y141.00 E608.91270
G0 F12000 X141.03 Y141.70
;TYPE:FILL
G1 F1560 X141.19 Y141.54 E608.92350
G0 F12000 X141.02 Y144.35
G1 F1560 X159.62 Y162.94 E610.16333
G0 F12000 X159.70 Y162.94
G1 F1560 X162.42 Y160.22 E610.34480
G0 F12000 X162.42 Y159.10
G1 F1560 X144.87 Y141.54 E611.51551
G0 F12000 X147.84 Y141.54
G1 F1560 X141.03 Y148.36 E611.96994
G0 F12000 X141.02 Y151.00
G1 F1560 X152.96 Y162.94 E612.76608
G0 F12000 X153.05 Y162.94
G1 F1560 X162.42 Y153.57 E613.39117
G0 F12000 X162.42 Y152.44
G1 F1560 X151.52 Y141.54 E614.11826
G0 F12000 X154.49 Y141.54
G1 F1560 X141.03 Y155.01 E615.01637
G0 F12000 X141.02 Y157.66
G1 F1560 X146.31 Y162.94 E615.36890
G0 F12000 X146.40 Y162.94
G1 F1560 X162.42 Y146.91 E616.43767
G0 F12000 X162.42 Y145.79
G1 F1560 X158.17 Y141.54 E616.72107
G0 F12000 X161.14 Y141.54
G1 F1560 X141.03 Y161.66 E618.06281
;LAYER:21
G0 F12000 X140.88 Y163.08 Z6.60
;TYPE:WALL-INNER
G1 F1560 X140.88 Y141.40 E619.08513
G1 X162.56 Y141.40 E620.10744
G1 X162.56 Y163.08 E621.12976
G1 X140.88 Y163.08 E622.15208
G0 F12000 X140.49 Y163.48
;TYPE:WALL-OUTER
G1 F1560 X140.49 Y141.00 E623.21212
G1 X162.96 Y141.00 E624.27216
G1 X162.96 Y163.48 E625.33221
G1 X140.49 Y163.48 E626.39225
G0 F12000 X140.69 Y163.18
G0 X141.03 Y161.66
;TYPE:FILL
G1 F1560 X161.14 Y141.54 E627.73399
G0 F12000 X158.17 Y141.54
G1 F1560 X162.42 Y145.79 E628.01739
G0 F12000 X162.42 Y146.91
G1 F1560 X146.40 Y162.94 E629.08616
G0 F12000 X146.31 Y162.94
G1 F1560 X141.02 Y157.66 E629.43869
G0 F12000 X141.03 Y155.01
G1 F1560 X154.49 Y141.54 E630.33680
G0 F12000 X151.52 Y141.54
G1 F1560 X162.42 Y152.44 E631.06389
G0 F12000 X162.42 Y153.57
G1 F1560 X153.05 Y162.94 E631.68898
G0 F12000 X152.96 Y162.94
G1 F1560 X141.02 Y151.00 E632.48512
G0 F12000 X141.03 Y148.36
G1 F1560 X147.84 Y141.54 E632.93955
G0 F12000 X144.87 Y141.54
G1 F1560 X162.42 Y159.10 E634.11026
G0 F12000 X162.42 Y160.22
G1 F1560 X159.70 Y162.94 E634.29172
G0 F12000 X159.62 Y162.94
G1 F1560 X141.02 Y144.35 E635.53156
G0 F12000 X141.03 Y141.70
G1 F1560 X141.19 Y141.54 E635.54236
;LAYER:22
G0 F12000 X140.88 Y141.40 Z6.90
;TYPE:WALL-INNER
G1 F1560 X162.56 Y141.40 E636.56468
G1 X162.56 Y163.08 E637.58700
G1 X140.88 Y163.08 E638.60932
G1 X140.88 Y141.40 E639.63163
G0 F12000 X140.49 Y141.00
;TYPE:WALL-OUTER
G1 F1560 X162.96 Y141.00 E640.69167
G1 X162.96 Y163.48 E641.75172
G1 X140.49 Y163.48 E642.81176
G1 X140.49 Y141.00 E643.87180
G0 F12000 X141.03 Y141.70
;TYPE:FILL
G1 F1560 X141.19 Y141.54 E643.88261
G0 F12000 X141.02 Y144.35
G1 F1560 X159.62 Y162.94 E645.12244
G0 F12000 X159.70 Y162.94
G1 F1560 X162.42 Y160.22 E645.30391
G0 F12000 X162.42 Y159.10
G1 F1560 X144.87 Y141.54 E646.47462
G0 F12000 X147.84 Y141.54
G1 F1560 X141.03 Y148.36 E646.92904
G0 F12000 X141.02 Y151.00
G1 F1560 X152.96 Y162.94 E647.72519
G0 F12000 X153.05 Y162.94
G1 F1560 X162.42 Y153.57 E648.35028
G0 F12000 X162.42 Y152.44
G1 F1560 X151.52 Y141.54 E649.07736
G0 F12000 X154.49 Y141.54
G1 F1560 X141.03 Y155.01 E649.97548
G0 F12000 X141.02 Y157.66
G1 F1560 X146.31 Y162.94 E650.32800
G0 F12000 X146.40 Y162.94
G1 F1560 X162.42 Y146.91 E651.39678
G0 F12000 X162.42 Y145.79
G1 F1560 X158.17 Y141.54 E651.68018
G0 F12000 X161.14 Y141.54
G1 F1560 X141.03 Y161.66 E653.02192
;LAYER:23
G0 F12000 X140.88 Y163.08 Z7.20
;TYPE:WALL-INNER
G1 F1560 X140.88 Y141.40 E654.04423
G1 X162.56 Y141.40 E655.06655
G1 X162.56 Y163.08 E656.08887
G1 X140.88 Y163.08 E657.11119
G0 F12000 X140.49 Y163.48
;TYPE:WALL-OUTER
G1 F1560 X140.49 Y141.00 E658.17123
G1 X162.96 Y141.00 E659.23127
G1 X162.96 Y163.48 E660.29131
G1 X140.49 Y163.48 E661.35136
G0 F12000 X140.69 Y163.18
G0 X141.03 Y161.66
;TYPE:FILL
G1 F1560 X161.14 Y141.54 E662.69309
G0 F12000 X158.17 Y141.54
G1 F1560 X162.42 Y145.79 E662.97649
G0 F12000 X162.42 Y146.91
G1 F1560 X146.40 Y162.94 E664.04527
G0 F12000 X146.31 Y162.94
G1 F1560 X141.02 Y157.66 E664.39779
G0 F12000 X141.03 Y155.01
G1 F1560 X154.49 Y141.54 E665.29591
G0 F12000 X151.52 Y141.54
G1 F1560 X162.42 Y152.44 E666.02300
G0 F12000 X162.42 Y153.57
G1 F1560 X153.05 Y162.94 E666.64808
G0 F12000 X152.96 Y162.94
G1 F1560 X141.02 Y151.00 E667.44423
G0 F12000 X141.03 Y148.36
G1 F1560 X147.84 Y141.54 E667.89866
G0 F12000 X144.87 Y141.54
G1 F1560 X162.42 Y159.10 E669.06937
G0 F12000 X162.42 Y160.22
G1 F1560 X159.70 Y162.94 E669.25083
G0 F12000 X159.62 Y162.94
G1 F1560 X141.02 Y144.35 E670.49067
G0 F12000 X141.03 Y141.70
G1 F1560 X141.19 Y141.54 E670.50147
;LAYER:24
G0 F12000 X140.88 Y141.40 Z7.50
;TYPE:WALL-INNER
G1 F1560 X162.56 Y141.40 E671.52379
G1 X162.56 Y163.08 E672.54611
G1 X140.88 Y163.08 E673.56842
G1 X140.88 Y141.40 E674.59074
G0 F12000 X140.49 Y141.00
;TYPE:WALL-OUTER
G1 F1560 X162.96 Y141.00 E675.65078
G1 X162.96 Y163.48 E676.71082
G1 X140.49 Y163.48 E677.77087
G1 X140.49 Y141.00 E678.83091
G0 F12000 X141.03 Y141.70
;TYPE:FILL
G1 F1560 X141.19 Y141.54 E678.84171
G0 F12000 X141.02 Y144.35
G1 F1560 X159.62 Y162.94 E680.08155
G0 F12000 X159.70 Y162.94
G1 F1560 X162.42 Y160.22 E680.26301
G0 F12000 X162.42 Y159.10
G1 F1560 X144.87 Y141.54 E681.43372
G0 F12000 X147.84 Y141.54
G1 F1560 X141.03 Y148.36 E681.88815
G0 F12000 X141.02 Y151.00
G1 F1560 X152.96 Y162.94 E682.68430
G0 F12000 X153.05 Y162.94
G1 F1560 X162.42 Y153.57 E683.30938
G0 F12000 X162.42 Y152.44
G1 F1560 X151.52 Y141.54 E684.03647
G0 F12000 X154.49 Y141.54
G1 F1560 X141.03 Y155.01 E684.93459
G0 F12000 X141.02 Y157.66
G1 F1560 X146.31 Y162.94 E685.28711
G0 F12000 X146.40 Y162.94
G1 F1560 X162.42 Y146.91 E686.35589
G0 F12000 X162.42 Y145.79
G1 F1560 X158.17 Y141.54 E686.63929
G0 F12000 X161.14 Y141.54
G1 F1560 X141.03 Y161.66 E687.98102
;LAYER:25
G0 F12000 X140.88 Y163.08 Z7.80
;TYPE:WALL-INNER
G1 F1560 X140.88 Y141.40 E689.00334
G1 X162.56 Y141.40 E690.02566
G1 X162.56 Y163.08 E691.04798
G1 X140.88 Y163.08 E692.07029
G0 F12000 X140.49 Y163.48
;TYPE:WALL-OUTER
G1 F1560 X140.49 Y141.00 E693.13034
G1 X162.96 Y141.00 E694.19038
G1 X162.96 Y163.48 E695.25042
G1 X140.49 Y163.48 E696.31046
G0 F12000 X140.69 Y163.18
G0 X141.03 Y161.66
;TYPE:FILL
G1 F1560 X161.14 Y141.54 E697.65220
G0 F12000 X158.17 Y141.54
G1 F1560 X162.42 Y145.79 E697.93560
G0 F12000 X162.42 Y146.91
G1 F1560 X146.40 Y162.94 E699.00438
G0 F12000 X146.31 Y162.94
G1 F1560 X141.02 Y157.66 E699.35690
G0 F12000 X141.03 Y155.01
G1 F1560 X154.49 Y141.54 E700.25502
G0 F12000 X151.52 Y141.54
G1 F1560 X162.42 Y152.44 E700.98210
G0 F12000 X162.42 Y153.57
G1 F1560 X153.05 Y162.94 E701.60719
G0 F12000 X152.96 Y162.94
G1 F1560 X141.02 Y151.00 E702.40334
G0 F12000 X141.03 Y148.36
G1 F1560 X147.84 Y141.54 E702.85776
G0 F12000 X144.87 Y141.54
G1 F1560 X162.42 Y159.10 E704.02848
G0 F12000 X162.42 Y160.22
G1 F1560 X159.70 Y162.94 E704.20994
G0 F12000 X159.62 Y162.94
G1 F1560 X141.02 Y144.35 E705.44977
G0 F12000 X141.03 Y141.70
G1 F1560 X141.19 Y141.54 E705.46058
;LAYER:26
G0 F12000 X140.88 Y141.40 Z8.10
;TYPE:WALL-INNER
G1 F1560 X162.56 Y141.40 E706.48290
G1 X162.56 Y163.08 E707.50521
G1 X140.88 Y163.08 E708.52753
G1 X140.88 Y141.40 E709.54985
G0 F12000 X140.49 Y141.00
;TYPE:WALL-OUTER
G1 F1560 X162.96 Y141.00 E710.60989
G1 X162.96 Y163.48 E711.66993
G1 X140.49 Y163.48 E712.72997
G1 X140.49 Y141.00 E713.79002
G0 F12000 X141.03 Y141.70
;TYPE:FILL
G1 F1560 X141.19 Y141.54 E713.80082
G0 F12000 X141.02 Y144.35
G1 F1560 X159.62 Y162.94 E715.04066
G0 F12000 X159.70 Y162.94
G1 F1560 X162.42 Y160.22 E715.22212
G0 F12000 X162.42 Y159.10
G1 F1560 X144.87 Y141.54 E716.39283
G0 F12000 X147.84 Y141.54
G1 F1560 X141.03 Y148.36 E716.84726
G0 F12000 X141.02 Y151.00
G1 F1560 X152.96 Y162.94 E717.64340
G0 F12000 X153.05 Y162.94
G1 F1560 X162.42 Y153.57 E718.26849
G0 F12000 X162.42 Y152.44
G1 F1560 X151.52 Y141.54 E718.99558
G0 F12000 X154.49 Y141.54
G1 F1560 X141.03 Y155.01 E719.89369
G0 F12000 X141.02 Y157.66
G1 F1560 X146.31 Y162.94 E720.24622
G0 F12000 X146.40 Y162.94
G1 F1560 X162.42 Y146.91 E721.31499
G0 F12000 X162.42 Y145.79
G1 F1560 X158.17 Y141.54 E721.59839
G0 F12000 X161.14 Y141.54
G1 F1560 X141.03 Y161.66 E722.94013
;LAYER:27
G0 F12000 X140.88 Y163.08 Z8.40
;TYPE:WALL-INNER
G1 F1560 X140.88 Y141.40 E723.96245
G1 X162.56 Y141.40 E724.98477
G1 X162.56 Y163.08 E726.00708
G1 X140.88 Y163.08 E727.02940
G0 F12000 X140.49 Y163.48
;TYPE:WALL-OUTER
G1 F1560 X140.49 Y141.00 E728.08944
G1 X162.96 Y141.00 E729.14949
G1 X162.96 Y163.48 E730.20953
G1 X140.49 Y163.48 E731.26957
G0 F12000 X140.69 Y163.18
G0 X141.03 Y161.66
;TYPE:FILL
G1 F1560 X161.14 Y141.54 E732.61131
G0 F12000 X158.17 Y141.54
G1 F1560 X162.42 Y145.79 E732.89471
G0 F12000 X162.42 Y146.91
G1 F1560 X146.40 Y162.94 E733.96348
G0 F12000 X146.31 Y162.94
G1 F1560 X141.02 Y157.66 E734.31601
G0 F12000 X141.03 Y155.01
G1 F1560 X154.49 Y141.54 E735.21412
G0 F12000 X151.52 Y141.54
G1 F1560 X162.42 Y152.44 E735.94121
G0 F12000 X162.42 Y153.57
G1 F1560 X153.05 Y162.94 E736.56630
G0 F12000 X152.96 Y162.94
G1 F1560 X141.02 Y151.00 E737.36244
G0 F12000 X141.03 Y148.36
G1 F1560 X147.84 Y141.54 E737.81687
G0 F12000 X144.87 Y141.54
G1 F1560 X162.42 Y159.10 E738.98758
G0 F12000 X162.42 Y160.22
G1 F1560 X159.70 Y162.94 E739.16905
G0 F12000 X159.62 Y162.94
G1 F1560 X141.02 Y144.35 E740.40888
G0 F12000 X141.03 Y141.70
G1 F1560 X141.19 Y141.54 E740.41969
;LAYER:28
G0 F12000 X140.88 Y141.40 Z8.70
;TYPE:WALL-INNER
G1 F1560 X162.56 Y141.40 E741.44200
G1 X162.56 Y163.08 E742.46432
G1 X140.88 Y163.08 E743.48664
G1 X140.88 Y141.40 E744.50895
G0 F12000 X140.49 Y141.00
;TYPE:WALL-OUTER
G1 F1560 X162.96 Y141.00 E745.56900
G1 X162.96 Y163.48 E746.62904
G1 X140.49 Y163.48 E747.68908
G1 X140.49 Y141.00 E748.74912
G0 F12000 X141.03 Y141.70
;TYPE:FILL
G1 F1560 X141.19 Y141.54 E748.75993
G0 F12000 X141.02 Y144.35
G1 F1560 X159.62 Y162.94 E749.99976
G0 F12000 X159.70 Y162.94
G1 F1560 X162.42 Y160.22 E750.18123
G0 F12000 X162.42 Y159.10
G1 F1560 X144.87 Y141.54 E751.35194
G0 F12000 X147.84 Y141.54
G1 F1560 X141.03 Y148.36 E751.80636
G0 F12000 X141.02 Y151.00
G1 F1560 X152.96 Y162.94 E752.60251
G0 F12000 X153.05 Y162.94
G1 F1560 X162.42 Y153.57 E753.22760
G0 F12000 X162.42 Y152.44
G1 F1560 X151.52 Y141.54 E753.95469
G0 F12000 X154.49 Y141.54
G1 F1560 X141.03 Y155.01 E754.85280
G0 F12000 X141.02 Y157.66
G1 F1560 X146.31 Y162.94 E755.20533
G0 F12000 X146.40 Y162.94
G1 F1560 X162.42 Y146.91 E756.27410
G0 F12000 X162.42 Y145.79
G1 F1560 X158.17 Y141.54 E756.55750
G0 F12000 X161.14 Y141.54
G1 F1560 X141.03 Y161.66 E757.89924
;LAYER:29
G0 F12000 X140.88 Y163.08 Z9.00
;TYPE:WALL-INNER
G1 F1560 X140.88 Y141.40 E758.92156
G1 X162.56 Y141.40 E759.94387
G1 X162.56 Y163.08 E760.96619
G1 X140.88 Y163.08 E761.98851
G0 F12000 X140.49 Y163.48
;TYPE:WALL-OUTER
G1 F1560 X140.49 Y141.00 E763.04855
G1 X162.96 Y141.00 E764.10859
G1 X162.96 Y163.48 E765.16864
G1 X140.49 Y163.48 E766.22868
G0 F12000 X140.69 Y163.18
G0 X141.03 Y161.66
;TYPE:FILL
G1 F1560 X161.14 Y141.54 E767.57042
G0 F12000 X158.17 Y141.54
G1 F1560 X162.42 Y145.79 E767.85382
G0 F12000 X162.42 Y146.91
G1 F1560 X146.40 Y162.94 E768.92259
G0 F12000 X146.31 Y162.94
G1 F1560 X141.02 Y157.66 E769.27511
G0 F12000 X141.03 Y155.01
G1 F1560 X154.49 Y141.54 E770.17323
G0 F12000 X151.52 Y141.54
G1 F1560 X162.42 Y152.44 E770.90032
G0 F12000 X162.42 Y153.57
G1 F1560 X153.05 Y162.94 E771.52541
G0 F12000 X152.96 Y162.94
G1 F1560 X141.02 Y151.00 E772.32155
G0 F12000 X141.03 Y148.36
G1 F1560 X147.84 Y141.54 E772.77598
G0 F12000 X144.87 Y141.54
G1 F1560 X162.42 Y159.10 E773.94669
G0 F12000 X162.42 Y160.22
G1 F1560 X159.70 Y162.94 E774.12815
G0 F12000 X159.62 Y162.94
G1 F1560 X141.02 Y144.35 E775.36799
G0 F12000 X141.03 Y141.70
G1 F1560 X141.19 Y141.54 E775.37879
;LAYER:30
G0 F12000 X140.88 Y141.40 Z9.30
;TYPE:WALL-INNER
G1 F1560 X162.56 Y141.40 E776.40111
G1 X162.56 Y163.08 E777.42343
G1 X140.88 Y163.08 E778.44574
G1 X140.88 Y141.40 E779.46806
G0 F12000 X140.49 Y141.00
;TYPE:WALL-OUTER
G1 F1560 X162.96 Y141.00 E780.52810
G1 X162.96 Y163.48 E781.58815
G1 X140.49 Y163.48 E782.64819
G1 X140.49 Y141.00 E783.70823
G0 F12000 X141.03 Y141.70
;TYPE:FILL
G1 F1560 X141.19 Y141.54 E783.71904
G0 F12000 X141.02 Y144.35
G1 F1560 X159.62 Y162.94 E784.95887
G0 F12000 X159.70 Y162.94
G1 F1560 X162.42 Y160.22 E785.14033
G0 F12000 X162.42 Y159.10
G1 F1560 X144.87 Y141.54 E786.31105
G0 F12000 X147.84 Y141.54
G1 F1560 X141.03 Y148.36 E786.76547
G0 F12000 X141.02 Y151.00
G1 F1560 X152.96 Y162.94 E787.56162
G0 F12000 X153.05 Y162.94
G1 F1560 X162.42 Y153.57 E788.18670
G0 F12000 X162.42 Y152.44
G1 F1560 X151.52 Y141.54 E788.91379
G0 F12000 X154.49 Y141.54
G1 F1560 X141.03 Y155.01 E789.81191
G0 F12000 X141.02 Y157.66
G1 F1560 X146.31 Y162.94 E790.16443
G0 F12000 X146.40 Y162.94
G1 F1560 X162.42 Y146.91 E791.23321
G0 F12000 X162.42 Y145.79
G1 F1560 X158.17 Y141.54 E791.51661
G0 F12000 X161.14 Y141.54
G1 F1560 X141.03 Y161.66 E792.85835
;LAYER:31
G0 F12000 X140.88 Y163.08 Z9.60
;TYPE:WALL-INNER
G1 F1560 X140.88 Y141.40 E793.88066
G1 X162.56 Y141.40 E794.90298
G1 X162.56 Y163.08 E795.92530
G1 X140.88 Y163.08 E796.94761
G0 F12000 X140.49 Y163.48
;TYPE:WALL-OUTER
G1 F1560 X140.49 Y141.00 E798.00766
G1 X162.96 Y141.00 E799.06770
G1 X162.96 Y163.48 E800.12774
G1 X140.49 Y163.48 E801.18778
G0 F12000 X140.69 Y163.18
G0 X141.03 Y161.66
;TYPE:FILL
G1 F1560 X161.14 Y141.54 E802.52952
G0 F12000 X158.17 Y141.54
G1 F1560 X162.42 Y145.79 E802.81292
G0 F12000 X162.42 Y146.91
G1 F1560 X146.40 Y162.94 E803.88170
G0 F12000 X146.31 Y162.94
G1 F1560 X141.02 Y157.66 E804.23422
G0 F12000 X141.03 Y155.01
G1 F1560 X154.49 Y141.54 E805.13234
G0 F12000 X151.52 Y141.54
G1 F1560 X162.42 Y152.44 E805.85943
G0 F12000 X162.42 Y153.57
G1 F1560 X153.05 Y162.94 E806.48451
G0 F12000 X152.96 Y162.94
G1 F1560 X141.02 Y151.00 E807.28066
G0 F12000 X141.03 Y148.36
G1 F1560 X147.84 Y141.54 E807.73509
G0 F12000 X144.87 Y141.54
G1 F1560 X162.42 Y159.10 E808.90580
G0 F12000 X162.42 Y160.22
G1 F1560 X159.70 Y162.94 E809.08726
G0 F12000 X159.62 Y162.94
G1 F1560 X141.02 Y144.35 E810.32710
G0 F12000 X141.03 Y141.70
G1 F1560 X141.19 Y141.54 E810.33790
;LAYER:32
G0 F12000 X140.88 Y141.40 Z9.90
;TYPE:WALL-INNER
G1 F1560 X162.56 Y141.40 E811.36022
G1 X162.56 Y163.08 E812.38253
G1 X140.88 Y163.08 E813.40485
G1 X140.88 Y141.40 E814.42717
G0 F12000 X140.49 Y141.00
;TYPE:WALL-OUTER
G1 F1560 X162.96 Y141.00 E815.48721
G1 X162.96 Y163.48 E816.54725
G1 X140.49 Y163.48 E817.60730
G1 X140.49 Y141.00 E818.66734
G0 F12000 X141.03 Y141.70
;TYPE:FILL
G1 F1560 X141.19 Y141.54 E818.67814
G0 F12000 X141.02 Y144.35
G1 F1560 X159.62 Y162.94 E819.91798
G0 F12000 X159.70 Y162.94
G1 F1560 X162.42 Y160.22 E820.09944
G0 F12000 X162.42 Y159.10
G1 F1560 X144.87 Y141.54 E821.27015
G0 F12000 X147.84 Y141.54
G1 F1560 X141.03 Y148.36 E821.72458
G0 F12000 X141.02 Y151.00
G1 F1560 X152.96 Y162.94 E822.52073
G0 F12000 X153.05 Y162.94
G1 F1560 X162.42 Y153.57 E823.14581
G0 F12000 X162.42 Y152.44
G1 F1560 X151.52 Y141.54 E823.87290
G0 F12000 X154.49 Y141.54
G1 F1560 X141.03 Y155.01 E824.77102
G0 F12000 X141.02 Y157.66
G1 F1560 X146.31 Y162.94 E825.12354
G0 F12000 X146.40 Y162.94
G1 F1560 X162.42 Y146.91 E826.19232
G0 F12000 X162.42 Y145.79
G1 F1560 X158.17 Y141.54 E826.47572
G0 F12000 X161.14 Y141.54
G1 F1560 X141.03 Y161.66 E827.81745
;LAYER:33
G0 F12000 X140.88 Y163.08 Z10.20
;TYPE:WALL-INNER
G1 F1560 X140.88 Y141.40 E828.83977
G1 X162.56 Y141.40 E829.86209
G1 X162.56 Y163.08 E830.88440
G1 X140.88 Y163.08 E831.90672
G0 F12000 X140.49 Y163.48
;TYPE:WALL-OUTER
G1 F1560 X140.49 Y141.00 E832.96676
G1 X162.96 Y141.00 E834.02681
G1 X162.96 Y163.48 E835.08685
G1 X140.49 Y163.48 E836.14689
G0 F12000 X140.69 Y163.18
G0 X141.03 Y161.66
;TYPE:FILL
G1 F1560 X161.14 Y141.54 E837.48863
G0 F12000 X158.17 Y141.54
G1 F1560 X162.42 Y145.79 E837.77203
G0 F12000 X162.42 Y146.91
G1 F1560 X146.40 Y162.94 E838.84081
G0 F12000 X146.31 Y162.94
G1 F1560 X141.02 Y157.66 E839.19333
G0 F12000 X141.03 Y155.01
G1 F1560 X154.49 Y141.54 E840.09144
G0 F12000 X151.52 Y141.54
G1 F1560 X162.42 Y152.44 E840.81853
G0 F12000 X162.42 Y153.57
G1 F1560 X153.05 Y162.94 E841.44362
G0 F12000 X152.96 Y162.94
G1 F1560 X141.02 Y151.00 E842.23977
G0 F12000 X141.03 Y148.36
G1 F1560 X147.84 Y141.54 E842.69419
G0 F12000 X144.87 Y141.54
G1 F1560 X162.42 Y159.10 E843.86490
G0 F12000 X162.42 Y160.22
G1 F1560 X159.70 Y162.94 E844.04637
G0 F12000 X159.62 Y162.94
G1 F1560 X141.02 Y144.35 E845.28620
G0 F12000 X141.03 Y141.70
G1 F1560 X141.19 Y141.54 E845.29701
;LAYER:34
G0 F12000 X140.88 Y141.40 Z10.50
;TYPE:WALL-INNER
G1 F1560 X162.56 Y141.40 E846.31932
G1 X162.56 Y163.08 E847.34164
G1 X140.88 Y163.08 E848.36396
G1 X140.88 Y141.40 E849.38628
G0 F12000 X140.49 Y141.00
;TYPE:WALL-OUTER
G1 F1560 X162.96 Y141.00 E850.44632
G1 X162.96 Y163.48 E851.50636
G1 X140.49 Y163.48 E852.56640
G1 X140.49 Y141.00 E853.62645
G0 F12000 X141.03 Y141.70
;TYPE:FILL
G1 F1560 X141.19 Y141.54 E853.63725
G0 F12000 X141.02 Y144.35
G1 F1560 X159.62 Y162.94 E854.87709
G0 F12000 X159.70 Y162.94
G1 F1560 X162.42 Y160.22 E855.05855
G0 F12000 X162.42 Y159.10
G1 F1560 X144.87 Y141.54 E856.22926
G0 F12000 X147.84 Y141.54
G1 F1560 X141.03 Y148.36 E856.68369
G0 F12000 X141.02 Y151.00
G1 F1560 X152.96 Y162.94 E857.47983
G0 F12000 X153.05 Y162.94
G1 F1560 X162.42 Y153.57 E858.10492
G0 F12000 X162.42 Y152.44
G1 F1560 X151.52 Y141.54 E858.83201
G0 F12000 X154.49 Y141.54
G1 F1560 X141.03 Y155.01 E859.73012
G0 F12000 X141.02 Y157.66
G1 F1560 X146.31 Y162.94 E860.08265
G0 F12000 X146.40 Y162.94
G1 F1560 X162.42 Y146.91 E861.15142
G0 F12000 X162.42 Y145.79
G1 F1560 X158.17 Y141.54 E861.43482
G0 F12000 X161.14 Y141.54
G1 F1560 X141.03 Y161.66 E862.77656
;LAYER:35
G0 F12000 X140.88 Y163.08 Z10.80
;TYPE:WALL-INNER
G1 F1560 X140.88 Y141.40 E863.79888
G1 X162.56 Y141.40 E864.82119
G1 X162.56 Y163.08 E865.84351
G1 X140.88 Y163.08 E866.86583
G0 F12000 X140.49 Y163.48
;TYPE:WALL-OUTER
G1 F1560 X140.49 Y141.00 E867.92587
G1 X162.96 Y141.00 E868.98591
G1 X162.96 Y163.48 E870.04596
G1 X140.49 Y163.48 E871.10600
G0 F12000 X140.69 Y163.18
G0 X141.03 Y161.66
;TYPE:FILL
G1 F1560 X161.14 Y141.54 E872.44774
G0 F12000 X158.17 Y141.54
G1 F1560 X162.42 Y145.79 E872.73114
G0 F12000 X162.42 Y146.91
G1 F1560 X146.40 Y162.94 E873.79991
G0 F12000 X146.31 Y162.94
G1 F1560 X141.02 Y157.66 E874.15244
G0 F12000 X141.03 Y155.01
G1 F1560 X154.49 Y141.54 E875.05055
G0 F12000 X151.52 Y141.54
G1 F1560 X162.42 Y152.44 E875.77764
G0 F12000 X162.42 Y153.57
G1 F1560 X153.05 Y162.94 E876.40273
G0 F12000 X152.96 Y162.94
G1 F1560 X141.02 Y151.00 E877.19887
G0 F12000 X141.03 Y148.36
G1 F1560 X147.84 Y141.54 E877.65330
G0 F12000 X144.87 Y141.54
G1 F1560 X162.42 Y159.10 E878.82401
G0 F12000 X162.42 Y160.22
G1 F1560 X159.70 Y162.94 E879.00547
G0 F12000 X159.62 Y162.94
G1 F1560 X141.02 Y144.35 E880.24531
G0 F12000 X141.03 Y141.70
G1 F1560 X141.19 Y141.54 E880.25611
;LAYER:36
G0 F12000 X140.88 Y141.40 Z11.10
;TYPE:WALL-INNER
G1 F1560 X162.56 Y141.40 E881.27843
G1 X162.56 Y163.08 E882.30075
G1 X140.88 Y163.08 E883.32307
G1 X140.88 Y141.40 E884.34538
G0 F12000 X140.49 Y141.00
;TYPE:WALL-OUTER
G1 F1560 X162.96 Y141.00 E885.40542
G1 X162.96 Y163.48 E886.46547
G1 X140.49 Y163.48 E887.52551
G1 X140.49 Y141.00 E888.58555
G0 F12000 X141.03 Y141.70
;TYPE:FILL
G1 F1560 X141.19 Y141.54 E888.59636
G0 F12000 X141.02 Y144.35
G1 F1560 X159.62 Y162.94 E889.83619
G0 F12000 X159.70 Y162.94
G1 F1560 X162.42 Y160.22 E890.01766
G0 F12000 X162.42 Y159.10
G1 F1560 X144.87 Y141.54 E891.18837
G0 F12000 X147.84 Y141.54
G1 F1560 X141.03 Y148.36 E891.64279
G0 F12000 X141.02 Y151.00
G1 F1560 X152.96 Y162.94 E892.43894
G0 F12000 X153.05 Y162.94
G1 F1560 X162.42 Y153.57 E893.06403
G0 F12000 X162.42 Y152.44
G1 F1560 X151.52 Y141.54 E893.79112
G0 F12000 X154.49 Y141.54
G1 F1560 X141.03 Y155.01 E894.68923
G0 F12000 X141.02 Y157.66
G1 F1560 X146.31 Y162.94 E895.04175
G0 F12000 X146.40 Y162.94
G1 F1560 X162.42 Y146.91 E896.11053
G0 F12000 X162.42 Y145.79
G1 F1560 X158.17 Y141.54 E896.39393
G0 F12000 X161.14 Y141.54
G1 F1560 X141.03 Y161.66 E897.73567
;LAYER:37
G0 F12000 X140.88 Y163.08 Z11.40
;TYPE:WALL-INNER
G1 F1560 X140.88 Y141.40 E898.75798
G1 X162.56 Y141.40 E899.78030
G1 X162.56 Y163.08 E900.80262
G1 X140.88 Y163.08 E901.82494
G0 F12000 X140.49 Y163.48
;TYPE:WALL-OUTER
G1 F1560 X140.49 Y141.00 E902.88498
G1 X162.96 Y141.00 E903.94502
G1 X162.96 Y163.48 E905.00506
G1 X140.49 Y163.48 E906.06511
G0 F12000 X140.69 Y163.18
G0 X141.03 Y161.66
;TYPE:FILL
G1 F1560 X161.14 Y141.54 E907.40684
G0 F12000 X158.17 Y141.54
G1 F1560 X162.42 Y145.79 E907.69024
G0 F12000 X162.42 Y146.91
G1 F1560 X146.40 Y162.94 E908.75902
G0 F12000 X146.31 Y162.94
G1 F1560 X141.02 Y157.66 E909.11154
G0 F12000 X141.03 Y155.01
G1 F1560 X154.49 Y141.54 E910.00966
G0 F12000 X151.52 Y141.54
G1 F1560 X162.42 Y152.44 E910.73675
G0 F12000 X162.42 Y153.57
G1 F1560 X153.05 Y162.94 E911.36183
G0 F12000 X152.96 Y162.94
G1 F1560 X141.02 Y151.00 E912.15798
G0 F12000 X141.03 Y148.36
G1 F1560 X147.84 Y141.54 E912.61241
G0 F12000 X144.87 Y141.54
G1 F1560 X162.42 Y159.10 E913.78312
G0 F12000 X162.42 Y160.22
G1 F1560 X159.70 Y162.94 E913.96458
G0 F12000 X159.62 Y162.94
G1 F1560 X141.02 Y144.35 E915.20442
G0 F12000 X141.03 Y141.70
G1 F1560 X141.19 Y141.54 E915.21522
;LAYER:38
G0 F12000 X140.88 Y141.40 Z11.70
;TYPE:WALL-INNER
G1 F1560 X162.56 Y141.40 E916.23754
G1 X162.56 Y163.08 E917.25986
G1 X140.88 Y163.08 E918.28217
G1 X140.88 Y141.40 E919.30449
G0 F12000 X140.49 Y141.00
;TYPE:WALL-OUTER
G1 F1560 X162.96 Y141.00 E920.36453
G1 X162.96 Y163.48 E921.42457
G1 X140.49 Y163.48 E922.48462
G1 X140.49 Y141.00 E923.54466
G0 F12000 X141.03 Y141.70
;TYPE:FILL
G1 F1560 X141.19 Y141.54 E923.55546
G0 F12000 X141.02 Y144.35
G1 F1560 X159.62 Y162.94 E924.79530
G0 F12000 X159.70 Y162.94
G1 F1560 X162.42 Y160.22 E924.97676
G0 F12000 X162.42 Y159.10
G1 F1560 X144.87 Y141.54 E926.14747
G0 F12000 X147.84 Y141.54
G1 F1560 X141.03 Y148.36 E926.60190
G0 F12000 X141.02 Y151.00
G1 F1560 X152.96 Y162.94 E927.39805
G0 F12000 X153.05 Y162.94
G1 F1560 X162.42 Y153.57 E928.02313
G0 F12000 X162.42 Y152.44
G1 F1560 X151.52 Y141.54 E928.75022
G0 F12000 X154.49 Y141.54
G1 F1560 X141.03 Y155.01 E929.64834
G0 F12000 X141.02 Y157.66
G1 F1560 X146.31 Y162.94 E930.00086
G0 F12000 X146.40 Y162.94
G1 F1560 X162.42 Y146.91 E931.06964
G0 F12000 X162.42 Y145.79
G1 F1560 X158.17 Y141.54 E931.35304
G0 F12000 X161.14 Y141.54
G1 F1560 X141.03 Y161.66 E932.69477
;LAYER:39
G0 F12000 X140.88 Y163.08 Z12.00
;TYPE:WALL-INNER
G1 F1560 X140.88 Y141.40 E933.71709
G1 X162.56 Y141.40 E934.73941
G1 X162.56 Y163.08 E935.76173
G1 X140.88 Y163.08 E936.78404
G0 F12000 X140.49 Y163.48
;TYPE:WALL-OUTER
G1 F1560 X140.49 Y141.00 E937.84409
G1 X162.96 Y141.00 E938.90413
G1 X162.96 Y163.48 E939.96417
G1 X140.49 Y163.48 E941.02421
G0 F12000 X140.69 Y163.18
G0 X141.03 Y161.66
;TYPE:FILL
G1 F1560 X161.14 Y141.54 E942.36595
G0 F12000 X158.17 Y141.54
G1 F1560 X162.42 Y145.79 E942.64935
G0 F12000 X162.42 Y146.91
G1 F1560 X146.40 Y162.94 E943.71813
G0 F12000 X146.31 Y162.94
G1 F1560 X141.02 Y157.66 E944.07065
G0 F12000 X141.03 Y155.01
G1 F1560 X154.49 Y141.54 E944.96877
G0 F12000 X151.52 Y141.54
G1 F1560 X162.42 Y152.44 E945.69585
G0 F12000 X162.42 Y153.57
G1 F1560 X153.05 Y162.94 E946.32094
G0 F12000 X152.96 Y162.94
G1 F1560 X141.02 Y151.00 E947.11709
G0 F12000 X141.03 Y148.36
G1 F1560 X147.84 Y141.54 E947.57151
G0 F12000 X144.87 Y141.54
G1 F1560 X162.42 Y159.10 E948.74223
G0 F12000 X162.42 Y160.22
G1 F1560 X159.70 Y162.94 E948.92369
G0 F12000 X159.62 Y162.94
G1 F1560 X141.02 Y144.35 E950.16352
G0 F12000 X141.03 Y141.70
G1 F1560 X141.19 Y141.54 E950.17433
;LAYER:40
G0 F12000 X140.88 Y141.40 Z12.30
;TYPE:WALL-INNER
G1 F1560 X162.56 Y141.40 E951.19665
G1 X162.56 Y163.08 E952.21896
G1 X140.88 Y163.08 E953.24128
G1 X140.88 Y141.40 E954.26360
G0 F12000 X140.49 Y141.00
;TYPE:WALL-OUTER
G1 F1560 X162.96 Y141.00 E955.32364
G1 X162.96 Y163.48 E956.38368
G1 X140.49 Y163.48 E957.44372
G1 X140.49 Y141.00 E958.50377
G0 F12000 X141.03 Y141.70
;TYPE:FILL
G1 F1560 X141.19 Y141.54 E958.51457
G0 F12000 X141.02 Y144.35
G1 F1560 X159.62 Y162.94 E959.75441
G0 F12000 X159.70 Y162.94
G1 F1560 X162.42 Y160.22 E959.93587
G0 F12000 X162.42 Y159.10
G1 F1560 X144.87 Y141.54 E961.10658
G0 F12000 X147.84 Y141.54
G1 F1560 X141.03 Y148.36 E961.56101
G0 F12000 X141.02 Y151.00
G1 F1560 X152.96 Y162.94 E962.35715
G0 F12000 X153.05 Y162.94
G1 F1560 X162.42 Y153.57 E962.98224
G0 F12000 X162.42 Y152.44
G1 F1560 X151.52 Y141.54 E963.70933
G0 F12000 X154.49 Y141.54
G1 F1560 X141.03 Y155.01 E964.60744
G0 F12000 X141.02 Y157.66
G1 F1560 X146.31 Y162.94 E964.95997
G0 F12000 X146.40 Y162.94
G1 F1560 X162.42 Y146.91 E966.02874
G0 F12000 X162.42 Y145.79
G1 F1560 X158.17 Y141.54 E966.31214
G0 F12000 X161.14 Y141.54
G1 F1560 X141.03 Y161.66 E967.65388
;LAYER:41
G0 F12000 X140.88 Y163.08 Z12.60
;TYPE:WALL-INNER
G1 F1560 X140.88 Y141.40 E968.67620
G1 X162.56 Y141.40 E969.69852
G1 X162.56 Y163.08 E970.72083
G1 X140.88 Y163.08 E971.74315
G0 F12000 X140.49 Y163.48
;TYPE:WALL-OUTER
G1 F1560 X140.49 Y141.00 E972.80319
G1 X162.96 Y141.00 E973.86324
G1 X162.96 Y163.48 E974.92328
G1 X140.49 Y163.48 E975.98332
G0 F12000 X140.69 Y163.18
G0 X141.03 Y161.66
;TYPE:FILL
G1 F1560 X161.14 Y141.54 E977.32506
G0 F12000 X158.17 Y141.54
G1 F1560 X162.42 Y145.79 E977.60846
G0 F12000 X162.42 Y146.91
G1 F1560 X146.40 Y162.94 E978.67723
G0 F12000 X146.31 Y162.94
G1 F1560 X141.02 Y157.66 E979.02976
G0 F12000 X141.03 Y155.01
G1 F1560 X154.49 Y141.54 E979.92787
G0 F12000 X151.52 Y141.54
G1 F1560 X162.42 Y152.44 E980.65496
G0 F12000 X162.42 Y153.57
G1 F1560 X153.05 Y162.94 E981.28005
G0 F12000 X152.96 Y162.94
G1 F1560 X141.02 Y151.00 E982.07619
G0 F12000 X141.03 Y148.36
G1 F1560 X147.84 Y141.54 E982.53062
G0 F12000 X144.87 Y141.54
G1 F1560 X162.42 Y159.10 E983.70133
G0 F12000 X162.42 Y160.22
G1 F1560 X159.70 Y162.94 E983.88280
G0 F12000 X159.62 Y162.94
G1 F1560 X141.02 Y144.35 E985.12263
G0 F12000 X141.03 Y141.70
G1 F1560 X141.19 Y141.54 E985.13344
;LAYER:42
G0 F12000 X140.88 Y141.40 Z12.90
;TYPE:WALL-INNER
G1 F1560 X162.56 Y141.40 E986.15575
G1 X162.56 Y163.08 E987.17807
G1 X140.88 Y163.08 E988.20039
G1 X140.88 Y141.40 E989.22270
G0 F12000 X140.49 Y141.00
;TYPE:WALL-OUTER
G1 F1560 X162.96 Y141.00 E990.28275
G1 X162.96 Y163.48 E991.34279
G1 X140.49 Y163.48 E992.40283
G1 X140.49 Y141.00 E993.46287
G0 F12000 X141.03 Y141.70
;TYPE:FILL
G1 F1560 X141.19 Y141.54 E993.47368
G0 F12000 X141.02 Y144.35
G1 F1560 X159.62 Y162.94 E994.71351
G0 F12000 X159.70 Y162.94
G1 F1560 X162.42 Y160.22 E994.89498
G0 F12000 X162.42 Y159.10
G1 F1560 X144.87 Y141.54 E996.06569
G0 F12000 X147.84 Y141.54
G1 F1560 X141.03 Y148.36 E996.52012
G0 F12000 X141.02 Y151.00
G1 F1560 X152.96 Y162.94 E997.31626
G0 F12000 X153.05 Y162.94
G1 F1560 X162.42 Y153.57 E997.94135
G0 F12000 X162.42 Y152.44
G1 F1560 X151.52 Y141.54 E998.66844
G0 F12000 X154.49 Y141.54
G1 F1560 X141.03 Y155.01 E999.56655
G0 F12000 X141.02 Y157.66
G1 F1560 X146.31 Y162.94 E999.91908
G0 F12000 X146.40 Y162.94
G1 F1560 X162.42 Y146.91 E1000.98785
G0 F12000 X162.42 Y145.79
G1 F1560 X158.17 Y141.54 E1001.27125
G0 F12000 X161.14 Y141.54
G1 F1560 X141.03 Y161.66 E1002.61299
;LAYER:43
G0 F12000 X140.88 Y163.08 Z13.20
;TYPE:WALL-INNER
G1 F1560 X140.88 Y141.40 E1003.63531
G1 X162.56 Y141.40 E1004.65762
G1 X162.56 Y163.08 E1005.67994
G1 X140.88 Y163.08 E1006.70226
G0 F12000 X140.49 Y163.48
;TYPE:WALL-OUTER
G1 F1560 X140.49 Y141.00 E1007.76230
G1 X162.96 Y141.00 E1008.82234
G1 X162.96 Y163.48 E1009.88239
G1 X140.49 Y163.48 E1010.94243
G0 F12000 X140.69 Y163.18
G0 X141.03 Y161.66
;TYPE:FILL
G1 F1560 X161.14 Y141.54 E1012.28417
G0 F12000 X158.17 Y141.54
G1 F1560 X162.42 Y145.79 E1012.56757
G0 F12000 X162.42 Y146.91
G1 F1560 X146.40 Y162.94 E1013.63634
G0 F12000 X146.31 Y162.94
G1 F1560 X141.02 Y157.66 E1013.98886
G0 F12000 X141.03 Y155.01
G1 F1560 X154.49 Y141.54 E1014.88698
G0 F12000 X151.52 Y141.54
G1 F1560 X162.42 Y152.44 E1015.61407
G0 F12000 X162.42 Y153.57
G1 F1560 X153.05 Y162.94 E1016.23916
G0 F12000 X152.96 Y162.94
G1 F1560 X141.02 Y151.00 E1017.03530
G0 F12000 X141.03 Y148.36
G1 F1560 X147.84 Y141.54 E1017.48973
G0 F12000 X144.87 Y141.54
G1 F1560 X162.42 Y159.10 E1018.66044
G0 F12000 X162.42 Y160.22
G1 F1560 X159.70 Y162.94 E1018.84190
G0 F12000 X159.62 Y162.94
G1 F1560 X141.02 Y144.35 E1020.08174
G0 F12000 X141.03 Y141.70
G1 F1560 X141.19 Y141.54 E1020.09254
;LAYER:44
G0 F12000 X140.88 Y141.40 Z13.50
;TYPE:WALL-INNER
G1 F1560 X162.56 Y141.40 E1021.11486
G1 X162.56 Y163.08 E1022.13718
G1 X140.88 Y163.08 E1023.15949
G1 X140.88 Y141.40 E1024.18181
G0 F12000 X140.49 Y141.00
;TYPE:WALL-OUTER
G1 F1560 X162.96 Y141.00 E1025.24185
G1 X162.96 Y163.48 E1026.30190
G1 X140.49 Y163.48 E1027.36194
G1 X140.49 Y141.00 E1028.42198
G0 F12000 X141.03 Y141.70
;TYPE:FILL
G1 F1560 X141.19 Y141.54 E1028.43279
G0 F12000 X141.02 Y144.35
G1 F1560 X159.62 Y162.94 E1029.67262
G0 F12000 X159.70 Y162.94
G1 F1560 X162.42 Y160.22 E1029.85408
G0 F12000 X162.42 Y159.10
G1 F1560 X144.87 Y141.54 E1031.02480
G0 F12000 X147.84 Y141.54
G1 F1560 X141.03 Y148.36 E1031.47922
G0 F12000 X141.02 Y151.00
G1 F1560 X152.96 Y162.94 E1032.27537
G0 F12000 X153.05 Y162.94
G1 F1560 X162.42 Y153.57 E1032.90045
G0 F12000 X162.42 Y152.44
G1 F1560 X151.52 Y141.54 E1033.62754
G0 F12000 X154.49 Y141.54
G1 F1560 X141.03 Y155.01 E1034.52566
G0 F12000 X141.02 Y157.66
G1 F1560 X146.31 Y162.94 E1034.87818
G0 F12000 X146.40 Y162.94
G1 F1560 X162.42 Y146.91 E1035.94696
G0 F12000 X162.42 Y145.79
G1 F1560 X158.17 Y141.54 E1036.23036
G0 F12000 X161.14 Y141.54
G1 F1560 X141.03 Y161.66 E1037.57210
;LAYER:45
G0 F12000 X140.88 Y163.08 Z13.80
;TYPE:WALL-INNER
G1 F1560 X140.88 Y141.40 E1038.59441
G1 X162.56 Y141.40 E1039.61673
G1 X162.56 Y163.08 E1040.63905
G1 X140.88 Y163.08 E1041.66136
G0 F12000 X140.49 Y163.48
;TYPE:WALL-OUTER
G1 F1560 X140.49 Y141.00 E1042.72141
G1 X162.96 Y141.00 E1043.78145
G1 X162.96 Y163.48 E1044.84149
G1 X140.49 Y163.48 E1045.90154
G0 F12000 X140.69 Y163.18
G0 X141.03 Y161.66
;TYPE:FILL
G1 F1560 X161.14 Y141.54 E1047.24327
G0 F12000 X158.17 Y141.54
G1 F1560 X162.42 Y145.79 E1047.52667
G0 F12000 X162.42 Y146.91
G1 F1560 X146.40 Y162.94 E1048.59545
G0 F12000 X146.31 Y162.94
G1 F1560 X141.02 Y157.66 E1048.94797
G0 F12000 X141.03 Y155.01
G1 F1560 X154.49 Y141.54 E1049.84609
G0 F12000 X151.52 Y141.54
G1 F1560 X162.42 Y152.44 E1050.57318
G0 F12000 X162.42 Y153.57
G1 F1560 X153.05 Y162.94 E1051.19826
G0 F12000 X152.96 Y162.94
G1 F1560 X141.02 Y151.00 E1051.99441
G0 F12000 X141.03 Y148.36
G1 F1560 X147.84 Y141.54 E1052.44884
G0 F12000 X144.87 Y141.54
G1 F1560 X162.42 Y159.10 E1053.61955
G0 F12000 X162.42 Y160.22
G1 F1560 X159.70 Y162.94 E1053.80101
G0 F12000 X159.62 Y162.94
G1 F1560 X141.02 Y144.35 E1055.04085
G0 F12000 X141.03 Y141.70
G1 F1560 X141.19 Y141.54 E1055.05165
;LAYER:46
G0 F12000 X140.88 Y141.40 Z14.10
;TYPE:WALL-INNER
G1 F1560 X162.56 Y141.40 E1056.07397
G1 X162.56 Y163.08 E1057.09628
G1 X140.88 Y163.08 E1058.11860
G1 X140.88 Y141.40 E1059.14092
G0 F12000 X140.49 Y141.00
;TYPE:WALL-OUTER
G1 F1560 X162.96 Y141.00 E1060.20096
G1 X162.96 Y163.48 E1061.26100
G1 X140.49 Y163.48 E1062.32105
G1 X140.49 Y141.00 E1063.38109
G0 F12000 X141.03 Y141.70
;TYPE:FILL
G1 F1560 X141.19 Y141.54 E1063.39189
G0 F12000 X141.02 Y144.35
G1 F1560 X159.62 Y162.94 E1064.63173
G0 F12000 X159.70 Y162.94
G1 F1560 X162.42 Y160.22 E1064.81319
G0 F12000 X162.42 Y159.10
G1 F1560 X144.87 Y141.54 E1065.98390
G0 F12000 X147.84 Y141.54
G1 F1560 X141.03 Y148.36 E1066.43833
G0 F12000 X141.02 Y151.00
G1 F1560 X152.96 Y162.94 E1067.23448
G0 F12000 X153.05 Y162.94
G1 F1560 X162.42 Y153.57 E1067.85956
G0 F12000 X162.42 Y152.44
G1 F1560 X151.52 Y141.54 E1068.58665
G0 F12000 X154.49 Y141.54
G1 F1560 X141.03 Y155.01 E1069.48477
G0 F12000 X141.02 Y157.66
G1 F1560 X146.31 Y162.94 E1069.83729
G0 F12000 X146.40 Y162.94
G1 F1560 X162.42 Y146.91 E1070.90607
G0 F12000 X162.42 Y145.79
G1 F1560 X158.17 Y141.54 E1071.18947
G0 F12000 X161.14 Y141.54
G1 F1560 X141.03 Y161.66 E1072.53120
;LAYER:47
G0 F12000 X140.88 Y163.08 Z14.40
;TYPE:WALL-INNER
G1 F1560 X140.88 Y141.40 E1073.55352
G1 X162.56 Y141.40 E1074.57584
G1 X162.56 Y163.08 E1075.59815
G1 X140.88 Y163.08 E1076.62047
G0 F12000 X140.49 Y163.48
;TYPE:WALL-OUTER
G1 F1560 X140.49 Y141.00 E1077.68051
G1 X162.96 Y141.00 E1078.74056
G1 X162.96 Y163.48 E1079.80060
G1 X140.49 Y163.48 E1080.86064
G0 F12000 X140.69 Y163.18
G0 X141.03 Y161.66
;TYPE:FILL
G1 F1560 X161.14 Y141.54 E1082.20238
G0 F12000 X158.17 Y141.54
G1 F1560 X162.42 Y145.79 E1082.48578
G0 F12000 X162.42 Y146.91
G1 F1560 X146.40 Y162.94 E1083.55456
G0 F12000 X146.31 Y162.94
G1 F1560 X141.02 Y157.66 E1083.90708
G0 F12000 X141.03 Y155.01
G1 F1560 X154.49 Y141.54 E1084.80519
G0 F12000 X151.52 Y141.54
G1 F1560 X162.42 Y152.44 E1085.53228
G0 F12000 X162.42 Y153.57
G1 F1560 X153.05 Y162.94 E1086.15737
G0 F12000 X152.96 Y162.94
G1 F1560 X141.02 Y151.00 E1086.95352
G0 F12000 X141.03 Y148.36
G1 F1560 X147.84 Y141.54 E1087.40794
G0 F12000 X144.87 Y141.54
G1 F1560 X162.42 Y159.10 E1088.57865
G0 F12000 X162.42 Y160.22
G1 F1560 X159.70 Y162.94 E1088.76012
G0 F12000 X159.62 Y162.94
G1 F1560 X141.02 Y144.35 E1089.99995
G0 F12000 X141.03 Y141.70
G1 F1560 X141.19 Y141.54 E1090.01076
;LAYER:48
G0 F12000 X140.88 Y141.40 Z14.70
;TYPE:WALL-INNER
G1 F1560 X162.56 Y141.40 E1091.03307
G1 X162.56 Y163.08 E1092.05539
G1 X140.88 Y163.08 E1093.07771
G1 X140.88 Y141.40 E1094.10003
G0 F12000 X140.49 Y141.00
;TYPE:WALL-OUTER
G1 F1560 X162.96 Y141.00 E1095.16007
G1 X162.96 Y163.48 E1096.22011
G1 X140.49 Y163.48 E1097.28015
G1 X140.49 Y141.00 E1098.34020
G0 F12000 X141.03 Y141.70
;TYPE:FILL
G1 F1560 X141.19 Y141.54 E1098.35100
G0 F12000 X141.02 Y144.35
G1 F1560 X159.62 Y162.94 E1099.59084
G0 F12000 X159.70 Y162.94
G1 F1560 X162.42 Y160.22 E1099.77230
G0 F12000 X162.42 Y159.10
G1 F1560 X144.87 Y141.54 E1100.94301
G0 F12000 X147.84 Y141.54
G1 F1560 X141.03 Y148.36 E1101.39744
G0 F12000 X141.02 Y151.00
G1 F1560 X152.96 Y162.94 E1102.19358
G0 F12000 X153.05 Y162.94
G1 F1560 X162.42 Y153.57 E1102.81867
G0 F12000 X162.42 Y152.44
G1 F1560 X151.52 Y141.54 E1103.54576
G0 F12000 X154.49 Y141.54
G1 F1560 X141.03 Y155.01 E1104.44387
G0 F12000 X141.02 Y157.66
G1 F1560 X146.31 Y162.94 E1104.79640
G0 F12000 X146.40 Y162.94
G1 F1560 X162.42 Y146.91 E1105.86517
G0 F12000 X162.42 Y145.79
G1 F1560 X158.17 Y141.54 E1106.14857
G0 F12000 X161.14 Y141.54
G1 F1560 X141.03 Y161.66 E1107.49031
;LAYER:49
G0 F12000 X140.88 Y163.08 Z15.00
;TYPE:WALL-INNER
G1 F1560 X140.88 Y141.40 E1108.51263
G1 X162.56 Y141.40 E1109.53494
G1 X162.56 Y163.08 E1110.55726
G1 X140.88 Y163.08 E1111.57958
G0 F12000 X140.49 Y163.48
;TYPE:WALL-OUTER
G1 F1560 X140.49 Y141.00 E1112.63962
G1 X162.96 Y141.00 E1113.69966
G1 X162.96 Y163.48 E1114.75971
G1 X140.49 Y163.48 E1115.81975
G0 F12000 X140.69 Y163.18
G0 X141.03 Y161.66
;TYPE:FILL
G1 F1560 X161.14 Y141.54 E1117.16149
G0 F12000 X158.17 Y141.54
G1 F1560 X162.42 Y145.79 E1117.44489
G0 F12000 X162.42 Y146.91
G1 F1560 X146.40 Y162.94 E1118.51366
G0 F12000 X146.31 Y162.94
G1 F1560 X141.02 Y157.66 E1118.86619
G0 F12000 X141.03 Y155.01
G1 F1560 X154.49 Y141.54 E1119.76430
G0 F12000 X151.52 Y141.54
G1 F1560 X162.42 Y152.44 E1120.49139
G0 F12000 X162.42 Y153.57
G1 F1560 X153.05 Y162.94 E1121.11648
G0 F12000 X152.96 Y162.94
G1 F1560 X141.02 Y151.00 E1121.91262
G0 F12000 X141.03 Y148.36
G1 F1560 X147.84 Y141.54 E1122.36705
G0 F12000 X144.87 Y141.54
G1 F1560 X162.42 Y159.10 E1123.53776
G0 F12000 X162.42 Y160.22
G1 F1560 X159.70 Y162.94 E1123.71922
G0 F12000 X159.62 Y162.94
G1 F1560 X141.02 Y144.35 E1124.95906
G0 F12000 X141.03 Y141.70
G1 F1560 X141.19 Y141.54 E1124.96986
;LAYER:50
G0 F12000 X140.88 Y141.40 Z15.30
;TYPE:WALL-INNER
G1 F1560 X162.56 Y141.40 E1125.99218
G1 X162.56 Y163.08 E1127.01450
G1 X140.88 Y163.08 E1128.03682
G1 X140.88 Y141.40 E1129.05913
G0 F12000 X140.49 Y141.00
;TYPE:WALL-OUTER
G1 F1560 X162.96 Y141.00 E1130.11918
G1 X162.96 Y163.48 E1131.17922
G1 X140.49 Y163.48 E1132.23926
G1 X140.49 Y141.00 E1133.29930
G0 F12000 X141.03 Y141.70
;TYPE:FILL
G1 F1560 X141.19 Y141.54 E1133.31011
G0 F12000 X141.02 Y144.35
G1 F1560 X159.62 Y162.94 E1134.54994
G0 F12000 X159.70 Y162.94
G1 F1560 X162.42 Y160.22 E1134.73141
G0 F12000 X162.42 Y159.10
G1 F1560 X144.87 Y141.54 E1135.90212
G0 F12000 X147.84 Y141.54
G1 F1560 X141.03 Y148.36 E1136.35654
G0 F12000 X141.02 Y151.00
G1 F1560 X152.96 Y162.94 E1137.15269
G0 F12000 X153.05 Y162.94
G1 F1560 X162.42 Y153.57 E1137.77778
G0 F12000 X162.42 Y152.44
G1 F1560 X151.52 Y141.54 E1138.50487
G0 F12000 X154.49 Y141.54
G1 F1560 X141.03 Y155.01 E1139.40298
G0 F12000 X141.02 Y157.66
G1 F1560 X146.31 Y162.94 E1139.75550
G0 F12000 X146.40 Y162.94
G1 F1560 X162.42 Y146.91 E1140.82428
G0 F12000 X162.42 Y145.79
G1 F1560 X158.17 Y141.54 E1141.10768
G0 F12000 X161.14 Y141.54
G1 F1560 X141.03 Y161.66 E1142.44942
;LAYER:51
G0 F12000 X140.88 Y163.08 Z15.60
;TYPE:WALL-INNER
G1 F1560 X140.88 Y141.40 E1143.47173
G1 X162.56 Y141.40 E1144.49405
G1 X162.56 Y163.08 E1145.51637
G1 X140.88 Y163.08 E1146.53869
G0 F12000 X140.49 Y163.48
;TYPE:WALL-OUTER
G1 F1560 X140.49 Y141.00 E1147.59873
G1 X162.96 Y141.00 E1148.65877
G1 X162.96 Y163.48 E1149.71881
G1 X140.49 Y163.48 E1150.77886
G0 F12000 X140.69 Y163.18
G0 X141.03 Y161.66
;TYPE:FILL
G1 F1560 X161.14 Y141.54 E1152.12059
G0 F12000 X158.17 Y141.54
G1 F1560 X162.42 Y145.79 E1152.40399
G0 F12000 X162.42 Y146.91
G1 F1560 X146.40 Y162.94 E1153.47277
G0 F12000 X146.31 Y162.94
G1 F1560 X141.02 Y157.66 E1153.82529
G0 F12000 X141.03 Y155.01
G1 F1560 X154.49 Y141.54 E1154.72341
G0 F12000 X151.52 Y141.54
G1 F1560 X162.42 Y152.44 E1155.45050
G0 F12000 X162.42 Y153.57
G1 F1560 X153.05 Y162.94 E1156.07558
G0 F12000 X152.96 Y162.94
G1 F1560 X141.02 Y151.00 E1156.87173
G0 F12000 X141.03 Y148.36
G1 F1560 X147.84 Y141.54 E1157.32616
G0 F12000 X144.87 Y141.54
G1 F1560 X162.42 Y159.10 E1158.49687
G0 F12000 X162.42 Y160.22
G1 F1560 X159.70 Y162.94 E1158.67833
G0 F12000 X159.62 Y162.94
G1 F1560 X141.02 Y144.35 E1159.91817
G0 F12000 X141.03 Y141.70
G1 F1560 X141.19 Y141.54 E1159.92897
;LAYER:52
G0 F12000 X140.88 Y141.40 Z15.90
;TYPE:WALL-INNER
G1 F1560 X162.56 Y141.40 E1160.95129
G1 X162.56 Y163.08 E1161.97361
G1 X140.88 Y163.08 E1162.99592
G1 X140.88 Y141.40 E1164.01824
G0 F12000 X140.49 Y141.00
;TYPE:WALL-OUTER
G1 F1560 X162.96 Y141.00 E1165.07828
G1 X162.96 Y163.48 E1166.13832
G1 X140.49 Y163.48 E1167.19837
G1 X140.49 Y141.00 E1168.25841
G0 F12000 X141.03 Y141.70
;TYPE:FILL
G1 F1560 X141.19 Y141.54 E1168.26921
G0 F12000 X141.02 Y144.35
G1 F1560 X159.62 Y162.94 E1169.50905
G0 F12000 X159.70 Y162.94
G1 F1560 X162.42 Y160.22 E1169.69051
G0 F12000 X162.42 Y159.10
G1 F1560 X144.87 Y141.54 E1170.86122
G0 F12000 X147.84 Y141.54
G1 F1560 X141.03 Y148.36 E1171.31565
G0 F12000 X141.02 Y151.00
G1 F1560 X152.96 Y162.94 E1172.11180
G0 F12000 X153.05 Y162.94
G1 F1560 X162.42 Y153.57 E1172.73688
G0 F12000 X162.42 Y152.44
G1 F1560 X151.52 Y141.54 E1173.46397
G0 F12000 X154.49 Y141.54
G1 F1560 X141.03 Y155.01 E1174.36209
G0 F12000 X141.02 Y157.66
G1 F1560 X146.31 Y162.94 E1174.71461
G0 F12000 X146.40 Y162.94
G1 F1560 X162.42 Y146.91 E1175.78339
G0 F12000 X162.42 Y145.79
G1 F1560 X158.17 Y141.54 E1176.06679
G0 F12000 X161.14 Y141.54
G1 F1560 X141.03 Y161.66 E1177.40852
;LAYER:53
G0 F12000 X140.88 Y163.08 Z16.20
;TYPE:WALL-INNER
G1 F1560 X140.88 Y141.40 E1178.43084
G1 X162.56 Y141.40 E1179.45316
G1 X162.56 Y163.08 E1180.47548
G1 X140.88 Y163.08 E1181.49779
G0 F12000 X140.49 Y163.48
;TYPE:WALL-OUTER
G1 F1560 X140.49 Y141.00 E1182.55784
G1 X162.96 Y141.00 E1183.61788
G1 X162.96 Y163.48 E1184.67792
G1 X140.49 Y163.48 E1185.73796
G0 F12000 X140.69 Y163.18
G0 X141.03 Y161.66
;TYPE:FILL
G1 F1560 X161.14 Y141.54 E1187.07970
G0 F12000 X158.17 Y141.54
G1 F1560 X162.42 Y145.79 E1187.36310
G0 F12000 X162.42 Y146.91
G1 F1560 X146.40 Y162.94 E1188.43188
G0 F12000 X146.31 Y162.94
G1 F1560 X141.02 Y157.66 E1188.78440
G0 F12000 X141.03 Y155.01
G1 F1560 X154.49 Y141.54 E1189.68252
G0 F12000 X151.52 Y141.54
G1 F1560 X162.42 Y152.44 E1190.40961
G0 F12000 X162.42 Y153.57
G1 F1560 X153.05 Y162.94 E1191.03469
G0 F12000 X152.96 Y162.94
G1 F1560 X141.02 Y151.00 E1191.83084
G0 F12000 X141.03 Y148.36
G1 F1560 X147.84 Y141.54 E1192.28526
G0 F12000 X144.87 Y141.54
G1 F1560 X162.42 Y159.10 E1193.45598
G0 F12000 X162.42 Y160.22
G1 F1560 X159.70 Y162.94 E1193.63744
G0 F12000 X159.62 Y162.94
G1 F1560 X141.02 Y144.35 E1194.87727
G0 F12000 X141.03 Y141.70
G1 F1560 X141.19 Y141.54 E1194.88808
;LAYER:54
G0 F12000 X140.88 Y141.40 Z16.50
;TYPE:WALL-INNER
G1 F1560 X162.56 Y141.40 E1195.91040
G1 X162.56 Y163.08 E1196.93271
G1 X140.88 Y163.08 E1197.95503
G1 X140.88 Y141.40 E1198.97735
G0 F12000 X140.49 Y141.00
;TYPE:WALL-OUTER
G1 F1560 X162.96 Y141.00 E1200.03739
G1 X162.96 Y163.48 E1201.09743
G1 X140.49 Y163.48 E1202.15747
G1 X140.49 Y141.00 E1203.21752
G0 F12000 X141.03 Y141.70
;TYPE:FILL
G1 F1560 X141.19 Y141.54 E1203.22832
G0 F12000 X141.02 Y144.35
G1 F1560 X159.62 Y162.94 E1204.46816
G0 F12000 X159.70 Y162.94
G1 F1560 X162.42 Y160.22 E1204.64962
G0 F12000 X162.42 Y159.10
G1 F1560 X144.87 Y141.54 E1205.82033
G0 F12000 X147.84 Y141.54
G1 F1560 X141.03 Y148.36 E1206.27476
G0 F12000 X141.02 Y151.00
G1 F1560 X152.96 Y162.94 E1207.07090
G0 F12000 X153.05 Y162.94
G1 F1560 X162.42 Y153.57 E1207.69599
G0 F12000 X162.42 Y152.44
G1 F1560 X151.52 Y141.54 E1208.42308
G0 F12000 X154.49 Y141.54
G1 F1560 X141.03 Y155.01 E1209.32120
G0 F12000 X141.02 Y157.66
G1 F1560 X146.31 Y162.94 E1209.67372
G0 F12000 X146.40 Y162.94
G1 F1560 X162.42 Y146.91 E1210.74249
G0 F12000 X162.42 Y145.79
G1 F1560 X158.17 Y141.54 E1211.02589
G0 F12000 X161.14 Y141.54
G1 F1560 X141.03 Y161.66 E1212.36763
;LAYER:55
G0 F12000 X140.88 Y163.08 Z16.80
;TYPE:WALL-INNER
G1 F1560 X140.88 Y141.40 E1213.38995
G1 X162.56 Y141.40 E1214.41227
G1 X162.56 Y163.08 E1215.43458
G1 X140.88 Y163.08 E1216.45690
G0 F12000 X140.49 Y163.48
;TYPE:WALL-OUTER
G1 F1560 X140.49 Y141.00 E1217.51694
G1 X162.96 Y141.00 E1218.57699
G1 X162.96 Y163.48 E1219.63703
G1 X140.49 Y163.48 E1220.69707
G0 F12000 X140.69 Y163.18
G0 X141.03 Y161.66
;TYPE:FILL
G1 F1560 X161.14 Y141.54 E1222.03881
G0 F12000 X158.17 Y141.54
G1 F1560 X162.42 Y145.79 E1222.32221
G0 F12000 X162.42 Y146.91
G1 F1560 X146.40 Y162.94 E1223.39098
G0 F12000 X146.31 Y162.94
G1 F1560 X141.02 Y157.66 E1223.74351
G0 F12000 X141.03 Y155.01
G1 F1560 X154.49 Y141.54 E1224.64162
G0 F12000 X151.52 Y141.54
G1 F1560 X162.42 Y152.44 E1225.36871
G0 F12000 X162.42 Y153.57
G1 F1560 X153.05 Y162.94 E1225.99380
G0 F12000 X152.96 Y162.94
G1 F1560 X141.02 Y151.00 E1226.78994
G0 F12000 X141.03 Y148.36
G1 F1560 X147.84 Y141.54 E1227.24437
G0 F12000 X144.87 Y141.54
G1 F1560 X162.42 Y159.10 E1228.41508
G0 F12000 X162.42 Y160.22
G1 F1560 X159.70 Y162.94 E1228.59655
G0 F12000 X159.62 Y162.94
G1 F1560 X141.02 Y144.35 E1229.83638
G0 F12000 X141.03 Y141.70
G1 F1560 X141.19 Y141.54 E1229.84719
;LAYER:56
G0 F12000 X140.88 Y141.40 Z17.10
;TYPE:WALL-INNER
G1 F1560 X162.56 Y141.40 E1230.86950
G1 X162.56 Y163.08 E1231.89182
G1 X140.88 Y163.08 E1232.91414
G1 X140.88 Y141.40 E1233.93645
G0 F12000 X140.49 Y141.00
;TYPE:WALL-OUTER
G1 F1560 X162.96 Y141.00 E1234.99650
G1 X162.96 Y163.48 E1236.05654
G1 X140.49 Y163.48 E1237.11658
G1 X140.49 Y141.00 E1238.17662
G0 F12000 X141.03 Y141.70
;TYPE:FILL
G1 F1560 X141.19 Y141.54 E1238.18743
G0 F12000 X141.02 Y144.35
G1 F1560 X159.62 Y162.94 E1239.42726
G0 F12000 X159.70 Y162.94
G1 F1560 X162.42 Y160.22 E1239.60873
G0 F12000 X162.42 Y159.10
G1 F1560 X144.87 Y141.54 E1240.77944
G0 F12000 X147.84 Y141.54
G1 F1560 X141.03 Y148.36 E1241.23387
G0 F12000 X141.02 Y151.00
G1 F1560 X152.96 Y162.94 E1242.03001
G0 F12000 X153.05 Y162.94
G1 F1560 X162.42 Y153.57 E1242.65510
G0 F12000 X162.42 Y152.44
G1 F1560 X151.52 Y141.54 E1243.38219
G0 F12000 X154.49 Y141.54
G1 F1560 X141.03 Y155.01 E1244.28030
G0 F12000 X141.02 Y157.66
G1 F1560 X146.31 Y162.94 E1244.63283
G0 F12000 X146.40 Y162.94
G1 F1560 X162.42 Y146.91 E1245.70160
G0 F12000 X162.42 Y145.79
G1 F1560 X158.17 Y141.54 E1245.98500
G0 F12000 X161.14 Y141.54
G1 F1560 X141.03 Y161.66 E1247.32674
;LAYER:57
G0 F12000 X140.88 Y163.08 Z17.40
;TYPE:WALL-INNER
G1 F1560 X140.88 Y141.40 E1248.34906
G1 X162.56 Y141.40 E1249.37137
G1 X162.56 Y163.08 E1250.39369
G1 X140.88 Y163.08 E1251.41601
G0 F12000 X140.49 Y163.48
;TYPE:WALL-OUTER
G1 F1560 X140.49 Y141.00 E1252.47605
G1 X162.96 Y141.00 E1253.53609
G1 X162.96 Y163.48 E1254.59614
G1 X140.49 Y163.48 E1255.65618
G0 F12000 X140.69 Y163.18
G0 X141.03 Y161.66
;TYPE:FILL
G1 F1560 X161.14 Y141.54 E1256.99792
G0 F12000 X158.17 Y141.54
G1 F1560 X162.42 Y145.79 E1257.28132
G0 F12000 X162.42 Y146.91
G1 F1560 X146.40 Y162.94 E1258.35009
G0 F12000 X146.31 Y162.94
G1 F1560 X141.02 Y157.66 E1258.70262
G0 F12000 X141.03 Y155.01
G1 F1560 X154.49 Y141.54 E1259.60073
G0 F12000 X151.52 Y141.54
G1 F1560 X162.42 Y152.44 E1260.32782
G0 F12000 X162.42 Y153.57
G1 F1560 X153.05 Y162.94 E1260.95291
G0 F12000 X152.96 Y162.94
G1 F1560 X141.02 Y151.00 E1261.74905
G0 F12000 X141.03 Y148.36
G1 F1560 X147.84 Y141.54 E1262.20348
G0 F12000 X144.87 Y141.54
G1 F1560 X162.42 Y159.10 E1263.37419
G0 F12000 X162.42 Y160.22
G1 F1560 X159.70 Y162.94 E1263.55565
G0 F12000 X159.62 Y162.94
G1 F1560 X141.02 Y144.35 E1264.79549
G0 F12000 X141.03 Y141.70
G1 F1560 X141.19 Y141.54 E1264.80629
;LAYER:58
G0 F12000 X140.88 Y141.40 Z17.70
;TYPE:WALL-INNER
G1 F1560 X162.56 Y141.40 E1265.82861
G1 X162.56 Y163.08 E1266.85093
G1 X140.88 Y163.08 E1267.87324
G1 X140.88 Y141.40 E1268.89556
G0 F12000 X140.49 Y141.00
;TYPE:WALL-OUTER
G1 F1560 X162.96 Y141.00 E1269.95560
G1 X162.96 Y163.48 E1271.01565
G1 X140.49 Y163.48 E1272.07569
G1 X140.49 Y141.00 E1273.13573
G0 F12000 X141.03 Y141.70
;TYPE:FILL
G1 F1560 X141.19 Y141.54 E1273.14654
G0 F12000 X141.02 Y144.35
G1 F1560 X159.62 Y162.94 E1274.38637
G0 F12000 X159.70 Y162.94
G1 F1560 X162.42 Y160.22 E1274.56783
G0 F12000 X162.42 Y159.10
G1 F1560 X144.87 Y141.54 E1275.73855
G0 F12000 X147.84 Y141.54
G1 F1560 X141.03 Y148.36 E1276.19297
G0 F12000 X141.02 Y151.00
G1 F1560 X152.96 Y162.94 E1276.98912
G0 F12000 X153.05 Y162.94
G1 F1560 X162.42 Y153.57 E1277.61421
G0 F12000 X162.42 Y152.44
G1 F1560 X151.52 Y141.54 E1278.34129
G0 F12000 X154.49 Y141.54
G1 F1560 X141.03 Y155.01 E1279.23941
G0 F12000 X141.02 Y157.66
G1 F1560 X146.31 Y162.94 E1279.59193
G0 F12000 X146.40 Y162.94
G1 F1560 X162.42 Y146.91 E1280.66071
G0 F12000 X162.42 Y145.79
G1 F1560 X158.17 Y141.54 E1280.94411
G0 F12000 X161.14 Y141.54
G1 F1560 X141.03 Y161.66 E1282.28585
;LAYER:59
G0 F12000 X140.88 Y163.08 Z18.00
;TYPE:WALL-INNER
G1 F1560 X140.88 Y141.40 E1283.30816
G1 X162.56 Y141.40 E1284.33048
G1 X162.56 Y163.08 E1285.35280
G1 X140.88 Y163.08 E1286.37511
G0 F12000 X140.49 Y163.48
;TYPE:WALL-OUTER
G1 F1560 X140.49 Y141.00 E1287.43516
G1 X162.96 Y141.00 E1288.49520
G1 X162.96 Y163.48 E1289.55524
G1 X140.49 Y163.48 E1290.61529
G0 F12000 X140.69 Y163.18
G0 X141.03 Y161.66
;TYPE:FILL
G1 F1560 X161.14 Y141.54 E1291.95702
G0 F12000 X158.17 Y141.54
G1 F1560 X162.42 Y145.79 E1292.24042
G0 F12000 X162.42 Y146.91
G1 F1560 X146.40 Y162.94 E1293.30920
G0 F12000 X146.31 Y162.94
G1 F1560 X141.02 Y157.66 E1293.66172
G0 F12000 X141.03 Y155.01
G1 F1560 X154.49 Y141.54 E1294.55984
G0 F12000 X151.52 Y141.54
G1 F1560 X162.42 Y152.44 E1295.28693
G0 F12000 X162.42 Y153.57
G1 F1560 X153.05 Y162.94 E1295.91201
G0 F12000 X152.96 Y162.94
G1 F1560 X141.02 Y151.00 E1296.70816
G0 F12000 X141.03 Y148.36
G1 F1560 X147.84 Y141.54 E1297.16259
G0 F12000 X144.87 Y141.54
G1 F1560 X162.42 Y159.10 E1298.33330
G0 F12000 X162.42 Y160.22
G1 F1560 X159.70 Y162.94 E1298.51476
G0 F12000 X159.62 Y162.94
G1 F1560 X141.02 Y144.35 E1299.75460
G0 F12000 X141.03 Y141.70
G1 F1560 X141.19 Y141.54 E1299.76540
;LAYER:60
G0 F12000 X140.88 Y141.40 Z18.30
;TYPE:WALL-INNER
G1 F2400 X162.56 Y141.40 E1300.78772
G1 X162.56 Y163.08 E1301.81003
G1 X140.88 Y163.08 E1302.83235
G1 X140.88 Y141.40 E1303.85467
G0 F12000 X140.49 Y141.00
;TYPE:WALL-OUTER
G1 F2400 X162.96 Y141.00 E1304.91471
G1 X162.96 Y163.48 E1305.97475
G1 X140.49 Y163.48 E1307.03480
G1 X140.49 Y141.00 E1308.09484
G0 F12000 X141.03 Y141.70
;TYPE:FILL
G1 F2400 X141.19 Y141.54 E1308.10564
G0 F12000 X141.02 Y144.35
G1 F2400 X159.62 Y162.94 E1309.34548
G0 F12000 X159.70 Y162.94
G1 F2400 X162.42 Y160.22 E1309.52694
G0 F12000 X162.42 Y159.10
G1 F2400 X144.87 Y141.54 E1310.69765
G0 F12000 X147.84 Y141.54
G1 F2400 X141.03 Y148.36 E1311.15208
G0 F12000 X141.02 Y151.00
G1 F2400 X152.96 Y162.94 E1311.94823
G0 F12000 X153.05 Y162.94
G1 F2400 X162.42 Y153.57 E1312.57331
G0 F12000 X162.42 Y152.44
G1 F2400 X151.52 Y141.54 E1313.30040
G0 F12000 X154.49 Y141.54
G1 F2400 X141.03 Y155.01 E1314.19852
G0 F12000 X141.02 Y157.66
G1 F2400 X146.31 Y162.94 E1314.55104
G0 F12000 X146.40 Y162.94
G1 F2400 X162.42 Y146.91 E1315.61982
G0 F12000 X162.42 Y145.79
G1 F2400 X158.17 Y141.54 E1315.90322
G0 F12000 X161.14 Y141.54
G1 F2400 X141.03 Y161.66 E1317.24495
G1 F2400 E1314.24495
G0 F12000 X139.60 Y139.76
;TYPE:WALL-INNER
G1 F2400 E1317.24495
G1 X139.60 Y136.15 E1317.41519
G1 X165.40 Y136.15 E1318.63184
G1 X165.40 Y139.76 E1318.80208
G1 X139.60 Y139.76 E1320.01873
G0 F12000 X139.20 Y140.16
;TYPE:WALL-OUTER
G1 F2400 X139.20 Y135.75 E1320.22669
G1 X165.80 Y135.75 E1321.48107
G1 X165.80 Y140.16 E1321.68903
G1 X139.20 Y140.16 E1322.94341
G0 F12000 X139.91 Y139.62
;TYPE:FILL
G1 F2400 X139.74 Y139.46 E1322.95455
G0 F12000 X139.74 Y138.89
G1 F2400 X140.47 Y139.62 E1323.00340
G0 F12000 X141.04 Y139.62
G1 F2400 X139.74 Y138.32 E1323.08999
G0 F12000 X139.74 Y137.76
G1 F2400 X141.60 Y139.62 E1323.21430
G0 F12000 X142.17 Y139.62
G1 F2400 X139.74 Y137.19 E1323.37633
G0 F12000 X139.74 Y136.63
G1 F2400 X142.73 Y139.62 E1323.57610
G0 F12000 X143.30 Y139.62
G1 F2400 X139.97 Y136.29 E1323.79817
G0 F12000 X140.54 Y136.29
G1 F2400 X143.87 Y139.62 E1324.02022
G0 F12000 X144.43 Y139.62
G1 F2400 X141.10 Y136.29 E1324.24230
G0 F12000 X141.67 Y136.29
G1 F2400 X145.00 Y139.62 E1324.46438
G0 F12000 X145.56 Y139.62
G1 F2400 X142.23 Y136.29 E1324.68642
G0 F12000 X142.80 Y136.29
G1 F2400 X146.13 Y139.62 E1324.90850
G0 F12000 X146.69 Y139.62
G1 F2400 X143.36 Y136.29 E1325.13058
G0 F12000 X143.93 Y136.29
G1 F2400 X147.26 Y139.62 E1325.35262
G0 F12000 X147.82 Y139.62
G1 F2400 X144.50 Y136.29 E1325.57470
G0 F12000 X145.06 Y136.29
G1 F2400 X148.39 Y139.62 E1325.79678
G0 F12000 X148.96 Y139.62
G1 F2400 X145.63 Y136.29 E1326.01882
G0 F12000 X146.19 Y136.29
G1 F2400 X149.52 Y139.62 E1326.24090
G0 F12000 X150.09 Y139.62
G1 F2400 X146.76 Y136.29 E1326.46298
G0 F12000 X147.32 Y136.29
G1 F2400 X150.65 Y139.62 E1326.68506
G0 F12000 X151.22 Y139.62
G1 F2400 X147.89 Y136.29 E1326.90713
G0 F12000 X148.46 Y136.29
G1 F2400 X151.78 Y139.62 E1327.12921
G0 F12000 X152.35 Y139.62
G1 F2400 X149.02 Y136.29 E1327.35129
G0 F12000 X149.59 Y136.29
G1 F2400 X152.92 Y139.62 E1327.57333
G0 F12000 X153.48 Y139.62
G1 F2400 X150.15 Y136.29 E1327.79541
G0 F12000 X150.72 Y136.29
G1 F2400 X154.05 Y139.62 E1328.01749
G0 F12000 X154.61 Y139.62
G1 F2400 X151.28 Y136.29 E1328.23954
G0 F12000 X151.85 Y136.29
G1 F2400 X155.18 Y139.62 E1328.46161
G0 F12000 X155.75 Y139.62
G1 F2400 X152.41 Y136.29 E1328.68369
G0 F12000 X152.98 Y136.29
G1 F2400 X156.31 Y139.62 E1328.90574
G0 F12000 X156.88 Y139.62
G1 F2400 X153.55 Y136.29 E1329.12781
G0 F12000 X154.11 Y136.29
G1 F2400 X157.44 Y139.62 E1329.34989
G0 F12000 X158.01 Y139.62
G1 F2400 X154.68 Y136.29 E1329.57194
G0 F12000 X155.24 Y136.29
G1 F2400 X158.57 Y139.62 E1329.79401
G0 F12000 X159.14 Y139.62
G1 F2400 X155.81 Y136.29 E1330.01609
G0 F12000 X156.38 Y136.29
G1 F2400 X159.71 Y139.62 E1330.23817
G0 F12000 X160.27 Y139.62
G1 F2400 X156.94 Y136.29 E1330.46025
G0 F12000 X157.51 Y136.29
G1 F2400 X160.84 Y139.62 E1330.68233
G0 F12000 X161.40 Y139.62
G1 F2400 X158.07 Y136.29 E1330.90440
G0 F12000 X158.64 Y136.29
G1 F2400 X161.97 Y139.62 E1331.12648
G0 F12000 X162.53 Y139.62
G1 F2400 X159.20 Y136.29 E1331.34856
G0 F12000 X159.77 Y136.29
G1 F2400 X163.10 Y139.62 E1331.57064
G0 F12000 X163.66 Y139.62
G1 F2400 X160.34 Y136.29 E1331.79268
G0 F12000 X160.90 Y136.29
G1 F2400 X164.23 Y139.62 E1332.01476
G0 F12000 X164.80 Y139.62
G1 F2400 X161.47 Y136.29 E1332.23684
G0 F12000 X162.03 Y136.29
G1 F2400 X165.26 Y139.52 E1332.45205
G0 F12000 X165.26 Y138.95
G1 F2400 X162.60 Y136.29 E1332.62954
G0 F12000 X163.16 Y136.29
G1 F2400 X165.26 Y138.39 E1332.76933
G0 F12000 X165.26 Y137.82
G1 F2400 X163.73 Y136.29 E1332.87136
G0 F12000 X164.29 Y136.29
G1 F2400 X165.26 Y137.26 E1332.93569
G0 F12000 X165.26 Y136.69
G1 F2400 X164.86 Y136.29 E1332.96229
G1 F2400 E1329.96229
G0 F12000 X165.40 Y165.24
;TYPE:WALL-INNER
G1 F2400 E1332.96229
G1 X165.40 Y168.85 E1333.13253
G1 X139.60 Y168.85 E1334.34918
G1 X139.60 Y165.24 E1334.51937
G1 X165.40 Y165.24 E1335.73602
G0 F12000 X165.80 Y164.84
;TYPE:WALL-OUTER
G1 F2400 X165.80 Y169.25 E1335.94394
G1 X139.20 Y169.25 E1337.19832
G1 X139.20 Y164.84 E1337.40628
G1 X165.80 Y164.84 E1338.66065
G0 F12000 X165.26 Y165.54
;TYPE:FILL
G1 F2400 X165.09 Y165.38 E1338.67176
G0 F12000 X164.53 Y165.38
G1 F2400 X165.26 Y166.11 E1338.72058
G0 F12000 X165.26 Y166.67
G1 F2400 X163.96 Y165.38 E1338.80714
G0 F12000 X163.40 Y165.38
G1 F2400 X165.26 Y167.24 E1338.93142
G0 F12000 X165.26 Y167.81
G1 F2400 X162.83 Y165.38 E1339.09341
G0 F12000 X162.26 Y165.38
G1 F2400 X165.26 Y168.37 E1339.29314
G0 F12000 X165.03 Y168.71
G1 F2400 X161.70 Y165.38 E1339.51515
G0 F12000 X161.13 Y165.38
G1 F2400 X164.46 Y168.71 E1339.73717
G0 F12000 X163.90 Y168.71
G1 F2400 X160.57 Y165.38 E1339.95918
G0 F12000 X160.00 Y165.38
G1 F2400 X163.33 Y168.71 E1340.18119
G0 F12000 X162.77 Y168.71
G1 F2400 X159.44 Y165.38 E1340.40320
G0 F12000 X158.87 Y165.38
G1 F2400 X162.20 Y168.71 E1340.62521
G0 F12000 X161.63 Y168.71
G1 F2400 X158.31 Y165.38 E1340.84722
G0 F12000 X157.74 Y165.38
G1 F2400 X161.07 Y168.71 E1341.06927
G0 F12000 X160.50 Y168.71
G1 F2400 X157.17 Y165.38 E1341.29128
G0 F12000 X156.61 Y165.38
G1 F2400 X159.94 Y168.71 E1341.51329
G0 F12000 X159.37 Y168.71
G1 F2400 X156.04 Y165.38 E1341.73530
G0 F12000 X155.48 Y165.38
G1 F2400 X158.81 Y168.71 E1341.95731
G0 F12000 X158.24 Y168.71
G1 F2400 X154.91 Y165.38 E1342.17932
G0 F12000 X154.34 Y165.38
G1 F2400 X157.67 Y168.71 E1342.40134
G0 F12000 X157.11 Y168.71
G1 F2400 X153.78 Y165.38 E1342.62335
G0 F12000 X153.21 Y165.38
G1 F2400 X156.54 Y168.71 E1342.84536
G0 F12000 X155.98 Y168.71
G1 F2400 X152.65 Y165.38 E1343.06737
G0 F12000 X152.08 Y165.38
G1 F2400 X155.41 Y168.71 E1343.28938
G0 F12000 X154.85 Y168.71
G1 F2400 X151.52 Y165.38 E1343.51139
G0 F12000 X150.95 Y165.38
G1 F2400 X154.28 Y168.71 E1343.73340
G0 F12000 X153.72 Y168.71
G1 F2400 X150.39 Y165.38 E1343.95542
G0 F12000 X149.82 Y165.38
G1 F2400 X153.15 Y168.71 E1344.17743
G0 F12000 X152.58 Y168.71
G1 F2400 X149.25 Y165.38 E1344.39944
G0 F12000 X148.69 Y165.38
G1 F2400 X152.02 Y168.71 E1344.62148
G0 F12000 X151.45 Y168.71
G1 F2400 X148.12 Y165.38 E1344.84349
G0 F12000 X147.56 Y165.38
G1 F2400 X150.89 Y168.71 E1345.06551
G0 F12000 X150.32 Y168.71
G1 F2400 X146.99 Y165.38 E1345.28755
G0 F12000 X146.43 Y165.38
G1 F2400 X149.75 Y168.71 E1345.50956
G0 F12000 X149.19 Y168.71
G1 F2400 X145.86 Y165.38 E1345.73157
G0 F12000 X145.29 Y165.38
G1 F2400 X148.62 Y168.71 E1345.95358
G0 F12000 X148.06 Y168.71
G1 F2400 X144.73 Y165.38 E1346.17560
G0 F12000 X144.16 Y165.38
G1 F2400 X147.49 Y168.71 E1346.39761
G0 F12000 X146.93 Y168.71
G1 F2400 X143.60 Y165.38 E1346.61962
G0 F12000 X143.03 Y165.38
G1 F2400 X146.36 Y168.71 E1346.84163
G0 F12000 X145.79 Y168.71
G1 F2400 X142.47 Y165.38 E1347.06364
G0 F12000 X141.90 Y165.38
G1 F2400 X145.23 Y168.71 E1347.28565
G0 F12000 X144.66 Y168.71
G1 F2400 X141.34 Y165.38 E1347.50766
G0 F12000 X140.77 Y165.38
G1 F2400 X144.10 Y168.71 E1347.72967
G0 F12000 X143.53 Y168.71
G1 F2400 X140.20 Y165.38 E1347.95169
G0 F12000 X139.74 Y165.48
G1 F2400 X142.97 Y168.71 E1348.16693
G0 F12000 X142.40 Y168.71
G1 F2400 X139.74 Y166.04 E1348.34442
G0 F12000 X139.74 Y166.61
G1 F2400 X141.84 Y168.71 E1348.48421
G0 F12000 X141.27 Y168.71
G1 F2400 X139.74 Y167.18 E1348.58628
G0 F12000 X139.74 Y167.74
G1 F2400 X140.70 Y168.71 E1348.65060
G0 F12000 X140.14 Y168.71
G1 F2400 X139.74 Y168.31 E1348.67721
;LAYER:61
G0 F12000 X139.60 Y168.58 Z18.60
;TYPE:WALL-INNER
G1 F2400 X139.60 Y164.93 E1348.84909
G1 X165.40 Y164.93 E1350.06575
G1 X165.40 Y168.58 E1350.23763
G1 X139.60 Y168.58 E1351.45428
G0 F12000 X139.20 Y168.98
;TYPE:WALL-OUTER
G1 F2400 X139.20 Y164.53 E1351.66394
G1 X165.80 Y164.53 E1352.91832
G1 X165.80 Y168.98 E1353.12793
G1 X139.20 Y168.98 E1354.38231
G0 F12000 X139.74 Y168.28
;TYPE:FILL
G1 F2400 X142.94 Y165.07 E1354.59585
G0 F12000 X143.51 Y165.07
G1 F2400 X140.14 Y168.44 E1354.82030
G0 F12000 X140.71 Y168.44
G1 F2400 X144.07 Y165.07 E1355.04471
G0 F12000 X144.64 Y165.07
G1 F2400 X141.27 Y168.44 E1355.26912
G0 F12000 X141.84 Y168.44
G1 F2400 X145.21 Y165.07 E1355.49357
G0 F12000 X145.77 Y165.07
G1 F2400 X142.41 Y168.44 E1355.71798
G0 F12000 X142.97 Y168.44
G1 F2400 X146.34 Y165.07 E1355.94239
G0 F12000 X146.90 Y165.07
G1 F2400 X143.54 Y168.44 E1356.16680
G0 F12000 X144.10 Y168.44
G1 F2400 X147.47 Y165.07 E1356.39122
G0 F12000 X148.03 Y165.07
G1 F2400 X144.67 Y168.44 E1356.61563
G0 F12000 X145.23 Y168.44
G1 F2400 X148.60 Y165.07 E1356.84004
G0 F12000 X149.16 Y165.07
G1 F2400 X145.80 Y168.44 E1357.06445
G0 F12000 X146.37 Y168.44
G1 F2400 X149.73 Y165.07 E1357.28887
G0 F12000 X150.30 Y165.07
G1 F2400 X146.93 Y168.44 E1357.51328
G0 F12000 X147.50 Y168.44
G1 F2400 X150.86 Y165.07 E1357.73769
G0 F12000 X151.43 Y165.07
G1 F2400 X148.06 Y168.44 E1357.96210
G0 F12000 X148.63 Y168.44
G1 F2400 X151.99 Y165.07 E1358.18651
G0 F12000 X152.56 Y165.07
G1 F2400 X149.19 Y168.44 E1358.41093
G0 F12000 X149.76 Y168.44
G1 F2400 X153.12 Y165.07 E1358.63534
G0 F12000 X153.69 Y165.07
G1 F2400 X150.32 Y168.44 E1358.85975
G0 F12000 X150.89 Y168.44
G1 F2400 X154.26 Y165.07 E1359.08420
G0 F12000 X154.82 Y165.07
G1 F2400 X151.46 Y168.44 E1359.30861
G0 F12000 X152.02 Y168.44
G1 F2400 X155.39 Y165.07 E1359.53302
G0 F12000 X155.95 Y165.07
G1 F2400 X152.59 Y168.44 E1359.75747
G0 F12000 X153.15 Y168.44
G1 F2400 X156.52 Y165.07 E1359.98188
G0 F12000 X157.08 Y165.07
G1 F2400 X153.72 Y168.44 E1360.20629
G0 F12000 X154.28 Y168.44
G1 F2400 X157.65 Y165.07 E1360.43070
G0 F12000 X158.22 Y165.07
G1 F2400 X154.85 Y168.44 E1360.65511
G0 F12000 X155.42 Y168.44
G1 F2400 X158.78 Y165.07 E1360.87953
G0 F12000 X159.35 Y165.07
G1 F2400 X155.98 Y168.44 E1361.10394
G0 F12000 X156.55 Y168.44
G1 F2400 X159.91 Y165.07 E1361.32835
G0 F12000 X160.48 Y165.07
G1 F2400 X157.11 Y168.44 E1361.55276
G0 F12000 X157.68 Y168.44
G1 F2400 X161.04 Y165.07 E1361.77718
G0 F12000 X161.61 Y165.07
G1 F2400 X158.24 Y168.44 E1362.00159
G0 F12000 X158.81 Y168.44
G1 F2400 X162.18 Y165.07 E1362.22600
G0 F12000 X162.74 Y165.07
G1 F2400 X159.38 Y168.44 E1362.45041
G0 F12000 X159.94 Y168.44
G1 F2400 X163.31 Y165.07 E1362.67486
G0 F12000 X163.87 Y165.07
G1 F2400 X160.51 Y168.44 E1362.89927
G0 F12000 X161.07 Y168.44
G1 F2400 X164.44 Y165.07 E1363.12368
G0 F12000 X165.00 Y165.07
G1 F2400 X161.64 Y168.44 E1363.34813
G0 F12000 X162.20 Y168.44
G1 F2400 X165.26 Y165.38 E1363.55187
G0 F12000 X165.26 Y165.95
G1 F2400 X162.77 Y168.44 E1363.71786
G0 F12000 X163.34 Y168.44
G1 F2400 X165.26 Y166.51 E1363.84610
G0 F12000 X165.26 Y167.08
G1 F2400 X163.90 Y168.44 E1363.93667
G0 F12000 X164.47 Y168.44
G1 F2400 X165.26 Y167.65 E1363.98949
G0 F12000 X165.26 Y168.21
G1 F2400 X165.03 Y168.44 E1364.00456
G0 F12000 X142.38 Y165.07
G1 F2400 X139.74 Y167.71 E1364.18035
G0 F12000 X139.74 Y167.14
G1 F2400 X141.81 Y165.07 E1364.31840
G0 F12000 X141.25 Y165.07
G1 F2400 X139.74 Y166.58 E1364.41877
G0 F12000 X139.74 Y166.01
G1 F2400 X140.68 Y165.07 E1364.48139
G0 F12000 X140.11 Y165.07
G1 F2400 X139.74 Y165.45 E1364.50627
G1 F2400 E1361.50627
G0 F12000 X140.88 Y163.08
;TYPE:WALL-INNER
G1 F2400 E1364.50627
G1 X140.88 Y141.40 E1365.52858
G1 X162.56 Y141.40 E1366.55090
G1 X162.56 Y163.08 E1367.57322
G1 X140.88 Y163.08 E1368.59554
G0 F12000 X140.49 Y163.48
;TYPE:WALL-OUTER
G1 F2400 X140.49 Y141.00 E1369.65558
G1 X162.96 Y141.00 E1370.71562
G1 X162.96 Y163.48 E1371.77566
G1 X140.49 Y163.48 E1372.83571
G0 F12000 X140.69 Y163.18
G0 X141.03 Y161.66
;TYPE:FILL
G1 F2400 X161.14 Y141.54 E1374.17744
G0 F12000 X158.17 Y141.54
G1 F2400 X162.42 Y145.79 E1374.46084
G0 F12000 X162.42 Y146.91
G1 F2400 X146.40 Y162.94 E1375.52962
G0 F12000 X146.31 Y162.94
G1 F2400 X141.02 Y157.66 E1375.88214
G0 F12000 X141.03 Y155.01
G1 F2400 X154.49 Y141.54 E1376.78026
G0 F12000 X151.52 Y141.54
G1 F2400 X162.42 Y152.44 E1377.50735
G0 F12000 X162.42 Y153.57
G1 F2400 X153.05 Y162.94 E1378.13243
G0 F12000 X152.96 Y162.94
G1 F2400 X141.02 Y151.00 E1378.92858
G0 F12000 X141.03 Y148.36
G1 F2400 X147.84 Y141.54 E1379.38301
G0 F12000 X144.87 Y141.54
G1 F2400 X162.42 Y159.10 E1380.55372
G0 F12000 X162.42 Y160.22
G1 F2400 X159.70 Y162.94 E1380.73518
G0 F12000 X159.62 Y162.94
G1 F2400 X141.02 Y144.35 E1381.97502
G0 F12000 X141.03 Y141.70
G1 F2400 X141.19 Y141.54 E1381.98582
G0 F12000 X141.19 Y140.17
G0 X139.60 Y140.07
