;-- START GCODE --
;Sliced for Type A Machines Series 1
;Sliced at: Sun 12-04-2015 17:42:35
;Basic settings: Layer height: 0.1 Walls: 0.4 Fill: 8
;Print Speed: 50 Support: 0
;Retraction Speed: 40 Retraction Distance: 1.2
;Print time: #P_TIME#
;Filament used: #F_AMNT#m #F_WGHT#g
;Filament cost: #F_COST#
M106 S255	 ;start with the fan on
G21        ;metric values
G90        ;absolute positioning
M106 S255    ;start with the fan on
G28     ;move to endstops
G29		;allows for auto-levelling
G1 X150 Y5  Z15.0 F12000 ;center and move the platform down 15mm
M109 S220 ;Heat To temp
G92 E0                  ;zero the extruded length
G1 F200 E30              ;extrude 30mm of feed stock
G92 E0                  ;zero the extruded length again
G1 X175 Y25  Z0 F12000 ;remove bugger
G1 X220 F12000 ;remove bugger
G1 X150 Y150  Z15 F12000 ;recenter and begin
G1 F12000

;Layer count: 74
;LAYER:-2
;RAFT
G0 F12000 X134.81 Y134.81 Z0.30
;TYPE:SUPPORT
G1 F2100 X137.87 Y132.29 E0.34648
G1 X138.60 Y131.69 E0.42831
G1 X142.93 Y129.38 E0.85656
G1 X147.62 Y127.96 E1.28477
G1 X151.56 Y127.57 E1.63088
G1 X152.50 Y127.48 E1.71299
G1 X156.45 Y127.86 E2.05935
G1 X157.38 Y127.96 E2.14148
G1 X162.07 Y129.38 E2.56957
G1 X165.57 Y131.25 E2.91596
G1 X166.40 Y131.69 E2.99794
G1 X169.47 Y134.21 E3.34399
G1 X170.20 Y134.81 E3.42631
G1 X172.71 Y137.87 E3.77242
G1 X173.31 Y138.60 E3.85456
G1 X175.17 Y142.09 E4.20050
G1 X175.62 Y142.92 E4.28261
G1 X177.04 Y147.62 E4.71099
G1 X177.52 Y152.50 E5.13929
G1 X177.04 Y157.38 E5.56760
G1 X175.62 Y162.07 E5.99581
G1 X173.31 Y166.40 E6.42394
G1 X170.79 Y169.47 E6.77018
G1 X170.19 Y170.20 E6.85250
G1 X167.13 Y172.71 E7.19886
G1 X166.40 Y173.31 E7.28069
G1 X162.07 Y175.62 E7.70894
G1 X157.38 Y177.04 E8.13715
G1 X152.50 Y177.52 E8.56546
G1 X147.62 Y177.04 E8.99377
G1 X142.93 Y175.62 E9.42198
G1 X138.60 Y173.31 E9.85011
G1 X135.53 Y170.79 E10.19634
G1 X134.80 Y170.19 E10.27867
G1 X131.69 Y166.40 E10.70698
G1 X129.82 Y162.90 E11.05324
G1 X129.38 Y162.08 E11.13496
G1 X127.96 Y157.38 E11.56333
G1 X127.48 Y152.50 E11.99164
G1 X127.86 Y148.55 E12.33791
G1 X127.96 Y147.62 E12.42004
G1 X129.38 Y142.93 E12.84814
G1 X131.25 Y139.43 E13.19452
G1 X131.69 Y138.60 E13.27650
G1 X134.81 Y134.81 E13.70475
G0 F12000 X134.50 Y135.01
G1 F2100 X134.50 Y169.99 E16.75869
G0 F12000 X135.50 Y170.90
G1 F2100 X135.50 Y134.10 E19.97188
G0 F12000 X136.50 Y133.28
G1 F2100 X136.50 Y171.72 E23.32808
G0 F12000 X137.50 Y172.54
G1 F2100 X137.50 Y132.46 E26.82747
G0 F12000 X138.50 Y131.64
G1 F2100 X138.50 Y173.36 E30.47004
G0 F12000 X139.50 Y173.91
G1 F2100 X139.50 Y131.09 E34.20786
G0 F12000 X140.50 Y130.56
G1 F2100 X140.50 Y174.44 E38.03893
G0 F12000 X141.50 Y174.97
G1 F2100 X141.50 Y130.03 E41.96333
G0 F12000 X142.50 Y129.49
G1 F2100 X142.50 Y175.51 E45.98098
G0 F12000 X143.50 Y175.90
G1 F2100 X143.50 Y129.10 E50.06707
G0 F12000 X144.50 Y128.79
G1 F2100 X144.50 Y176.20 E54.20625
G0 F12000 X145.50 Y176.51
G1 F2100 X145.50 Y128.49 E58.39851
G0 F12000 X146.50 Y128.19
G1 F2100 X146.50 Y176.81 E62.64368
G0 F12000 X147.50 Y177.12
G1 F2100 X147.50 Y127.88 E66.94194
G0 F12000 X148.50 Y127.77
G1 F2100 X148.50 Y177.23 E71.26097
G0 F12000 X149.50 Y177.33
G1 F2100 X149.50 Y127.67 E75.59729
G0 F12000 X150.50 Y127.57
G1 F2100 X150.50 Y177.43 E79.95089
G0 F12000 X151.50 Y177.53
G1 F2100 X151.50 Y127.47 E84.32179
G0 F12000 X152.50 Y127.37
G1 F2100 X152.50 Y177.63 E88.70979
G0 F12000 X153.50 Y177.53
G1 F2100 X153.50 Y127.47 E93.08068
G0 F12000 X154.50 Y127.57
G1 F2100 X154.50 Y177.43 E97.43429
G0 F12000 X155.50 Y177.33
G1 F2100 X155.50 Y127.67 E101.77061
G0 F12000 X156.50 Y127.77
G1 F2100 X156.50 Y177.24 E106.08964
G0 F12000 X157.50 Y177.12
G1 F2100 X157.50 Y127.89 E110.38790
G0 F12000 X158.50 Y128.19
G1 F2100 X158.50 Y176.81 E114.63315
G0 F12000 X159.50 Y176.51
G1 F2100 X159.50 Y128.49 E118.82541
G0 F12000 X160.50 Y128.79
G1 F2100 X160.50 Y176.21 E122.96468
G0 F12000 X161.50 Y175.90
G1 F2100 X161.50 Y129.10 E127.05086
G0 F12000 X162.50 Y129.49
G1 F2100 X162.50 Y175.51 E131.06859
G0 F12000 X163.50 Y174.97
G1 F2100 X163.50 Y130.03 E134.99308
G0 F12000 X164.50 Y130.56
G1 F2100 X164.50 Y174.44 E138.82415
G0 F12000 X165.50 Y173.91
G1 F2100 X165.50 Y131.09 E142.56197
G0 F12000 X166.50 Y131.64
G1 F2100 X166.50 Y173.36 E146.20463
G0 F12000 X167.50 Y172.54
G1 F2100 X167.50 Y132.46 E149.70411
G0 F12000 X168.50 Y133.28
G1 F2100 X168.50 Y171.72 E153.06039
G0 F12000 X169.50 Y170.90
G1 F2100 X169.50 Y134.10 E156.27359
G0 F12000 X170.50 Y135.01
G1 F2100 X170.50 Y169.99 E159.32753
G0 F12000 X171.50 Y168.77
G1 F2100 X171.50 Y136.23 E162.16852
G0 F12000 X172.50 Y137.45
G1 F2100 X172.50 Y167.55 E164.79649
G0 F12000 X173.50 Y166.26
G1 F2100 X173.50 Y138.74 E167.19938
G0 F12000 X174.50 Y140.61
G1 F2100 X174.50 Y164.39 E169.27538
G0 F12000 X175.50 Y162.52
G1 F2100 X175.50 Y142.48 E171.02442
G0 F12000 X176.50 Y145.47
G1 F2100 X176.50 Y159.53 E172.25145
G0 F12000 X177.50 Y153.81
G1 F2100 X177.50 Y151.19 E172.48098
G0 F12000 X133.50 Y136.23
G1 F2100 X133.50 Y168.77 E175.32189
G0 F12000 X132.50 Y167.55
G1 F2100 X132.50 Y137.45 E177.94986
G0 F12000 X131.50 Y138.74
G1 F2100 X131.50 Y166.26 E180.35266
G0 F12000 X130.50 Y164.39
G1 F2100 X130.50 Y140.61 E182.42875
G0 F12000 X129.50 Y142.48
G1 F2100 X129.50 Y162.52 E184.17796
G0 F12000 X128.50 Y159.53
G1 F2100 X128.50 Y145.47 E185.40516
G0 F12000 X127.50 Y151.19
G1 F2100 X127.50 Y153.81 E185.63469
M106 S255
;LAYER:-1
;RAFT
G0 F12000 X127.58 Y153.89 Z0.50
;TYPE:SUPPORT
G1 F3000 X151.11 Y177.41 E186.18806
G0 F12000 X150.48 Y177.35
G1 F3000 X127.64 Y154.51 E186.72522
G0 F12000 X127.71 Y155.14
G1 F3000 X149.86 Y177.29 E187.24616
G0 F12000 X149.23 Y177.23
G1 F3000 X127.77 Y155.77 E187.75090
G0 F12000 X127.83 Y156.40
G1 F3000 X148.60 Y177.17 E188.23940
G0 F12000 X147.97 Y177.11
G1 F3000 X127.89 Y157.02 E188.71171
G0 F12000 X128.03 Y157.73
G1 F3000 X147.27 Y176.97 E189.16412
G0 F12000 X146.46 Y176.72
G1 F3000 X128.28 Y158.54 E189.59163
G0 F12000 X128.53 Y159.35
G1 F3000 X145.64 Y176.47 E189.99423
G0 F12000 X144.83 Y176.23
G1 F3000 X128.77 Y160.17 E190.37195
G0 F12000 X129.02 Y160.98
G1 F3000 X144.02 Y175.98 E190.72476
G0 F12000 X143.21 Y175.73
G1 F3000 X129.26 Y161.79 E191.05265
G0 F12000 X129.77 Y162.86
G1 F3000 X142.14 Y175.23 E191.34358
G0 F12000 X140.92 Y174.58
G1 F3000 X130.42 Y164.07 E191.59064
G0 F12000 X131.07 Y165.29
G1 F3000 X139.71 Y173.93 E191.79382
G0 F12000 X138.35 Y173.14
G1 F3000 X131.86 Y166.65 E191.94634
G0 F12000 X134.44 Y169.79
G1 F3000 X135.21 Y170.56 E191.96448
G0 F12000 X151.74 Y177.48
G1 F3000 X127.52 Y153.26 E192.53407
G0 F12000 X127.46 Y152.63
G1 F3000 X152.37 Y177.54 E193.11987
G0 F12000 X152.91 Y177.51
G1 F3000 X127.48 Y152.09 E193.71770
G0 F12000 X127.54 Y151.58
G1 F3000 X153.42 Y177.46 E194.32644
G0 F12000 X153.94 Y177.41
G1 F3000 X127.59 Y151.06 E194.94609
G0 F12000 X127.64 Y150.55
G1 F3000 X154.45 Y177.36 E195.57665
G0 F12000 X154.97 Y177.31
G1 F3000 X127.69 Y150.03 E196.21816
G0 F12000 X127.74 Y149.52
G1 F3000 X155.48 Y177.26 E196.87057
G0 F12000 X155.99 Y177.21
G1 F3000 X127.79 Y149.00 E197.53390
G0 F12000 X127.84 Y148.49
G1 F3000 X156.51 Y177.16 E198.20814
G0 F12000 X157.02 Y177.11
G1 F3000 X127.89 Y147.97 E198.89328
G0 F12000 X127.97 Y147.48
G1 F3000 X157.51 Y177.03 E199.58822
G0 F12000 X157.95 Y176.90
G1 F3000 X128.10 Y147.05 E200.29027
G0 F12000 X128.23 Y146.61
G1 F3000 X158.38 Y176.77 E200.99945
G0 F12000 X158.82 Y176.64
G1 F3000 X128.36 Y146.18 E201.71573
G0 F12000 X128.49 Y145.75
G1 F3000 X159.25 Y176.50 E202.43911
G0 F12000 X159.69 Y176.37
G1 F3000 X128.62 Y145.31 E203.16960
G0 F12000 X128.76 Y144.88
G1 F3000 X160.12 Y176.24 E203.90721
G0 F12000 X160.55 Y176.11
G1 F3000 X128.89 Y144.44 E204.65191
G0 F12000 X129.02 Y144.01
G1 F3000 X160.99 Y175.98 E205.40373
G0 F12000 X161.42 Y175.85
G1 F3000 X129.15 Y143.58 E206.16267
G0 F12000 X129.28 Y143.14
G1 F3000 X161.85 Y175.71 E206.92869
G0 F12000 X162.26 Y175.55
G1 F3000 X129.44 Y142.74 E207.70039
G0 F12000 X129.64 Y142.37
G1 F3000 X162.63 Y175.35 E208.47610
G0 F12000 X163.00 Y175.16
G1 F3000 X129.84 Y142.00 E209.25589
G0 F12000 X130.04 Y141.63
G1 F3000 X163.36 Y174.96 E210.03970
G0 F12000 X163.73 Y174.76
G1 F3000 X130.23 Y141.26 E210.82752
G0 F12000 X130.43 Y140.90
G1 F3000 X164.10 Y174.57 E211.61939
G0 F12000 X164.47 Y174.37
G1 F3000 X130.63 Y140.53 E212.41530
G0 F12000 X130.82 Y140.16
G1 F3000 X164.84 Y174.17 E213.21526
G0 F12000 X165.21 Y173.97
G1 F3000 X131.02 Y139.79 E214.01924
G0 F12000 X131.22 Y139.42
G1 F3000 X165.58 Y173.78 E214.82725
G0 F12000 X165.94 Y173.58
G1 F3000 X131.42 Y139.05 E215.63931
G0 F12000 X131.61 Y138.68
G1 F3000 X166.31 Y173.38 E216.45540
G0 F12000 X166.64 Y173.15
G1 F3000 X131.85 Y138.36 E217.27358
G0 F12000 X132.11 Y138.05
G1 F3000 X166.95 Y172.89 E218.09306
G0 F12000 X167.26 Y172.64
G1 F3000 X132.36 Y137.74 E218.91388
G0 F12000 X132.62 Y137.43
G1 F3000 X167.57 Y172.38 E219.73598
G0 F12000 X167.88 Y172.13
G1 F3000 X132.87 Y137.11 E220.55942
G0 F12000 X133.13 Y136.80
G1 F3000 X168.19 Y171.87 E221.38419
G0 F12000 X168.50 Y171.62
G1 F3000 X133.38 Y136.49 E222.21025
G0 F12000 X133.64 Y136.18
G1 F3000 X168.82 Y171.36 E223.03764
G0 F12000 X169.13 Y171.11
G1 F3000 X133.89 Y135.87 E223.86634
G0 F12000 X134.15 Y135.56
G1 F3000 X169.44 Y170.85 E224.69636
G0 F12000 X169.75 Y170.60
G1 F3000 X134.40 Y135.25 E225.52768
G0 F12000 X134.66 Y134.94
G1 F3000 X170.06 Y170.34 E226.36033
G0 F12000 X170.34 Y170.06
G1 F3000 X134.94 Y134.66 E227.19298
G0 F12000 X135.25 Y134.40
G1 F3000 X170.60 Y169.75 E228.02430
G0 F12000 X170.85 Y169.44
G1 F3000 X135.56 Y134.15 E228.85431
G0 F12000 X135.87 Y133.89
G1 F3000 X171.11 Y169.13 E229.68299
G0 F12000 X171.36 Y168.82
G1 F3000 X136.18 Y133.64 E230.51037
G0 F12000 X136.49 Y133.38
G1 F3000 X171.62 Y168.51 E231.33644
G0 F12000 X171.87 Y168.19
G1 F3000 X136.80 Y133.13 E232.16118
G0 F12000 X137.12 Y132.87
G1 F3000 X172.13 Y167.88 E232.98460
G0 F12000 X172.38 Y167.57
G1 F3000 X137.43 Y132.62 E233.80672
G0 F12000 X137.74 Y132.36
G1 F3000 X172.64 Y167.26 E234.62752
G0 F12000 X172.89 Y166.95
G1 F3000 X138.05 Y132.11 E235.44699
G0 F12000 X138.36 Y131.85
G1 F3000 X173.15 Y166.64 E236.26517
G0 F12000 X173.39 Y166.31
G1 F3000 X138.69 Y131.62 E237.08126
G0 F12000 X139.05 Y131.42
G1 F3000 X173.58 Y165.94 E237.89330
G0 F12000 X173.78 Y165.58
G1 F3000 X139.42 Y131.22 E238.70132
G0 F12000 X139.79 Y131.02
G1 F3000 X173.98 Y165.21 E239.50527
G0 F12000 X174.17 Y164.84
G1 F3000 X140.16 Y130.83 E240.30522
G0 F12000 X140.53 Y130.63
G1 F3000 X174.37 Y164.47 E241.10112
G0 F12000 X174.57 Y164.10
G1 F3000 X140.90 Y130.43 E241.89297
G0 F12000 X141.27 Y130.24
G1 F3000 X174.76 Y163.73 E242.68080
G0 F12000 X174.96 Y163.37
G1 F3000 X141.63 Y130.04 E243.46460
G0 F12000 X142.00 Y129.84
G1 F3000 X175.16 Y163.00 E244.24436
G0 F12000 X175.35 Y162.63
G1 F3000 X142.37 Y129.64 E245.02007
G0 F12000 X142.74 Y129.45
G1 F3000 X175.55 Y162.26 E245.79176
G0 F12000 X175.71 Y161.85
G1 F3000 X143.14 Y129.28 E246.55775
G0 F12000 X143.58 Y129.15
G1 F3000 X175.85 Y161.42 E247.31665
G0 F12000 X175.98 Y160.99
G1 F3000 X144.01 Y129.02 E248.06844
G0 F12000 X144.45 Y128.89
G1 F3000 X176.11 Y160.55 E248.81310
G0 F12000 X176.24 Y160.12
G1 F3000 X144.88 Y128.76 E249.55071
G0 F12000 X145.31 Y128.63
G1 F3000 X176.37 Y159.69 E250.28119
G0 F12000 X176.50 Y159.25
G1 F3000 X145.75 Y128.49 E251.00454
G0 F12000 X146.18 Y128.36
G1 F3000 X176.64 Y158.82 E251.72082
G0 F12000 X176.77 Y158.38
G1 F3000 X146.62 Y128.23 E252.42999
G0 F12000 X147.05 Y128.10
G1 F3000 X176.90 Y157.95 E253.13202
G0 F12000 X177.03 Y157.52
G1 F3000 X147.48 Y127.97 E253.82697
G0 F12000 X147.97 Y127.89
G1 F3000 X177.11 Y157.03 E254.51212
G0 F12000 X177.16 Y156.51
G1 F3000 X148.49 Y127.84 E255.18635
G0 F12000 X149.00 Y127.79
G1 F3000 X177.21 Y156.00 E255.84966
G0 F12000 X177.26 Y155.48
G1 F3000 X149.52 Y127.74 E256.50207
G0 F12000 X150.03 Y127.69
G1 F3000 X177.31 Y154.97 E257.14357
G0 F12000 X177.36 Y154.45
G1 F3000 X150.55 Y127.64 E257.77412
G0 F12000 X151.06 Y127.59
G1 F3000 X177.41 Y153.94 E258.39376
G0 F12000 X177.46 Y153.42
G1 F3000 X151.58 Y127.54 E259.00250
G0 F12000 X152.09 Y127.49
G1 F3000 X177.51 Y152.91 E259.60034
G0 F12000 X177.54 Y152.37
G1 F3000 X152.63 Y127.46 E260.18614
G0 F12000 X153.26 Y127.52
G1 F3000 X177.48 Y151.74 E260.75573
G0 F12000 X177.42 Y151.11
G1 F3000 X153.89 Y127.58 E261.30910
G0 F12000 X154.51 Y127.64
G1 F3000 X177.35 Y150.49 E261.84629
G0 F12000 X177.29 Y149.86
G1 F3000 X155.14 Y127.71 E262.36722
G0 F12000 X155.77 Y127.77
G1 F3000 X177.23 Y149.23 E262.87196
G0 F12000 X177.17 Y148.60
G1 F3000 X156.40 Y127.83 E263.36049
G0 F12000 X157.03 Y127.89
G1 F3000 X177.11 Y147.97 E263.83278
G0 F12000 X176.97 Y147.27
G1 F3000 X157.73 Y128.03 E264.28522
G0 F12000 X158.54 Y128.28
G1 F3000 X176.72 Y146.46 E264.71274
G0 F12000 X176.47 Y145.64
G1 F3000 X159.35 Y128.53 E265.11536
G0 F12000 X160.17 Y128.77
G1 F3000 X176.23 Y144.83 E265.49309
G0 F12000 X175.98 Y144.02
G1 F3000 X160.98 Y129.02 E265.84592
G0 F12000 X161.79 Y129.26
G1 F3000 X175.74 Y143.21 E266.17386
G0 F12000 X175.23 Y142.14
G1 F3000 X162.86 Y129.77 E266.46482
G0 F12000 X164.08 Y130.42
G1 F3000 X174.58 Y140.92 E266.71190
G0 F12000 X173.93 Y139.71
G1 F3000 X165.29 Y131.07 E266.91515
G0 F12000 X166.65 Y131.86
G1 F3000 X173.14 Y138.35 E267.06794
G0 F12000 X170.56 Y135.21
G1 F3000 X169.79 Y134.44 E267.08612
;LAYER:-1
;RAFT
G0 F12000 X169.87 Y134.46 Z0.70
;TYPE:SUPPORT
G1 F2100 X135.13 Y134.46 E268.24154
G0 F12000 X134.72 Y134.82
G1 F2100 X170.29 Y134.82 E269.42464
G0 F12000 X170.58 Y135.18
G1 F2100 X134.42 Y135.18 E270.62736
G0 F12000 X134.12 Y135.54
G1 F2100 X170.88 Y135.54 E271.84970
G0 F12000 X171.17 Y135.90
G1 F2100 X133.83 Y135.90 E273.09167
G0 F12000 X133.53 Y136.26
G1 F2100 X171.47 Y136.26 E274.35326
G0 F12000 X171.76 Y136.62
G1 F2100 X133.24 Y136.62 E275.63450
G0 F12000 X132.94 Y136.98
G1 F2100 X172.06 Y136.98 E276.93538
G0 F12000 X172.35 Y137.34
G1 F2100 X132.65 Y137.34 E278.25587
G0 F12000 X132.35 Y137.70
G1 F2100 X172.65 Y137.70 E279.59602
G0 F12000 X172.94 Y138.06
G1 F2100 X132.06 Y138.06 E280.95579
G0 F12000 X131.76 Y138.42
G1 F2100 X173.24 Y138.42 E282.33519
G0 F12000 X173.47 Y138.78
G1 F2100 X131.53 Y138.78 E283.73012
G0 F12000 X131.34 Y139.14
G1 F2100 X173.66 Y139.14 E285.13786
G0 F12000 X173.86 Y139.50
G1 F2100 X131.15 Y139.50 E286.55840
G0 F12000 X130.95 Y139.86
G1 F2100 X174.05 Y139.86 E287.99178
G0 F12000 X174.24 Y140.22
G1 F2100 X130.76 Y140.22 E289.43796
G0 F12000 X130.57 Y140.58
G1 F2100 X174.43 Y140.58 E290.89695
G0 F12000 X174.63 Y140.94
G1 F2100 X130.38 Y140.94 E292.36874
G0 F12000 X130.18 Y141.30
G1 F2100 X174.82 Y141.30 E293.85334
G0 F12000 X175.01 Y141.66
G1 F2100 X129.99 Y141.66 E295.35075
G0 F12000 X129.80 Y142.02
G1 F2100 X175.20 Y142.02 E296.86096
G0 F12000 X175.40 Y142.38
G1 F2100 X129.60 Y142.38 E298.38397
G0 F12000 X129.41 Y142.74
G1 F2100 X175.59 Y142.74 E299.91979
G0 F12000 X175.73 Y143.10
G1 F2100 X129.26 Y143.10 E301.46536
G0 F12000 X129.16 Y143.46
G1 F2100 X175.84 Y143.46 E303.01817
G0 F12000 X175.95 Y143.82
G1 F2100 X129.05 Y143.82 E304.57827
G0 F12000 X128.94 Y144.18
G1 F2100 X176.06 Y144.18 E306.14562
G0 F12000 X176.17 Y144.54
G1 F2100 X128.83 Y144.54 E307.72026
G0 F12000 X128.72 Y144.90
G1 F2100 X176.28 Y144.90 E309.30214
G0 F12000 X176.39 Y145.26
G1 F2100 X128.61 Y145.26 E310.89131
G0 F12000 X128.50 Y145.62
G1 F2100 X176.50 Y145.62 E312.48773
G0 F12000 X176.61 Y145.98
G1 F2100 X128.39 Y145.98 E314.09140
G0 F12000 X128.28 Y146.34
G1 F2100 X176.72 Y146.34 E315.70236
G0 F12000 X176.83 Y146.70
G1 F2100 X128.17 Y146.70 E317.32060
G0 F12000 X128.06 Y147.06
G1 F2100 X176.94 Y147.06 E318.94609
G0 F12000 X177.04 Y147.42
G1 F2100 X127.95 Y147.42 E320.57883
G0 F12000 X127.88 Y147.78
G1 F2100 X177.12 Y147.78 E322.21649
G0 F12000 X177.15 Y148.14
G1 F2100 X127.85 Y148.14 E323.85648
G0 F12000 X127.81 Y148.50
G1 F2100 X177.19 Y148.50 E325.49886
G0 F12000 X177.22 Y148.86
G1 F2100 X127.78 Y148.86 E327.14358
G0 F12000 X127.74 Y149.22
G1 F2100 X177.26 Y149.22 E328.79069
G0 F12000 X177.30 Y149.58
G1 F2100 X127.70 Y149.58 E330.44012
G0 F12000 X127.67 Y149.94
G1 F2100 X177.33 Y149.94 E332.09195
G0 F12000 X177.37 Y150.30
G1 F2100 X127.63 Y150.30 E333.74611
G0 F12000 X127.60 Y150.66
G1 F2100 X177.40 Y150.66 E335.40267
G0 F12000 X177.44 Y151.02
G1 F2100 X127.56 Y151.02 E337.06155
G0 F12000 X127.53 Y151.38
G1 F2100 X177.47 Y151.38 E338.72283
G0 F12000 X177.51 Y151.74
G1 F2100 X127.49 Y151.74 E340.38647
G0 F12000 X127.45 Y152.10
G1 F2100 X177.54 Y152.10 E342.05247
G0 F12000 X177.58 Y152.46
G1 F2100 X127.42 Y152.46 E343.72086
G0 F12000 X127.45 Y152.82
G1 F2100 X177.55 Y152.82 E345.38739
G0 F12000 X177.52 Y153.18
G1 F2100 X127.48 Y153.18 E347.05153
G0 F12000 X127.52 Y153.54
G1 F2100 X177.48 Y153.54 E348.71334
G0 F12000 X177.44 Y153.90
G1 F2100 X127.55 Y153.90 E350.37276
G0 F12000 X127.59 Y154.26
G1 F2100 X177.41 Y154.26 E352.02984
G0 F12000 X177.37 Y154.62
G1 F2100 X127.62 Y154.62 E353.68453
G0 F12000 X127.66 Y154.98
G1 F2100 X177.34 Y154.98 E355.33690
G0 F12000 X177.30 Y155.34
G1 F2100 X127.69 Y155.34 E356.98687
G0 F12000 X127.73 Y155.70
G1 F2100 X177.27 Y155.70 E358.63451
G0 F12000 X177.23 Y156.06
G1 F2100 X127.77 Y156.06 E360.27975
G0 F12000 X127.80 Y156.42
G1 F2100 X177.20 Y156.42 E361.92267
G0 F12000 X177.16 Y156.78
G1 F2100 X127.84 Y156.78 E363.56319
G0 F12000 X127.87 Y157.14
G1 F2100 X177.13 Y157.14 E365.20139
G0 F12000 X177.07 Y157.50
G1 F2100 X127.93 Y157.50 E366.83572
G0 F12000 X128.04 Y157.86
G1 F2100 X176.96 Y157.86 E368.46281
G0 F12000 X176.85 Y158.22
G1 F2100 X128.15 Y158.22 E370.08265
G0 F12000 X128.26 Y158.58
G1 F2100 X176.74 Y158.58 E371.69520
G0 F12000 X176.63 Y158.94
G1 F2100 X128.37 Y158.94 E373.30046
G0 F12000 X128.48 Y159.30
G1 F2100 X176.52 Y159.30 E374.89848
G0 F12000 X176.41 Y159.66
G1 F2100 X128.59 Y159.66 E376.48925
G0 F12000 X128.69 Y160.02
G1 F2100 X176.30 Y160.02 E378.07273
G0 F12000 X176.19 Y160.38
G1 F2100 X128.80 Y160.38 E379.64893
G0 F12000 X128.91 Y160.74
G1 F2100 X176.09 Y160.74 E381.21787
G0 F12000 X175.97 Y161.10
G1 F2100 X129.02 Y161.10 E382.77954
G0 F12000 X129.13 Y161.46
G1 F2100 X175.87 Y161.46 E384.33395
G0 F12000 X175.76 Y161.82
G1 F2100 X129.24 Y161.82 E385.88108
G0 F12000 X129.37 Y162.18
G1 F2100 X175.63 Y162.18 E387.41972
G0 F12000 X175.44 Y162.54
G1 F2100 X129.56 Y162.54 E388.94553
G0 F12000 X129.75 Y162.90
G1 F2100 X175.24 Y162.90 E390.45857
G0 F12000 X175.05 Y163.26
G1 F2100 X129.95 Y163.26 E391.95877
G0 F12000 X130.14 Y163.62
G1 F2100 X174.86 Y163.62 E393.44619
G0 F12000 X174.67 Y163.98
G1 F2100 X130.33 Y163.98 E394.92082
G0 F12000 X130.52 Y164.34
G1 F2100 X174.47 Y164.34 E396.38263
G0 F12000 X174.28 Y164.70
G1 F2100 X130.72 Y164.70 E397.83164
G0 F12000 X130.91 Y165.06
G1 F2100 X174.09 Y165.06 E399.26785
G0 F12000 X173.90 Y165.42
G1 F2100 X131.10 Y165.42 E400.69122
G0 F12000 X131.29 Y165.78
G1 F2100 X173.71 Y165.78 E402.10181
G0 F12000 X173.51 Y166.14
G1 F2100 X131.49 Y166.14 E403.49957
G0 F12000 X131.70 Y166.50
G1 F2100 X173.30 Y166.50 E404.88329
G0 F12000 X173.01 Y166.86
G1 F2100 X131.99 Y166.86 E406.24739
G0 F12000 X132.29 Y167.22
G1 F2100 X172.71 Y167.22 E407.59186
G0 F12000 X172.42 Y167.58
G1 F2100 X132.58 Y167.58 E408.91671
G0 F12000 X132.88 Y167.94
G1 F2100 X172.12 Y167.94 E410.22194
G0 F12000 X171.83 Y168.30
G1 F2100 X133.17 Y168.30 E411.50754
G0 F12000 X133.47 Y168.66
G1 F2100 X171.53 Y168.66 E412.77349
G0 F12000 X171.24 Y169.02
G1 F2100 X133.76 Y169.02 E414.01982
G0 F12000 X134.06 Y169.38
G1 F2100 X170.94 Y169.38 E415.24652
G0 F12000 X170.65 Y169.74
G1 F2100 X134.35 Y169.74 E416.45359
G0 F12000 X134.65 Y170.10
G1 F2100 X170.35 Y170.10 E417.64105
G0 F12000 X169.97 Y170.46
G1 F2100 X135.03 Y170.46 E418.80296
G0 F12000 X135.47 Y170.82
G1 F2100 X169.53 Y170.82 E419.93563
G0 F12000 X169.09 Y171.18
G1 F2100 X135.91 Y171.18 E421.03910
G0 F12000 X136.35 Y171.54
G1 F2100 X168.65 Y171.54 E422.11334
G0 F12000 X168.21 Y171.90
G1 F2100 X136.79 Y171.90 E423.15834
G0 F12000 X137.23 Y172.26
G1 F2100 X167.77 Y172.26 E424.17413
G0 F12000 X167.33 Y172.62
G1 F2100 X137.67 Y172.62 E425.16073
G0 F12000 X138.11 Y172.98
G1 F2100 X166.89 Y172.98 E426.11806
G0 F12000 X166.45 Y173.34
G1 F2100 X138.55 Y173.34 E427.04618
G0 F12000 X139.21 Y173.70
G1 F2100 X165.79 Y173.70 E427.93017
G0 F12000 X165.12 Y174.06
G1 F2100 X139.88 Y174.06 E428.76936
G0 F12000 X140.56 Y174.42
G1 F2100 X164.44 Y174.42 E429.56374
G0 F12000 X163.77 Y174.78
G1 F2100 X141.23 Y174.78 E430.31332
G0 F12000 X141.90 Y175.14
G1 F2100 X163.09 Y175.14 E431.01814
G0 F12000 X162.42 Y175.50
G1 F2100 X142.58 Y175.50 E431.67812
G0 F12000 X143.52 Y175.86
G1 F2100 X161.48 Y175.86 E432.27561
G0 F12000 X160.30 Y176.22
G1 F2100 X144.70 Y176.22 E432.79423
G0 F12000 X145.89 Y176.58
G1 F2100 X159.11 Y176.58 E433.23396
G0 F12000 X157.92 Y176.94
G1 F2100 X147.07 Y176.94 E433.59480
G0 F12000 X149.62 Y177.30
G1 F2100 X155.38 Y177.30 E433.78621
G0 F12000 X169.43 Y134.10
G1 F2100 X135.57 Y134.10 E434.91244
G0 F12000 X136.01 Y133.74
G1 F2100 X168.99 Y133.74 E436.00939
G0 F12000 X168.55 Y133.38
G1 F2100 X136.45 Y133.38 E437.07714
G0 F12000 X136.89 Y133.02
G1 F2100 X168.11 Y133.02 E438.11569
G0 F12000 X167.67 Y132.66
G1 F2100 X137.33 Y132.66 E439.12500
G0 F12000 X137.77 Y132.30
G1 F2100 X167.24 Y132.30 E440.10511
G0 F12000 X166.79 Y131.94
G1 F2100 X138.21 Y131.94 E441.05598
G0 F12000 X138.69 Y131.58
G1 F2100 X166.31 Y131.58 E441.97483
G0 F12000 X165.64 Y131.22
G1 F2100 X139.36 Y131.22 E442.84890
G0 F12000 X140.03 Y130.86
G1 F2100 X164.97 Y130.86 E443.67821
G0 F12000 X164.29 Y130.50
G1 F2100 X140.71 Y130.50 E444.46275
G0 F12000 X141.38 Y130.14
G1 F2100 X163.62 Y130.14 E445.20249
G0 F12000 X162.95 Y129.78
G1 F2100 X142.05 Y129.78 E445.89746
G0 F12000 X142.73 Y129.42
G1 F2100 X162.28 Y129.42 E446.54766
G0 F12000 X161.22 Y129.06
G1 F2100 X143.78 Y129.06 E447.12792
G0 F12000 X144.97 Y128.70
G1 F2100 X160.04 Y128.70 E447.62928
G0 F12000 X158.85 Y128.34
G1 F2100 X146.15 Y128.34 E448.05175
G0 F12000 X147.34 Y127.98
G1 F2100 X157.67 Y127.98 E448.39533
G0 F12000 X154.58 Y127.62
G1 F2100 X150.42 Y127.62 E448.53353
;LAYER:-1
;RAFT
G0 F12000 X150.30 Y127.63 Z0.90
;TYPE:SUPPORT
G1 F2100 X150.30 Y177.37 E450.18765
G0 F12000 X149.94 Y177.33
G1 F2100 X149.94 Y127.67 E451.83945
G0 F12000 X149.58 Y127.70
G1 F2100 X149.58 Y177.29 E453.48885
G0 F12000 X149.22 Y177.26
G1 F2100 X149.22 Y127.74 E455.13593
G0 F12000 X148.86 Y127.77
G1 F2100 X148.86 Y177.22 E456.78061
G0 F12000 X148.50 Y177.19
G1 F2100 X148.50 Y127.81 E458.42296
G0 F12000 X148.14 Y127.84
G1 F2100 X148.14 Y177.15 E460.06292
G0 F12000 X147.78 Y177.12
G1 F2100 X147.78 Y127.88 E461.70055
G0 F12000 X147.42 Y127.95
G1 F2100 X147.42 Y177.04 E463.33325
G0 F12000 X147.06 Y176.93
G1 F2100 X147.06 Y128.06 E464.95871
G0 F12000 X146.70 Y128.17
G1 F2100 X146.70 Y176.82 E466.57685
G0 F12000 X146.34 Y176.72
G1 F2100 X146.34 Y128.28 E468.18774
G0 F12000 X145.98 Y128.39
G1 F2100 X145.98 Y176.61 E469.79137
G0 F12000 X145.62 Y176.50
G1 F2100 X145.62 Y128.50 E471.38776
G0 F12000 X145.26 Y128.61
G1 F2100 X145.26 Y176.39 E472.97683
G0 F12000 X144.90 Y176.28
G1 F2100 X144.90 Y128.72 E474.55865
G0 F12000 X144.54 Y128.83
G1 F2100 X144.54 Y176.17 E476.13322
G0 F12000 X144.18 Y176.06
G1 F2100 X144.18 Y128.94 E477.70047
G0 F12000 X143.82 Y129.05
G1 F2100 X143.82 Y175.95 E479.26047
G0 F12000 X143.46 Y175.84
G1 F2100 X143.46 Y129.16 E480.81322
G0 F12000 X143.10 Y129.26
G1 F2100 X143.10 Y175.73 E482.35872
G0 F12000 X142.74 Y175.59
G1 F2100 X142.74 Y129.41 E483.89444
G0 F12000 X142.38 Y129.60
G1 F2100 X142.38 Y175.39 E485.41732
G0 F12000 X142.02 Y175.20
G1 F2100 X142.02 Y129.80 E486.92743
G0 F12000 X141.66 Y129.99
G1 F2100 X141.66 Y175.01 E488.42477
G0 F12000 X141.30 Y174.81
G1 F2100 X141.30 Y130.18 E489.90927
G0 F12000 X140.94 Y130.37
G1 F2100 X140.94 Y174.62 E491.38099
G0 F12000 X140.58 Y174.43
G1 F2100 X140.58 Y130.57 E492.83988
G0 F12000 X140.22 Y130.76
G1 F2100 X140.22 Y174.24 E494.28600
G0 F12000 X139.86 Y174.05
G1 F2100 X139.86 Y130.95 E495.71931
G0 F12000 X139.50 Y131.14
G1 F2100 X139.50 Y173.85 E497.13982
G0 F12000 X139.14 Y173.66
G1 F2100 X139.14 Y131.34 E498.54752
G0 F12000 X138.78 Y131.53
G1 F2100 X138.78 Y173.47 E499.94242
G0 F12000 X138.42 Y173.23
G1 F2100 X138.42 Y131.76 E501.32175
G0 F12000 X138.06 Y132.06
G1 F2100 X138.06 Y172.94 E502.68146
G0 F12000 X137.70 Y172.64
G1 F2100 X137.70 Y132.35 E504.02154
G0 F12000 X137.34 Y132.65
G1 F2100 X137.34 Y172.35 E505.34200
G0 F12000 X136.98 Y172.05
G1 F2100 X136.98 Y132.94 E506.64284
G0 F12000 X136.62 Y133.24
G1 F2100 X136.62 Y171.76 E507.92405
G0 F12000 X136.26 Y171.46
G1 F2100 X136.26 Y133.53 E509.18564
G0 F12000 X135.90 Y133.83
G1 F2100 X135.90 Y171.17 E510.42761
G0 F12000 X135.54 Y170.87
G1 F2100 X135.54 Y134.12 E511.64995
G0 F12000 X135.18 Y134.42
G1 F2100 X135.18 Y170.58 E512.85267
G0 F12000 X134.82 Y170.28
G1 F2100 X134.82 Y134.71 E514.03577
G0 F12000 X134.46 Y135.13
G1 F2100 X134.46 Y169.87 E515.19119
G0 F12000 X134.10 Y169.43
G1 F2100 X134.10 Y135.57 E516.31741
G0 F12000 X133.74 Y136.01
G1 F2100 X133.74 Y168.99 E517.41440
G0 F12000 X133.38 Y168.55
G1 F2100 X133.38 Y136.45 E518.48215
G0 F12000 X133.02 Y136.89
G1 F2100 X133.02 Y168.11 E519.52070
G0 F12000 X132.66 Y167.67
G1 F2100 X132.66 Y137.32 E520.53001
G0 F12000 X132.30 Y137.76
G1 F2100 X132.30 Y167.23 E521.51012
G0 F12000 X131.94 Y166.79
G1 F2100 X131.94 Y138.20 E522.46099
G0 F12000 X131.58 Y138.69
G1 F2100 X131.58 Y166.31 E523.37987
G0 F12000 X131.22 Y165.64
G1 F2100 X131.22 Y139.36 E524.25398
G0 F12000 X130.86 Y140.03
G1 F2100 X130.86 Y164.97 E525.08326
G0 F12000 X130.50 Y164.29
G1 F2100 X130.50 Y140.71 E525.86776
G0 F12000 X130.14 Y141.38
G1 F2100 X130.14 Y163.62 E526.60750
G0 F12000 X129.78 Y162.95
G1 F2100 X129.78 Y142.05 E527.30247
G0 F12000 X129.42 Y142.72
G1 F2100 X129.42 Y162.27 E527.95261
G0 F12000 X129.06 Y161.22
G1 F2100 X129.06 Y143.78 E528.53273
G0 F12000 X128.70 Y144.96
G1 F2100 X128.70 Y160.03 E529.03389
G0 F12000 X128.34 Y158.85
G1 F2100 X128.34 Y146.15 E529.45617
G0 F12000 X127.98 Y147.34
G1 F2100 X127.98 Y157.66 E529.79948
G0 F12000 X127.62 Y154.57
G1 F2100 X127.62 Y150.43 E529.93701
G0 F12000 X150.66 Y127.60
G1 F2100 X150.66 Y177.40 E531.59353
G0 F12000 X151.02 Y177.44
G1 F2100 X151.02 Y127.56 E533.25241
G0 F12000 X151.38 Y127.53
G1 F2100 X151.38 Y177.47 E534.91365
G0 F12000 X151.74 Y177.51
G1 F2100 X151.74 Y127.49 E536.57726
G0 F12000 X152.10 Y127.45
G1 F2100 X152.10 Y177.54 E538.24323
G0 F12000 X152.46 Y177.58
G1 F2100 X152.46 Y127.42 E539.91159
G0 F12000 X152.82 Y127.45
G1 F2100 X152.82 Y177.55 E541.57809
G0 F12000 X153.18 Y177.52
G1 F2100 X153.18 Y127.48 E543.24219
G0 F12000 X153.54 Y127.52
G1 F2100 X153.54 Y177.48 E544.90397
G0 F12000 X153.90 Y177.44
G1 F2100 X153.90 Y127.55 E546.56335
G0 F12000 X154.26 Y127.59
G1 F2100 X154.26 Y177.41 E548.22040
G0 F12000 X154.62 Y177.37
G1 F2100 X154.62 Y127.62 E549.87506
G0 F12000 X154.98 Y127.66
G1 F2100 X154.98 Y177.34 E551.52739
G0 F12000 X155.34 Y177.30
G1 F2100 X155.34 Y127.70 E553.17733
G0 F12000 X155.70 Y127.73
G1 F2100 X155.70 Y177.27 E554.82493
G0 F12000 X156.06 Y177.23
G1 F2100 X156.06 Y127.77 E556.47015
G0 F12000 X156.42 Y127.80
G1 F2100 X156.42 Y177.20 E558.11303
G0 F12000 X156.78 Y177.16
G1 F2100 X156.78 Y127.84 E559.75352
G0 F12000 X157.14 Y127.87
G1 F2100 X157.14 Y177.13 E561.39168
G0 F12000 X157.50 Y177.07
G1 F2100 X157.50 Y127.93 E563.02602
G0 F12000 X157.86 Y128.04
G1 F2100 X157.86 Y176.96 E564.65307
G0 F12000 X158.22 Y176.85
G1 F2100 X158.22 Y128.15 E566.27287
G0 F12000 X158.58 Y128.26
G1 F2100 X158.58 Y176.74 E567.88539
G0 F12000 X158.94 Y176.63
G1 F2100 X158.94 Y128.37 E569.49066
G0 F12000 X159.30 Y128.48
G1 F2100 X159.30 Y176.52 E571.08864
G0 F12000 X159.66 Y176.41
G1 F2100 X159.66 Y128.59 E572.67937
G0 F12000 X160.02 Y128.69
G1 F2100 X160.02 Y176.30 E574.26282
G0 F12000 X160.38 Y176.19
G1 F2100 X160.38 Y128.80 E575.83902
G0 F12000 X160.74 Y128.91
G1 F2100 X160.74 Y176.09 E577.40797
G0 F12000 X161.10 Y175.97
G1 F2100 X161.10 Y129.02 E578.96960
G0 F12000 X161.46 Y129.13
G1 F2100 X161.46 Y175.87 E580.52398
G0 F12000 X161.82 Y175.76
G1 F2100 X161.82 Y129.24 E582.07110
G0 F12000 X162.18 Y129.37
G1 F2100 X162.18 Y175.63 E583.60972
G0 F12000 X162.54 Y175.44
G1 F2100 X162.54 Y129.56 E585.13549
G0 F12000 X162.90 Y129.75
G1 F2100 X162.90 Y175.24 E586.64850
G0 F12000 X163.26 Y175.05
G1 F2100 X163.26 Y129.95 E588.14866
G0 F12000 X163.62 Y130.14
G1 F2100 X163.62 Y174.86 E589.63606
G0 F12000 X163.98 Y174.67
G1 F2100 X163.98 Y130.33 E591.11061
G0 F12000 X164.34 Y130.52
G1 F2100 X164.34 Y174.47 E592.57239
G0 F12000 X164.70 Y174.28
G1 F2100 X164.70 Y130.72 E594.02134
G0 F12000 X165.06 Y130.91
G1 F2100 X165.06 Y174.09 E595.45751
G0 F12000 X165.42 Y173.90
G1 F2100 X165.42 Y131.10 E596.88088
G0 F12000 X165.78 Y131.29
G1 F2100 X165.78 Y173.70 E598.29144
G0 F12000 X166.14 Y173.51
G1 F2100 X166.14 Y131.49 E599.68920
G0 F12000 X166.50 Y131.70
G1 F2100 X166.50 Y173.30 E601.07289
G0 F12000 X166.86 Y173.00
G1 F2100 X166.86 Y131.99 E602.43695
G0 F12000 X167.22 Y132.29
G1 F2100 X167.22 Y172.71 E603.78139
G0 F12000 X167.58 Y172.42
G1 F2100 X167.58 Y132.58 E605.10624
G0 F12000 X167.94 Y132.88
G1 F2100 X167.94 Y172.12 E606.41147
G0 F12000 X168.30 Y171.83
G1 F2100 X168.30 Y133.17 E607.69707
G0 F12000 X168.66 Y133.47
G1 F2100 X168.66 Y171.53 E608.96305
G0 F12000 X169.02 Y171.24
G1 F2100 X169.02 Y133.76 E610.20941
G0 F12000 X169.38 Y134.06
G1 F2100 X169.38 Y170.94 E611.43615
G0 F12000 X169.74 Y170.65
G1 F2100 X169.74 Y134.35 E612.64326
G0 F12000 X170.10 Y134.65
G1 F2100 X170.10 Y170.35 E613.83071
G0 F12000 X170.46 Y169.97
G1 F2100 X170.46 Y135.03 E614.99262
G0 F12000 X170.82 Y135.47
G1 F2100 X170.82 Y169.53 E616.12533
G0 F12000 X171.18 Y169.09
G1 F2100 X171.18 Y135.91 E617.22880
G0 F12000 X171.54 Y136.35
G1 F2100 X171.54 Y168.65 E618.30303
G0 F12000 X171.90 Y168.21
G1 F2100 X171.90 Y136.79 E619.34807
G0 F12000 X172.26 Y137.23
G1 F2100 X172.26 Y167.77 E620.36390
G0 F12000 X172.62 Y167.33
G1 F2100 X172.62 Y137.67 E621.35049
G0 F12000 X172.98 Y138.11
G1 F2100 X172.98 Y166.89 E622.30785
G0 F12000 X173.34 Y166.45
G1 F2100 X173.34 Y138.55 E623.23601
G0 F12000 X173.70 Y139.21
G1 F2100 X173.70 Y165.79 E624.12006
G0 F12000 X174.06 Y165.12
G1 F2100 X174.06 Y139.88 E624.95932
G0 F12000 X174.42 Y140.56
G1 F2100 X174.42 Y164.44 E625.75377
G0 F12000 X174.78 Y163.77
G1 F2100 X174.78 Y141.23 E626.50342
G0 F12000 X175.14 Y141.90
G1 F2100 X175.14 Y163.09 E627.20827
G0 F12000 X175.50 Y162.42
G1 F2100 X175.50 Y142.58 E627.86832
G0 F12000 X175.86 Y143.52
G1 F2100 X175.86 Y161.48 E628.46583
G0 F12000 X176.22 Y160.30
G1 F2100 X176.22 Y144.70 E628.98449
G0 F12000 X176.58 Y145.89
G1 F2100 X176.58 Y159.11 E629.42422
G0 F12000 X176.94 Y157.92
G1 F2100 X176.94 Y147.07 E629.78506
G0 F12000 X177.30 Y149.62
G1 F2100 X177.30 Y155.38 E629.97648
;LAYER:0
G1 F2400 E628.77648
G0 F12000 X171.82 Y156.34 Z2.12
;TYPE:WALL-OUTER
G1 F2400 E629.97648
G1 F2100 X170.70 Y160.03 E630.93849
G1 X168.88 Y163.44 E631.90270
G1 X166.43 Y166.43 E632.86554
G1 X163.44 Y168.88 E633.82837
G1 X160.03 Y170.70 E634.79258
G1 X156.34 Y171.82 E635.75459
G1 X152.50 Y172.20 E636.71838
G1 X148.66 Y171.82 E637.68217
G1 X144.97 Y170.70 E638.64418
G1 X141.56 Y168.88 E639.60840
G1 X138.57 Y166.43 E640.57123
G1 X136.12 Y163.44 E641.53406
G1 X134.30 Y160.03 E642.49828
G1 X133.18 Y156.34 E643.46029
G1 X132.80 Y152.50 E644.42408
G1 X133.18 Y148.66 E645.38786
G1 X134.30 Y144.97 E646.34988
G1 X136.12 Y141.56 E647.31409
G1 X138.57 Y138.57 E648.27692
G1 X141.56 Y136.12 E649.23975
G1 X144.97 Y134.30 E650.20397
G1 X148.66 Y133.18 E651.16598
G1 X152.50 Y132.80 E652.12977
G1 X156.34 Y133.18 E653.09356
G1 X160.03 Y134.30 E654.05557
G1 X163.44 Y136.12 E655.01979
G1 X166.43 Y138.57 E655.98262
G1 X168.88 Y141.56 E656.94545
G1 X170.70 Y144.97 E657.90966
G1 X171.82 Y148.66 E658.87168
G1 X172.20 Y152.50 E659.83546
G1 X171.82 Y156.34 E660.79925
G0 F12000 X171.43 Y156.26
G0 X168.88 Y155.72
G0 X168.49 Y155.68
G1 F2100 X168.80 Y152.50 E661.59629
G1 X168.49 Y149.32 E662.39333
G1 X167.56 Y146.26 E663.19026
G1 X166.05 Y143.44 E663.98764
G1 X164.13 Y141.10 E664.74324
G1 X164.03 Y140.97 E664.78458
G1 X161.56 Y138.95 E665.58186
G1 X158.74 Y137.44 E666.37936
G1 X155.68 Y136.51 E667.17622
G1 X152.50 Y136.20 E667.97326
G1 X149.32 Y136.51 E668.77030
G1 X146.26 Y137.44 E669.56723
G1 X143.44 Y138.95 E670.36461
G1 X141.10 Y140.87 E671.11986
G1 X140.97 Y140.97 E671.16155
G1 X138.95 Y143.44 E671.95883
G1 X137.44 Y146.26 E672.75633
G1 X136.51 Y149.32 E673.55319
G1 X136.20 Y152.50 E674.35023
G1 X136.51 Y155.68 E675.14727
G1 X137.44 Y158.74 E675.94420
G1 X138.95 Y161.56 E676.74158
G1 X140.87 Y163.90 E677.49683
G1 X140.97 Y164.03 E677.53851
G1 X143.44 Y166.05 E678.33580
G1 X146.26 Y167.56 E679.13330
G1 X149.32 Y168.49 E679.93016
G1 X152.35 Y168.79 E680.68914
G1 X152.50 Y168.80 E680.72745
G1 X155.68 Y168.49 E681.52424
G1 X158.74 Y167.56 E682.32117
G1 X161.56 Y166.05 E683.11855
G1 X163.90 Y164.13 E683.87380
G1 X164.03 Y164.03 E683.91549
G1 X166.05 Y161.56 E684.71277
G1 X167.56 Y158.74 E685.51027
G1 X168.49 Y155.68 E686.30713
G0 F12000 X168.71 Y155.56
;TYPE:FILL
G1 F2100 X171.11 Y157.96 E687.15379
G0 F12000 X171.31 Y157.31
G1 F2100 X168.78 Y154.78 E688.04385
G0 F12000 X168.86 Y154.01
G1 F2100 X171.50 Y156.66 E688.97677
G0 F12000 X171.65 Y155.95
G1 F2100 X168.94 Y153.24 E689.93279
G0 F12000 X169.00 Y152.46
G1 F2100 X171.72 Y155.18 E690.89199
G0 F12000 X171.80 Y154.40
G1 F2100 X168.91 Y151.52 E691.91011
G0 F12000 X168.82 Y150.58
G1 F2100 X171.87 Y153.63 E692.98714
G0 F12000 X171.95 Y152.86
G1 F2100 X168.73 Y149.64 E694.12343
G0 F12000 X168.47 Y148.53
G1 F2100 X171.94 Y152.00 E695.34739
G0 F12000 X171.84 Y151.05
G1 F2100 X168.09 Y147.31 E696.66960
G0 F12000 X167.68 Y146.04
G1 F2100 X171.75 Y150.11 E698.10646
G0 F12000 X171.66 Y149.17
G1 F2100 X166.70 Y144.22 E699.85447
G0 F12000 X166.87 Y144.13
G0 X168.87 Y142.40
G0 X169.04 Y142.31
G1 F2100 X162.69 Y135.96 E702.09496
G0 F12000 X162.60 Y136.12
G0 X160.77 Y135.15
G0 X160.86 Y134.98
G1 F2100 X170.01 Y144.13 E705.32357
G0 F12000 X169.85 Y144.22
G0 X170.51 Y145.71
G0 X170.69 Y145.66
G1 F2100 X159.34 Y134.31 E709.32653
G0 F12000 X158.12 Y133.94
G1 F2100 X171.06 Y146.88 E713.89006
G0 F12000 X171.43 Y148.09
G1 F2100 X164.26 Y140.93 E716.41947
G0 F12000 X164.07 Y140.74
G1 F2100 X156.90 Y133.57 E718.94941
G0 F12000 X155.83 Y133.34
G1 F2100 X160.78 Y138.29 E720.69636
G0 F12000 X160.87 Y138.13
G0 X159.04 Y137.15
G0 X158.95 Y137.32
G1 F2100 X154.89 Y133.25 E722.13163
G0 F12000 X153.94 Y133.16
G1 F2100 X157.69 Y136.90 E723.45349
G0 F12000 X156.47 Y136.53
G1 F2100 X153.00 Y133.06 E724.67674
G0 F12000 X152.14 Y133.05
G1 F2100 X155.36 Y136.27 E725.81269
G0 F12000 X154.42 Y136.18
G1 F2100 X151.37 Y133.12 E726.88936
G0 F12000 X150.60 Y133.20
G1 F2100 X153.48 Y136.09 E727.90712
G0 F12000 X152.54 Y135.99
G1 F2100 X149.82 Y133.28 E728.86579
G0 F12000 X149.05 Y133.35
G1 F2100 X151.76 Y136.06 E729.82129
G0 F12000 X150.99 Y136.14
G1 F2100 X148.34 Y133.49 E730.75386
G0 F12000 X147.69 Y133.69
G1 F2100 X150.21 Y136.21 E731.64356
G0 F12000 X149.44 Y136.29
G1 F2100 X147.04 Y133.89 E732.49005
G0 F12000 X146.39 Y134.09
G1 F2100 X148.76 Y136.46 E733.32701
G0 F12000 X148.11 Y136.66
G1 F2100 X145.74 Y134.28 E734.16415
G0 F12000 X145.09 Y134.48
G1 F2100 X147.46 Y136.86 E735.00129
G0 F12000 X146.81 Y137.05
G1 F2100 X144.53 Y134.77 E735.80633
G0 F12000 X143.98 Y135.07
G1 F2100 X146.16 Y137.25 E736.57750
G0 F12000 X145.61 Y137.55
G1 F2100 X143.42 Y135.36 E737.34867
G0 F12000 X142.87 Y135.66
G1 F2100 X145.06 Y137.84 E738.12002
G0 F12000 X144.50 Y138.14
G1 F2100 X142.32 Y135.96 E738.89119
G0 F12000 X141.77 Y136.25
G1 F2100 X143.95 Y138.44 E739.66201
G0 F12000 X143.40 Y138.73
G1 F2100 X141.28 Y136.62 E740.40778
G0 F12000 X140.82 Y137.00
G1 F2100 X142.92 Y139.10 E741.14949
G0 F12000 X142.46 Y139.49
G1 F2100 X140.35 Y137.38 E741.89138
G0 F12000 X139.88 Y137.76
G1 F2100 X141.99 Y139.87 E742.63327
G0 F12000 X141.52 Y140.25
G1 F2100 X139.42 Y138.15 E743.37516
G0 F12000 X138.95 Y138.53
G1 F2100 X141.06 Y140.63 E744.11705
G0 F12000 X140.63 Y141.06
G1 F2100 X138.53 Y138.95 E744.85947
G0 F12000 X138.15 Y139.42
G1 F2100 X140.25 Y141.52 E745.60189
G0 F12000 X139.87 Y141.99
G1 F2100 X137.76 Y139.88 E746.34431
G0 F12000 X137.38 Y140.35
G1 F2100 X139.49 Y142.46 E747.08673
G0 F12000 X139.10 Y142.92
G1 F2100 X137.00 Y140.82 E747.82879
G0 F12000 X136.62 Y141.28
G1 F2100 X138.73 Y143.40 E748.57492
G0 F12000 X138.44 Y143.95
G1 F2100 X136.25 Y141.76 E749.34626
G0 F12000 X135.95 Y142.32
G1 F2100 X138.14 Y144.50 E750.11779
G0 F12000 X137.84 Y145.06
G1 F2100 X135.66 Y142.87 E750.88949
G0 F12000 X135.36 Y143.42
G1 F2100 X137.55 Y145.61 E751.66101
G0 F12000 X137.25 Y146.16
G1 F2100 X135.07 Y143.98 E752.43253
G0 F12000 X134.77 Y144.53
G1 F2100 X137.05 Y146.81 E753.23757
G0 F12000 X136.86 Y147.46
G1 F2100 X134.48 Y145.09 E754.07489
G0 F12000 X134.28 Y145.74
G1 F2100 X136.66 Y148.11 E754.91238
G0 F12000 X136.46 Y148.76
G1 F2100 X134.09 Y146.39 E755.74987
G0 F12000 X133.89 Y147.04
G1 F2100 X136.29 Y149.44 E756.59671
G0 F12000 X136.21 Y150.21
G1 F2100 X133.69 Y147.69 E757.48677
G0 F12000 X133.49 Y148.34
G1 F2100 X136.14 Y150.99 E758.41969
G0 F12000 X136.06 Y151.76
G1 F2100 X133.35 Y149.05 E759.37571
G0 F12000 X133.28 Y149.82
G1 F2100 X136.00 Y152.54 E760.33491
G0 F12000 X136.09 Y153.48
G1 F2100 X133.20 Y150.59 E761.35303
G0 F12000 X133.12 Y151.37
G1 F2100 X136.18 Y154.42 E762.43023
G0 F12000 X136.27 Y155.36
G1 F2100 X133.05 Y152.14 E763.56670
G0 F12000 X133.06 Y153.00
G1 F2100 X136.53 Y156.47 E764.79084
G0 F12000 X136.90 Y157.69
G1 F2100 X133.16 Y153.94 E766.11305
G0 F12000 X133.25 Y154.88
G1 F2100 X137.32 Y158.96 E767.54991
G0 F12000 X137.15 Y159.05
G0 X138.13 Y160.87
G0 X138.29 Y160.78
G1 F2100 X133.34 Y155.83 E769.29792
G0 F12000 X133.57 Y156.90
G1 F2100 X140.74 Y164.07 E771.82733
G0 F12000 X140.92 Y164.26
G1 F2100 X148.09 Y171.43 E774.35727
G0 F12000 X149.17 Y171.66
G1 F2100 X144.22 Y166.71 E776.10422
G0 F12000 X144.13 Y166.87
G0 X145.95 Y167.85
G0 X146.04 Y167.68
G1 F2100 X150.11 Y171.75 E777.53967
G0 F12000 X151.05 Y171.84
G1 F2100 X147.31 Y168.10 E778.86135
G0 F12000 X148.53 Y168.47
G1 F2100 X151.99 Y171.94 E780.08461
G0 F12000 X152.86 Y171.95
G1 F2100 X149.64 Y168.73 E781.22037
G0 F12000 X150.58 Y168.82
G1 F2100 X153.63 Y171.87 E782.29669
G0 F12000 X154.40 Y171.80
G1 F2100 X151.52 Y168.91 E783.31357
G0 F12000 X152.46 Y169.00
G1 F2100 X155.18 Y171.72 E784.27225
G0 F12000 X155.95 Y171.65
G1 F2100 X153.24 Y168.94 E785.22809
G0 F12000 X154.01 Y168.86
G1 F2100 X156.66 Y171.50 E786.16084
G0 F12000 X157.31 Y171.31
G1 F2100 X154.78 Y168.78 E787.05054
G0 F12000 X155.56 Y168.71
G1 F2100 X157.96 Y171.11 E787.89703
G0 F12000 X158.61 Y170.91
G1 F2100 X156.24 Y168.54 E788.73399
G0 F12000 X156.88 Y168.34
G1 F2100 X159.26 Y170.71 E789.57113
G0 F12000 X159.91 Y170.51
G1 F2100 X157.54 Y168.14 E790.40827
G0 F12000 X158.19 Y167.94
G1 F2100 X160.47 Y170.23 E791.21331
G0 F12000 X161.02 Y169.93
G1 F2100 X158.84 Y167.74 E791.98466
G0 F12000 X159.39 Y167.45
G1 F2100 X161.57 Y169.63 E792.75583
G0 F12000 X162.13 Y169.34
G1 F2100 X159.94 Y167.15 E793.52717
G0 F12000 X160.49 Y166.86
G1 F2100 X162.68 Y169.04 E794.29799
G0 F12000 X163.23 Y168.75
G1 F2100 X161.05 Y166.56 E795.06881
G0 F12000 X161.60 Y166.27
G1 F2100 X163.71 Y168.38 E795.81458
G0 F12000 X164.18 Y168.00
G1 F2100 X162.08 Y165.90 E796.55612
G0 F12000 X162.54 Y165.51
G1 F2100 X164.65 Y167.62 E797.29783
G0 F12000 X165.11 Y167.23
G1 F2100 X163.01 Y165.13 E798.03954
G0 F12000 X163.48 Y164.75
G1 F2100 X165.58 Y166.85 E798.78143
G0 F12000 X166.05 Y166.47
G1 F2100 X163.94 Y164.37 E799.52332
G0 F12000 X164.37 Y163.94
G1 F2100 X166.47 Y166.05 E800.26592
G0 F12000 X166.85 Y165.58
G1 F2100 X164.75 Y163.48 E801.00834
G0 F12000 X165.13 Y163.01
G1 F2100 X167.24 Y165.11 E801.75058
G0 F12000 X167.62 Y164.65
G1 F2100 X165.51 Y162.54 E802.49282
G0 F12000 X165.90 Y162.08
G1 F2100 X168.00 Y164.18 E803.23507
G0 F12000 X168.38 Y163.72
G1 F2100 X166.27 Y161.60 E803.98119
G0 F12000 X166.56 Y161.05
G1 F2100 X168.75 Y163.23 E804.75236
G0 F12000 X169.04 Y162.68
G1 F2100 X166.86 Y160.49 E805.52353
G0 F12000 X167.15 Y159.94
G1 F2100 X169.34 Y162.13 E806.29506
G0 F12000 X169.64 Y161.57
G1 F2100 X167.45 Y159.39 E807.06658
G0 F12000 X167.74 Y158.84
G1 F2100 X169.93 Y161.02 E807.83810
G0 F12000 X170.23 Y160.47
G1 F2100 X167.94 Y158.19 E808.64314
G0 F12000 X168.14 Y157.54
G1 F2100 X170.52 Y159.91 E809.48063
G0 F12000 X170.71 Y159.26
G1 F2100 X168.34 Y156.88 E810.31812
G0 F12000 X168.54 Y156.23
G1 F2100 X170.91 Y158.61 E811.15544
G0 F12000 X170.73 Y158.55
G0 X161.84 Y166.47
G0 X158.93 Y168.02
G0 X155.78 Y168.98
G0 X151.38 Y169.19
G0 X146.93 Y170.88
G0 X146.88 Y171.06
G1 F2100 X133.94 Y158.12 E815.71914
G0 F12000 X134.31 Y159.34
G1 F2100 X145.66 Y170.69 E819.72210
G0 F12000 X145.71 Y170.51
G0 X144.22 Y169.85
G0 X144.13 Y170.01
G1 F2100 X134.98 Y160.86 E822.95072
G0 F12000 X135.15 Y160.78
G0 X136.13 Y162.60
G0 X135.96 Y162.69
G1 F2100 X142.31 Y169.04 E825.19120
G0 F12000 X142.73 Y168.26
G1 F2400 E823.99120
G0 F12000 X162.14 Y157.42
;TYPE:WALL-OUTER
G1 F2400 E825.19120
G1 F2100 X162.06 Y157.18 E825.25393
G1 X161.99 Y156.47 E825.43089
G1 X162.08 Y155.89 E825.57767
G1 X162.37 Y155.24 E825.75565
G1 X162.52 Y155.04 E825.81822
G1 X162.74 Y154.84 E825.89261
G1 X163.30 Y154.47 E826.06060
G1 X163.86 Y154.31 E826.20454
G1 X164.31 Y154.25 E826.31893
G1 X164.92 Y154.35 E826.47350
G1 X165.34 Y154.54 E826.58656
G1 X165.81 Y154.87 E826.73116
G1 X166.24 Y155.39 E826.89973
G1 X166.39 Y155.65 E826.97396
G1 X166.46 Y155.89 E827.03668
G1 X166.54 Y156.60 E827.21389
G1 X166.45 Y157.18 E827.36095
G1 X166.16 Y157.83 E827.53772
G1 X166.01 Y158.03 E827.60085
G1 X165.79 Y158.23 E827.67524
G1 X165.23 Y158.60 E827.84287
G1 X164.67 Y158.76 E827.98768
G1 X164.22 Y158.82 E828.10157
G1 X163.60 Y158.72 E828.25671
G1 X163.20 Y158.53 E828.36855
G1 X162.71 Y158.20 E828.51453
G1 X162.29 Y157.68 E828.68256
G1 X162.14 Y157.42 E828.75679
G0 F12000 X162.22 Y156.71
;TYPE:FILL
G1 F2100 X164.10 Y158.59 E829.42001
G0 F12000 X164.85 Y158.49
G1 F2100 X162.29 Y155.93 E830.32312
G0 F12000 X162.56 Y155.34
G1 F2100 X165.43 Y158.22 E831.33664
G0 F12000 X165.90 Y157.83
G1 F2100 X162.99 Y154.93 E832.36217
G0 F12000 X163.53 Y154.62
G1 F2100 X166.18 Y157.27 E833.29562
G0 F12000 X166.33 Y156.57
G1 F2100 X164.23 Y154.47 E834.03398
G0 F12000 X165.54 Y154.93
G1 F2100 X165.84 Y155.23 E834.13805
G0 F12000 X165.14 Y155.79
G1 F2400 E832.93805
G0 F12000 X161.19 Y154.23
;TYPE:WALL-OUTER
G1 F2400 E834.13805
G1 F2100 X160.69 Y155.89 E834.56994
G1 X159.87 Y157.43 E835.00541
G1 X158.77 Y158.77 E835.43787
G1 X157.43 Y159.87 E835.87053
G1 X155.89 Y160.69 E836.30578
G1 X154.23 Y161.19 E836.73767
G1 X152.50 Y161.37 E837.17182
G1 X150.77 Y161.19 E837.60597
G1 X149.11 Y160.69 E838.03787
G1 X147.57 Y159.87 E838.47333
G1 X146.23 Y158.77 E838.90580
G1 X145.13 Y157.43 E839.33826
G1 X144.31 Y155.89 E839.77373
G1 X143.81 Y154.23 E840.20562
G1 X143.64 Y152.50 E840.63973
G1 X143.81 Y150.77 E841.07383
G1 X144.31 Y149.11 E841.50572
G1 X145.13 Y147.57 E841.94119
G1 X146.23 Y146.23 E842.37365
G1 X147.57 Y145.13 E842.80612
G1 X149.11 Y144.31 E843.24159
G1 X150.77 Y143.81 E843.67348
G1 X152.50 Y143.64 E844.10758
G1 X154.23 Y143.81 E844.54168
G1 X155.89 Y144.31 E844.97357
G1 X157.43 Y145.13 E845.40904
G1 X158.77 Y146.23 E845.84151
G1 X159.87 Y147.57 E846.27397
G1 X160.69 Y149.11 E846.70944
G1 X161.19 Y150.77 E847.14133
G1 X161.36 Y152.50 E847.57544
G1 X161.19 Y154.23 E848.00954
G0 F12000 X160.80 Y154.15
G0 X157.16 Y153.91
G0 X156.76 Y153.88
G1 F2100 X156.88 Y151.57 E848.58782
G1 X155.83 Y149.50 E849.16626
G1 X153.88 Y148.24 E849.74511
G1 X151.57 Y148.12 E850.32339
G1 X149.50 Y149.17 E850.90183
G1 X148.24 Y151.12 E851.48068
G1 X148.12 Y153.43 E852.05896
G1 X149.17 Y155.50 E852.63740
G1 X151.12 Y156.76 E853.21625
G1 X153.43 Y156.88 E853.79453
G1 X155.50 Y155.83 E854.37297
G1 X156.76 Y153.88 E854.95182
G0 F12000 X156.95 Y153.98
;TYPE:FILL
G1 F2100 X159.90 Y156.93 E855.99216
G0 F12000 X159.57 Y157.45
G1 F2100 X156.61 Y154.49 E857.03655
G0 F12000 X156.28 Y155.01
G1 F2100 X159.19 Y157.92 E858.06384
G0 F12000 X158.81 Y158.39
G1 F2100 X155.95 Y155.52 E859.07419
G0 F12000 X155.59 Y156.02
G1 F2100 X158.38 Y158.81 E860.05915
G0 F12000 X157.92 Y159.19
G1 F2100 X155.03 Y156.30 E861.07779
G0 F12000 X154.47 Y156.59
G1 F2100 X157.45 Y159.57 E862.13048
G0 F12000 X156.93 Y159.90
G1 F2100 X153.91 Y156.88 E863.19551
G0 F12000 X153.27 Y157.09
G1 F2100 X156.37 Y160.19 E864.29177
G0 F12000 X155.82 Y160.49
G1 F2100 X152.37 Y157.04 E865.50955
G0 F12000 X151.47 Y156.99
G1 F2100 X155.17 Y160.69 E866.81447
G0 F12000 X154.52 Y160.88
G1 F2100 X149.78 Y156.14 E868.48770
G0 F12000 X148.73 Y155.09
G1 F2100 X144.11 Y150.48 E870.11576
G0 F12000 X144.31 Y149.82
G1 F2100 X147.91 Y153.42 E871.38505
G0 F12000 X147.95 Y152.62
G1 F2100 X144.51 Y149.18 E872.59878
G0 F12000 X144.81 Y148.62
G1 F2100 X147.99 Y151.81 E873.72308
G0 F12000 X148.05 Y151.02
G1 F2100 X145.10 Y148.07 E874.76378
G0 F12000 X145.42 Y147.54
G1 F2100 X148.38 Y150.51 E875.80817
G0 F12000 X148.72 Y149.99
G1 F2100 X145.81 Y147.08 E876.83546
G0 F12000 X146.19 Y146.61
G1 F2100 X149.05 Y149.48 E877.84581
G0 F12000 X149.41 Y148.98
G1 F2100 X146.61 Y146.19 E878.83094
G0 F12000 X147.08 Y145.81
G1 F2100 X149.97 Y148.69 E879.84976
G0 F12000 X150.53 Y148.41
G1 F2100 X147.55 Y145.42 E880.90245
G0 F12000 X148.07 Y145.10
G1 F2100 X151.09 Y148.12 E881.96748
G0 F12000 X151.73 Y147.91
G1 F2100 X148.62 Y144.81 E883.06374
G0 F12000 X149.18 Y144.51
G1 F2100 X152.63 Y147.96 E884.28135
G0 F12000 X153.52 Y148.01
G1 F2100 X149.83 Y144.31 E885.58609
G0 F12000 X150.48 Y144.11
G1 F2100 X155.22 Y148.86 E887.25931
G0 F12000 X156.27 Y149.91
G1 F2100 X160.89 Y154.52 E888.88703
G0 F12000 X160.69 Y155.17
G1 F2100 X157.09 Y151.58 E890.15614
G0 F12000 X157.05 Y152.38
G1 F2100 X160.49 Y155.82 E891.36987
G0 F12000 X160.19 Y156.38
G1 F2100 X157.00 Y153.19 E892.49452
G0 F12000 X157.20 Y153.20
G0 X160.84 Y153.79
G0 X161.02 Y153.81
G1 F2100 X151.19 Y143.98 E895.96409
G0 F12000 X151.96 Y143.90
G1 F2100 X161.10 Y153.04 E899.18706
G0 F12000 X161.12 Y152.21
G1 F2100 X152.79 Y143.88 E902.12781
G0 F12000 X153.72 Y143.97
G1 F2100 X161.03 Y151.27 E904.70555
G0 F12000 X160.80 Y150.19
G1 F2100 X154.81 Y144.20 E906.82080
G0 F12000 X156.13 Y144.68
G1 F2100 X160.32 Y148.87 E908.29964
G0 F12000 X160.16 Y148.96
G0 X153.79 Y160.84
G0 X153.81 Y161.02
G1 F2100 X143.97 Y151.19 E911.76955
G0 F12000 X143.90 Y151.96
G1 F2100 X153.04 Y161.10 E914.99323
G0 F12000 X152.21 Y161.12
G1 F2100 X143.88 Y152.78 E917.93486
G0 F12000 X143.97 Y153.72
G1 F2100 X151.27 Y161.03 E920.51278
G0 F12000 X150.19 Y160.80
G1 F2100 X144.20 Y154.80 E922.62785
G0 F12000 X144.68 Y156.13
G1 F2100 X148.87 Y160.32 E924.10687
G0 F12000 X149.29 Y159.54
G1 F2400 E922.90687
G0 F12000 X162.28 Y149.41
;TYPE:WALL-OUTER
G1 F2400 E924.10687
G1 F2100 X162.03 Y148.88 E924.25285
G1 X161.91 Y148.17 E924.43187
G1 X161.92 Y147.93 E924.49350
G1 X161.99 Y147.64 E924.56720
G1 X162.25 Y147.02 E924.73560
G1 X162.63 Y146.57 E924.88184
G1 X162.97 Y146.27 E924.99357
G1 X163.53 Y146.01 E925.14936
G1 X163.97 Y145.94 E925.26128
G1 X164.56 Y145.94 E925.40646
G1 X165.21 Y146.14 E925.57594
G1 X165.47 Y146.27 E925.64958
G1 X165.66 Y146.42 E925.71101
G1 X166.13 Y146.97 E925.88959
G1 X166.37 Y147.50 E926.03557
G1 X166.50 Y148.21 E926.21409
G1 X166.49 Y148.45 E926.27623
G1 X166.42 Y148.74 E926.34992
G1 X166.16 Y149.36 E926.51832
G1 X165.78 Y149.81 E926.66457
G1 X165.44 Y150.11 E926.77665
G1 X164.88 Y150.37 E926.93155
G1 X164.43 Y150.44 E927.04392
G1 X163.85 Y150.44 E927.18910
G1 X163.20 Y150.24 E927.35858
G1 X162.94 Y150.11 E927.43222
G1 X162.74 Y149.96 E927.49366
G1 X162.28 Y149.41 E927.67223
G0 F12000 X162.50 Y149.35
;TYPE:FILL
G1 F2100 X163.12 Y149.97 E927.88901
G0 F12000 X164.23 Y150.23
G1 F2100 X162.12 Y148.12 E928.63267
G0 F12000 X162.30 Y147.45
G1 F2100 X164.95 Y150.10 E929.56929
G0 F12000 X165.49 Y149.79
G1 F2100 X162.61 Y146.91 E930.58300
G0 F12000 X163.04 Y146.49
G1 F2100 X165.89 Y149.35 E931.59088
G0 F12000 X166.17 Y148.78
G1 F2100 X163.60 Y146.21 E932.49699
G0 F12000 X164.39 Y146.15
G1 F2100 X166.25 Y148.00 E933.15104
G0 F12000 X165.37 Y148.15
G1 F2400 E931.95104
G0 F12000 X160.32 Y143.52
;TYPE:WALL-OUTER
G1 F2400 E933.15104
G1 F2100 X160.13 Y143.68 E933.21357
G1 X159.87 Y143.81 E933.28720
G1 X159.23 Y144.02 E933.45570
G1 X158.64 Y144.03 E933.60140
G1 X158.20 Y143.97 E933.71319
G1 X157.63 Y143.72 E933.86952
G1 X157.28 Y143.43 E933.98092
G1 X156.90 Y142.99 E934.12632
G1 X156.63 Y142.37 E934.29587
G1 X156.55 Y142.08 E934.36879
G1 X156.54 Y141.83 E934.43122
G1 X156.65 Y141.13 E934.60889
G1 X156.89 Y140.59 E934.75617
G1 X157.34 Y140.04 E934.93402
G1 X157.53 Y139.88 E934.99570
G1 X157.79 Y139.75 E935.06933
G1 X158.44 Y139.54 E935.23806
G1 X159.02 Y139.53 E935.38401
G1 X159.47 Y139.59 E935.49609
G1 X160.04 Y139.84 E935.65165
G1 X160.38 Y140.13 E935.76356
G1 X160.76 Y140.57 E935.90929
G1 X161.04 Y141.19 E936.07851
G1 X161.11 Y141.47 E936.15119
G1 X161.12 Y141.72 E936.21386
G1 X161.02 Y142.43 E936.39178
G1 X160.78 Y142.97 E936.53817
G1 X160.32 Y143.52 E936.71634
G0 F12000 X160.03 Y143.49
;TYPE:FILL
G1 F2100 X157.15 Y140.60 E937.73375
G0 F12000 X157.54 Y140.15
G1 F2100 X160.44 Y143.04 E938.75662
G0 F12000 X160.75 Y142.51
G1 F2100 X158.11 Y139.87 E939.68831
G0 F12000 X158.83 Y139.74
G1 F2100 X160.90 Y141.81 E940.41750
G0 F12000 X160.71 Y141.78
G0 X160.16 Y140.49
G0 X160.31 Y140.37
G1 F2100 X160.16 Y140.22 E940.46830
G0 F12000 X160.04 Y140.37
G0 X157.04 Y141.24
G0 X156.86 Y141.16
G1 F2100 X159.43 Y143.73 E941.37458
G0 F12000 X158.67 Y143.82
G1 F2100 X156.75 Y141.90 E942.05103
G0 F12000 X157.65 Y141.87
G1 F2400 E940.85103
G0 F12000 X152.55 Y140.44
;TYPE:WALL-OUTER
G1 F2400 E942.05103
G1 F2100 X152.35 Y141.12 E942.22873
G1 X152.05 Y141.62 E942.37534
G1 X151.53 Y142.12 E942.55388
G1 X151.33 Y142.25 E942.61443
G1 X151.04 Y142.35 E942.69097
G1 X150.38 Y142.49 E942.85764
G1 X149.81 Y142.43 E943.00232
G1 X149.37 Y142.31 E943.11566
G1 X148.84 Y141.99 E943.27086
G1 X148.53 Y141.66 E943.38365
G1 X148.20 Y141.18 E943.52873
G1 X148.01 Y140.53 E943.69603
G1 X147.97 Y140.23 E943.77191
G1 X147.99 Y139.99 E943.83323
G1 X148.18 Y139.30 E944.01093
G1 X148.48 Y138.80 E944.15754
G1 X149.00 Y138.30 E944.33626
G1 X149.20 Y138.17 E944.39681
G1 X149.49 Y138.07 E944.47335
G1 X150.15 Y137.94 E944.64002
G1 X150.72 Y138.00 E944.78471
G1 X151.16 Y138.11 E944.89804
G1 X151.70 Y138.44 E945.05359
G1 X152.01 Y138.76 E945.16619
G1 X152.33 Y139.25 E945.31134
G1 X152.52 Y139.89 E945.47785
G1 X152.57 Y140.19 E945.55423
G1 X152.55 Y140.44 E945.61555
G0 F12000 X152.23 Y140.78
;TYPE:FILL
G1 F2100 X149.70 Y138.24 E946.50931
G0 F12000 X149.10 Y138.49
G1 F2100 X151.97 Y141.36 E947.51966
G0 F12000 X151.56 Y141.80
G1 F2100 X148.67 Y138.91 E948.54060
G0 F12000 X148.35 Y139.44
G1 F2100 X151.04 Y142.13 E949.48780
G0 F12000 X150.33 Y142.27
G1 F2100 X148.18 Y140.12 E950.24486
G0 F12000 X148.59 Y141.38
G1 F2100 X149.14 Y141.93 E950.43660
G0 F12000 X149.24 Y141.76
G0 X152.14 Y140.05
G0 X152.33 Y140.03
G1 F2100 X150.49 Y138.18 E951.08694
G0 F12000 X150.39 Y139.07
G1 F2400 E949.88694
G0 F12000 X144.79 Y143.46
;TYPE:WALL-OUTER
G1 F2400 E951.08694
G1 F2100 X144.91 Y143.69 E951.14953
G1 X145.09 Y144.37 E951.32648
G1 X145.09 Y144.96 E951.47440
G1 X144.91 Y145.65 E951.65171
G1 X144.80 Y145.87 E951.71228
G1 X144.60 Y146.11 E951.78923
G1 X144.11 Y146.56 E951.95609
G1 X143.58 Y146.80 E952.10217
G1 X143.15 Y146.93 E952.21388
G1 X142.53 Y146.93 E952.36904
G1 X142.09 Y146.80 E952.48266
G1 X141.56 Y146.56 E952.62784
G1 X141.06 Y146.10 E952.79561
G1 X140.88 Y145.88 E952.86936
G1 X140.76 Y145.65 E952.93317
G1 X140.57 Y144.97 E953.10933
G1 X140.58 Y144.37 E953.25726
G1 X140.76 Y143.69 E953.43456
G1 X140.87 Y143.46 E953.49659
G1 X141.06 Y143.23 E953.57088
G1 X141.56 Y142.78 E953.73898
G1 X142.09 Y142.53 E953.88484
G1 X142.52 Y142.41 E953.99758
G1 X143.15 Y142.41 E954.15299
G1 X143.58 Y142.53 E954.26438
G1 X144.11 Y142.78 E954.41090
G1 X144.61 Y143.23 E954.57884
G1 X144.79 Y143.46 E954.65291
G0 F12000 X144.88 Y144.46
;TYPE:FILL
G1 F2100 X143.04 Y142.62 E955.30237
G0 F12000 X142.27 Y142.70
G1 F2100 X144.80 Y145.23 E956.19525
G0 F12000 X144.56 Y145.83
G1 F2100 X141.68 Y142.95 E957.20983
G0 F12000 X141.24 Y143.36
G1 F2100 X144.13 Y146.25 E958.23077
G0 F12000 X143.59 Y146.56
G1 F2100 X140.92 Y143.89 E959.17304
G0 F12000 X140.78 Y144.60
G1 F2100 X142.90 Y146.72 E959.91863
G0 F12000 X141.74 Y146.41
G1 F2100 X141.01 Y145.68 E960.17475
G0 F12000 X141.81 Y145.29
G1 F2400 E958.97475
G0 F12000 X140.33 Y150.24
;TYPE:WALL-OUTER
G1 F2400 E960.17475
G1 F2100 X140.92 Y150.41 E960.32949
G1 X141.30 Y150.65 E960.44176
G1 X141.74 Y151.03 E960.58709
G1 X142.10 Y151.61 E960.75584
G1 X142.22 Y151.88 E960.83039
G1 X142.26 Y152.13 E960.89233
G1 X142.25 Y152.84 E961.06970
G1 X142.09 Y153.40 E961.21608
G1 X141.72 Y154.01 E961.39379
G1 X141.55 Y154.20 E961.45647
G1 X141.31 Y154.36 E961.52967
G1 X140.70 Y154.67 E961.69969
G1 X140.13 Y154.76 E961.84360
G1 X139.68 Y154.76 E961.95710
G1 X139.08 Y154.59 E962.11184
G1 X138.70 Y154.35 E962.22411
G1 X138.26 Y153.97 E962.36944
G1 X137.90 Y153.39 E962.53819
G1 X137.78 Y153.12 E962.61274
G1 X137.74 Y152.87 E962.67467
G1 X137.75 Y152.16 E962.85205
G1 X137.91 Y151.60 E962.99843
G1 X138.28 Y150.99 E963.17614
G1 X138.45 Y150.80 E963.23881
G1 X138.69 Y150.64 E963.31202
G1 X139.30 Y150.33 E963.48203
G1 X139.87 Y150.24 E963.62594
G1 X140.33 Y150.24 E963.73944
G0 F12000 X139.85 Y150.46
;TYPE:FILL
G1 F2100 X142.05 Y152.65 E964.51450
G0 F12000 X141.88 Y153.34
G1 F2100 X139.17 Y150.63 E965.47052
G0 F12000 X138.63 Y150.93
G1 F2100 X141.56 Y153.87 E966.50627
G0 F12000 X141.09 Y154.24
G1 F2100 X138.26 Y151.42 E967.50199
G0 F12000 X138.01 Y152.01
G1 F2100 X140.49 Y154.49 E968.37617
G0 F12000 X139.69 Y154.54
G1 F2100 X137.95 Y152.80 E968.99176
G0 F12000 X138.14 Y152.80
G0 X140.77 Y150.79
G0 X140.87 Y150.63
G1 F2100 X141.86 Y151.62 E969.33837
G0 F12000 X141.10 Y152.09
G1 F2400 E968.13837
G0 F12000 X142.52 Y158.47
;TYPE:WALL-OUTER
G1 F2400 E969.33837
G1 F2100 X143.23 Y158.41 E969.51649
G1 X143.81 Y158.51 E969.66216
G1 X144.45 Y158.81 E969.84104
G1 X144.65 Y158.96 E969.90276
G1 X144.85 Y159.19 E969.97760
G1 X145.21 Y159.76 E970.14500
G1 X145.36 Y160.32 E970.29113
G1 X145.41 Y160.77 E970.40328
G1 X145.30 Y161.38 E970.55777
G1 X145.10 Y161.79 E970.67100
G1 X144.76 Y162.26 E970.81620
G1 X144.24 Y162.68 E970.98331
G1 X143.97 Y162.82 E971.05846
G1 X143.73 Y162.89 E971.12121
G1 X143.02 Y162.96 E971.29883
G1 X142.45 Y162.86 E971.44480
G1 X141.80 Y162.55 E971.62301
G1 X141.60 Y162.41 E971.68543
G1 X141.41 Y162.18 E971.75956
G1 X141.05 Y161.61 E971.92752
G1 X140.89 Y161.04 E972.07396
G1 X140.85 Y160.60 E972.18585
G1 X140.95 Y159.99 E972.34034
G1 X141.15 Y159.58 E972.45358
G1 X141.49 Y159.10 E972.59877
G1 X142.02 Y158.69 E972.76717
G1 X142.28 Y158.54 E972.84056
G1 X142.52 Y158.47 E972.90348
G0 F12000 X142.25 Y158.80
;TYPE:FILL
G1 F2100 X144.99 Y161.53 E973.86850
G0 F12000 X144.66 Y162.05
G1 F2100 X141.76 Y159.16 E974.89014
G0 F12000 X141.38 Y159.62
G1 F2100 X144.20 Y162.44 E975.88462
G0 F12000 X143.60 Y162.69
G1 F2100 X141.12 Y160.22 E976.75845
G0 F12000 X141.11 Y161.05
G1 F2100 X142.76 Y162.70 E977.33859
G0 F12000 X142.79 Y162.51
G0 X144.99 Y160.84
G0 X145.18 Y160.87
G1 F2100 X142.95 Y158.65 E978.12475
G0 F12000 X143.97 Y158.82
G1 F2100 X145.02 Y159.87 E978.49499
G0 F12000 X144.13 Y160.12
G1 F2400 E977.29499
G0 F12000 X148.97 Y163.40
;TYPE:WALL-OUTER
G1 F2400 E978.49499
G1 F2100 X149.19 Y163.20 E978.56945
G1 X149.74 Y162.81 E978.73715
G1 X150.29 Y162.63 E978.88245
G1 X150.74 Y162.56 E978.99486
G1 X151.35 Y162.63 E979.15046
G1 X151.77 Y162.81 E979.26304
G1 X152.26 Y163.12 E979.40832
G1 X152.70 Y163.63 E979.57582
G1 X152.86 Y163.88 E979.65050
G1 X152.94 Y164.12 E979.71267
G1 X153.05 Y164.82 E979.88941
G1 X152.97 Y165.41 E980.03746
G1 X152.71 Y166.06 E980.21479
G1 X152.57 Y166.27 E980.27726
G1 X152.35 Y166.48 E980.35066
G1 X151.80 Y166.87 E980.51969
G1 X151.25 Y167.05 E980.66468
G1 X150.81 Y167.12 E980.77685
G1 X150.18 Y167.04 E980.93291
G1 X149.77 Y166.87 E981.04424
G1 X149.28 Y166.56 E981.19076
G1 X148.84 Y166.05 E981.35824
G1 X148.68 Y165.79 E981.43291
G1 X148.59 Y165.56 E981.49508
G1 X148.49 Y164.86 E981.67253
G1 X148.56 Y164.27 E981.82009
G1 X148.83 Y163.61 E981.99755
G1 X148.97 Y163.40 E982.05982
G0 F12000 X149.34 Y163.34
;TYPE:FILL
G1 F2100 X152.27 Y166.27 E983.09134
G0 F12000 X151.78 Y166.63
G1 F2100 X148.97 Y163.82 E984.08052
G0 F12000 X148.75 Y164.45
G1 F2100 X151.15 Y166.85 E984.92683
G0 F12000 X150.30 Y166.84
G1 F2100 X148.77 Y165.32 E985.46517
G0 F12000 X148.96 Y165.29
G0 X149.91 Y163.17
G0 X149.84 Y162.99
G1 F2100 X152.60 Y165.75 E986.43919
G0 F12000 X152.80 Y165.10
G1 F2100 X150.50 Y162.81 E987.24969
G0 F12000 X151.44 Y162.90
G1 F2100 X152.74 Y164.20 E987.70795
G0 F12000 X151.84 Y164.34
G1 F2400 E986.50795
G0 F12000 X156.60 Y163.22
;TYPE:WALL-OUTER
G1 F2400 E987.70795
G1 F2100 X156.60 Y162.92 E987.78256
G1 X156.65 Y162.68 E987.84415
G1 X156.92 Y162.02 E988.02214
G1 X157.28 Y161.56 E988.16910
G1 X157.85 Y161.13 E988.34656
G1 X158.08 Y161.02 E988.40838
G1 X158.37 Y160.96 E988.48379
G1 X159.04 Y160.91 E988.65140
G1 X159.61 Y161.04 E988.79681
G1 X160.03 Y161.20 E988.90895
G1 X160.52 Y161.59 E989.06460
G1 X160.78 Y161.95 E989.17616
G1 X161.05 Y162.47 E989.32275
G1 X161.16 Y163.14 E989.49056
G1 X161.17 Y163.44 E989.56491
G1 X161.12 Y163.68 E989.62651
G1 X160.84 Y164.34 E989.80473
G1 X160.48 Y164.80 E989.95134
G1 X159.91 Y165.23 E990.12915
G1 X159.69 Y165.33 E990.19119
G1 X159.39 Y165.40 E990.26635
G1 X158.72 Y165.45 E990.43395
G1 X158.16 Y165.32 E990.57911
G1 X157.74 Y165.15 E990.69172
G1 X157.25 Y164.77 E990.84721
G1 X156.98 Y164.40 E990.95918
G1 X156.72 Y163.88 E991.10454
G1 X156.60 Y163.22 E991.27289
G0 F12000 X156.81 Y163.17
;TYPE:FILL
G1 F2100 X158.86 Y165.23 E991.99714
G0 F12000 X159.62 Y165.13
G1 F2100 X156.96 Y162.47 E992.93535
G0 F12000 X157.26 Y161.93
G1 F2100 X160.13 Y164.80 E993.94888
G0 F12000 X160.55 Y164.37
G1 F2100 X157.69 Y161.51 E994.95747
G0 F12000 X158.23 Y161.20
G1 F2100 X160.84 Y163.81 E995.87645
G0 F12000 X160.94 Y163.06
G1 F2100 X159.00 Y161.12 E996.56013
G0 F12000 X159.06 Y162.04
;LAYER:1
G0 X159.03 Y160.68 Z2.00
;TYPE:WALL-OUTER
G1 F2280 X159.79 Y160.85 E996.57312
G1 X160.07 Y160.96 E996.57810
G1 X160.75 Y161.50 E996.59245
G1 X160.92 Y161.74 E996.59742
G1 X161.27 Y162.43 E996.61034
G1 X161.35 Y162.91 E996.61838
G1 X161.37 Y163.46 E996.62752
G1 X161.27 Y163.91 E996.63533
G1 X161.08 Y164.37 E996.64361
G1 X160.57 Y165.02 E996.65729
G1 X160.18 Y165.32 E996.66555
G1 X159.75 Y165.52 E996.67336
G1 X159.22 Y165.64 E996.68251
G1 X158.74 Y165.68 E996.69052
G1 X157.98 Y165.50 E996.70351
G1 X157.70 Y165.39 E996.70845
G1 X157.02 Y164.86 E996.72290
G1 X156.84 Y164.62 E996.72780
G1 X156.49 Y163.93 E996.74071
G1 X156.41 Y163.45 E996.74874
G1 X156.40 Y162.90 E996.75789
G1 X156.49 Y162.43 E996.76580
G1 X156.68 Y161.98 E996.77392
G1 X157.19 Y161.33 E996.78768
G1 X157.58 Y161.04 E996.79587
G1 X158.01 Y160.83 E996.80379
G1 X158.55 Y160.71 E996.81289
G1 X159.03 Y160.68 E996.82089
G0 F12000 X159.07 Y160.83
;TYPE:FILL
G1 F2280 X156.55 Y163.35 E996.88014
G0 F12000 X156.62 Y163.84
G1 F2280 X159.53 Y160.93 E996.94852
G0 F12000 X159.96 Y161.07
G1 F2280 X156.80 Y164.22 E997.02275
G0 F12000 X157.00 Y164.59
G1 F2280 X160.28 Y161.31 E997.09999
G0 F12000 X160.60 Y161.56
G1 F2280 X157.28 Y164.88 E997.17819
G0 F12000 X157.59 Y165.13
G1 F2280 X160.84 Y161.88 E997.25455
G0 F12000 X161.03 Y162.26
G1 F2280 X157.95 Y165.34 E997.32700
G0 F12000 X158.40 Y165.46
G1 F2280 X161.17 Y162.68 E997.39229
G0 F12000 X161.22 Y163.20
G1 F2280 X158.89 Y165.53 E997.44704
G0 F12000 X159.56 Y165.42
G1 F2280 X161.15 Y163.84 E997.48423
G0 F12000 X160.99 Y163.81
G0 X158.49 Y161.03
G0 X158.45 Y160.88
G1 F2280 X156.57 Y162.76 E997.52855
G0 F12000 X157.13 Y161.64
G1 F2280 X157.46 Y161.30 E997.53644
G0 F12000 X157.98 Y161.99
G1 F2400 E996.33644
G0 F12000 X157.48 Y159.96
;TYPE:WALL-OUTER
G1 F2400 E997.53644
G1 F2280 X155.93 Y160.78 E997.56557
G1 X154.25 Y161.29 E997.59478
G1 X152.50 Y161.47 E997.62404
G1 X150.75 Y161.29 E997.65330
G1 X149.07 Y160.78 E997.68251
G1 X147.52 Y159.96 E997.71166
G1 X146.16 Y158.84 E997.74095
G1 X145.04 Y157.48 E997.77025
G1 X144.22 Y155.93 E997.79940
G1 X143.71 Y154.25 E997.82862
G1 X143.54 Y152.50 E997.85786
G1 X143.71 Y150.75 E997.88710
G1 X144.22 Y149.07 E997.91633
G1 X145.04 Y147.52 E997.94548
G1 X146.16 Y146.16 E997.97477
G1 X147.52 Y145.04 E998.00407
G1 X149.07 Y144.22 E998.03322
G1 X150.75 Y143.71 E998.06244
G1 X152.50 Y143.54 E998.09168
G1 X154.25 Y143.71 E998.12092
G1 X155.93 Y144.22 E998.15015
G1 X157.48 Y145.04 E998.17930
G1 X158.84 Y146.16 E998.20859
G1 X159.96 Y147.52 E998.23789
G1 X160.78 Y149.07 E998.26704
G1 X161.29 Y150.75 E998.29626
G1 X161.46 Y152.50 E998.32550
G1 X161.29 Y154.25 E998.35474
G1 X160.78 Y155.93 E998.38397
G1 X159.96 Y157.48 E998.41312
G1 X158.84 Y158.84 E998.44241
G1 X157.49 Y159.95 E998.47153
G1 X157.48 Y159.96 E998.47173
G0 F12000 X157.31 Y159.70
G0 X155.68 Y155.92
G0 X155.43 Y155.75
G1 F2280 X156.66 Y153.85 E998.50943
G1 X156.78 Y151.59 E998.54708
G1 X155.75 Y149.57 E998.58476
G1 X153.85 Y148.34 E998.62246
G1 X151.59 Y148.22 E998.66012
G1 X149.57 Y149.25 E998.69780
G1 X148.34 Y151.15 E998.73550
G1 X148.22 Y153.41 E998.77315
G1 X149.25 Y155.43 E998.81084
G1 X151.15 Y156.66 E998.84854
G1 X153.41 Y156.78 E998.88619
G1 X155.43 Y155.75 E998.92388
G0 F12000 X154.42 Y156.42
;TYPE:FILL
G1 F2280 X149.94 Y160.90 E999.02922
G0 F12000 X149.51 Y160.77
G1 F2280 X153.36 Y156.92 E999.11981
G0 F12000 X152.82 Y156.89
G1 F2280 X149.08 Y160.63 E999.20782
G0 F12000 X148.71 Y160.43
G1 F2280 X152.28 Y156.86 E999.29182
G0 F12000 X151.75 Y156.83
G1 F2280 X148.34 Y160.24 E999.37187
G0 F12000 X147.97 Y160.04
G1 F2280 X151.21 Y156.81 E999.44794
G0 F12000 X150.83 Y156.62
G1 F2280 X147.61 Y159.84 E999.52367
G0 F12000 X147.29 Y159.59
G1 F2280 X150.49 Y156.40 E999.59868
G0 F12000 X150.14 Y156.18
G1 F2280 X146.98 Y159.33 E999.67294
G0 F12000 X146.67 Y159.08
G1 F2280 X149.80 Y155.95 E999.74644
G0 F12000 X149.46 Y155.73
G1 F2280 X146.36 Y158.82 E999.81917
G0 F12000 X146.09 Y158.53
G1 F2280 X149.12 Y155.50 E999.89051
G0 F12000 X148.93 Y155.12
G1 F2280 X145.84 Y158.22 E999.96336
G0 F12000 X145.58 Y157.91
G1 F2280 X148.74 Y154.75 E1000.03769
G0 F12000 X148.55 Y154.37
G1 F2280 X145.32 Y157.60 E1000.11355
G0 F12000 X145.09 Y157.27
G1 F2280 X148.36 Y154.00 E1000.19044
G0 F12000 X148.17 Y153.62
G1 F2280 X144.89 Y156.90 E1000.26749
G0 F12000 X144.69 Y156.53
G1 F2280 X148.09 Y153.13 E1000.34737
G0 F12000 X148.12 Y152.54
G1 F2280 X144.50 Y156.16 E1000.43262
G0 F12000 X144.32 Y155.78
G1 F2280 X148.15 Y151.94 E1000.52289
G0 F12000 X148.19 Y151.34
G1 F2280 X144.18 Y155.34 E1000.61700
G0 F12000 X144.05 Y154.91
G1 F2280 X148.82 Y150.14 E1000.72914
G0 F12000 X148.69 Y150.06
G0 X149.30 Y148.94
G0 X150.12 Y148.63
G0 X150.19 Y148.77
G1 F2280 X154.91 Y144.05 E1000.84015
G0 F12000 X155.35 Y144.18
G1 F2280 X151.34 Y148.18 E1000.93424
G0 F12000 X152.00 Y148.10
G1 F2280 X155.78 Y144.31 E1001.02323
G0 F12000 X156.16 Y144.50
G1 F2280 X152.53 Y148.13 E1001.10859
G0 F12000 X153.07 Y148.16
G1 F2280 X156.53 Y144.69 E1001.18998
G0 F12000 X156.90 Y144.89
G1 F2280 X153.61 Y148.18 E1001.26736
G0 F12000 X154.06 Y148.30
G1 F2280 X157.27 Y145.09 E1001.34292
G0 F12000 X157.60 Y145.32
G1 F2280 X154.40 Y148.53 E1001.41819
G0 F12000 X154.74 Y148.75
G1 F2280 X157.91 Y145.58 E1001.49269
G0 F12000 X158.22 Y145.84
G1 F2280 X155.08 Y148.97 E1001.56645
G0 F12000 X155.43 Y149.19
G1 F2280 X158.53 Y146.09 E1001.63945
G0 F12000 X158.82 Y146.36
G1 F2280 X155.77 Y149.42 E1001.71124
G0 F12000 X156.00 Y149.75
G1 F2280 X159.08 Y146.68 E1001.78356
G0 F12000 X159.33 Y146.99
G1 F2280 X156.19 Y150.12 E1001.85742
G0 F12000 X156.38 Y150.50
G1 F2280 X159.59 Y147.30 E1001.93277
G0 F12000 X159.84 Y147.61
G1 F2280 X156.57 Y150.88 E1002.00961
G0 F12000 X156.76 Y151.25
G1 F2280 X160.04 Y147.98 E1002.08661
G0 F12000 X160.24 Y148.34
G1 F2280 X156.92 Y151.66 E1002.16465
G0 F12000 X156.89 Y152.26
G1 F2280 X160.43 Y148.71 E1002.24808
G0 F12000 X160.63 Y149.08
G1 F2280 X156.85 Y152.86 E1002.33691
G0 F12000 X156.82 Y153.45
G1 F2280 X160.77 Y149.51 E1002.42974
G0 F12000 X160.90 Y149.94
G1 F2280 X156.53 Y154.32 E1002.53263
G0 F12000 X156.66 Y154.40
G0 X160.51 Y155.79
G0 X160.67 Y155.83
G1 F2280 X155.83 Y160.67 E1002.64637
G0 F12000 X155.02 Y160.91
G1 F2280 X160.91 Y155.02 E1002.78493
G0 F12000 X161.15 Y154.22
G1 F2280 X154.21 Y161.16 E1002.94816
G0 F12000 X153.59 Y161.22
G1 F2280 X161.22 Y153.59 E1003.12758
G0 F12000 X161.28 Y152.96
G1 F2280 X152.96 Y161.28 E1003.32321
G0 F12000 X152.36 Y161.31
G1 F2280 X161.31 Y152.36 E1003.53363
G0 F12000 X161.26 Y151.85
G1 F2280 X151.85 Y161.26 E1003.75498
G0 F12000 X151.33 Y161.21
G1 F2280 X161.21 Y151.33 E1003.98727
G0 F12000 X161.16 Y150.82
G1 F2280 X150.82 Y161.16 E1004.23049
G0 F12000 X150.38 Y161.03
G1 F2280 X161.03 Y150.38 E1004.48115
G0 F12000 X160.88 Y150.42
G0 X159.90 Y156.96
G0 X160.04 Y157.03
G1 F2280 X157.03 Y160.04 E1004.55191
G0 F12000 X156.95 Y159.90
G0 X144.07 Y154.43
G0 X143.92 Y154.48
G1 F2280 X154.48 Y143.92 E1004.80019
G0 F12000 X154.01 Y143.82
G1 F2280 X143.82 Y154.01 E1005.03974
G0 F12000 X143.77 Y153.49
G1 F2280 X153.49 Y143.77 E1005.26835
G0 F12000 X152.98 Y143.72
G1 F2280 X143.72 Y152.98 E1005.48604
G0 F12000 X143.68 Y152.45
G1 F2280 X152.46 Y143.68 E1005.69237
G0 F12000 X151.83 Y143.74
G1 F2280 X143.74 Y151.83 E1005.88253
G0 F12000 X143.80 Y151.20
G1 F2280 X151.20 Y143.80 E1006.05650
G0 F12000 X150.52 Y143.92
G1 F2280 X143.92 Y150.51 E1006.21154
G0 F12000 X144.17 Y149.71
G1 F2280 X149.71 Y144.17 E1006.34178
G0 F12000 X148.78 Y144.53
G1 F2280 X144.53 Y148.78 E1006.44184
G0 F12000 X145.25 Y147.49
G1 F2280 X147.49 Y145.25 E1006.49464
G0 F12000 X148.04 Y145.91
G1 F2400 E1005.29464
G0 F12000 X162.09 Y155.29
;TYPE:WALL-OUTER
G1 F2400 E1006.49464
G1 F2280 X162.36 Y154.91 E1006.50241
G1 X162.78 Y154.54 E1006.51163
G1 X163.18 Y154.28 E1006.51963
G1 X163.93 Y154.06 E1006.53259
G1 X164.22 Y154.03 E1006.53746
G1 X165.08 Y154.16 E1006.55191
G1 X165.35 Y154.29 E1006.55686
G1 X165.99 Y154.72 E1006.56983
G1 X166.30 Y155.10 E1006.57788
G1 X166.57 Y155.57 E1006.58693
G1 X166.71 Y156.02 E1006.59482
G1 X166.77 Y156.52 E1006.60312
G1 X166.64 Y157.33 E1006.61671
G1 X166.44 Y157.78 E1006.62496
G1 X166.16 Y158.16 E1006.63277
G1 X165.75 Y158.53 E1006.64200
G1 X165.35 Y158.79 E1006.65000
G1 X164.60 Y159.01 E1006.66297
G1 X164.31 Y159.05 E1006.66785
G1 X163.45 Y158.91 E1006.68230
G1 X163.18 Y158.78 E1006.68733
G1 X162.54 Y158.35 E1006.70016
G1 X162.23 Y157.97 E1006.70826
G1 X161.96 Y157.50 E1006.71731
G1 X161.81 Y157.05 E1006.72519
G1 X161.76 Y156.56 E1006.73342
G1 X161.89 Y155.74 E1006.74711
G1 X162.09 Y155.29 E1006.75538
G0 F12000 X162.17 Y155.46
;TYPE:FILL
G1 F2280 X163.21 Y154.42 E1006.77985
G0 F12000 X164.01 Y154.19
G1 F2280 X161.95 Y156.25 E1006.82823
G0 F12000 X161.93 Y156.83
G1 F2280 X164.54 Y154.22 E1006.88972
G0 F12000 X165.03 Y154.29
G1 F2280 X162.04 Y157.29 E1006.96019
G0 F12000 X162.22 Y157.67
G1 F2280 X165.40 Y154.49 E1007.03505
G0 F12000 X165.74 Y154.72
G1 F2280 X162.45 Y158.01 E1007.11251
G0 F12000 X162.72 Y158.31
G1 F2280 X166.03 Y154.99 E1007.19040
G0 F12000 X166.26 Y155.33
G1 F2280 X163.06 Y158.53 E1007.26585
G0 F12000 X163.42 Y158.74
G1 F2280 X166.46 Y155.69 E1007.33747
G0 F12000 X166.58 Y156.14
G1 F2280 X163.88 Y158.84 E1007.40094
G0 F12000 X164.39 Y158.90
G1 F2280 X166.60 Y156.69 E1007.45282
G0 F12000 X166.45 Y157.40
G1 F2280 X165.15 Y158.71 E1007.48347
G0 F12000 X164.91 Y157.88
G1 F2400 E1006.28347
G0 F12000 X164.57 Y150.66
;TYPE:WALL-OUTER
G1 F2400 E1007.48347
G1 F2280 X163.79 Y150.66 E1007.49644
G1 X163.32 Y150.52 E1007.50453
G1 X162.83 Y150.28 E1007.51359
G1 X162.46 Y149.99 E1007.52149
G1 X162.14 Y149.60 E1007.52977
G1 X161.79 Y148.86 E1007.54337
G1 X161.71 Y148.38 E1007.55161
G1 X161.72 Y147.90 E1007.55944
G1 X161.86 Y147.37 E1007.56861
G1 X162.04 Y146.92 E1007.57667
G1 X162.54 Y146.33 E1007.58956
G1 X162.77 Y146.13 E1007.59458
G1 X163.55 Y145.76 E1007.60898
G1 X163.84 Y145.72 E1007.61383
G1 X164.62 Y145.72 E1007.62684
G1 X165.09 Y145.86 E1007.63491
G1 X165.58 Y146.10 E1007.64399
G1 X165.95 Y146.39 E1007.65183
G1 X166.27 Y146.78 E1007.66015
G1 X166.62 Y147.52 E1007.67375
G1 X166.70 Y148.01 E1007.68200
G1 X166.69 Y148.48 E1007.68982
G1 X166.55 Y149.01 E1007.69899
G1 X166.37 Y149.46 E1007.70705
G1 X165.87 Y150.05 E1007.71994
G1 X165.64 Y150.25 E1007.72499
G1 X164.86 Y150.61 E1007.73932
G1 X164.57 Y150.66 E1007.74422
G0 F12000 X164.28 Y150.52
;TYPE:FILL
G1 F2280 X166.55 Y148.25 E1007.79761
G0 F12000 X166.51 Y147.73
G1 F2280 X163.74 Y150.50 E1007.86275
G0 F12000 X163.31 Y150.36
G1 F2280 X166.36 Y147.31 E1007.93446
G0 F12000 X166.18 Y146.92
G1 F2280 X162.93 Y150.17 E1008.01094
G0 F12000 X162.61 Y149.93
G1 F2280 X165.94 Y146.60 E1008.08921
G0 F12000 X165.64 Y146.33
G1 F2280 X162.34 Y149.63 E1008.16687
G0 F12000 X162.14 Y149.27
G1 F2280 X165.29 Y146.12 E1008.24112
G0 F12000 X164.89 Y145.95
G1 F2280 X161.96 Y148.89 E1008.31017
G0 F12000 X161.86 Y148.42
G1 F2280 X164.42 Y145.86 E1008.37042
G0 F12000 X163.85 Y145.86
G1 F2280 X161.88 Y147.83 E1008.41685
G0 F12000 X162.22 Y146.92
G1 F2280 X162.95 Y146.20 E1008.43387
G0 F12000 X163.01 Y146.35
G0 X166.27 Y148.91
G0 X166.42 Y148.95
G1 F2280 X164.96 Y150.41 E1008.46833
G0 F12000 X164.60 Y149.63
G1 F2400 E1007.26833
G0 F12000 X160.25 Y143.84
;TYPE:WALL-OUTER
G1 F2400 E1008.46833
G1 F2280 X159.75 Y144.09 E1008.47754
G1 X159.30 Y144.24 E1008.48554
G1 X158.51 Y144.26 E1008.49854
G1 X158.22 Y144.22 E1008.50340
G1 X157.43 Y143.86 E1008.51787
G1 X157.20 Y143.67 E1008.52283
G1 X156.69 Y143.08 E1008.53574
G1 X156.50 Y142.64 E1008.54371
G1 X156.35 Y142.11 E1008.55292
G1 X156.33 Y141.64 E1008.56075
G1 X156.41 Y141.15 E1008.56897
G1 X156.75 Y140.40 E1008.58272
G1 X157.06 Y140.01 E1008.59089
G1 X157.42 Y139.72 E1008.59872
G1 X157.91 Y139.47 E1008.60785
G1 X158.37 Y139.32 E1008.61591
G1 X159.15 Y139.30 E1008.62890
G1 X159.44 Y139.34 E1008.63380
G1 X160.24 Y139.70 E1008.64825
G1 X160.46 Y139.88 E1008.65310
G1 X160.97 Y140.48 E1008.66612
G1 X161.17 Y140.92 E1008.67414
G1 X161.31 Y141.45 E1008.68328
G1 X161.33 Y141.92 E1008.69113
G1 X161.26 Y142.41 E1008.69934
G1 X160.92 Y143.16 E1008.71309
G1 X160.61 Y143.54 E1008.72129
G1 X160.25 Y143.84 E1008.72907
G0 F12000 X159.44 Y144.04
;TYPE:FILL
G1 F2280 X161.12 Y142.37 E1008.76837
G0 F12000 X161.18 Y141.74
G1 F2280 X158.81 Y144.11 E1008.82410
G0 F12000 X158.28 Y144.08
G1 F2280 X161.11 Y141.25 E1008.89075
G0 F12000 X160.97 Y140.82
G1 F2280 X157.88 Y143.91 E1008.96335
G0 F12000 X157.49 Y143.73
G1 F2280 X160.77 Y140.46 E1009.04036
G0 F12000 X160.51 Y140.15
G1 F2280 X157.20 Y143.46 E1009.11804
G0 F12000 X156.94 Y143.15
G1 F2280 X160.22 Y139.87 E1009.19528
G0 F12000 X159.85 Y139.68
G1 F2280 X156.72 Y142.81 E1009.26881
G0 F12000 X156.57 Y142.39
G1 F2280 X159.46 Y139.50 E1009.33663
G0 F12000 X158.95 Y139.45
G1 F2280 X156.48 Y141.91 E1009.39468
G0 F12000 X156.53 Y141.31
G1 F2280 X158.37 Y139.46 E1009.43805
G0 F12000 X158.64 Y140.31
G1 F2400 E1008.23805
G0 F12000 X152.77 Y140.19
;TYPE:WALL-OUTER
G1 F2400 E1009.43805
G1 F2280 X152.73 Y140.65 E1009.44579
G1 X152.59 Y141.13 E1009.45413
G1 X152.17 Y141.83 E1009.46770
G1 X151.81 Y142.18 E1009.47597
G1 X151.41 Y142.43 E1009.48385
G1 X150.90 Y142.62 E1009.49289
G1 X150.43 Y142.71 E1009.50100
G1 X149.65 Y142.63 E1009.51398
G1 X149.36 Y142.56 E1009.51890
G1 X148.62 Y142.11 E1009.53327
G1 X148.42 Y141.89 E1009.53827
G1 X147.99 Y141.24 E1009.55119
G1 X147.85 Y140.78 E1009.55917
G1 X147.76 Y140.24 E1009.56840
G1 X147.80 Y139.77 E1009.57615
G1 X147.94 Y139.29 E1009.58449
G1 X148.36 Y138.59 E1009.59807
G1 X148.72 Y138.25 E1009.60634
G1 X149.12 Y137.99 E1009.61423
G1 X149.63 Y137.81 E1009.62327
G1 X150.11 Y137.71 E1009.63138
G1 X150.88 Y137.79 E1009.64435
G1 X151.17 Y137.87 E1009.64927
G1 X151.91 Y138.31 E1009.66364
G1 X152.12 Y138.53 E1009.66864
G1 X152.55 Y139.18 E1009.68151
G1 X152.69 Y139.64 E1009.68963
G1 X152.77 Y140.19 E1009.69878
G0 F12000 X152.61 Y140.13
;TYPE:FILL
G1 F2280 X150.19 Y142.55 E1009.75569
G0 F12000 X149.68 Y142.49
G1 F2280 X152.54 Y139.64 E1009.82284
G0 F12000 X152.40 Y139.21
G1 F2280 X149.27 Y142.34 E1009.89640
G0 F12000 X148.92 Y142.12
G1 F2280 X152.17 Y138.87 E1009.97293
G0 F12000 X151.93 Y138.54
G1 F2280 X148.60 Y141.88 E1010.05138
G0 F12000 X148.36 Y141.55
G1 F2280 X151.62 Y138.30 E1010.12795
G0 F12000 X151.26 Y138.09
G1 F2280 X148.13 Y141.21 E1010.20154
G0 F12000 X147.99 Y140.79
G1 F2280 X150.85 Y137.93 E1010.26881
G0 F12000 X150.34 Y137.88
G1 F2280 X147.92 Y140.30 E1010.32584
G0 F12000 X147.97 Y139.68
G1 F2280 X149.72 Y137.93 E1010.36688
G0 F12000 X149.75 Y138.09
G0 X152.40 Y140.71
G0 X152.56 Y140.75
G1 F2280 X150.82 Y142.49 E1010.40775
G0 F12000 X150.65 Y141.64
G1 F2400 E1009.20775
G0 F12000 X145.18 Y143.78
;TYPE:WALL-OUTER
G1 F2400 E1010.40775
G1 F2280 X145.31 Y144.26 E1010.41600
G1 X145.31 Y145.08 E1010.42970
G1 X145.18 Y145.56 E1010.43790
G1 X144.97 Y145.97 E1010.44569
G1 X144.62 Y146.40 E1010.45491
G1 X144.26 Y146.73 E1010.46295
G1 X143.55 Y147.06 E1010.47588
G1 X143.27 Y147.14 E1010.48082
G1 X142.40 Y147.14 E1010.49525
G1 X142.12 Y147.06 E1010.50015
G1 X141.41 Y146.73 E1010.51317
G1 X141.06 Y146.41 E1010.52108
G1 X140.70 Y145.98 E1010.53034
G1 X140.49 Y145.56 E1010.53814
G1 X140.36 Y145.08 E1010.54639
G1 X140.36 Y144.26 E1010.56009
G1 X140.49 Y143.78 E1010.56825
G1 X140.71 Y143.36 E1010.57616
G1 X141.05 Y142.93 E1010.58530
G1 X141.41 Y142.61 E1010.59334
G1 X142.12 Y142.28 E1010.60629
G1 X142.40 Y142.19 E1010.61125
G1 X143.27 Y142.19 E1010.62566
G1 X143.55 Y142.28 E1010.63054
G1 X144.26 Y142.61 E1010.64357
G1 X144.61 Y142.93 E1010.65148
G1 X144.97 Y143.36 E1010.66074
G1 X145.18 Y143.78 E1010.66854
G0 F12000 X145.01 Y143.77
;TYPE:FILL
G1 F2280 X141.95 Y146.83 E1010.74046
G0 F12000 X141.57 Y146.65
G1 F2280 X144.82 Y143.40 E1010.81688
G0 F12000 X144.56 Y143.09
G1 F2280 X141.25 Y146.40 E1010.89470
G0 F12000 X140.99 Y146.10
G1 F2280 X144.27 Y142.81 E1010.97205
G0 F12000 X143.92 Y142.60
G1 F2280 X140.75 Y145.76 E1011.04644
G0 F12000 X140.59 Y145.37
G1 F2280 X143.53 Y142.42 E1011.11570
G0 F12000 X143.05 Y142.33
G1 F2280 X140.50 Y144.88 E1011.17569
G0 F12000 X140.50 Y144.32
G1 F2280 X142.49 Y142.33 E1011.22237
G0 F12000 X141.57 Y142.68
G1 F2280 X140.82 Y143.43 E1011.24003
G0 F12000 X140.96 Y143.52
G0 X142.41 Y146.83
G0 X142.36 Y146.98
G1 F2280 X145.14 Y144.20 E1011.30544
G0 F12000 X145.16 Y144.75
G1 F2280 X142.91 Y147.00 E1011.35840
G0 F12000 X143.59 Y146.88
G1 F2280 X145.07 Y145.41 E1011.39309
G0 F12000 X144.24 Y145.19
G1 F2400 E1010.19309
G0 F12000 X141.10 Y150.24
;TYPE:WALL-OUTER
G1 F2400 E1011.39309
G1 F2280 X141.35 Y150.40 E1011.39810
G1 X141.94 Y150.91 E1011.41101
G1 X142.19 Y151.32 E1011.41907
G1 X142.41 Y151.83 E1011.42821
G1 X142.50 Y152.29 E1011.43607
G1 X142.49 Y152.79 E1011.44430
G1 X142.26 Y153.58 E1011.45795
G1 X142.01 Y154.00 E1011.46617
G1 X141.69 Y154.34 E1011.47397
G1 X141.23 Y154.66 E1011.48326
G1 X140.80 Y154.87 E1011.49119
G1 X140.03 Y155.00 E1011.50422
G1 X139.74 Y155.00 E1011.50913
G1 X138.91 Y154.76 E1011.52346
G1 X138.65 Y154.60 E1011.52847
G1 X138.07 Y154.09 E1011.54138
G1 X137.81 Y153.68 E1011.54944
G1 X137.59 Y153.17 E1011.55857
G1 X137.51 Y152.71 E1011.56644
G1 X137.51 Y152.21 E1011.57467
G1 X137.74 Y151.42 E1011.58832
G1 X138.00 Y151.00 E1011.59654
G1 X138.31 Y150.66 E1011.60433
G1 X138.77 Y150.34 E1011.61362
G1 X139.20 Y150.13 E1011.62156
G1 X139.97 Y150.00 E1011.63459
G1 X140.27 Y150.00 E1011.63949
G1 X141.10 Y150.24 E1011.65383
G0 F12000 X141.16 Y150.45
;TYPE:FILL
G1 F2280 X137.96 Y153.65 E1011.72913
G0 F12000 X138.18 Y154.00
G1 F2280 X141.48 Y150.70 E1011.80681
G0 F12000 X141.78 Y150.96
G1 F2280 X138.48 Y154.26 E1011.88448
G0 F12000 X138.79 Y154.52
G1 F2280 X142.01 Y151.30 E1011.96028
G0 F12000 X142.19 Y151.68
G1 F2280 X139.18 Y154.69 E1012.03113
G0 F12000 X139.62 Y154.82
G1 F2280 X142.32 Y152.12 E1012.09466
G0 F12000 X142.35 Y152.65
G1 F2280 X140.18 Y154.83 E1012.14583
G0 F12000 X140.90 Y154.67
G1 F2280 X142.17 Y153.40 E1012.17563
G0 F12000 X142.01 Y153.36
G0 X140.71 Y150.44
G0 X140.75 Y150.29
G1 F2280 X137.78 Y153.26 E1012.24553
G0 F12000 X137.67 Y152.81
G1 F2280 X140.32 Y150.16 E1012.30784
G0 F12000 X139.73 Y150.18
G1 F2280 X137.65 Y152.26 E1012.35668
G0 F12000 X137.87 Y151.48
G1 F2280 X138.94 Y150.41 E1012.38175
G0 F12000 X139.32 Y151.19
G1 F2400 E1011.18175
G0 F12000 X142.20 Y158.36
;TYPE:WALL-OUTER
G1 F2400 E1012.38175
G1 F2280 X142.66 Y158.22 E1012.38967
G1 X143.15 Y158.18 E1012.39785
G1 X143.96 Y158.32 E1012.41153
G1 X144.41 Y158.53 E1012.41975
G1 X144.79 Y158.81 E1012.42764
G1 X145.15 Y159.23 E1012.43677
G1 X145.40 Y159.64 E1012.44482
G1 X145.60 Y160.39 E1012.45772
G1 X145.64 Y160.69 E1012.46271
G1 X145.49 Y161.54 E1012.47708
G1 X145.36 Y161.80 E1012.48198
G1 X144.91 Y162.44 E1012.49502
G1 X144.53 Y162.74 E1012.50299
G1 X144.05 Y163.01 E1012.51210
G1 X143.59 Y163.14 E1012.52002
G1 X143.10 Y163.19 E1012.52822
G1 X142.29 Y163.04 E1012.54190
G1 X141.85 Y162.84 E1012.55011
G1 X141.47 Y162.55 E1012.55800
G1 X141.11 Y162.14 E1012.56712
G1 X140.85 Y161.73 E1012.57517
G1 X140.65 Y160.98 E1012.58810
G1 X140.62 Y160.68 E1012.59307
G1 X140.77 Y159.83 E1012.60746
G1 X140.89 Y159.56 E1012.61234
G1 X141.34 Y158.92 E1012.62538
G1 X141.72 Y158.63 E1012.63335
G1 X142.20 Y158.36 E1012.64248
G0 F12000 X142.07 Y158.59
;TYPE:FILL
G1 F2280 X141.00 Y159.66 E1012.66755
G0 F12000 X140.80 Y160.43
G1 F2280 X142.88 Y158.34 E1012.71652
G0 F12000 X143.42 Y158.37
G1 F2280 X140.80 Y160.99 E1012.77825
G0 F12000 X140.92 Y161.44
G1 F2280 X143.91 Y158.45 E1012.84851
G0 F12000 X144.29 Y158.63
G1 F2280 X141.09 Y161.84 E1012.92394
G0 F12000 X141.32 Y162.17
G1 F2280 X144.62 Y158.87 E1013.00161
G0 F12000 X144.90 Y159.16
G1 F2280 X141.59 Y162.47 E1013.07948
G0 F12000 X141.91 Y162.71
G1 F2280 X145.14 Y159.48 E1013.15538
G0 F12000 X145.32 Y159.87
G1 F2280 X142.30 Y162.89 E1013.22649
G0 F12000 X142.77 Y162.99
G1 F2280 X145.44 Y160.31 E1013.28931
G0 F12000 X145.47 Y160.85
G1 F2280 X143.29 Y163.03 E1013.34050
G0 F12000 X144.02 Y162.87
G1 F2280 X145.32 Y161.57 E1013.37107
G0 F12000 X144.53 Y161.19
G1 F2400 E1012.17107
G0 F12000 X148.55 Y163.67
;TYPE:WALL-OUTER
G1 F2400 E1013.37107
G1 F2280 X148.82 Y163.28 E1013.37903
G1 X149.21 Y162.90 E1013.38817
G1 X149.61 Y162.62 E1013.39619
G1 X150.35 Y162.38 E1013.40916
G1 X150.64 Y162.33 E1013.41406
G1 X151.50 Y162.44 E1013.42846
G1 X151.78 Y162.55 E1013.43344
G1 X152.43 Y162.97 E1013.44632
G1 X152.75 Y163.33 E1013.45437
G1 X153.04 Y163.80 E1013.46355
G1 X153.20 Y164.24 E1013.47132
G1 X153.27 Y164.73 E1013.47963
G1 X153.17 Y165.55 E1013.49326
G1 X152.99 Y166.00 E1013.50143
G1 X152.72 Y166.40 E1013.50939
G1 X152.32 Y166.78 E1013.51851
G1 X151.93 Y167.06 E1013.52653
G1 X151.19 Y167.30 E1013.53950
G1 X150.90 Y167.34 E1013.54437
G1 X150.04 Y167.24 E1013.55884
G1 X149.76 Y167.12 E1013.56376
G1 X149.11 Y166.71 E1013.57668
G1 X148.79 Y166.34 E1013.58473
G1 X148.49 Y165.88 E1013.59392
G1 X148.34 Y165.44 E1013.60171
G1 X148.27 Y164.94 E1013.61000
G1 X148.37 Y164.13 E1013.62365
G1 X148.55 Y163.67 E1013.63181
G0 F12000 X148.59 Y163.95
;TYPE:FILL
G1 F2280 X149.86 Y162.68 E1013.66161
G0 F12000 X150.64 Y162.47
G1 F2280 X148.44 Y164.66 E1013.71319
G0 F12000 X148.45 Y165.22
G1 F2280 X151.14 Y162.53 E1013.77652
G0 F12000 X151.61 Y162.63
G1 F2280 X148.57 Y165.67 E1013.84797
G0 F12000 X148.76 Y166.04
G1 F2280 X151.97 Y162.84 E1013.92331
G0 F12000 X152.31 Y163.05
G1 F2280 X149.00 Y166.37 E1014.00131
G0 F12000 X149.28 Y166.66
G1 F2280 X152.58 Y163.35 E1014.07898
G0 F12000 X152.81 Y163.69
G1 F2280 X149.63 Y166.87 E1014.15381
G0 F12000 X150.00 Y167.07
G1 F2280 X152.99 Y164.07 E1014.22427
G0 F12000 X153.10 Y164.53
G1 F2280 X150.48 Y167.15 E1014.28591
G0 F12000 X151.01 Y167.19
G1 F2280 X153.08 Y165.11 E1014.33462
G0 F12000 X152.88 Y165.88
G1 F2280 X151.81 Y166.95 E1014.35977
G0 F12000 X151.54 Y166.11
G1 F2400 E1013.15977
G0 F12000 X152.50 Y168.70
;TYPE:WALL-OUTER
G1 F2400 E1014.35977
G1 F2280 X155.66 Y168.39 E1014.41258
G1 X158.70 Y167.47 E1014.46539
G1 X161.50 Y165.97 E1014.51823
G1 X163.96 Y163.96 E1014.57103
G1 X165.97 Y161.50 E1014.62383
G1 X167.47 Y158.70 E1014.67667
G1 X168.39 Y155.66 E1014.72948
G1 X168.70 Y152.50 E1014.78228
G1 X168.39 Y149.34 E1014.83509
G1 X167.47 Y146.30 E1014.88790
G1 X165.97 Y143.50 E1014.94074
G1 X163.96 Y141.04 E1014.99354
G1 X161.50 Y139.03 E1015.04634
G1 X158.70 Y137.53 E1015.09918
G1 X155.66 Y136.61 E1015.15199
G1 X152.50 Y136.30 E1015.20479
G1 X149.34 Y136.61 E1015.25760
G1 X146.30 Y137.53 E1015.31041
G1 X143.50 Y139.03 E1015.36325
G1 X141.04 Y141.04 E1015.41605
G1 X139.03 Y143.50 E1015.46885
G1 X137.53 Y146.30 E1015.52169
G1 X136.61 Y149.34 E1015.57450
G1 X136.30 Y152.50 E1015.62731
G1 X136.61 Y155.66 E1015.68011
G1 X137.53 Y158.70 E1015.73292
G1 X139.03 Y161.50 E1015.78576
G1 X141.04 Y163.96 E1015.83856
G1 X143.50 Y165.97 E1015.89136
G1 X146.30 Y167.47 E1015.94420
G1 X149.34 Y168.39 E1015.99701
G1 X152.50 Y168.70 E1016.04982
G0 F12000 X152.47 Y169.00
G0 X152.50 Y172.00
G0 X152.50 Y172.30
G1 F2280 X148.64 Y171.92 E1016.11439
G1 X144.92 Y170.79 E1016.17890
G1 X141.50 Y168.96 E1016.24337
G1 X138.50 Y166.50 E1016.30799
G1 X136.04 Y163.50 E1016.37260
G1 X134.21 Y160.08 E1016.43708
G1 X133.08 Y156.36 E1016.50159
G1 X132.70 Y152.50 E1016.56616
G1 X133.08 Y148.64 E1016.63073
G1 X134.21 Y144.92 E1016.69524
G1 X136.04 Y141.50 E1016.75972
G1 X138.50 Y138.50 E1016.82433
G1 X141.50 Y136.04 E1016.88895
G1 X144.92 Y134.21 E1016.95342
G1 X148.64 Y133.08 E1017.01794
G1 X152.50 Y132.70 E1017.08251
G1 X156.36 Y133.08 E1017.14708
G1 X160.08 Y134.21 E1017.21159
G1 X163.50 Y136.04 E1017.27607
G1 X166.50 Y138.50 E1017.34068
G1 X168.96 Y141.50 E1017.40529
G1 X170.79 Y144.92 E1017.46977
G1 X171.92 Y148.64 E1017.53428
G1 X172.30 Y152.50 E1017.59885
G1 X171.92 Y156.36 E1017.66342
G1 X170.79 Y160.08 E1017.72794
G1 X168.96 Y163.50 E1017.79241
G1 X166.50 Y166.50 E1017.85703
G1 X163.50 Y168.96 E1017.92164
G1 X160.08 Y170.79 E1017.98611
G1 X156.36 Y171.92 E1018.05063
G1 X152.50 Y172.30 E1018.11520
G0 F12000 X152.28 Y172.14
;TYPE:FILL
G1 F2280 X155.98 Y168.44 E1018.20223
G0 F12000 X155.29 Y168.56
G1 F2280 X151.77 Y172.09 E1018.28504
G0 F12000 X151.25 Y172.03
G1 F2280 X154.66 Y168.62 E1018.36521
G0 F12000 X154.04 Y168.69
G1 F2280 X150.74 Y171.98 E1018.44276
G0 F12000 X150.22 Y171.93
G1 F2280 X153.41 Y168.75 E1018.51766
G0 F12000 X152.78 Y168.81
G1 F2280 X149.71 Y171.88 E1018.58993
G0 F12000 X149.19 Y171.83
G1 F2280 X152.22 Y168.81 E1018.66103
G0 F12000 X151.70 Y168.76
G1 F2280 X148.68 Y171.78 E1018.73210
G0 F12000 X148.24 Y171.65
G1 F2280 X151.19 Y168.71 E1018.80134
G0 F12000 X150.67 Y168.66
G1 F2280 X147.81 Y171.52 E1018.86868
G0 F12000 X147.37 Y171.39
G1 F2280 X150.16 Y168.61 E1018.93409
G0 F12000 X149.64 Y168.56
G1 F2280 X146.94 Y171.26 E1018.99759
G0 F12000 X146.51 Y171.13
G1 F2280 X149.15 Y168.48 E1019.05986
G0 F12000 X148.72 Y168.35
G1 F2280 X146.07 Y170.99 E1019.12215
G0 F12000 X145.64 Y170.86
G1 F2280 X148.28 Y168.22 E1019.18441
G0 F12000 X147.85 Y168.08
G1 F2280 X145.20 Y170.73 E1019.24666
G0 F12000 X144.80 Y170.57
G1 F2280 X147.42 Y167.95 E1019.30818
G0 F12000 X146.98 Y167.82
G1 F2280 X144.43 Y170.37 E1019.36818
G0 F12000 X144.06 Y170.17
G1 F2280 X146.55 Y167.69 E1019.42662
G0 F12000 X146.13 Y167.54
G1 F2280 X143.70 Y169.98 E1019.48400
G0 F12000 X143.33 Y169.78
G1 F2280 X145.77 Y167.34 E1019.54138
G0 F12000 X145.40 Y167.14
G1 F2280 X142.96 Y169.58 E1019.59873
G0 F12000 X142.59 Y169.38
G1 F2280 X145.03 Y166.94 E1019.65610
G0 F12000 X144.66 Y166.75
G1 F2280 X142.22 Y169.19 E1019.71349
G0 F12000 X141.85 Y168.99
G1 F2280 X144.29 Y166.55 E1019.77085
G0 F12000 X143.92 Y166.35
G1 F2280 X141.50 Y168.78 E1019.82785
G0 F12000 X141.19 Y168.52
G1 F2280 X143.56 Y166.16 E1019.88347
G0 F12000 X143.22 Y165.92
G1 F2280 X140.88 Y168.27 E1019.93861
G0 F12000 X140.57 Y168.01
G1 F2280 X142.91 Y165.67 E1019.99376
G0 F12000 X142.60 Y165.41
G1 F2280 X140.26 Y167.76 E1020.04889
G0 F12000 X139.95 Y167.50
G1 F2280 X142.29 Y165.16 E1020.10404
G0 F12000 X141.98 Y164.90
G1 F2280 X139.63 Y167.25 E1020.15918
G0 F12000 X139.32 Y166.99
G1 F2280 X141.67 Y164.65 E1020.21433
G0 F12000 X141.36 Y164.39
G1 F2280 X139.01 Y166.74 E1020.26950
G0 F12000 X138.70 Y166.48
G1 F2280 X141.05 Y164.14 E1020.32466
G0 F12000 X140.77 Y163.85
G1 F2280 X138.43 Y166.19 E1020.37980
G0 F12000 X138.18 Y165.88
G1 F2280 X140.52 Y163.54 E1020.43491
G0 F12000 X140.26 Y163.23
G1 F2280 X137.92 Y165.57 E1020.49001
G0 F12000 X137.66 Y165.26
G1 F2280 X140.01 Y162.91 E1020.54514
G0 F12000 X139.75 Y162.60
G1 F2280 X137.41 Y164.95 E1020.60025
G0 F12000 X137.16 Y164.64
G1 F2280 X139.50 Y162.29 E1020.65537
G0 F12000 X139.24 Y161.98
G1 F2280 X136.90 Y164.32 E1020.71046
G0 F12000 X136.65 Y164.01
G1 F2280 X138.99 Y161.67 E1020.76556
G0 F12000 X138.78 Y161.32
G1 F2280 X136.39 Y163.70 E1020.82163
G0 F12000 X136.14 Y163.39
G1 F2280 X138.58 Y160.95 E1020.87896
G0 F12000 X138.38 Y160.58
G1 F2280 X135.94 Y163.02 E1020.93630
G0 F12000 X135.75 Y162.65
G1 F2280 X138.18 Y160.21 E1020.99364
G0 F12000 X137.99 Y159.85
G1 F2280 X135.55 Y162.28 E1021.05097
G0 F12000 X135.35 Y161.92
G1 F2280 X137.79 Y159.48 E1021.10831
G0 F12000 X137.59 Y159.11
G1 F2280 X135.15 Y161.55 E1021.16567
G0 F12000 X134.96 Y161.18
G1 F2280 X137.40 Y158.74 E1021.22307
G0 F12000 X137.26 Y158.30
G1 F2280 X134.76 Y160.81 E1021.28201
G0 F12000 X134.56 Y160.44
G1 F2280 X137.13 Y157.87 E1021.34250
G0 F12000 X137.00 Y157.44
G1 F2280 X134.37 Y160.07 E1021.40451
G0 F12000 X134.22 Y159.65
G1 F2280 X136.87 Y157.00 E1021.46677
G0 F12000 X136.74 Y156.57
G1 F2280 X134.09 Y159.21 E1021.52901
G0 F12000 X133.96 Y158.78
G1 F2280 X136.61 Y156.13 E1021.59125
G0 F12000 X136.48 Y155.70
G1 F2280 X133.83 Y158.35 E1021.65350
G0 F12000 X133.70 Y157.91
G1 F2280 X136.42 Y155.19 E1021.71762
G0 F12000 X136.37 Y154.67
G1 F2280 X133.57 Y157.48 E1021.78363
G0 F12000 X133.43 Y157.04
G1 F2280 X136.32 Y154.16 E1021.85157
G0 F12000 X136.27 Y153.64
G1 F2280 X133.30 Y156.61 E1021.92140
G0 F12000 X133.20 Y156.15
G1 F2280 X136.22 Y153.13 E1021.99244
G0 F12000 X136.17 Y152.61
G1 F2280 X133.15 Y155.63 E1022.06348
G0 F12000 X133.10 Y155.12
G1 F2280 X136.21 Y152.01 E1022.13660
G0 F12000 X136.27 Y151.38
G1 F2280 X133.05 Y154.60 E1022.21235
G0 F12000 X133.00 Y154.09
G1 F2280 X136.33 Y150.75 E1022.29073
G0 F12000 X136.39 Y150.13
G1 F2280 X132.95 Y153.57 E1022.37175
G0 F12000 X132.90 Y153.06
G1 F2280 X136.45 Y149.50 E1022.45540
G0 F12000 X136.64 Y148.74
G1 F2280 X132.85 Y152.54 E1022.54471
G0 F12000 X132.90 Y151.92
G1 F2280 X136.89 Y147.93 E1022.63855
G0 F12000 X137.13 Y147.12
G1 F2280 X132.96 Y151.30 E1022.73674
G0 F12000 X133.02 Y150.67
G1 F2280 X137.38 Y146.31 E1022.83926
G0 F12000 X138.00 Y145.12
G1 F2280 X133.08 Y150.04 E1022.95496
G0 F12000 X133.15 Y149.41
G1 F2280 X138.65 Y143.91 E1023.08450
G0 F12000 X138.51 Y143.83
G0 X140.33 Y141.44
G0 X140.46 Y141.54
G1 F2280 X133.21 Y148.79 E1023.25496
G0 F12000 X133.42 Y148.01
G1 F2280 X148.01 Y133.42 E1023.59822
G0 F12000 X148.79 Y133.21
G1 F2280 X141.54 Y140.46 E1023.76872
G0 F12000 X141.44 Y140.33
G0 X143.83 Y138.51
G0 X143.90 Y138.66
G1 F2280 X149.41 Y133.15 E1023.89831
G0 F12000 X150.04 Y133.08
G1 F2280 X145.12 Y138.00 E1024.01403
G0 F12000 X146.31 Y137.38
G1 F2280 X150.67 Y133.02 E1024.11659
G0 F12000 X151.30 Y132.96
G1 F2280 X147.12 Y137.14 E1024.21482
G0 F12000 X147.93 Y136.89
G1 F2280 X151.92 Y132.90 E1024.30874
G0 F12000 X152.54 Y132.84
G1 F2280 X148.74 Y136.65 E1024.39812
G0 F12000 X149.50 Y136.46
G1 F2280 X153.06 Y132.90 E1024.48185
G0 F12000 X153.57 Y132.95
G1 F2280 X150.12 Y136.39 E1024.56292
G0 F12000 X150.75 Y136.33
G1 F2280 X154.09 Y133.00 E1024.64135
G0 F12000 X154.60 Y133.05
G1 F2280 X151.38 Y136.27 E1024.71715
G0 F12000 X152.01 Y136.21
G1 F2280 X155.12 Y133.10 E1024.79030
G0 F12000 X155.63 Y133.15
G1 F2280 X152.61 Y136.17 E1024.86139
G0 F12000 X153.12 Y136.22
G1 F2280 X156.15 Y133.20 E1024.93244
G0 F12000 X156.61 Y133.30
G1 F2280 X153.64 Y136.27 E1025.00231
G0 F12000 X154.16 Y136.32
G1 F2280 X157.04 Y133.43 E1025.07028
G0 F12000 X157.48 Y133.57
G1 F2280 X154.67 Y136.37 E1025.13632
G0 F12000 X155.19 Y136.42
G1 F2280 X157.91 Y133.70 E1025.20047
G0 F12000 X158.35 Y133.83
G1 F2280 X155.70 Y136.48 E1025.26274
G0 F12000 X156.13 Y136.61
G1 F2280 X158.78 Y133.96 E1025.32502
G0 F12000 X159.22 Y134.09
G1 F2280 X156.57 Y136.74 E1025.38730
G0 F12000 X157.00 Y136.87
G1 F2280 X159.65 Y134.22 E1025.44957
G0 F12000 X160.07 Y134.37
G1 F2280 X157.44 Y137.00 E1025.51163
G0 F12000 X157.87 Y137.13
G1 F2280 X160.44 Y134.56 E1025.57214
G0 F12000 X160.81 Y134.76
G1 F2280 X158.30 Y137.27 E1025.63111
G0 F12000 X158.74 Y137.40
G1 F2280 X161.18 Y134.96 E1025.68853
G0 F12000 X161.55 Y135.15
G1 F2280 X159.11 Y137.59 E1025.74592
G0 F12000 X159.48 Y137.79
G1 F2280 X161.92 Y135.35 E1025.80329
G0 F12000 X162.28 Y135.55
G1 F2280 X159.84 Y137.99 E1025.86066
G0 F12000 X160.21 Y138.18
G1 F2280 X162.65 Y135.75 E1025.91803
G0 F12000 X163.02 Y135.94
G1 F2280 X160.58 Y138.38 E1025.97541
G0 F12000 X160.95 Y138.58
G1 F2280 X163.39 Y136.14 E1026.03277
G0 F12000 X163.71 Y136.39
G1 F2280 X161.32 Y138.78 E1026.08888
G0 F12000 X161.67 Y138.99
G1 F2280 X164.02 Y136.65 E1026.14403
G0 F12000 X164.33 Y136.90
G1 F2280 X161.98 Y139.24 E1026.19915
G0 F12000 X162.29 Y139.50
G1 F2280 X164.64 Y137.16 E1026.25429
G0 F12000 X164.95 Y137.41
G1 F2280 X162.60 Y139.75 E1026.30943
G0 F12000 X162.91 Y140.01
G1 F2280 X165.26 Y137.66 E1026.36459
G0 F12000 X165.57 Y137.92
G1 F2280 X163.22 Y140.26 E1026.41975
G0 F12000 X163.54 Y140.52
G1 F2280 X165.88 Y138.17 E1026.47490
G0 F12000 X166.19 Y138.43
G1 F2280 X163.85 Y140.77 E1026.53006
G0 F12000 X164.14 Y141.05
G1 F2280 X166.48 Y138.70 E1026.58520
G0 F12000 X166.74 Y139.01
G1 F2280 X164.40 Y141.36 E1026.64033
G0 F12000 X164.65 Y141.67
G1 F2280 X166.99 Y139.32 E1026.69545
G0 F12000 X167.25 Y139.63
G1 F2280 X164.91 Y141.98 E1026.75057
G0 F12000 X165.16 Y142.29
G1 F2280 X167.50 Y139.95 E1026.80567
G0 F12000 X167.76 Y140.26
G1 F2280 X165.41 Y142.60 E1026.86076
G0 F12000 X165.67 Y142.91
G1 F2280 X168.01 Y140.57 E1026.91587
G0 F12000 X168.27 Y140.88
G1 F2280 X165.92 Y143.22 E1026.97098
G0 F12000 X166.16 Y143.55
G1 F2280 X168.52 Y141.19 E1027.02657
G0 F12000 X168.78 Y141.50
G1 F2280 X166.35 Y143.92 E1027.08353
G0 F12000 X166.55 Y144.29
G1 F2280 X168.99 Y141.85 E1027.14088
G0 F12000 X169.19 Y142.22
G1 F2280 X166.75 Y144.66 E1027.19822
G0 F12000 X166.95 Y145.03
G1 F2280 X169.38 Y142.59 E1027.25557
G0 F12000 X169.58 Y142.96
G1 F2280 X167.14 Y145.40 E1027.31289
G0 F12000 X167.34 Y145.77
G1 F2280 X169.78 Y143.33 E1027.37023
G0 F12000 X169.97 Y143.70
G1 F2280 X167.54 Y146.13 E1027.42757
G0 F12000 X167.69 Y146.55
G1 F2280 X170.17 Y144.06 E1027.48598
G0 F12000 X170.37 Y144.43
G1 F2280 X167.82 Y146.98 E1027.54593
G0 F12000 X167.95 Y147.42
G1 F2280 X170.57 Y144.80 E1027.60742
G0 F12000 X170.73 Y145.21
G1 F2280 X168.08 Y147.85 E1027.66965
G0 F12000 X168.22 Y148.28
G1 F2280 X170.86 Y145.64 E1027.73188
G0 F12000 X170.99 Y146.07
G1 F2280 X168.35 Y148.72 E1027.79412
G0 F12000 X168.48 Y149.15
G1 F2280 X171.12 Y146.51 E1027.85637
G0 F12000 X171.26 Y146.94
G1 F2280 X168.56 Y149.64 E1027.91986
G0 F12000 X168.61 Y150.16
G1 F2280 X171.39 Y147.38 E1027.98524
G0 F12000 X171.52 Y147.81
G1 F2280 X168.66 Y150.67 E1028.05254
G0 F12000 X168.71 Y151.19
G1 F2280 X171.65 Y148.24 E1028.12175
G0 F12000 X171.78 Y148.68
G1 F2280 X168.76 Y151.70 E1028.19279
G0 F12000 X168.81 Y152.22
G1 F2280 X171.83 Y149.19 E1028.26385
G0 F12000 X171.88 Y149.71
G1 F2280 X168.81 Y152.78 E1028.33609
G0 F12000 X168.75 Y153.41
G1 F2280 X171.93 Y150.22 E1028.41097
G0 F12000 X171.98 Y150.74
G1 F2280 X168.69 Y154.03 E1028.48848
G0 F12000 X168.63 Y154.66
G1 F2280 X172.03 Y151.25 E1028.56862
G0 F12000 X172.09 Y151.77
G1 F2280 X168.56 Y155.29 E1028.65140
G0 F12000 X168.44 Y155.98
G1 F2280 X172.13 Y152.28 E1028.73838
G0 F12000 X172.12 Y152.87
G1 F2280 X168.19 Y156.79 E1028.83080
G0 F12000 X167.94 Y157.61
G1 F2280 X172.06 Y153.49 E1028.92753
G0 F12000 X172.00 Y154.12
G1 F2280 X167.70 Y158.42 E1029.02861
G0 F12000 X167.21 Y159.47
G1 F2280 X171.94 Y154.75 E1029.13964
G0 F12000 X171.87 Y155.37
G1 F2280 X166.56 Y160.69 E1029.26455
G0 F12000 X166.70 Y160.76
G0 X166.30 Y161.72
G0 X165.53 Y162.51
G0 X165.40 Y162.41
G1 F2280 X171.81 Y156.00 E1029.41528
G0 F12000 X171.66 Y156.72
G1 F2280 X156.71 Y171.66 E1029.76689
G0 F12000 X156.00 Y171.81
G1 F2280 X162.41 Y165.40 E1029.91765
G0 F12000 X162.51 Y165.53
G0 X161.72 Y166.30
G0 X160.76 Y166.70
G0 X160.69 Y166.56
G1 F2280 X155.37 Y171.88 E1030.04260
G0 F12000 X154.75 Y171.94
G1 F2280 X159.47 Y167.21 E1030.15368
G0 F12000 X158.42 Y167.70
G1 F2280 X154.12 Y172.00 E1030.25480
G0 F12000 X153.49 Y172.06
G1 F2280 X157.61 Y167.94 E1030.35157
G0 F12000 X156.79 Y168.19
G1 F2280 X152.86 Y172.12 E1030.44401
G0 F12000 X152.85 Y171.96
G0 X157.48 Y171.26
G0 X157.53 Y171.42
G1 F2280 X171.42 Y157.53 E1030.77071
G0 F12000 X171.17 Y158.34
G1 F2280 X158.34 Y171.17 E1031.07250
G0 F12000 X159.15 Y170.93
G1 F2280 X170.93 Y159.15 E1031.34940
G0 F12000 X170.68 Y159.96
G1 F2280 X159.96 Y170.68 E1031.60140
G0 F12000 X161.15 Y170.06
G1 F2280 X170.06 Y161.15 E1031.81086
G0 F12000 X169.41 Y162.37
G1 F2280 X162.37 Y169.41 E1031.97644
G0 F12000 X162.29 Y169.26
G0 X163.75 Y168.37
G0 X163.85 Y168.49
G1 F2280 X168.49 Y163.85 E1032.08552
G0 F12000 X168.37 Y163.75
G0 X169.10 Y152.50
G0 X168.78 Y149.26
G0 X167.84 Y146.15
G0 X166.30 Y143.28
G0 X164.24 Y140.76
G0 X161.72 Y138.70
G0 X158.85 Y137.16
G0 X155.74 Y136.22
G0 X152.50 Y135.90
G0 X147.25 Y133.82
G0 X147.20 Y133.66
G1 F2280 X133.66 Y147.20 E1032.40388
G0 F12000 X133.91 Y146.39
G1 F2280 X146.39 Y133.91 E1032.69735
G0 F12000 X145.57 Y134.16
G1 F2280 X134.16 Y145.57 E1032.96591
G0 F12000 X134.51 Y144.66
G1 F2280 X144.66 Y134.51 E1033.20458
G0 F12000 X143.44 Y135.16
G1 F2280 X135.16 Y143.44 E1033.39931
G0 F12000 X135.81 Y142.22
G1 F2280 X142.22 Y135.81 E1033.55010
G0 F12000 X142.30 Y135.95
G0 X140.20 Y137.50
G0 X140.10 Y137.37
G1 F2280 X137.37 Y140.10 E1033.61417
G0 F12000 X138.04 Y140.64
;LAYER:2
G0 X136.29 Y141.67 Z2.10
G0 X136.04 Y141.50
;TYPE:WALL-OUTER
G1 F2520 X138.50 Y138.50 E1033.67879
G1 X141.50 Y136.04 E1033.74340
G1 X144.92 Y134.21 E1033.80788
G1 X148.64 Y133.08 E1033.87239
G1 X152.50 Y132.70 E1033.93696
G1 X156.36 Y133.08 E1034.00153
G1 X160.08 Y134.21 E1034.06604
G1 X163.50 Y136.04 E1034.13052
G1 X166.50 Y138.50 E1034.19513
G1 X168.96 Y141.50 E1034.25975
G1 X170.79 Y144.92 E1034.32422
G1 X171.92 Y148.64 E1034.38874
G1 X172.30 Y152.50 E1034.45331
G1 X171.92 Y156.36 E1034.51788
G1 X170.79 Y160.08 E1034.58239
G1 X168.96 Y163.50 E1034.64687
G1 X166.50 Y166.50 E1034.71148
G1 X163.50 Y168.96 E1034.77609
G1 X160.08 Y170.79 E1034.84057
G1 X156.36 Y171.92 E1034.90508
G1 X152.50 Y172.30 E1034.96965
G1 X148.64 Y171.92 E1035.03422
G1 X144.92 Y170.79 E1035.09874
G1 X141.50 Y168.96 E1035.16321
G1 X138.50 Y166.50 E1035.22783
G1 X136.04 Y163.50 E1035.29244
G1 X134.21 Y160.08 E1035.35692
G1 X133.08 Y156.36 E1035.42143
G1 X132.70 Y152.50 E1035.48600
G1 X133.08 Y148.64 E1035.55057
G1 X134.21 Y144.92 E1035.61508
G1 X136.04 Y141.50 E1035.67956
G0 F12000 X136.29 Y141.67
G0 X138.77 Y143.36
G0 X139.03 Y143.50
G1 F2520 X137.53 Y146.30 E1035.73240
G1 X136.61 Y149.34 E1035.78521
G1 X136.30 Y152.50 E1035.83802
G1 X136.61 Y155.66 E1035.89082
G1 X137.53 Y158.70 E1035.94363
G1 X139.03 Y161.50 E1035.99647
G1 X141.04 Y163.96 E1036.04927
G1 X143.50 Y165.97 E1036.10207
G1 X146.30 Y167.47 E1036.15491
G1 X149.34 Y168.39 E1036.20772
G1 X152.50 Y168.70 E1036.26053
G1 X155.66 Y168.39 E1036.31333
G1 X158.70 Y167.47 E1036.36614
G1 X161.50 Y165.97 E1036.41898
G1 X163.96 Y163.96 E1036.47178
G1 X165.97 Y161.50 E1036.52458
G1 X167.47 Y158.70 E1036.57742
G1 X168.39 Y155.66 E1036.63023
G1 X168.70 Y152.50 E1036.68304
G1 X168.39 Y149.34 E1036.73584
G1 X167.47 Y146.30 E1036.78865
G1 X165.97 Y143.50 E1036.84149
G1 X163.96 Y141.04 E1036.89429
G1 X161.50 Y139.03 E1036.94709
G1 X158.70 Y137.53 E1036.99993
G1 X155.66 Y136.61 E1037.05274
G1 X152.50 Y136.30 E1037.10555
G1 X149.34 Y136.61 E1037.15835
G1 X146.30 Y137.53 E1037.21116
G1 X143.50 Y139.03 E1037.26400
G1 X141.04 Y141.04 E1037.31680
G1 X139.03 Y143.50 E1037.36960
G0 F12000 X139.03 Y143.28
;TYPE:FILL
G1 F2520 X136.69 Y140.93 E1037.42475
G0 F12000 X136.43 Y141.24
G1 F2520 X138.81 Y143.62 E1037.48063
G0 F12000 X138.61 Y143.99
G1 F2520 X136.18 Y141.55 E1037.53787
G0 F12000 X135.97 Y141.91
G1 F2520 X138.41 Y144.35 E1037.59523
G0 F12000 X138.22 Y144.72
G1 F2520 X135.78 Y142.28 E1037.65258
G0 F12000 X135.58 Y142.65
G1 F2520 X138.02 Y145.09 E1037.70995
G0 F12000 X137.82 Y145.46
G1 F2520 X135.38 Y143.02 E1037.76730
G0 F12000 X135.19 Y143.39
G1 F2520 X137.62 Y145.83 E1037.82466
G0 F12000 X137.43 Y146.20
G1 F2520 X134.99 Y143.76 E1037.88204
G0 F12000 X134.79 Y144.13
G1 F2520 X137.29 Y146.62 E1037.94072
G0 F12000 X137.16 Y147.06
G1 F2520 X134.59 Y144.49 E1038.00096
G0 F12000 X134.40 Y144.86
G1 F2520 X137.02 Y147.49 E1038.06272
G0 F12000 X136.89 Y147.92
G1 F2520 X134.25 Y145.28 E1038.12496
G0 F12000 X134.11 Y145.71
G1 F2520 X136.76 Y148.36 E1038.18722
G0 F12000 X136.63 Y148.79
G1 F2520 X133.98 Y146.14 E1038.24949
G0 F12000 X133.85 Y146.58
G1 F2520 X136.50 Y149.23 E1038.31176
G0 F12000 X136.43 Y149.73
G1 F2520 X133.72 Y147.01 E1038.37557
G0 F12000 X133.59 Y147.45
G1 F2520 X136.38 Y150.24 E1038.44130
G0 F12000 X136.33 Y150.76
G1 F2520 X133.46 Y147.88 E1038.50896
G0 F12000 X133.32 Y148.31
G1 F2520 X136.28 Y151.27 E1038.57852
G0 F12000 X136.23 Y151.79
G1 F2520 X133.21 Y148.76 E1038.64959
G0 F12000 X133.16 Y149.28
G1 F2520 X136.18 Y152.30 E1038.72068
G0 F12000 X136.20 Y152.89
G1 F2520 X133.11 Y149.79 E1038.79339
G0 F12000 X133.06 Y150.31
G1 F2520 X136.26 Y153.51 E1038.86875
G0 F12000 X136.32 Y154.14
G1 F2520 X133.01 Y150.82 E1038.94673
G0 F12000 X132.96 Y151.34
G1 F2520 X136.38 Y154.77 E1039.02736
G0 F12000 X136.44 Y155.40
G1 F2520 X132.90 Y151.85 E1039.11062
G0 F12000 X132.85 Y152.37
G1 F2520 X136.60 Y156.12 E1039.19882
G0 F12000 X136.85 Y156.93
G1 F2520 X132.89 Y152.97 E1039.29202
G0 F12000 X132.95 Y153.60
G1 F2520 X137.10 Y157.74 E1039.38954
G0 F12000 X137.34 Y158.56
G1 F2520 X133.01 Y154.22 E1039.49140
G0 F12000 X133.07 Y154.85
G1 F2520 X137.90 Y159.67 E1039.60480
G0 F12000 X138.55 Y160.89
G1 F2520 X133.13 Y155.48 E1039.73205
G0 F12000 X133.20 Y156.11
G1 F2520 X140.03 Y162.94 E1039.89275
G0 F12000 X139.91 Y163.04
G0 X140.76 Y164.24
G0 X141.96 Y165.09
G0 X142.06 Y164.97
G1 F2520 X148.89 Y171.80 E1040.05343
G0 F12000 X149.52 Y171.86
G1 F2520 X144.11 Y166.45 E1040.18065
G0 F12000 X145.32 Y167.10
G1 F2520 X150.15 Y171.93 E1040.29404
G0 F12000 X150.77 Y171.99
G1 F2520 X146.44 Y167.66 E1040.39585
G0 F12000 X147.26 Y167.90
G1 F2520 X151.40 Y172.05 E1040.49333
G0 F12000 X152.03 Y172.11
G1 F2520 X148.07 Y168.15 E1040.58649
G0 F12000 X148.88 Y168.40
G1 F2520 X152.63 Y172.14 E1040.67466
G0 F12000 X153.14 Y172.09
G1 F2520 X149.60 Y168.55 E1040.75790
G0 F12000 X150.23 Y168.62
G1 F2520 X153.66 Y172.04 E1040.83849
G0 F12000 X154.17 Y171.99
G1 F2520 X150.86 Y168.68 E1040.91645
G0 F12000 X151.49 Y168.74
G1 F2520 X154.69 Y171.94 E1040.99177
G0 F12000 X155.20 Y171.89
G1 F2520 X152.11 Y168.80 E1041.06444
G0 F12000 X152.70 Y168.82
G1 F2520 X155.72 Y171.84 E1041.13552
G0 F12000 X156.23 Y171.79
G1 F2520 X153.21 Y168.77 E1041.20657
G0 F12000 X153.73 Y168.72
G1 F2520 X156.68 Y171.67 E1041.27609
G0 F12000 X157.12 Y171.54
G1 F2520 X154.24 Y168.67 E1041.34370
G0 F12000 X154.76 Y168.62
G1 F2520 X157.55 Y171.41 E1041.40940
G0 F12000 X157.99 Y171.28
G1 F2520 X155.27 Y168.57 E1041.47319
G0 F12000 X155.77 Y168.50
G1 F2520 X158.42 Y171.15 E1041.53542
G0 F12000 X158.85 Y171.01
G1 F2520 X156.21 Y168.37 E1041.59765
G0 F12000 X156.64 Y168.24
G1 F2520 X159.29 Y170.88 E1041.65987
G0 F12000 X159.72 Y170.75
G1 F2520 X157.07 Y168.11 E1041.72210
G0 F12000 X157.51 Y167.97
G1 F2520 X160.13 Y170.60 E1041.78383
G0 F12000 X160.50 Y170.40
G1 F2520 X157.94 Y167.84 E1041.84403
G0 F12000 X158.38 Y167.71
G1 F2520 X160.87 Y170.21 E1041.90271
G0 F12000 X161.24 Y170.01
G1 F2520 X158.80 Y167.57 E1041.96005
G0 F12000 X159.17 Y167.37
G1 F2520 X161.61 Y169.81 E1042.01738
G0 F12000 X161.98 Y169.62
G1 F2520 X159.54 Y167.18 E1042.07471
G0 F12000 X159.91 Y166.98
G1 F2520 X162.35 Y169.42 E1042.13205
G0 F12000 X162.72 Y169.22
G1 F2520 X160.28 Y166.78 E1042.18939
G0 F12000 X160.65 Y166.59
G1 F2520 X163.08 Y169.02 E1042.24673
G0 F12000 X163.45 Y168.82
G1 F2520 X161.01 Y166.39 E1042.30395
G0 F12000 X161.38 Y166.19
G1 F2520 X163.76 Y168.56 E1042.35981
G0 F12000 X164.07 Y168.31
G1 F2520 X161.72 Y165.97 E1042.41491
G0 F12000 X162.03 Y165.71
G1 F2520 X164.38 Y168.06 E1042.47004
G0 F12000 X164.69 Y167.80
