;-- START GCODE --
;Sliced for Type A Machines Series 1
;Sliced at: Sun 19-07-2015 23:21:43
;Basic settings: Layer height: 0.3 Walls: 1.2 Fill: 17
;Print Speed: 80 Support: 0
;Retraction Speed: 40 Retraction Distance: 1.2
;Print time: #P_TIME#
;Filament used: #F_AMNT#m #F_WGHT#g
;Filament cost: #F_COST#
M106 S255	 ;start with the fan on
G21        ;metric values
G90        ;absolute positioning
M106 S255    ;start with the fan on
G28     ;move to endstops
G29		;allows for auto-levelling
G1 X150 Y5  Z15.0 F12000 ;center and move the platform down 15mm
M109 S220 ;Heat To temp
G92 E0                  ;zero the extruded length
G1 F200 E30              ;extrude 30mm of feed stock
G92 E0                  ;zero the extruded length again
G1 X175 Y25  Z0 F12000 ;remove bugger
G1 X220 F12000 ;remove bugger
G1 X150 Y150  Z15 F12000 ;recenter and begin
G1 F12000

;Layer count: 109
;LAYER:0
M106 S255
G0 F12000 X129.37 Y139.66 Z0.30
;TYPE:SKIRT
G1 F2700 X147.77 Y139.66 E0.86774
G1 X147.77 Y144.00 E1.07244
G1 X151.75 Y144.00 E1.25994
G1 X151.75 Y139.66 E1.46465
G1 X170.15 Y139.66 E2.33239
G1 X170.15 Y144.36 E2.55445
G1 X170.61 Y144.61 E2.57919
G1 X172.34 Y146.02 E2.68436
G1 X173.75 Y147.74 E2.78928
G1 X174.79 Y149.69 E2.89356
G1 X175.44 Y151.82 E2.99839
G1 X175.66 Y154.03 E3.10321
G1 X175.45 Y156.25 E3.20820
G1 X174.81 Y158.37 E3.31276
G1 X173.77 Y160.33 E3.41739
G1 X172.35 Y162.06 E3.52291
G1 X170.63 Y163.47 E3.62753
G1 X168.68 Y164.51 E3.73197
G1 X166.55 Y165.16 E3.83718
G1 X164.34 Y165.38 E3.94161
G1 X162.13 Y165.17 E4.04630
G1 X160.00 Y164.52 E4.15154
G1 X158.04 Y163.48 E4.25622
G1 X156.32 Y162.07 E4.36118
G1 X156.15 Y161.87 E4.37357
G1 X129.37 Y161.87 E5.63634
G1 X129.37 Y139.66 E6.68375
G0 F12000 X129.77 Y140.06
G1 F2700 X147.37 Y140.06 E7.51376
G1 X147.37 Y144.40 E7.71847
G1 X152.15 Y144.40 E7.94369
G1 X152.15 Y140.06 E8.14840
G1 X169.75 Y140.06 E8.97841
G1 X169.75 Y144.60 E9.19293
G1 X170.39 Y144.94 E9.22712
G1 X172.06 Y146.31 E9.32857
G1 X173.42 Y147.97 E9.42977
G1 X174.42 Y149.85 E9.53036
G1 X175.05 Y151.90 E9.63149
G1 X175.26 Y154.03 E9.73257
G1 X175.06 Y156.17 E9.83387
G1 X174.44 Y158.21 E9.93469
G1 X173.43 Y160.10 E10.03564
G1 X172.06 Y161.78 E10.13741
G1 X170.41 Y163.13 E10.23834
G1 X168.53 Y164.14 E10.33904
G1 X166.47 Y164.77 E10.44056
G1 X164.34 Y164.98 E10.54129
G1 X162.21 Y164.78 E10.64224
G1 X160.15 Y164.15 E10.74374
G1 X158.26 Y163.14 E10.84475
G1 X156.60 Y161.78 E10.94599
G1 X156.34 Y161.47 E10.96539
G1 X129.77 Y161.47 E12.21826
G1 X129.77 Y140.06 E13.22793
G0 F12000 X130.17 Y140.46
G1 F2700 X146.97 Y140.46 E14.02022
G1 X146.97 Y144.80 E14.22493
G1 X152.55 Y144.80 E14.48788
G1 X152.55 Y140.46 E14.69258
G1 X169.35 Y140.46 E15.48487
G1 X169.35 Y144.84 E15.69189
G1 X170.17 Y145.28 E15.73554
G1 X171.77 Y146.59 E15.83326
G1 X173.08 Y148.19 E15.93074
G1 X174.05 Y150.00 E16.02764
G1 X174.66 Y151.98 E16.12502
G1 X174.86 Y154.03 E16.22241
G1 X174.66 Y156.09 E16.31996
G1 X174.06 Y158.06 E16.41709
G1 X173.10 Y159.88 E16.51436
G1 X171.78 Y161.49 E16.61235
G1 X170.19 Y162.80 E16.70956
G1 X168.37 Y163.77 E16.80661
G1 X166.39 Y164.38 E16.90437
G1 X164.34 Y164.58 E17.00137
G1 X162.29 Y164.38 E17.09867
G1 X160.31 Y163.78 E17.19638
G1 X158.49 Y162.81 E17.29368
G1 X156.88 Y161.50 E17.39119
G1 X156.53 Y161.07 E17.41766
G1 X130.17 Y161.07 E18.66058
G1 X130.17 Y140.46 E19.63253
G0 F12000 X130.57 Y140.85
G1 F2700 X146.57 Y140.85 E20.38709
G1 X146.57 Y145.20 E20.59180
G1 X152.95 Y145.20 E20.89247
G1 X152.95 Y140.85 E21.09718
G1 X168.95 Y140.85 E21.85174
G1 X168.95 Y145.08 E22.05117
G1 X169.94 Y145.61 E22.10433
G1 X171.49 Y146.88 E22.19830
G1 X172.75 Y148.41 E22.29203
G1 X173.68 Y150.16 E22.38526
G1 X174.26 Y152.06 E22.47894
G1 X174.46 Y154.03 E22.57259
G1 X174.27 Y156.01 E22.66644
G1 X173.69 Y157.91 E22.75988
G1 X172.76 Y159.66 E22.85339
G1 X171.50 Y161.21 E22.94765
G1 X169.96 Y162.46 E23.04117
G1 X168.22 Y163.40 E23.13449
G1 X166.31 Y163.98 E23.22850
G1 X164.34 Y164.18 E23.32185
G1 X162.37 Y163.99 E23.41541
G1 X160.46 Y163.41 E23.50942
G1 X158.71 Y162.47 E23.60300
G1 X157.17 Y161.22 E23.69680
G1 X156.72 Y160.67 E23.73030
G1 X130.57 Y160.67 E24.96327
G1 X130.57 Y140.85 E25.89750
G0 F12000 X130.97 Y141.25
G1 F2700 X146.17 Y141.25 E26.61433
G1 X146.17 Y145.60 E26.81904
G1 X153.35 Y145.60 E27.15744
G1 X153.35 Y141.25 E27.36215
G1 X168.55 Y141.25 E28.07898
G1 X168.55 Y145.32 E28.27091
G1 X169.72 Y145.95 E28.33353
G1 X171.20 Y147.16 E28.42374
G1 X172.41 Y148.64 E28.51378
G1 X173.31 Y150.31 E28.60328
G1 X173.87 Y152.13 E28.69326
G1 X174.06 Y154.03 E28.78321
G1 X173.87 Y155.93 E28.87332
G1 X173.32 Y157.75 E28.96305
G1 X172.43 Y159.44 E29.05290
G1 X171.21 Y160.92 E29.14337
G1 X169.74 Y162.13 E29.23317
G1 X168.06 Y163.03 E29.32284
G1 X166.23 Y163.59 E29.41311
G1 X164.34 Y163.77 E29.50276
G1 X162.44 Y163.59 E29.59257
G1 X160.61 Y163.04 E29.68284
G1 X158.93 Y162.14 E29.77271
G1 X157.45 Y160.93 E29.86279
G1 X156.91 Y160.27 E29.90336
G1 X130.97 Y160.27 E31.12638
G1 X130.97 Y141.25 E32.02288
G0 F12000 X131.37 Y141.66
G1 F2700 X145.77 Y141.66 E32.70199
G1 X145.77 Y146.00 E32.90670
G1 X153.75 Y146.00 E33.28283
G1 X153.75 Y141.66 E33.48753
G1 X168.15 Y141.66 E34.16664
G1 X168.15 Y145.56 E34.35098
G1 X169.50 Y146.28 E34.42307
G1 X170.92 Y147.44 E34.50956
G1 X172.08 Y148.86 E34.59588
G1 X172.94 Y150.46 E34.68173
G1 X173.47 Y152.21 E34.76797
G1 X173.66 Y154.03 E34.85421
G1 X173.48 Y155.86 E34.94058
G1 X172.95 Y157.60 E35.02663
G1 X172.09 Y159.22 E35.11274
G1 X170.93 Y160.64 E35.19946
G1 X169.51 Y161.79 E35.28558
G1 X167.91 Y162.66 E35.37152
G1 X166.15 Y163.19 E35.45809
G1 X164.34 Y163.37 E35.54399
G1 X162.52 Y163.20 E35.63016
G1 X160.77 Y162.67 E35.71668
G1 X159.15 Y161.81 E35.80282
G1 X157.74 Y160.65 E35.88918
G1 X157.10 Y159.87 E35.93682
G1 X131.37 Y159.87 E37.14989
G1 X131.37 Y141.66 E38.00866
G0 F12000 X131.77 Y142.06
G1 F2700 X145.37 Y142.06 E38.65005
G1 X145.37 Y146.40 E38.85476
G1 X154.15 Y146.40 E39.26861
G1 X154.15 Y142.06 E39.47331
G1 X167.75 Y142.06 E40.11470
G1 X167.75 Y145.80 E40.29149
G1 X169.28 Y146.62 E40.37305
G1 X170.63 Y147.73 E40.45579
G1 X171.75 Y149.08 E40.53840
G1 X172.57 Y150.62 E40.62055
G1 X173.08 Y152.29 E40.70309
G1 X173.25 Y154.03 E40.78559
G1 X173.08 Y155.78 E40.86827
G1 X172.58 Y157.45 E40.95055
G1 X171.76 Y158.99 E41.03300
G1 X170.64 Y160.35 E41.11597
G1 X169.29 Y161.46 E41.19837
G1 X167.75 Y162.29 E41.28066
G1 X166.08 Y162.80 E41.36343
G1 X164.34 Y162.97 E41.44569
G1 X162.60 Y162.80 E41.52811
G1 X160.92 Y162.29 E41.61089
G1 X159.38 Y161.47 E41.69340
G1 X158.02 Y160.36 E41.77600
G1 X157.28 Y159.47 E41.83068
G1 X131.77 Y159.47 E43.03380
G1 X131.77 Y142.06 E43.85485
G0 F12000 X132.17 Y142.46
G1 F2700 X144.97 Y142.46 E44.45850
G1 X144.97 Y146.80 E44.66321
G1 X154.55 Y146.80 E45.11479
G1 X154.55 Y142.46 E45.31950
G1 X167.35 Y142.46 E45.92315
G1 X167.35 Y146.10 E46.09495
G1 X167.58 Y146.17 E46.10638
G1 X169.05 Y146.95 E46.18502
G1 X170.35 Y148.01 E46.26404
G1 X171.41 Y149.31 E46.34292
G1 X172.20 Y150.77 E46.42137
G1 X172.69 Y152.37 E46.50016
G1 X172.85 Y154.03 E46.57897
G1 X172.69 Y155.70 E46.65790
G1 X172.21 Y157.29 E46.73650
G1 X171.42 Y158.77 E46.81523
G1 X170.36 Y160.07 E46.89448
G1 X169.07 Y161.13 E46.97316
G1 X167.60 Y161.92 E47.05171
G1 X166.00 Y162.40 E47.13077
G1 X164.34 Y162.57 E47.20929
G1 X162.68 Y162.41 E47.28802
G1 X161.07 Y161.92 E47.36710
G1 X159.60 Y161.14 E47.44585
G1 X158.31 Y160.08 E47.52473
G1 X157.47 Y159.07 E47.58645
G1 X132.17 Y159.07 E48.77967
G1 X132.17 Y142.46 E49.56299
G0 F12000 X132.57 Y142.85
G1 F2700 X144.57 Y142.85 E50.12892
G1 X144.57 Y147.20 E50.33363
G1 X154.95 Y147.20 E50.82293
G1 X154.95 Y142.85 E51.02764
G1 X166.95 Y142.85 E51.59357
G1 X166.95 Y146.39 E51.76046
G1 X167.43 Y146.54 E51.78402
G1 X168.83 Y147.29 E51.85899
G1 X170.07 Y148.30 E51.93427
G1 X171.08 Y149.53 E52.00943
G1 X171.83 Y150.93 E52.08418
G1 X172.29 Y152.45 E52.15927
G1 X172.45 Y154.03 E52.23434
G1 X172.30 Y155.62 E52.30957
G1 X171.84 Y157.14 E52.38447
G1 X171.09 Y158.55 E52.45949
G1 X170.07 Y159.78 E52.53495
G1 X168.84 Y160.79 E52.60994
G1 X167.45 Y161.54 E52.68482
G1 X165.92 Y162.01 E52.76015
G1 X164.34 Y162.16 E52.83497
G1 X162.76 Y162.01 E52.90996
G1 X161.23 Y161.55 E52.98529
G1 X159.82 Y160.80 E53.06038
G1 X158.59 Y159.79 E53.13554
G1 X157.66 Y158.67 E53.20429
G1 X132.57 Y158.67 E54.38756
G1 X132.57 Y142.85 E55.13316
G0 F12000 X132.97 Y143.25
G1 F2700 X144.17 Y143.25 E55.66136
G1 X144.17 Y147.60 E55.86607
G1 X155.35 Y147.60 E56.39310
G1 X155.35 Y143.25 E56.59781
G1 X166.55 Y143.25 E57.12601
G1 X166.55 Y146.69 E57.28804
G1 X167.28 Y146.91 E57.32377
G1 X168.61 Y147.62 E57.39499
G1 X169.78 Y148.58 E57.46657
G1 X170.74 Y149.75 E57.53802
G1 X171.46 Y151.08 E57.60907
G1 X171.90 Y152.53 E57.68042
G1 X172.05 Y154.03 E57.75179
G1 X171.90 Y155.54 E57.82328
G1 X171.46 Y156.99 E57.89449
G1 X170.75 Y158.32 E57.96581
G1 X169.79 Y159.50 E58.03749
G1 X168.62 Y160.46 E58.10880
G1 X167.29 Y161.17 E58.17994
G1 X165.84 Y161.62 E58.25153
G1 X164.34 Y161.76 E58.32270
G1 X162.83 Y161.62 E58.39400
G1 X161.38 Y161.18 E58.46559
G1 X160.04 Y160.47 E58.53692
G1 X158.87 Y159.51 E58.60836
G1 X157.91 Y158.34 E58.67966
G1 X157.87 Y158.27 E58.68363
G1 X132.97 Y158.27 E59.85793
G1 X132.97 Y143.25 E60.56581
G0 F12000 X133.37 Y143.66
G1 F2700 X143.77 Y143.66 E61.05629
G1 X143.77 Y148.00 E61.26100
G1 X155.75 Y148.00 E61.82575
G1 X155.75 Y143.66 E62.03046
G1 X166.15 Y143.66 E62.52094
G1 X166.15 Y146.99 E62.67811
G1 X167.12 Y147.28 E62.72595
G1 X168.38 Y147.96 E62.79350
G1 X169.50 Y148.87 E62.86134
G1 X170.41 Y149.98 E62.92906
G1 X171.08 Y151.24 E62.99643
G1 X171.50 Y152.61 E63.06407
G1 X171.65 Y154.03 E63.13170
G1 X171.51 Y155.47 E63.19949
G1 X171.09 Y156.84 E63.26697
G1 X170.42 Y158.10 E63.33458
G1 X169.51 Y159.22 E63.40254
G1 X168.40 Y160.12 E63.47013
G1 X167.14 Y160.80 E63.53762
G1 X165.76 Y161.22 E63.60546
G1 X164.34 Y161.36 E63.67289
G1 X162.91 Y161.23 E63.74049
G1 X161.53 Y160.81 E63.80834
G1 X160.27 Y160.13 E63.87599
G1 X159.16 Y159.22 E63.94369
G1 X158.25 Y158.12 E64.01127
G1 X158.11 Y157.87 E64.02471
G1 X133.37 Y157.87 E65.19142
G1 X133.37 Y143.66 E65.86157
G0 F12000 X133.77 Y144.06
G1 F2700 X143.37 Y144.06 E66.31432
G1 X143.37 Y148.40 E66.51903
G1 X156.15 Y148.40 E67.12151
G1 X156.15 Y144.06 E67.32622
G1 X165.75 Y144.06 E67.77897
G1 X165.75 Y147.28 E67.93129
G1 X166.97 Y147.65 E67.99131
G1 X168.16 Y148.29 E68.05510
G1 X169.22 Y149.15 E68.11921
G1 X170.07 Y150.20 E68.18322
G1 X170.71 Y151.39 E68.24689
G1 X171.11 Y152.69 E68.31084
G1 X171.24 Y154.04 E68.37477
G1 X171.11 Y155.39 E68.43882
G1 X170.72 Y156.68 E68.50259
G1 X170.09 Y157.88 E68.56649
G1 X169.22 Y158.93 E68.63073
G1 X168.18 Y159.79 E68.69456
G1 X166.98 Y160.43 E68.75836
G1 X165.68 Y160.83 E68.82246
G1 X164.34 Y160.96 E68.88624
G1 X162.99 Y160.83 E68.95009
G1 X161.69 Y160.44 E69.01426
G1 X160.49 Y159.80 E69.07816
G1 X159.44 Y158.94 E69.14216
G1 X158.58 Y157.89 E69.20602
G1 X158.35 Y157.47 E69.22887
G1 X133.77 Y157.47 E70.38804
G1 X133.77 Y144.06 E71.02046
G0 F12000 X134.17 Y144.46
G1 F2700 X142.97 Y144.46 E71.43549
G1 X142.97 Y148.80 E71.64020
G1 X156.55 Y148.80 E72.28040
G1 X156.55 Y144.46 E72.48511
G1 X165.35 Y144.46 E72.90014
G1 X165.35 Y147.63 E73.04991
G1 X165.59 Y147.65 E73.06123
G1 X166.81 Y148.03 E73.12159
G1 X167.94 Y148.62 E73.18176
G1 X168.93 Y149.44 E73.24212
G1 X169.74 Y150.42 E73.30240
G1 X170.34 Y151.54 E73.36238
G1 X170.72 Y152.77 E73.42259
G1 X170.84 Y154.04 E73.48282
G1 X170.72 Y155.31 E73.54308
G1 X170.35 Y156.53 E73.60320
G1 X169.75 Y157.66 E73.66341
G1 X168.94 Y158.65 E73.72386
G1 X167.95 Y159.46 E73.78401
G1 X166.83 Y160.06 E73.84412
G1 X165.60 Y160.43 E73.90446
G1 X164.34 Y160.56 E73.96450
G1 X163.07 Y160.44 E74.02471
G1 X161.84 Y160.07 E74.08506
G1 X160.71 Y159.47 E74.14530
G1 X159.73 Y158.66 E74.20551
G1 X158.92 Y157.67 E74.26572
G1 X158.59 Y157.07 E74.29798
G1 X134.17 Y157.07 E75.44960
G1 X134.17 Y144.46 E76.04430
G0 F12000 X134.57 Y144.85
G1 F2700 X142.57 Y144.85 E76.42160
G1 X142.57 Y149.20 E76.62631
G1 X156.95 Y149.20 E77.30424
G1 X156.95 Y144.85 E77.50895
G1 X164.95 Y144.85 E77.88625
G1 X164.95 Y148.00 E78.03433
G1 X165.51 Y148.05 E78.06090
G1 X166.66 Y148.40 E78.11757
G1 X167.72 Y148.96 E78.17401
G1 X168.65 Y149.72 E78.23061
G1 X169.41 Y150.65 E78.28718
G1 X169.97 Y151.70 E78.34347
G1 X170.32 Y152.84 E78.39997
G1 X170.44 Y154.04 E78.45646
G1 X170.32 Y155.23 E78.51303
G1 X169.98 Y156.38 E78.56945
G1 X169.42 Y157.43 E78.62592
G1 X168.65 Y158.36 E78.68261
G1 X167.73 Y159.12 E78.73908
G1 X166.67 Y159.69 E78.79549
G1 X165.53 Y160.04 E78.85213
G1 X164.34 Y160.16 E78.90847
G1 X163.14 Y160.04 E78.96494
G1 X161.99 Y159.69 E79.02161
G1 X160.94 Y159.13 E79.07809
G1 X160.01 Y158.37 E79.13458
G1 X159.25 Y157.45 E79.19108
G1 X158.83 Y156.67 E79.23281
G1 X134.57 Y156.67 E80.37684
G1 X134.57 Y144.85 E80.93381
G0 F12000 X134.97 Y145.25
G1 F2700 X142.17 Y145.25 E81.27339
G1 X142.17 Y149.60 E81.47809
G1 X157.35 Y149.60 E82.19375
G1 X157.35 Y145.25 E82.39846
G1 X164.55 Y145.25 E82.73804
G1 X164.55 Y148.36 E82.88441
G1 X165.43 Y148.44 E82.92624
G1 X166.51 Y148.77 E82.97915
G1 X167.49 Y149.29 E83.03189
G1 X168.36 Y150.00 E83.08481
G1 X169.07 Y150.87 E83.13759
G1 X169.60 Y151.85 E83.19025
G1 X169.93 Y152.92 E83.24301
G1 X170.04 Y154.04 E83.29581
G1 X169.93 Y155.15 E83.34863
G1 X169.60 Y156.22 E83.40137
G1 X169.08 Y157.21 E83.45410
G1 X168.37 Y158.08 E83.50708
G1 X167.50 Y158.79 E83.55982
G1 X166.52 Y159.32 E83.61251
G1 X165.45 Y159.65 E83.66540
G1 X164.34 Y159.75 E83.71809
G1 X163.22 Y159.65 E83.77082
G1 X162.15 Y159.32 E83.82373
G1 X161.16 Y158.80 E83.87654
G1 X160.29 Y158.09 E83.92932
G1 X159.58 Y157.22 E83.98209
G1 X159.07 Y156.27 E84.03325
G1 X134.97 Y156.27 E85.16969
G1 X134.97 Y145.25 E85.68893
G0 F12000 X135.37 Y145.66
G1 F2700 X141.77 Y145.66 E85.99079
G1 X141.77 Y150.00 E86.19550
G1 X157.75 Y150.00 E86.94888
G1 X157.75 Y145.66 E87.15358
G1 X164.15 Y145.66 E87.45544
G1 X164.15 Y148.76 E87.60167
G1 X164.32 Y148.74 E87.60982
G1 X165.36 Y148.84 E87.65880
G1 X166.35 Y149.14 E87.70797
G1 X167.27 Y149.63 E87.75700
G1 X168.08 Y150.29 E87.80613
G1 X168.74 Y151.09 E87.85526
G1 X169.23 Y152.01 E87.90418
G1 X169.53 Y153.00 E87.95325
G1 X169.64 Y154.04 E88.00230
G1 X169.53 Y155.07 E88.05143
G1 X169.23 Y156.07 E88.10040
G1 X168.75 Y156.99 E88.14951
G1 X168.09 Y157.80 E88.19871
G1 X167.28 Y158.46 E88.24773
G1 X166.37 Y158.95 E88.29676
G1 X165.37 Y159.25 E88.34591
G1 X164.34 Y159.35 E88.39486
G1 X163.30 Y159.25 E88.44393
G1 X162.30 Y158.95 E88.49310
G1 X161.38 Y158.46 E88.54217
G1 X160.58 Y157.80 E88.59123
G1 X159.92 Y157.00 E88.64029
G1 X159.43 Y156.08 E88.68936
G1 X159.36 Y155.87 E88.70001
G1 X135.37 Y155.87 E89.83121
G1 X135.37 Y145.66 E90.31273
G0 F12000 X135.77 Y146.06
G1 F2700 X141.37 Y146.06 E90.57686
G1 X141.37 Y149.90 E90.75799
G1 X139.66 Y149.90 E90.83872
G1 X139.66 Y150.40 E90.86230
G1 X159.86 Y150.40 E91.81483
G1 X159.86 Y149.90 E91.83840
G1 X158.15 Y149.90 E91.91909
G1 X158.15 Y146.06 E92.10022
G1 X163.75 Y146.06 E92.36435
G1 X163.75 Y149.20 E92.51247
G1 X164.32 Y149.14 E92.53957
G1 X165.28 Y149.23 E92.58486
G1 X166.20 Y149.51 E92.63029
G1 X167.05 Y149.96 E92.67564
G1 X167.79 Y150.57 E92.72105
G1 X168.40 Y151.32 E92.76642
G1 X168.86 Y152.16 E92.81170
G1 X169.14 Y153.08 E92.85700
G1 X169.23 Y154.04 E92.90236
G1 X169.14 Y155.00 E92.94774
G1 X168.86 Y155.92 E92.99303
G1 X168.41 Y156.77 E93.03841
G1 X167.80 Y157.51 E93.08385
G1 X167.06 Y158.12 E93.12919
G1 X166.21 Y158.58 E93.17449
G1 X165.29 Y158.86 E93.21995
G1 X164.33 Y158.95 E93.26520
G1 X163.38 Y158.86 E93.31054
G1 X162.46 Y158.58 E93.35596
G1 X161.61 Y158.13 E93.40132
G1 X160.86 Y157.52 E93.44669
G1 X160.25 Y156.78 E93.49202
G1 X159.80 Y155.93 E93.53740
G1 X159.66 Y155.47 E93.56012
G1 X135.77 Y155.47 E94.68647
G1 X135.77 Y146.06 E95.13026
G0 F12000 X136.17 Y146.46
G1 F2700 X140.97 Y146.46 E95.35666
G1 X140.97 Y149.50 E95.50007
G1 X139.26 Y149.50 E95.58080
G1 X139.26 Y150.80 E95.64211
G1 X160.26 Y150.80 E96.63236
G1 X160.26 Y149.50 E96.69366
G1 X158.55 Y149.50 E96.77435
G1 X158.55 Y146.46 E96.91775
G1 X163.35 Y146.46 E97.14415
G1 X163.35 Y149.66 E97.29515
G1 X163.44 Y149.63 E97.29979
G1 X164.32 Y149.54 E97.34144
G1 X165.20 Y149.63 E97.38298
G1 X166.05 Y149.88 E97.42471
G1 X166.83 Y150.30 E97.46635
G1 X167.51 Y150.86 E97.50801
G1 X168.07 Y151.54 E97.54970
G1 X168.49 Y152.32 E97.59124
G1 X168.74 Y153.16 E97.63284
G1 X168.83 Y154.04 E97.67450
G1 X168.75 Y154.92 E97.71615
G1 X168.49 Y155.76 E97.75774
G1 X168.08 Y156.54 E97.79942
G1 X167.52 Y157.23 E97.84111
G1 X166.83 Y157.79 E97.88273
G1 X166.06 Y158.21 E97.92438
G1 X165.21 Y158.46 E97.96603
G1 X164.33 Y158.55 E98.00759
G1 X163.46 Y158.47 E98.04923
G1 X162.61 Y158.21 E98.09095
G1 X161.83 Y157.79 E98.13260
G1 X161.15 Y157.23 E98.17422
G1 X160.59 Y156.55 E98.21583
G1 X160.17 Y155.77 E98.25752
G1 X159.95 Y155.07 E98.29237
G1 X136.17 Y155.07 E99.41381
G1 X136.17 Y146.46 E99.81988
G0 F12000 X136.57 Y146.85
G1 F2700 X140.57 Y146.85 E100.00856
G1 X140.57 Y149.10 E100.11423
G1 X138.86 Y149.10 E100.19497
G1 X138.86 Y151.20 E100.29400
G1 X160.66 Y151.20 E101.32197
G1 X160.66 Y149.10 E101.42100
G1 X158.95 Y149.10 E101.50169
G1 X158.95 Y146.85 E101.60737
G1 X162.95 Y146.85 E101.79604
G1 X162.95 Y150.20 E101.95364
G1 X163.52 Y150.02 E101.98188
G1 X164.32 Y149.94 E102.01979
G1 X165.12 Y150.02 E102.05769
G1 X165.89 Y150.25 E102.09564
G1 X166.60 Y150.63 E102.13357
G1 X167.23 Y151.14 E102.17150
G1 X167.74 Y151.76 E102.20947
G1 X168.12 Y152.47 E102.24732
G1 X168.35 Y153.24 E102.28523
G1 X168.43 Y154.04 E102.32314
G1 X168.35 Y154.84 E102.36109
G1 X168.12 Y155.61 E102.39898
G1 X167.74 Y156.32 E102.43693
G1 X167.23 Y156.94 E102.47487
G1 X166.61 Y157.45 E102.51280
G1 X165.90 Y157.83 E102.55071
G1 X165.13 Y158.07 E102.58866
G1 X164.33 Y158.15 E102.62652
G1 X163.53 Y158.07 E102.66447
G1 X162.76 Y157.84 E102.70242
G1 X162.05 Y157.46 E102.74035
G1 X161.43 Y156.95 E102.77825
G1 X160.92 Y156.33 E102.81618
G1 X160.54 Y155.62 E102.85414
G1 X160.31 Y154.85 E102.89204
G1 X160.29 Y154.67 E102.90076
G1 X136.57 Y154.67 E104.01909
G1 X136.57 Y146.85 E104.38743
G0 F12000 X136.97 Y147.25
G1 F2700 X140.17 Y147.25 E104.53838
G1 X140.17 Y148.70 E104.60633
G1 X138.46 Y148.70 E104.68707
G1 X138.46 Y151.60 E104.82382
G1 X161.06 Y151.60 E105.88952
G1 X161.06 Y148.70 E106.02628
G1 X159.35 Y148.70 E106.10697
G1 X159.35 Y147.25 E106.17492
G1 X162.55 Y147.25 E106.32587
G1 X162.55 Y150.82 E106.49398
G1 X162.91 Y150.63 E106.51314
G1 X163.60 Y150.42 E106.54735
G1 X164.32 Y150.35 E106.58156
G1 X165.04 Y150.41 E106.61571
G1 X165.74 Y150.62 E106.64995
G1 X166.38 Y150.97 E106.68417
G1 X166.94 Y151.43 E106.71839
G1 X167.40 Y151.99 E106.75260
G1 X167.75 Y152.63 E106.78680
G1 X167.96 Y153.32 E106.82096
G1 X168.03 Y154.04 E106.85518
G1 X167.96 Y154.76 E106.88938
G1 X167.75 Y155.46 E106.92358
G1 X167.41 Y156.10 E106.95782
G1 X166.95 Y156.66 E106.99200
G1 X166.39 Y157.12 E107.02621
G1 X165.75 Y157.46 E107.06047
G1 X165.05 Y157.67 E107.09468
G1 X164.33 Y157.75 E107.12884
G1 X163.61 Y157.68 E107.16305
G1 X162.91 Y157.47 E107.19728
G1 X162.28 Y157.12 E107.23150
G1 X161.71 Y156.66 E107.26568
G1 X161.25 Y156.10 E107.29986
G1 X160.91 Y155.46 E107.33416
G1 X160.70 Y154.77 E107.36833
G1 X160.65 Y154.27 E107.39226
G1 X136.97 Y154.27 E108.50879
G1 X136.97 Y147.25 E108.83941
G0 F12000 X137.67 Y147.87
G0 X137.72 Y152.34
G0 X138.17 Y152.80
;TYPE:WALL-INNER
G1 F2700 X162.26 Y152.80 E109.97533
G1 X162.26 Y152.22 E110.00230
G1 X162.51 Y152.34 E110.01530
G1 X162.95 Y151.97 E110.04243
G1 X163.37 Y151.74 E110.06495
G1 X163.84 Y151.60 E110.08817
G1 X164.33 Y151.55 E110.11120
G1 X164.81 Y151.60 E110.13408
G1 X165.28 Y151.74 E110.15734
G1 X165.71 Y151.97 E110.18023
G1 X166.09 Y152.28 E110.20319
G1 X166.40 Y152.66 E110.22654
G1 X166.63 Y153.09 E110.24960
G1 X166.77 Y153.55 E110.27244
G1 X166.82 Y154.04 E110.29566
G1 X166.78 Y154.53 E110.31854
G1 X166.63 Y155.00 E110.34175
G1 X166.41 Y155.43 E110.36466
G1 X166.09 Y155.81 E110.38775
G1 X165.71 Y156.12 E110.41097
G1 X165.29 Y156.35 E110.43384
G1 X164.81 Y156.49 E110.45716
G1 X164.33 Y156.54 E110.47990
G1 X163.84 Y156.49 E110.50325
G1 X163.37 Y156.35 E110.52630
G1 X162.95 Y156.12 E110.54903
G1 X162.56 Y155.81 E110.57248
G1 X162.26 Y155.44 E110.59530
G1 X162.02 Y155.00 E110.61861
G1 X161.88 Y154.54 E110.64145
G1 X161.74 Y153.07 E110.71111
G1 X138.17 Y153.07 E111.82232
G1 X138.17 Y152.80 E111.83505
G0 F12000 X137.77 Y152.40
G1 F2700 X161.86 Y152.40 E112.97097
G1 X161.86 Y151.60 E113.00860
G1 X162.45 Y151.87 E113.03906
G1 X162.72 Y151.63 E113.05626
G1 X163.22 Y151.37 E113.08257
G1 X163.76 Y151.21 E113.10939
G1 X164.33 Y151.15 E113.13621
G1 X164.89 Y151.20 E113.16287
G1 X165.43 Y151.37 E113.18973
G1 X165.93 Y151.63 E113.21624
G1 X166.38 Y152.00 E113.24343
G1 X166.73 Y152.43 E113.26987
G1 X167.00 Y152.94 E113.29690
G1 X167.17 Y153.48 E113.32357
G1 X167.22 Y154.04 E113.35030
G1 X167.17 Y154.61 E113.37711
G1 X167.00 Y155.15 E113.40387
G1 X166.74 Y155.65 E113.43077
G1 X166.38 Y156.09 E113.45741
G1 X165.94 Y156.45 E113.48405
G1 X165.44 Y156.72 E113.51114
G1 X164.90 Y156.89 E113.53785
G1 X164.33 Y156.94 E113.56462
G1 X163.77 Y156.89 E113.59134
G1 X163.22 Y156.72 E113.61819
G1 X162.72 Y156.46 E113.64492
G1 X162.28 Y156.10 E113.67153
G1 X161.92 Y155.66 E113.69843
G1 X161.65 Y155.15 E113.72540
G1 X161.49 Y154.61 E113.75207
G1 X161.37 Y153.47 E113.80642
G1 X137.77 Y153.47 E114.91938
G1 X137.77 Y152.40 E114.96984
G0 F12000 X138.06 Y152.00
;TYPE:WALL-OUTER
G1 F2700 X161.46 Y152.00 E116.07326
G1 X161.46 Y148.30 E116.24774
G1 X159.75 Y148.30 E116.32843
G1 X159.75 Y147.66 E116.35866
G1 X162.15 Y147.66 E116.47188
G1 X162.15 Y151.29 E116.64339
G1 X162.38 Y151.40 E116.65544
G1 X162.50 Y151.30 E116.66260
G1 X163.06 Y151.00 E116.69277
G1 X163.68 Y150.81 E116.72314
G1 X164.32 Y150.75 E116.75380
G1 X164.97 Y150.81 E116.78430
G1 X165.59 Y151.00 E116.81475
G1 X166.15 Y151.30 E116.84507
G1 X166.66 Y151.71 E116.87573
G1 X167.07 Y152.21 E116.90633
G1 X167.37 Y152.78 E116.93681
G1 X167.56 Y153.40 E116.96710
G1 X167.63 Y154.04 E116.99766
G1 X167.56 Y154.69 E117.02822
G1 X167.38 Y155.30 E117.05847
G1 X167.07 Y155.88 E117.08923
G1 X166.66 Y156.38 E117.11962
G1 X166.16 Y156.79 E117.15022
G1 X165.59 Y157.09 E117.18077
G1 X164.98 Y157.28 E117.21105
G1 X164.33 Y157.34 E117.24166
G1 X163.69 Y157.28 E117.27221
G1 X163.07 Y157.09 E117.30266
G1 X162.50 Y156.79 E117.33297
G1 X162.00 Y156.38 E117.36361
G1 X161.59 Y155.88 E117.39420
G1 X161.28 Y155.31 E117.42475
G1 X161.09 Y154.69 E117.45499
G1 X161.01 Y153.87 E117.49427
G1 X137.37 Y153.87 E118.60901
G1 X137.37 Y147.66 E118.90191
G1 X139.77 Y147.66 E119.01513
G1 X139.77 Y148.30 E119.04536
G1 X138.06 Y148.30 E119.12609
G1 X138.06 Y152.00 E119.30057
G0 F12000 X137.86 Y151.72
;TYPE:FILL
G1 F2700 X137.72 Y151.29 E119.31986
G1 X137.72 Y150.73 E119.33914
G1 X137.72 Y150.16 E119.35839
G1 X137.72 Y149.59 E119.37768
G1 X137.72 Y149.03 E119.39696
G1 X137.72 Y148.46 E119.41621
G1 X137.76 Y147.94 E119.43550
G1 X138.36 Y147.97 E119.45149
G1 X138.92 Y147.97 E119.46750
G1 X139.33 Y148.09 E119.48734
G0 F12000 X137.67 Y152.00
G0 X137.57 Y152.00
G1 F2700 X137.79 Y152.22 E119.50195
G0 F12000 X161.80 Y152.34
G0 X161.80 Y147.96
G0 X160.09 Y148.00
G0 X160.02 Y147.85
G1 F2700 X160.42 Y147.97 E119.51791
G1 X160.99 Y147.97 E119.53390
G1 X161.52 Y148.23 E119.54993
G1 X161.80 Y148.79 E119.56927
G1 X161.80 Y149.36 E119.58856
G1 X161.80 Y149.92 E119.60787
G1 X161.80 Y150.49 E119.62716
G1 X161.80 Y151.06 E119.64644
G1 X161.87 Y151.40 E119.66308
G0 F12000 X162.40 Y152.50
G1 F2700 X165.78 Y155.88 E119.88856
G0 F12000 X166.07 Y155.61
G1 F2700 X162.77 Y152.30 E120.10904
G0 F12000 X163.08 Y152.05
G1 F2700 X166.32 Y155.29 E120.32468
G0 F12000 X166.51 Y154.91
G1 F2700 X163.46 Y151.86 E120.52832
G0 F12000 X163.90 Y151.73
G1 F2700 X166.64 Y154.48 E120.71132
G0 F12000 X166.67 Y153.94
G1 F2700 X164.43 Y151.70 E120.86077
G0 F12000 X165.13 Y151.84
G1 F2700 X166.53 Y153.24 E120.95384
G0 F12000 X165.44 Y156.10
G1 F2700 X162.27 Y152.94 E121.16524
G0 F12000 X161.88 Y153.11
G1 F2700 X165.04 Y156.28 E121.37618
G0 F12000 X164.58 Y156.37
G1 F2700 X161.94 Y153.74 E121.55178
G0 F12000 X162.00 Y154.37
G1 F2700 X164.00 Y156.37 E121.68509
G0 F12000 X163.14 Y156.07
G1 F2700 X162.31 Y155.24 E121.74058
G0 F12000 X161.78 Y151.53
G0 X161.95 Y148.09
G1 F2700 X161.71 Y147.85 E121.75625
;LAYER:1
G0 F12000 X161.78 Y151.53 Z0.60
G0 X162.44 Y151.83
G0 X163.36 Y151.74
;TYPE:WALL-INNER
G1 F3180 X163.83 Y151.60 E121.77928
G1 X164.33 Y151.55 E121.80287
G1 X164.81 Y151.59 E121.82570
G1 X165.28 Y151.74 E121.84841
G1 X165.71 Y151.97 E121.87154
G1 X166.09 Y152.27 E121.89444
G1 X166.40 Y152.65 E121.91740
G1 X166.63 Y153.09 E121.94070
G1 X166.78 Y153.55 E121.96343
G1 X166.83 Y154.04 E121.98694
G1 X166.78 Y154.53 E122.01000
G1 X166.64 Y154.99 E122.03266
G1 X166.41 Y155.43 E122.05562
G1 X166.10 Y155.81 E122.07876
G1 X165.72 Y156.12 E122.10169
G1 X165.29 Y156.35 E122.12485
G1 X164.82 Y156.49 E122.14777
G1 X164.32 Y156.54 E122.17132
G1 X163.84 Y156.50 E122.19419
G1 X163.38 Y156.36 E122.21690
G1 X162.95 Y156.13 E122.23986
G1 X162.57 Y155.81 E122.26306
G1 X162.26 Y155.44 E122.28581
G1 X162.02 Y155.00 E122.30922
G1 X161.88 Y154.54 E122.33200
G1 X161.73 Y153.07 E122.40159
G1 X138.17 Y153.07 E123.50993
G1 X138.17 Y152.79 E123.52291
G1 X162.26 Y152.79 E124.65599
G1 X162.26 Y152.22 E124.68299
G1 X162.51 Y152.34 E124.69606
G1 X162.95 Y151.97 E124.72306
G1 X163.36 Y151.74 E124.74530
G0 F12000 X163.21 Y151.37
G1 F3180 X163.75 Y151.21 E124.77222
G1 X164.33 Y151.15 E124.79940
G1 X164.89 Y151.20 E124.82606
G1 X165.43 Y151.36 E124.85216
G1 X165.93 Y151.63 E124.87916
G1 X166.37 Y151.99 E124.90574
G1 X166.73 Y152.43 E124.93264
G1 X167.00 Y152.93 E124.95916
G1 X167.17 Y153.47 E124.98598
G1 X167.23 Y154.04 E125.01307
G1 X167.17 Y154.61 E125.03983
G1 X167.01 Y155.14 E125.06593
G1 X166.74 Y155.65 E125.09307
G1 X166.39 Y156.09 E125.11942
G1 X165.94 Y156.45 E125.14642
G1 X165.45 Y156.72 E125.17298
G1 X164.90 Y156.89 E125.19983
G1 X164.33 Y156.94 E125.22697
G1 X163.76 Y156.89 E125.25368
G1 X163.23 Y156.73 E125.27978
G1 X162.72 Y156.46 E125.30680
G1 X162.28 Y156.10 E125.33348
G1 X161.92 Y155.66 E125.36001
G1 X161.65 Y155.16 E125.38682
G1 X161.49 Y154.62 E125.41363
G1 X161.37 Y153.47 E125.46800
G1 X137.77 Y153.47 E126.57817
G1 X137.77 Y152.39 E126.62869
G1 X161.86 Y152.39 E127.76177
G1 X161.86 Y151.59 E127.79936
G1 X162.45 Y151.87 E127.82983
G1 X162.72 Y151.63 E127.84692
G1 X163.21 Y151.37 E127.87278
G0 F12000 X163.06 Y151.00
;TYPE:WALL-OUTER
G1 F3180 X163.67 Y150.81 E127.90314
G1 X164.33 Y150.75 E127.93415
G1 X164.97 Y150.81 E127.96454
G1 X165.58 Y150.99 E127.99438
G1 X166.15 Y151.30 E128.02495
G1 X166.65 Y151.71 E128.05535
G1 X167.07 Y152.21 E128.08586
G1 X167.37 Y152.77 E128.11616
G1 X167.56 Y153.39 E128.14647
G1 X167.63 Y154.04 E128.17745
G1 X167.56 Y154.69 E128.20798
G1 X167.38 Y155.30 E128.23773
G1 X167.08 Y155.87 E128.26832
G1 X166.67 Y156.37 E128.29868
G1 X166.17 Y156.78 E128.32909
G1 X165.60 Y157.09 E128.35967
G1 X164.98 Y157.28 E128.38992
G1 X164.33 Y157.34 E128.42089
G1 X163.68 Y157.28 E128.45132
G1 X163.08 Y157.10 E128.48116
G1 X162.50 Y156.79 E128.51174
G1 X162.00 Y156.39 E128.54203
G1 X161.59 Y155.88 E128.57274
G1 X161.28 Y155.32 E128.60298
G1 X161.09 Y154.70 E128.63329
G1 X161.01 Y153.87 E128.67267
G1 X137.37 Y153.87 E129.78463
G1 X137.37 Y147.65 E130.07688
G1 X139.77 Y147.65 E130.18992
G1 X139.77 Y148.30 E130.22016
G1 X138.06 Y148.30 E130.30070
G1 X138.06 Y152.00 E130.47465
G1 X161.46 Y152.00 E131.57522
G1 X161.46 Y148.30 E131.74917
G1 X159.75 Y148.30 E131.82965
G1 X159.75 Y147.65 E131.85990
G1 X162.15 Y147.65 E131.97294
G1 X162.15 Y151.29 E132.14402
G1 X162.38 Y151.40 E132.15599
G1 X162.50 Y151.30 E132.16314
G1 X163.06 Y151.00 E132.19291
G0 F12000 X163.11 Y152.03
;TYPE:FILL
G1 F3180 X162.40 Y152.75 E132.24045
G0 F12000 X162.21 Y152.93
G1 F3180 X161.89 Y153.26 E132.26200
G0 F12000 X161.94 Y153.77
G1 F3180 X163.99 Y151.72 E132.39807
G0 F12000 X164.56 Y151.71
G1 F3180 X161.99 Y154.28 E132.56900
G0 F12000 X162.09 Y154.75
G1 F3180 X165.03 Y151.81 E132.76478
G0 F12000 X165.43 Y151.97
G1 F3180 X162.26 Y155.15 E132.97583
G0 F12000 X162.48 Y155.49
G1 F3180 X165.77 Y152.19 E133.19492
G0 F12000 X166.06 Y152.47
G1 F3180 X162.75 Y155.78 E133.41558
G0 F12000 X163.06 Y156.03
G1 F3180 X166.31 Y152.78 E133.63145
G0 F12000 X166.51 Y153.15
G1 F3180 X163.43 Y156.23 E133.83588
G0 F12000 X163.87 Y156.36
G1 F3180 X166.64 Y153.59 E134.02018
G0 F12000 X166.68 Y154.11
G1 F3180 X164.39 Y156.40 E134.17212
G0 F12000 X165.09 Y156.27
G1 F3180 X166.55 Y154.80 E134.26944
G1 F2400 E133.06944
G0 F12000 X161.95 Y150.94
G1 F2400 E134.26944
G1 F3180 X161.66 Y150.95 E134.28897
G1 X161.80 Y150.24 E134.30849
G1 X161.80 Y149.67 E134.32800
G1 X161.80 Y149.11 E134.34749
G1 X161.80 Y148.54 E134.36697
G1 X161.80 Y147.98 E134.38648
G1 X161.25 Y147.97 E134.40271
G1 X160.68 Y147.97 E134.41893
G1 X160.28 Y148.10 E134.43878
G0 F12000 X161.80 Y147.96
G0 X161.80 Y152.34
G0 X137.72 Y152.34
G0 X137.72 Y147.96
G0 X139.47 Y147.92
G0 X139.57 Y147.92
G1 F3180 X139.24 Y147.97 E134.45045
G1 X138.68 Y147.97 E134.46668
G1 X138.11 Y147.97 E134.48290
G1 X137.72 Y148.37 E134.50819
G1 X137.72 Y148.93 E134.52754
G1 X137.72 Y149.50 E134.54685
G1 X137.72 Y150.06 E134.56620
G1 X137.72 Y150.63 E134.58555
G1 X137.72 Y151.19 E134.60490
G1 X137.72 Y151.75 E134.62422
G1 X137.57 Y152.18 E134.64549
G0 F12000 X138.37 Y152.99
;LAYER:2
G0 X138.17 Y153.07 Z0.90
;TYPE:WALL-INNER
G1 F3720 X138.17 Y152.79 E134.65847
G1 X162.26 Y152.79 E135.79155
G1 X162.26 Y152.22 E135.81855
G1 X162.51 Y152.34 E135.83162
G1 X162.95 Y151.97 E135.85862
G1 X163.38 Y151.74 E135.88146
G1 X163.82 Y151.60 E135.90351
G1 X164.34 Y151.55 E135.92768
G1 X164.81 Y151.59 E135.95027
G1 X165.27 Y151.73 E135.97277
G1 X165.71 Y151.97 E135.99619
G1 X166.09 Y152.28 E136.01946
G1 X166.41 Y152.66 E136.04262
G1 X166.64 Y153.09 E136.06571
G1 X166.77 Y153.54 E136.08773
G1 X166.83 Y154.05 E136.11190
G1 X166.78 Y154.53 E136.13454
G1 X166.64 Y154.99 E136.15705
G1 X166.41 Y155.43 E136.18064
G1 X166.10 Y155.81 E136.20347
G1 X165.71 Y156.12 E136.22683
G1 X165.28 Y156.35 E136.24998
G1 X164.83 Y156.49 E136.27205
G1 X164.32 Y156.54 E136.29616
G1 X163.84 Y156.50 E136.31880
G1 X163.38 Y156.36 E136.34130
G1 X162.94 Y156.12 E136.36489
G1 X162.56 Y155.81 E136.38792
G1 X162.25 Y155.43 E136.41098
G1 X162.02 Y155.00 E136.43428
G1 X161.88 Y154.55 E136.45635
G1 X161.73 Y153.07 E136.52629
G1 X138.17 Y153.07 E137.63453
G0 F12000 X137.77 Y153.47
G1 F3720 X137.77 Y152.39 E137.68505
G1 X161.86 Y152.39 E138.81813
G1 X161.86 Y151.59 E138.85571
G1 X162.45 Y151.87 E138.88619
G1 X162.72 Y151.63 E138.90328
G1 X163.22 Y151.37 E138.92975
G1 X163.75 Y151.21 E138.95560
G1 X164.33 Y151.15 E138.98331
G1 X164.89 Y151.20 E139.00982
G1 X165.42 Y151.36 E139.03567
G1 X165.94 Y151.64 E139.06334
G1 X166.38 Y152.00 E139.09002
G1 X166.74 Y152.44 E139.11686
G1 X167.01 Y152.94 E139.14361
G1 X167.17 Y153.46 E139.16937
G1 X167.23 Y154.04 E139.19694
G1 X167.17 Y154.61 E139.22365
G1 X167.01 Y155.14 E139.24960
G1 X166.74 Y155.66 E139.27723
G1 X166.38 Y156.09 E139.30360
G1 X165.93 Y156.46 E139.33088
G1 X165.44 Y156.72 E139.35741
G1 X164.91 Y156.88 E139.38326
G1 X164.32 Y156.94 E139.41097
G1 X163.76 Y156.89 E139.43749
G1 X163.24 Y156.73 E139.46334
G1 X162.71 Y156.45 E139.49117
G1 X162.28 Y156.10 E139.51765
G1 X161.92 Y155.66 E139.54431
G1 X161.65 Y155.15 E139.57132
G1 X161.49 Y154.63 E139.59707
G1 X161.37 Y153.47 E139.65193
G1 X137.77 Y153.47 E140.76201
G0 F12000 X137.37 Y153.87
;TYPE:WALL-OUTER
G1 F3720 X137.37 Y147.65 E141.05426
G1 X139.77 Y147.65 E141.16730
G1 X139.77 Y148.30 E141.19754
G1 X138.06 Y148.30 E141.27807
G1 X138.06 Y152.00 E141.45202
G1 X161.46 Y152.00 E142.55260
G1 X161.46 Y148.30 E142.72655
G1 X159.75 Y148.30 E142.80703
G1 X159.75 Y147.65 E142.83728
G1 X162.15 Y147.65 E142.95031
G1 X162.15 Y151.29 E143.12140
G1 X162.38 Y151.40 E143.13337
G1 X162.50 Y151.30 E143.14051
G1 X163.07 Y151.00 E143.17086
G1 X163.67 Y150.81 E143.20031
G1 X164.33 Y150.75 E143.23180
G1 X164.97 Y150.81 E143.26196
G1 X165.57 Y150.99 E143.29158
G1 X166.16 Y151.30 E143.32281
G1 X166.66 Y151.71 E143.35326
G1 X167.07 Y152.21 E143.38365
G1 X167.38 Y152.78 E143.41427
G1 X167.56 Y153.38 E143.44367
G1 X167.63 Y154.05 E143.47517
G1 X167.56 Y154.69 E143.50542
G1 X167.38 Y155.29 E143.53496
G1 X167.07 Y155.88 E143.56610
G1 X166.66 Y156.38 E143.59662
G1 X166.16 Y156.79 E143.62724
G1 X165.59 Y157.09 E143.65769
G1 X164.99 Y157.28 E143.68714
G1 X164.32 Y157.34 E143.71858
G1 X163.69 Y157.28 E143.74879
G1 X163.08 Y157.10 E143.77842
G1 X162.50 Y156.79 E143.80964
G1 X162.00 Y156.38 E143.84006
G1 X161.59 Y155.88 E143.87041
G1 X161.28 Y155.31 E143.90113
G1 X161.10 Y154.71 E143.93058
G1 X161.01 Y153.87 E143.97025
G1 X137.37 Y153.87 E145.08221
G0 F12000 X137.58 Y153.57
G0 X137.82 Y152.21
;TYPE:FILL
G1 F3720 X137.72 Y151.82 E145.09909
G1 X137.72 Y151.26 E145.11857
G1 X137.72 Y150.69 E145.13805
G1 X137.72 Y150.13 E145.15757
G1 X137.72 Y149.57 E145.17705
G1 X137.72 Y149.00 E145.19653
G1 X137.72 Y148.44 E145.21605
G1 X137.77 Y147.93 E145.23554
G1 X138.38 Y147.97 E145.25178
G1 X138.94 Y147.97 E145.26800
G1 X139.35 Y148.10 E145.28791
G0 F12000 X139.35 Y148.00
G0 X137.72 Y147.96
G0 X137.72 Y152.34
G0 X161.80 Y152.34
G0 X161.80 Y147.96
G0 X159.98 Y147.95
G0 X159.98 Y147.85
G1 F3720 X160.39 Y147.97 E145.30413
G1 X160.95 Y147.97 E145.32036
G1 X161.52 Y147.97 E145.33654
G1 X161.80 Y148.26 E145.35477
G1 X161.80 Y148.83 E145.37426
G1 X161.80 Y149.39 E145.39377
G1 X161.80 Y149.96 E145.41325
G1 X161.80 Y150.52 E145.43274
G1 X161.80 Y151.08 E145.45222
G1 X161.81 Y151.38 E145.46606
G0 F12000 X162.40 Y152.52
G1 F3720 X165.77 Y155.90 E145.69044
G0 F12000 X166.06 Y155.63
G1 F3720 X162.75 Y152.31 E145.91090
G0 F12000 X163.06 Y152.06
G1 F3720 X166.31 Y155.31 E146.12700
G0 F12000 X166.51 Y154.94
G1 F3720 X163.43 Y151.87 E146.33149
G0 F12000 X163.87 Y151.74
G1 F3720 X166.64 Y154.51 E146.51583
G0 F12000 X166.68 Y153.98
G1 F3720 X164.39 Y151.69 E146.66797
G0 F12000 X165.08 Y151.82
G1 F3720 X166.55 Y153.29 E146.76562
G0 F12000 X165.43 Y156.12
G1 F3720 X162.24 Y152.93 E146.97747
G0 F12000 X161.88 Y153.13
G1 F3720 X165.03 Y156.28 E147.18735
G0 F12000 X164.56 Y156.38
G1 F3720 X161.94 Y153.76 E147.36154
G0 F12000 X162.00 Y154.39
G1 F3720 X163.99 Y156.37 E147.49339
G0 F12000 X163.10 Y156.05
G1 F3720 X162.32 Y155.27 E147.54541
;LAYER:3
G0 F12000 X162.25 Y155.43 Z1.20
;TYPE:WALL-INNER
G1 F4260 X162.03 Y155.02 E147.56734
G1 X161.88 Y154.53 E147.59152
G1 X161.73 Y153.07 E147.66048
G1 X138.17 Y153.07 E148.76895
G1 X138.17 Y152.79 E148.78194
G1 X162.26 Y152.79 E149.91501
G1 X162.26 Y152.22 E149.94202
G1 X162.51 Y152.34 E149.95508
G1 X162.95 Y151.97 E149.98209
G1 X163.35 Y151.75 E150.00385
G1 X163.84 Y151.59 E150.02793
G1 X164.34 Y151.55 E150.05113
G1 X164.81 Y151.59 E150.07363
G1 X165.28 Y151.74 E150.09683
G1 X165.70 Y151.96 E150.11897
G1 X166.08 Y152.27 E150.14208
G1 X166.41 Y152.66 E150.16616
G1 X166.62 Y153.07 E150.18788
G1 X166.78 Y153.56 E150.21212
G1 X166.83 Y154.05 E150.23528
G1 X166.78 Y154.53 E150.25787
G1 X166.64 Y155.00 E150.28092
G1 X166.41 Y155.41 E150.30314
G1 X166.10 Y155.80 E150.32639
G1 X165.71 Y156.12 E150.35034
G1 X165.30 Y156.34 E150.37231
G1 X164.81 Y156.50 E150.39644
G1 X164.32 Y156.54 E150.41941
G1 X163.84 Y156.50 E150.44209
G1 X163.37 Y156.35 E150.46529
G1 X162.96 Y156.13 E150.48726
G1 X162.57 Y155.82 E150.51070
G1 X162.25 Y155.43 E150.53455
G0 F12000 X161.92 Y155.65
G1 F4260 X161.66 Y155.17 E150.56021
G1 X161.48 Y154.61 E150.58794
G1 X161.37 Y153.47 E150.64192
G1 X137.77 Y153.47 E151.75213
G1 X137.77 Y152.39 E151.80265
G1 X161.86 Y152.39 E152.93573
G1 X161.86 Y151.59 E152.97332
G1 X162.45 Y151.87 E153.00379
G1 X162.72 Y151.63 E153.02088
G1 X163.20 Y151.38 E153.04628
G1 X163.77 Y151.20 E153.07424
G1 X164.33 Y151.15 E153.10094
G1 X164.89 Y151.20 E153.12731
G1 X165.44 Y151.37 E153.15410
G1 X165.92 Y151.62 E153.17992
G1 X166.36 Y151.98 E153.20678
G1 X166.74 Y152.44 E153.23454
G1 X167.00 Y152.92 E153.26008
G1 X167.17 Y153.48 E153.28782
G1 X167.23 Y154.04 E153.31452
G1 X167.17 Y154.61 E153.34118
G1 X167.01 Y155.15 E153.36782
G1 X166.75 Y155.64 E153.39383
G1 X166.39 Y156.08 E153.42055
G1 X165.94 Y156.46 E153.44830
G1 X165.46 Y156.71 E153.47392
G1 X164.89 Y156.89 E153.50187
G1 X164.32 Y156.94 E153.52858
G1 X163.76 Y156.89 E153.55499
G1 X163.22 Y156.72 E153.58173
G1 X162.74 Y156.47 E153.60753
G1 X162.29 Y156.11 E153.63438
G1 X161.92 Y155.65 E153.66211
G0 F12000 X161.59 Y155.88
;TYPE:WALL-OUTER
G1 F4260 X161.29 Y155.32 E153.69180
G1 X161.09 Y154.69 E153.72303
G1 X161.01 Y153.87 E153.76193
G1 X137.37 Y153.87 E154.87389
G1 X137.37 Y147.65 E155.16615
G1 X139.77 Y147.65 E155.27918
G1 X139.77 Y148.30 E155.30943
G1 X138.06 Y148.30 E155.38996
G1 X138.06 Y152.00 E155.56391
G1 X161.46 Y152.00 E156.66448
G1 X161.46 Y148.30 E156.83843
G1 X159.75 Y148.30 E156.91892
G1 X159.75 Y147.65 E156.94916
G1 X162.15 Y147.65 E157.06220
G1 X162.15 Y151.29 E157.23328
G1 X162.38 Y151.40 E157.24526
G1 X162.50 Y151.30 E157.25240
G1 X163.04 Y151.01 E157.28152
G1 X163.68 Y150.81 E157.31299
G1 X164.33 Y150.75 E157.34343
G1 X164.97 Y150.81 E157.37367
G1 X165.59 Y150.99 E157.40403
G1 X166.14 Y151.29 E157.43358
G1 X166.65 Y151.70 E157.46422
G1 X167.07 Y152.21 E157.49549
G1 X167.37 Y152.77 E157.52508
G1 X167.56 Y153.40 E157.55631
G1 X167.63 Y154.04 E157.58679
G1 X167.57 Y154.68 E157.61675
G1 X167.38 Y155.30 E157.64735
G1 X167.08 Y155.86 E157.67715
G1 X166.68 Y156.36 E157.70748
G1 X166.16 Y156.79 E157.73898
G1 X165.61 Y157.08 E157.76825
G1 X164.97 Y157.28 E157.79972
G1 X164.33 Y157.34 E157.83021
G1 X163.69 Y157.28 E157.86045
G1 X163.07 Y157.10 E157.89076
G1 X162.52 Y156.80 E157.92031
G1 X162.01 Y156.39 E157.95091
G1 X161.59 Y155.88 E157.98215
G0 F12000 X161.84 Y155.71
G0 X161.97 Y154.02
;TYPE:FILL
G1 F4260 X164.30 Y151.69 E158.13735
G0 F12000 X162.44 Y152.46
G1 F4260 X165.82 Y155.85 E158.36286
G0 F12000 X161.76 Y151.23
G0 X161.66 Y151.23
G1 F4260 X161.80 Y150.80 E158.38237
G1 X161.80 Y150.24 E158.40186
G1 X161.80 Y149.67 E158.42137
G1 X161.80 Y149.11 E158.44085
G1 X161.80 Y148.54 E158.46034
G1 X161.80 Y147.98 E158.47985
G1 X161.25 Y147.97 E158.49608
G1 X160.68 Y147.97 E158.51230
G1 X160.28 Y148.10 E158.53215
G0 F12000 X161.80 Y147.96
G0 X161.80 Y152.34
G0 X137.72 Y152.34
G0 X137.72 Y147.96
G0 X139.47 Y147.92
G0 X139.57 Y147.92
G1 F4260 X139.24 Y147.97 E158.54382
G1 X138.68 Y147.97 E158.56005
G1 X138.11 Y147.97 E158.57627
G1 X137.72 Y148.37 E158.60156
G1 X137.72 Y148.93 E158.62091
G1 X137.72 Y149.50 E158.64022
G1 X137.72 Y150.06 E158.65957
G1 X137.72 Y150.63 E158.67892
G1 X137.72 Y151.19 E158.69827
G1 X137.72 Y151.75 E158.71759
G1 X137.57 Y152.18 E158.73886
G0 F12000 X138.37 Y152.99
;LAYER:4
G0 X138.17 Y153.07 Z1.50
;TYPE:WALL-INNER
G1 F4800 X138.17 Y152.79 E158.75184
G1 X162.26 Y152.79 E159.88492
G1 X162.26 Y152.22 E159.91192
G1 X162.51 Y152.34 E159.92499
G1 X162.95 Y151.97 E159.95192
G1 X163.37 Y151.74 E159.97472
G1 X163.84 Y151.59 E159.99786
G1 X164.33 Y151.55 E160.02082
G1 X164.82 Y151.59 E160.04379
G1 X165.28 Y151.74 E160.06650
G1 X165.69 Y151.96 E160.08870
G1 X166.09 Y152.28 E160.11289
G1 X166.41 Y152.66 E160.13599
G1 X166.64 Y153.09 E160.15897
G1 X166.78 Y153.56 E160.18207
G1 X166.83 Y154.04 E160.20495
G1 X166.78 Y154.53 E160.22801
G1 X166.64 Y155.00 E160.25087
G1 X166.42 Y155.41 E160.27294
G1 X166.09 Y155.81 E160.29703
G1 X165.72 Y156.12 E160.32013
G1 X165.28 Y156.35 E160.34324
G1 X164.81 Y156.50 E160.36638
G1 X164.33 Y156.54 E160.38930
G1 X163.84 Y156.50 E160.41231
G1 X163.38 Y156.36 E160.43502
G1 X162.96 Y156.13 E160.45716
G1 X162.56 Y155.81 E160.48138
G1 X162.25 Y155.43 E160.50455
G1 X162.02 Y155.00 E160.52753
G1 X161.88 Y154.53 E160.55067
G1 X161.73 Y153.07 E160.61963
G1 X138.17 Y153.07 E161.72810
G0 F12000 X137.77 Y153.47
G1 F4800 X137.77 Y152.39 E161.77862
G1 X161.86 Y152.39 E162.91170
G1 X161.86 Y151.59 E162.94928
G1 X162.45 Y151.87 E162.97976
G1 X162.72 Y151.63 E162.99685
G1 X163.22 Y151.37 E163.02340
G1 X163.76 Y151.20 E163.05013
G1 X164.33 Y151.15 E163.07683
G1 X164.89 Y151.20 E163.10349
G1 X165.43 Y151.37 E163.13002
G1 X165.91 Y151.62 E163.15559
G1 X166.38 Y152.00 E163.18363
G1 X166.74 Y152.44 E163.21068
G1 X167.01 Y152.94 E163.23724
G1 X167.17 Y153.48 E163.26397
G1 X167.23 Y154.04 E163.29054
G1 X167.17 Y154.61 E163.31734
G1 X167.01 Y155.15 E163.34378
G1 X166.75 Y155.63 E163.36952
G1 X166.38 Y156.09 E163.39742
G1 X165.93 Y156.46 E163.42450
G1 X165.43 Y156.72 E163.45110
G1 X164.89 Y156.89 E163.47782
G1 X164.33 Y156.94 E163.50448
G1 X163.76 Y156.89 E163.53118
G1 X163.22 Y156.73 E163.55771
G1 X162.74 Y156.47 E163.58326
G1 X162.28 Y156.10 E163.61119
G1 X161.91 Y155.65 E163.63833
G1 X161.65 Y155.15 E163.66497
G1 X161.48 Y154.61 E163.69170
G1 X161.37 Y153.47 E163.74554
G1 X137.77 Y153.47 E164.85575
G0 F12000 X137.37 Y153.87
;TYPE:WALL-OUTER
G1 F4800 X137.37 Y147.65 E165.14801
G1 X139.77 Y147.65 E165.26104
G1 X139.77 Y148.30 E165.29129
G1 X138.06 Y148.30 E165.37182
G1 X138.06 Y152.00 E165.54577
G1 X161.46 Y152.00 E166.64634
G1 X161.46 Y148.30 E166.82030
G1 X159.75 Y148.30 E166.90078
G1 X159.75 Y147.65 E166.93103
G1 X162.15 Y147.65 E167.04406
G1 X162.15 Y151.29 E167.21514
G1 X162.38 Y151.40 E167.22712
G1 X162.50 Y151.30 E167.23426
G1 X163.06 Y151.00 E167.26448
G1 X163.68 Y150.81 E167.29454
G1 X164.32 Y150.75 E167.32494
G1 X164.33 Y150.75 E167.32542
G1 X164.96 Y150.81 E167.35529
G1 X164.97 Y150.81 E167.35581
G1 X165.58 Y150.99 E167.38558
G1 X166.13 Y151.29 E167.41519
G1 X166.65 Y151.70 E167.44641
G1 X167.07 Y152.21 E167.47718
G1 X167.38 Y152.78 E167.50787
G1 X167.56 Y153.39 E167.53788
G1 X167.63 Y154.04 E167.56872
G1 X167.56 Y154.69 E167.59925
G1 X167.38 Y155.29 E167.62894
G1 X167.08 Y155.85 E167.65876
G1 X166.67 Y156.37 E167.68974
G1 X166.17 Y156.78 E167.72051
G1 X165.59 Y157.09 E167.75126
G1 X164.98 Y157.28 E167.78132
G1 X164.34 Y157.34 E167.81168
G1 X164.33 Y157.34 E167.81215
G1 X163.69 Y157.28 E167.84207
G1 X163.68 Y157.28 E167.84259
G1 X163.07 Y157.10 E167.87251
G1 X162.52 Y156.80 E167.90197
G1 X162.00 Y156.38 E167.93345
G1 X161.59 Y155.88 E167.96390
G1 X161.28 Y155.30 E167.99492
G1 X161.09 Y154.70 E168.02470
G1 X161.01 Y153.87 E168.06394
G1 X137.37 Y153.87 E169.17590
G0 F12000 X137.58 Y153.57
G0 X137.82 Y152.21
;TYPE:FILL
G1 F4800 X137.72 Y151.82 E169.19277
G1 X137.72 Y151.26 E169.21226
G1 X137.72 Y150.69 E169.23174
G1 X137.72 Y150.13 E169.25125
G1 X137.72 Y149.57 E169.27074
G1 X137.72 Y149.00 E169.29022
G1 X137.72 Y148.44 E169.30973
G1 X137.77 Y147.93 E169.32922
G1 X138.38 Y147.97 E169.34546
G1 X138.94 Y147.97 E169.36169
G1 X139.35 Y148.10 E169.38160
G0 F12000 X139.35 Y148.00
G0 X137.72 Y147.96
G0 X137.72 Y152.34
G0 X161.80 Y152.34
G0 X161.80 Y147.96
G0 X159.98 Y147.95
G0 X159.98 Y147.85
G1 F4800 X160.39 Y147.97 E169.39782
G1 X160.95 Y147.97 E169.41404
G1 X161.52 Y147.97 E169.43023
G1 X161.80 Y148.26 E169.44846
G1 X161.80 Y148.83 E169.46794
G1 X161.80 Y149.39 E169.48746
G1 X161.80 Y149.96 E169.50694
G1 X161.80 Y150.52 E169.52642
G1 X161.80 Y151.08 E169.54590
G1 X161.81 Y151.38 E169.55974
G0 F12000 X162.44 Y152.46
G1 F4800 X165.83 Y155.85 E169.78536
G0 F12000 X161.97 Y154.02
G1 F4800 X164.30 Y151.69 E169.94049
;LAYER:5
G0 F12000 X164.34 Y151.55 Z1.80
;TYPE:WALL-INNER
G1 F4800 X164.81 Y151.59 E169.96313
G1 X165.25 Y151.73 E169.98480
G1 X165.72 Y151.97 E170.00922
G1 X166.09 Y152.28 E170.03212
G1 X166.41 Y152.66 E170.05559
G1 X166.64 Y153.09 E170.07855
G1 X166.78 Y153.56 E170.10163
G1 X166.83 Y154.04 E170.12437
G1 X166.78 Y154.53 E170.14739
G1 X166.65 Y154.97 E170.16905
G1 X166.41 Y155.43 E170.19350
G1 X166.10 Y155.81 E170.21626
G1 X165.71 Y156.12 E170.23983
G1 X165.28 Y156.35 E170.26281
G1 X164.81 Y156.50 E170.28585
G1 X164.32 Y156.54 E170.30877
G1 X163.84 Y156.50 E170.33164
G1 X163.40 Y156.36 E170.35331
G1 X162.94 Y156.12 E170.37774
G1 X162.56 Y155.81 E170.40064
G1 X162.25 Y155.43 E170.42390
G1 X162.02 Y155.00 E170.44695
G1 X161.88 Y154.53 E170.47018
G1 X161.73 Y153.07 E170.53904
G1 X138.17 Y153.07 E171.64752
G1 X138.17 Y152.79 E171.66050
G1 X162.26 Y152.79 E172.79358
G1 X162.26 Y152.22 E172.82058
G1 X162.51 Y152.34 E172.83365
G1 X162.95 Y151.97 E172.86061
G1 X163.38 Y151.74 E172.88353
G1 X163.84 Y151.59 E172.90657
G1 X164.34 Y151.55 E172.92972
G0 F12000 X164.33 Y151.15
G1 F4800 X164.89 Y151.20 E172.95591
G1 X165.41 Y151.36 E172.98155
G1 X165.94 Y151.64 E173.00970
G1 X166.38 Y151.99 E173.03624
G1 X166.74 Y152.44 E173.06329
G1 X167.01 Y152.94 E173.09003
G1 X167.17 Y153.49 E173.11680
G1 X167.23 Y154.05 E173.14351
G1 X167.17 Y154.61 E173.16998
G1 X167.02 Y155.12 E173.19524
G1 X166.74 Y155.65 E173.22328
G1 X166.38 Y156.09 E173.25016
G1 X165.94 Y156.46 E173.27710
G1 X165.44 Y156.72 E173.30366
G1 X164.89 Y156.89 E173.33060
G1 X164.32 Y156.94 E173.35739
G1 X163.77 Y156.89 E173.38358
G1 X163.25 Y156.73 E173.40922
G1 X162.72 Y156.46 E173.43722
G1 X162.28 Y156.10 E173.46390
G1 X161.92 Y155.66 E173.49070
G1 X161.65 Y155.15 E173.51772
G1 X161.48 Y154.60 E173.54449
G1 X161.37 Y153.47 E173.59823
G1 X137.77 Y153.47 E174.70845
G1 X137.77 Y152.39 E174.75897
G1 X161.86 Y152.39 E175.89205
G1 X161.86 Y151.59 E175.92963
G1 X162.45 Y151.87 E175.96011
G1 X162.72 Y151.63 E175.97720
G1 X163.22 Y151.37 E176.00359
G1 X163.77 Y151.20 E176.03052
G1 X164.33 Y151.15 E176.05732
G0 F12000 X164.31 Y150.75
;TYPE:WALL-OUTER
G1 F4800 X164.33 Y150.75 E176.05812
G1 X164.95 Y150.81 E176.08747
G1 X164.97 Y150.81 E176.08833
G1 X165.56 Y150.99 E176.11736
G1 X166.15 Y151.29 E176.14837
G1 X166.16 Y151.30 E176.14913
G1 X166.65 Y151.70 E176.17895
G1 X167.06 Y152.20 E176.20946
G1 X167.37 Y152.77 E176.23979
G1 X167.38 Y152.78 E176.24059
G1 X167.56 Y153.39 E176.27018
G1 X167.63 Y154.03 E176.30063
G1 X167.63 Y154.04 E176.30130
G1 X167.57 Y154.67 E176.33084
G1 X167.56 Y154.69 E176.33183
G1 X167.39 Y155.27 E176.36029
G1 X167.08 Y155.87 E176.39195
G1 X167.07 Y155.88 E176.39248
G1 X166.67 Y156.37 E176.42219
G1 X166.17 Y156.78 E176.45277
G1 X165.60 Y157.09 E176.48317
G1 X164.99 Y157.28 E176.51358
G1 X164.34 Y157.34 E176.54398
G1 X164.32 Y157.34 E176.54479
G1 X163.70 Y157.28 E176.57419
G1 X163.69 Y157.28 E176.57504
G1 X163.09 Y157.10 E176.60407
G1 X162.51 Y156.80 E176.63530
G1 X162.01 Y156.39 E176.66562
G1 X161.59 Y155.89 E176.69610
G1 X161.29 Y155.32 E176.72653
G1 X161.28 Y155.31 E176.72733
G1 X161.10 Y154.70 E176.75692
G1 X161.01 Y153.87 E176.79645
G1 X137.37 Y153.87 E177.90841
G1 X137.37 Y147.65 E178.20066
G1 X139.77 Y147.65 E178.31370
G1 X139.77 Y148.30 E178.34394
G1 X138.06 Y148.30 E178.42447
G1 X138.06 Y152.00 E178.59842
G1 X161.46 Y152.00 E179.69900
G1 X161.46 Y148.30 E179.87295
G1 X159.75 Y148.30 E179.95343
G1 X159.75 Y147.65 E179.98368
G1 X162.15 Y147.65 E180.09671
G1 X162.15 Y151.29 E180.26780
G1 X162.38 Y151.40 E180.27977
G1 X162.50 Y151.30 E180.28691
G1 X163.05 Y151.00 E180.31646
G1 X163.67 Y150.81 E180.34687
G1 X164.31 Y150.75 E180.37732
G0 F12000 X164.30 Y151.69
;TYPE:FILL
G1 F4800 X161.97 Y154.02 E180.53246
G0 F12000 X162.44 Y152.46
G1 F4800 X165.83 Y155.85 E180.75800
G0 F12000 X161.76 Y151.23
G0 X161.66 Y151.23
G1 F4800 X161.80 Y150.80 E180.77752
G1 X161.80 Y150.24 E180.79700
G1 X161.80 Y149.67 E180.81652
G1 X161.80 Y149.11 E180.83600
G1 X161.80 Y148.54 E180.85548
G1 X161.80 Y147.98 E180.87499
G1 X161.25 Y147.97 E180.89122
G1 X160.68 Y147.97 E180.90744
G1 X160.28 Y148.10 E180.92730
G0 F12000 X161.80 Y147.96
G0 X161.80 Y152.34
G0 X137.72 Y152.34
G0 X137.72 Y147.96
G0 X139.47 Y147.92
G0 X139.57 Y147.92
G1 F4800 X139.24 Y147.97 E180.93897
G1 X138.68 Y147.97 E180.95519
G1 X138.11 Y147.97 E180.97141
G1 X137.72 Y148.37 E180.99670
G1 X137.72 Y148.93 E181.01605
G1 X137.72 Y149.50 E181.03537
G1 X137.72 Y150.06 E181.05472
G1 X137.72 Y150.63 E181.07407
G1 X137.72 Y151.19 E181.09342
G1 X137.72 Y151.75 E181.11273
G1 X137.57 Y152.18 E181.13400
G0 F12000 X138.37 Y152.99
;LAYER:6
G0 X138.17 Y153.07 Z2.10
;TYPE:WALL-INNER
G1 F4800 X138.17 Y152.79 E181.14699
G1 X162.26 Y152.79 E182.28007
G1 X162.26 Y152.22 E182.30707
G1 X162.51 Y152.34 E182.32013
G1 X162.95 Y151.97 E182.34714
G1 X163.37 Y151.74 E182.36982
G1 X163.81 Y151.61 E182.39110
G1 X164.34 Y151.55 E182.41623
G1 X164.81 Y151.59 E182.43858
G1 X165.29 Y151.74 E182.46208
G1 X165.71 Y151.97 E182.48487
G1 X166.06 Y152.25 E182.50620
G1 X166.39 Y152.64 E182.52974
G1 X166.64 Y153.09 E182.55408
G1 X166.78 Y153.56 E182.57700
G1 X166.83 Y154.05 E182.60030
G1 X166.78 Y154.53 E182.62275
G1 X166.64 Y155.00 E182.64599
G1 X166.40 Y155.43 E182.66918
G1 X166.12 Y155.78 E182.69031
G1 X165.71 Y156.12 E182.71542
G1 X165.28 Y156.35 E182.73825
G1 X164.85 Y156.49 E182.75953
G1 X164.32 Y156.54 E182.78461
G1 X163.85 Y156.50 E182.80701
G1 X163.37 Y156.35 E182.83051
G1 X162.94 Y156.12 E182.85330
G1 X162.59 Y155.83 E182.87476
G1 X162.25 Y155.43 E182.89974
G1 X162.02 Y155.00 E182.92244
G1 X161.89 Y154.57 E182.94383
G1 X161.72 Y153.07 E183.01467
G1 X138.17 Y153.07 E184.12267
G0 F12000 X137.77 Y153.47
G1 F4800 X137.77 Y152.39 E184.17319
G1 X161.86 Y152.39 E185.30627
G1 X161.86 Y151.59 E185.34386
G1 X162.45 Y151.87 E185.37433
G1 X162.72 Y151.63 E185.39142
G1 X163.22 Y151.37 E185.41802
G1 X163.72 Y151.21 E185.44251
G1 X164.34 Y151.15 E185.47161
G1 X164.89 Y151.20 E185.49779
G1 X165.44 Y151.37 E185.52494
G1 X165.94 Y151.63 E185.55128
G1 X166.35 Y151.97 E185.57639
G1 X166.72 Y152.41 E185.60330
G1 X167.01 Y152.94 E185.63181
G1 X167.17 Y153.48 E185.65826
G1 X167.23 Y154.04 E185.68502
G1 X167.17 Y154.61 E185.71153
G1 X167.01 Y155.15 E185.73841
G1 X166.74 Y155.66 E185.76518
G1 X166.40 Y156.06 E185.79011
G1 X165.93 Y156.46 E185.81900
G1 X165.43 Y156.72 E185.84560
G1 X164.94 Y156.88 E185.87009
G1 X164.32 Y156.94 E185.89914
G1 X163.77 Y156.89 E185.92537
G1 X163.21 Y156.72 E185.95251
G1 X162.72 Y156.46 E185.97886
G1 X162.31 Y156.12 E186.00410
G1 X161.91 Y155.65 E186.03275
G1 X161.65 Y155.15 E186.05935
G1 X161.50 Y154.65 E186.08421
G1 X161.37 Y153.47 E186.13996
G1 X137.77 Y153.47 E187.24989
G0 F12000 X137.37 Y153.87
;TYPE:WALL-OUTER
G1 F4800 X137.37 Y147.65 E187.54215
G1 X139.77 Y147.65 E187.65518
G1 X139.77 Y148.30 E187.68543
G1 X138.06 Y148.30 E187.76596
G1 X138.06 Y152.00 E187.93991
G1 X161.46 Y152.00 E189.04048
G1 X161.46 Y148.30 E189.21443
G1 X159.75 Y148.30 E189.29492
G1 X159.75 Y147.65 E189.32516
G1 X162.15 Y147.65 E189.43820
G1 X162.15 Y151.29 E189.60928
G1 X162.38 Y151.40 E189.62126
G1 X162.50 Y151.30 E189.62840
G1 X163.06 Y151.00 E189.65862
G1 X163.64 Y150.82 E189.68703
G1 X164.31 Y150.75 E189.71863
G1 X164.33 Y150.75 E189.71972
G1 X164.94 Y150.81 E189.74865
G1 X164.97 Y150.81 E189.74997
G1 X165.59 Y151.00 E189.78035
G1 X166.16 Y151.30 E189.81071
G1 X166.63 Y151.68 E189.83916
G1 X167.05 Y152.19 E189.86995
G1 X167.37 Y152.76 E189.90098
G1 X167.56 Y153.40 E189.93231
G1 X167.62 Y154.03 E189.96190
G1 X167.63 Y154.05 E189.96299
G1 X167.57 Y154.66 E189.99201
G1 X167.56 Y154.69 E189.99334
G1 X167.38 Y155.30 E190.02343
G1 X167.08 Y155.86 E190.05299
G1 X166.69 Y156.34 E190.08243
G1 X166.16 Y156.79 E190.11512
G1 X165.59 Y157.09 E190.14534
G1 X165.01 Y157.27 E190.17379
G1 X164.35 Y157.34 E190.20531
G1 X164.32 Y157.34 E190.20640
G1 X163.71 Y157.28 E190.23537
G1 X163.68 Y157.28 E190.23669
G1 X163.06 Y157.09 E190.26707
G1 X162.50 Y156.79 E190.29743
G1 X162.03 Y156.41 E190.32584
G1 X161.58 Y155.88 E190.35833
G1 X161.28 Y155.30 E190.38899
G1 X161.10 Y154.73 E190.41712
G1 X161.01 Y153.87 E190.45800
G1 X137.37 Y153.87 E191.56987
G0 F12000 X137.58 Y153.57
G0 X137.82 Y152.21
;TYPE:FILL
G1 F4800 X137.72 Y151.82 E191.58674
G1 X137.72 Y151.26 E191.60623
G1 X137.72 Y150.69 E191.62571
G1 X137.72 Y150.13 E191.64522
G1 X137.72 Y149.57 E191.66471
G1 X137.72 Y149.00 E191.68419
G1 X137.72 Y148.44 E191.70370
G1 X137.77 Y147.93 E191.72319
G1 X138.38 Y147.97 E191.73943
G1 X138.94 Y147.97 E191.75566
G1 X139.35 Y148.10 E191.77557
G0 F12000 X139.35 Y148.00
G0 X137.72 Y147.96
G0 X137.72 Y152.34
G0 X161.80 Y152.34
G0 X161.80 Y147.96
G0 X159.98 Y147.95
G0 X159.98 Y147.85
G1 F4800 X160.39 Y147.97 E191.79179
G1 X160.95 Y147.97 E191.80801
G1 X161.52 Y147.97 E191.82420
G1 X161.80 Y148.26 E191.84243
G1 X161.80 Y148.83 E191.86191
G1 X161.80 Y149.39 E191.88143
G1 X161.80 Y149.96 E191.90091
G1 X161.80 Y150.52 E191.92039
G1 X161.80 Y151.08 E191.93987
G1 X161.81 Y151.38 E191.95371
G0 F12000 X162.44 Y152.46
G1 F4800 X165.82 Y155.85 E192.17919
G0 F12000 X161.97 Y154.02
G1 F4800 X164.30 Y151.69 E192.33426
;LAYER:7
G0 F12000 X164.33 Y151.55 Z2.40
;TYPE:WALL-INNER
G1 F4800 X164.81 Y151.59 E192.35704
G1 X165.28 Y151.74 E192.38018
G1 X165.68 Y151.95 E192.40127
G1 X166.09 Y152.28 E192.42627
G1 X166.40 Y152.66 E192.44928
G1 X166.64 Y153.09 E192.47238
G1 X166.78 Y153.56 E192.49525
G1 X166.83 Y154.04 E192.51832
G1 X166.78 Y154.53 E192.54129
G1 X166.63 Y155.00 E192.56445
G1 X166.43 Y155.40 E192.58553
G1 X166.09 Y155.81 E192.61040
G1 X165.71 Y156.12 E192.63367
G1 X165.28 Y156.35 E192.65665
G1 X164.81 Y156.50 E192.67965
G1 X164.32 Y156.54 E192.70271
G1 X163.84 Y156.50 E192.72554
G1 X163.37 Y156.35 E192.74868
G1 X162.98 Y156.14 E192.76977
G1 X162.56 Y155.81 E192.79474
G1 X162.25 Y155.43 E192.81780
G1 X162.02 Y155.00 E192.84093
G1 X161.88 Y154.53 E192.86384
G1 X161.73 Y153.07 E192.93299
G1 X138.17 Y153.07 E194.04146
G1 X138.17 Y152.79 E194.05445
G1 X162.26 Y152.79 E195.18753
G1 X162.26 Y152.22 E195.21453
G1 X162.51 Y152.34 E195.22759
G1 X162.95 Y151.97 E195.25460
G1 X163.37 Y151.74 E195.27737
G1 X163.84 Y151.59 E195.30037
G1 X164.33 Y151.55 E195.32348
G0 F12000 X164.33 Y151.15
G1 F4800 X164.89 Y151.20 E195.35004
G1 X165.44 Y151.37 E195.37678
G1 X165.90 Y151.61 E195.40126
G1 X166.38 Y152.00 E195.43018
G1 X166.74 Y152.44 E195.45699
G1 X167.01 Y152.94 E195.48378
G1 X167.17 Y153.48 E195.51037
G1 X167.23 Y154.04 E195.53712
G1 X167.17 Y154.61 E195.56383
G1 X167.01 Y155.15 E195.59053
G1 X166.76 Y155.62 E195.61540
G1 X166.38 Y156.09 E195.64378
G1 X165.94 Y156.46 E195.67093
G1 X165.43 Y156.73 E195.69776
G1 X164.89 Y156.89 E195.72420
G1 X164.32 Y156.94 E195.75109
G1 X163.76 Y156.89 E195.77770
G1 X163.22 Y156.72 E195.80444
G1 X162.75 Y156.48 E195.82913
G1 X162.28 Y156.10 E195.85768
G1 X161.92 Y155.66 E195.88458
G1 X161.65 Y155.15 E195.91148
G1 X161.48 Y154.61 E195.93807
G1 X161.37 Y153.47 E195.99209
G1 X137.77 Y153.47 E197.10231
G1 X137.77 Y152.39 E197.15283
G1 X161.86 Y152.39 E198.28591
G1 X161.86 Y151.59 E198.32349
G1 X162.45 Y151.87 E198.35397
G1 X162.72 Y151.63 E198.37102
G1 X163.22 Y151.37 E198.39772
G1 X163.76 Y151.20 E198.42417
G1 X164.33 Y151.15 E198.45110
G0 F12000 X164.30 Y150.75
;TYPE:WALL-OUTER
G1 F4800 X164.33 Y150.75 E198.45247
G1 X164.94 Y150.81 E198.48140
G1 X164.97 Y150.81 E198.48291
G1 X165.59 Y151.00 E198.51328
G1 X166.12 Y151.28 E198.54136
G1 X166.64 Y151.69 E198.57269
G1 X167.05 Y152.19 E198.60325
G1 X167.07 Y152.21 E198.60452
G1 X167.36 Y152.76 E198.63364
G1 X167.56 Y153.40 E198.66520
G1 X167.63 Y154.04 E198.69574
G1 X167.56 Y154.69 E198.72627
G1 X167.38 Y155.31 E198.75651
G1 X167.09 Y155.84 E198.78481
G1 X166.68 Y156.35 E198.81598
G1 X166.18 Y156.77 E198.84653
G1 X166.16 Y156.79 E198.84800
G1 X165.61 Y157.08 E198.87700
G1 X164.97 Y157.28 E198.90865
G1 X164.36 Y157.34 E198.93776
G1 X164.33 Y157.34 E198.93913
G1 X163.71 Y157.28 E198.96810
G1 X163.68 Y157.28 E198.96962
G1 X163.06 Y157.09 E198.99999
G1 X162.54 Y156.81 E199.02806
G1 X162.01 Y156.40 E199.05959
G1 X161.60 Y155.90 E199.08989
G1 X161.59 Y155.88 E199.09116
G1 X161.29 Y155.33 E199.12039
G1 X161.09 Y154.69 E199.15199
G1 X161.01 Y153.87 E199.19089
G1 X137.37 Y153.87 E200.30285
G1 X137.37 Y147.65 E200.59510
G1 X139.77 Y147.65 E200.70814
G1 X139.77 Y148.30 E200.73838
G1 X138.06 Y148.30 E200.81891
G1 X138.06 Y152.00 E200.99286
G1 X161.46 Y152.00 E202.09344
G1 X161.46 Y148.30 E202.26739
G1 X159.75 Y148.30 E202.34787
G1 X159.75 Y147.65 E202.37812
G1 X162.15 Y147.65 E202.49115
G1 X162.15 Y151.29 E202.66224
G1 X162.38 Y151.40 E202.67421
G1 X162.50 Y151.30 E202.68135
G1 X163.04 Y151.01 E202.71031
G1 X163.68 Y150.81 E202.74195
G1 X164.30 Y150.75 E202.77111
G0 F12000 X164.30 Y151.69
;TYPE:FILL
G1 F4800 X161.97 Y154.02 E202.92631
G0 F12000 X162.44 Y152.46
G1 F4800 X165.83 Y155.85 E203.15186
G0 F12000 X161.76 Y151.23
G0 X161.66 Y151.23
G1 F4800 X161.80 Y150.80 E203.17138
G1 X161.80 Y150.24 E203.19086
G1 X161.80 Y149.67 E203.21037
G1 X161.80 Y149.11 E203.22986
G1 X161.80 Y148.54 E203.24934
G1 X161.80 Y147.98 E203.26885
G1 X161.25 Y147.97 E203.28508
G1 X160.68 Y147.97 E203.30130
G1 X160.28 Y148.10 E203.32115
G0 F12000 X161.80 Y147.96
G0 X161.80 Y152.34
G0 X137.72 Y152.34
G0 X137.72 Y147.96
G0 X139.47 Y147.92
G0 X139.57 Y147.92
G1 F4800 X139.24 Y147.97 E203.33282
G1 X138.68 Y147.97 E203.34905
G1 X138.11 Y147.97 E203.36527
G1 X137.72 Y148.37 E203.39056
G1 X137.72 Y148.93 E203.40991
G1 X137.72 Y149.50 E203.42923
G1 X137.72 Y150.06 E203.44857
G1 X137.72 Y150.63 E203.46792
G1 X137.72 Y151.19 E203.48727
G1 X137.72 Y151.75 E203.50659
G1 X137.57 Y152.18 E203.52786
G0 F12000 X138.37 Y152.99
;LAYER:8
G0 X138.17 Y153.07 Z2.70
;TYPE:WALL-INNER
G1 F4800 X138.17 Y152.79 E203.54084
G1 X162.26 Y152.79 E204.67392
G1 X162.26 Y152.22 E204.70092
G1 X162.51 Y152.34 E204.71399
G1 X162.95 Y151.97 E204.74099
G1 X163.37 Y151.74 E204.76376
G1 X163.84 Y151.59 E204.78686
G1 X164.34 Y151.55 E204.81006
G1 X164.81 Y151.59 E204.83255
G1 X165.28 Y151.74 E204.85575
G1 X165.71 Y151.97 E204.87873
G1 X166.09 Y152.28 E204.90179
G1 X166.41 Y152.66 E204.92513
G1 X166.64 Y153.09 E204.94796
G1 X166.78 Y153.56 E204.97110
G1 X166.83 Y154.05 E204.99426
G1 X166.78 Y154.53 E205.01685
G1 X166.64 Y155.00 E205.04005
G1 X166.41 Y155.43 E205.06303
G1 X166.10 Y155.81 E205.08596
G1 X165.71 Y156.12 E205.10936
G1 X165.28 Y156.35 E205.13234
G1 X164.81 Y156.50 E205.15544
G1 X164.32 Y156.54 E205.17859
G1 X163.84 Y156.50 E205.20113
G1 X163.37 Y156.35 E205.22433
G1 X162.94 Y156.12 E205.24731
G1 X162.56 Y155.81 E205.27031
G1 X162.25 Y155.43 E205.29364
G1 X162.02 Y155.00 E205.31658
G1 X161.88 Y154.53 E205.33972
G1 X161.73 Y153.07 E205.40873
G1 X138.17 Y153.07 E206.51720
G0 F12000 X137.77 Y153.47
G1 F4800 X137.77 Y152.39 E206.56772
G1 X161.86 Y152.39 E207.70080
G1 X161.86 Y151.59 E207.73839
G1 X162.45 Y151.87 E207.76886
G1 X162.72 Y151.63 E207.78595
G1 X163.22 Y151.37 E207.81255
G1 X163.76 Y151.20 E207.83918
G1 X164.33 Y151.15 E207.86612
G1 X164.89 Y151.20 E207.89245
G1 X165.44 Y151.37 E207.91923
G1 X165.94 Y151.63 E207.94585
G1 X166.38 Y151.99 E207.97266
G1 X166.74 Y152.44 E207.99970
G1 X167.01 Y152.94 E208.02641
G1 X167.17 Y153.48 E208.05300
G1 X167.23 Y154.05 E208.07989
G1 X167.17 Y154.61 E208.10627
G1 X167.01 Y155.15 E208.13296
G1 X166.74 Y155.66 E208.15992
G1 X166.38 Y156.09 E208.18630
G1 X165.94 Y156.46 E208.21351
G1 X165.43 Y156.72 E208.24028
G1 X164.89 Y156.89 E208.26691
G1 X164.32 Y156.94 E208.29380
G1 X163.76 Y156.89 E208.32017
G1 X163.22 Y156.72 E208.34696
G1 X162.72 Y156.46 E208.37375
G1 X162.28 Y156.10 E208.40045
G1 X161.92 Y155.65 E208.42737
G1 X161.65 Y155.15 E208.45424
G1 X161.48 Y154.61 E208.48082
G1 X161.37 Y153.47 E208.53470
G1 X137.77 Y153.47 E209.64492
G0 F12000 X137.37 Y153.87
;TYPE:WALL-OUTER
G1 F4800 X137.37 Y147.65 E209.93717
G1 X139.77 Y147.65 E210.05021
G1 X139.77 Y148.30 E210.08045
G1 X138.06 Y148.30 E210.16098
G1 X138.06 Y152.00 E210.33493
G1 X161.46 Y152.00 E211.43551
G1 X161.46 Y148.30 E211.60946
G1 X159.75 Y148.30 E211.68994
G1 X159.75 Y147.65 E211.72019
G1 X162.15 Y147.65 E211.83322
G1 X162.15 Y151.29 E212.00431
G1 X162.38 Y151.40 E212.01628
G1 X162.50 Y151.30 E212.02342
G1 X163.03 Y151.01 E212.05202
G1 X163.07 Y151.00 E212.05373
G1 X163.68 Y150.81 E212.08401
G1 X164.29 Y150.75 E212.11298
G1 X164.33 Y150.75 E212.11468
G1 X164.93 Y150.81 E212.14318
G1 X164.97 Y150.81 E212.14503
G1 X165.59 Y151.00 E212.17540
G1 X166.13 Y151.28 E212.20413
G1 X166.16 Y151.30 E212.20583
G1 X166.63 Y151.69 E212.23458
G1 X167.05 Y152.19 E212.26510
G1 X167.07 Y152.21 E212.26657
G1 X167.36 Y152.75 E212.29544
G1 X167.38 Y152.78 E212.29715
G1 X167.56 Y153.40 E212.32739
G1 X167.62 Y154.01 E212.35636
G1 X167.63 Y154.04 E212.35792
G1 X167.57 Y154.65 E212.38661
G1 X167.56 Y154.69 E212.38846
G1 X167.38 Y155.31 E212.41869
G1 X167.09 Y155.85 E212.44752
G1 X167.07 Y155.88 E212.44923
G1 X166.69 Y156.35 E212.47794
G1 X166.19 Y156.77 E212.50846
G1 X166.16 Y156.79 E212.51013
G1 X165.62 Y157.08 E212.53888
G1 X165.59 Y157.09 E212.54058
G1 X164.97 Y157.28 E212.57091
G1 X164.36 Y157.34 E212.59978
G1 X164.32 Y157.34 E212.60149
G1 X163.72 Y157.29 E212.63003
G1 X163.68 Y157.28 E212.63188
G1 X163.06 Y157.09 E212.66225
G1 X162.53 Y156.81 E212.69098
G1 X162.49 Y156.79 E212.69268
G1 X162.02 Y156.40 E212.72146
G1 X162.00 Y156.38 E212.72303
G1 X161.61 Y155.91 E212.75191
G1 X161.59 Y155.88 E212.75338
G1 X161.29 Y155.34 E212.78236
G1 X161.28 Y155.31 E212.78407
G1 X161.09 Y154.69 E212.81435
G1 X161.01 Y153.87 E212.85325
G1 X137.37 Y153.87 E213.96521
G0 F12000 X137.58 Y153.57
G0 X137.82 Y152.21
;TYPE:FILL
G1 F4800 X137.72 Y151.82 E213.98208
G1 X137.72 Y151.26 E214.00156
G1 X137.72 Y150.69 E214.02105
G1 X137.72 Y150.13 E214.04056
G1 X137.72 Y149.57 E214.06005
G1 X137.72 Y149.00 E214.07953
G1 X137.72 Y148.44 E214.09904
G1 X137.77 Y147.93 E214.11853
G1 X138.38 Y147.97 E214.13477
G1 X138.94 Y147.97 E214.15100
G1 X139.35 Y148.10 E214.17091
G0 F12000 X139.35 Y148.00
G0 X137.72 Y147.96
G0 X137.72 Y152.34
G0 X161.80 Y152.34
G0 X161.80 Y147.96
G0 X159.98 Y147.95
G0 X159.98 Y147.85
G1 F4800 X160.39 Y147.97 E214.18713
G1 X160.95 Y147.97 E214.20335
G1 X161.52 Y147.97 E214.21954
G1 X161.80 Y148.26 E214.23777
G1 X161.80 Y148.83 E214.25725
G1 X161.80 Y149.39 E214.27677
G1 X161.80 Y149.96 E214.29625
G1 X161.80 Y150.52 E214.31573
G1 X161.80 Y151.08 E214.33521
G1 X161.81 Y151.38 E214.34905
G0 F12000 X162.44 Y152.46
G1 F4800 X165.83 Y155.85 E214.57460
G0 F12000 X161.97 Y154.02
G1 F4800 X164.30 Y151.69 E214.72980
;LAYER:9
G0 F12000 X164.33 Y151.55 Z3.00
;TYPE:WALL-INNER
G1 F4800 X164.82 Y151.59 E214.75281
G1 X165.28 Y151.74 E214.77567
G1 X165.71 Y151.97 E214.79865
G1 X166.09 Y152.28 E214.82181
G1 X166.40 Y152.66 E214.84491
G1 X166.64 Y153.09 E214.86806
G1 X166.78 Y153.56 E214.89102
G1 X166.83 Y154.04 E214.91399
G1 X166.78 Y154.53 E214.93706
G1 X166.64 Y155.00 E214.96006
G1 X166.41 Y155.43 E214.98298
G1 X166.10 Y155.81 E215.00601
G1 X165.72 Y156.12 E215.02924
G1 X165.28 Y156.35 E215.05243
G1 X164.81 Y156.50 E215.07538
G1 X164.33 Y156.54 E215.09835
G1 X163.84 Y156.50 E215.12141
G1 X163.37 Y156.35 E215.14427
G1 X162.94 Y156.12 E215.16731
G1 X162.56 Y155.81 E215.19041
G1 X162.25 Y155.43 E215.21344
G1 X162.02 Y155.00 E215.23669
G1 X161.88 Y154.53 E215.25965
G1 X161.73 Y153.07 E215.32875
G1 X138.17 Y153.07 E216.43723
G1 X138.17 Y152.79 E216.45021
G1 X162.26 Y152.79 E217.58329
G1 X162.26 Y152.22 E217.61029
G1 X162.51 Y152.34 E217.62336
G1 X162.95 Y151.97 E217.65036
G1 X163.38 Y151.74 E217.67320
G1 X163.84 Y151.59 E217.69614
G1 X164.33 Y151.55 E217.71916
G0 F12000 X164.33 Y151.15
G1 F4800 X164.89 Y151.20 E217.74577
G1 X165.43 Y151.37 E217.77239
G1 X165.93 Y151.63 E217.79903
G1 X166.38 Y152.00 E217.82607
G1 X166.74 Y152.44 E217.85281
G1 X167.01 Y152.94 E217.87960
G1 X167.17 Y153.48 E217.90624
G1 X167.23 Y154.04 E217.93300
G1 X167.17 Y154.61 E217.95975
G1 X167.01 Y155.15 E217.98620
G1 X166.74 Y155.65 E218.01288
G1 X166.38 Y156.09 E218.03966
G1 X165.94 Y156.45 E218.06660
G1 X165.44 Y156.72 E218.09345
G1 X164.89 Y156.89 E218.12013
G1 X164.33 Y156.94 E218.14680
G1 X163.76 Y156.89 E218.17345
G1 X163.22 Y156.73 E218.20007
G1 X162.72 Y156.46 E218.22672
G1 X162.28 Y156.10 E218.25352
G1 X161.92 Y155.66 E218.28049
G1 X161.65 Y155.15 E218.30733
G1 X161.49 Y154.61 E218.33396
G1 X161.37 Y153.47 E218.38799
G1 X137.77 Y153.47 E219.49821
G1 X137.77 Y152.39 E219.54873
G1 X161.86 Y152.39 E220.68181
G1 X161.86 Y151.59 E220.71939
G1 X162.45 Y151.87 E220.74987
G1 X162.72 Y151.63 E220.76695
G1 X163.22 Y151.37 E220.79341
G1 X163.76 Y151.20 E220.82009
G1 X164.33 Y151.15 E220.84679
G0 F12000 X164.33 Y150.75
;TYPE:WALL-OUTER
G1 F4800 X164.97 Y150.81 E220.87723
G1 X165.55 Y150.98 E220.90564
G1 X165.59 Y151.00 E220.90746
G1 X166.12 Y151.28 E220.93606
G1 X166.16 Y151.30 E220.93820
G1 X166.63 Y151.69 E220.96652
G1 X166.66 Y151.71 E220.96846
G1 X167.04 Y152.18 E220.99704
G1 X167.07 Y152.21 E220.99891
G1 X167.36 Y152.75 E221.02749
G1 X167.38 Y152.79 E221.02957
G1 X167.55 Y153.36 E221.05783
G1 X167.63 Y154.04 E221.09016
G1 X167.56 Y154.69 E221.12069
G1 X167.39 Y155.27 E221.14901
G1 X167.38 Y155.31 E221.15097
G1 X167.09 Y155.84 E221.17945
G1 X167.07 Y155.88 E221.18159
G1 X166.69 Y156.35 E221.20987
G1 X166.66 Y156.38 E221.21181
G1 X166.19 Y156.76 E221.24040
G1 X166.16 Y156.79 E221.24226
G1 X165.62 Y157.07 E221.27090
G1 X165.59 Y157.10 E221.27299
G1 X165.01 Y157.27 E221.30129
G1 X164.97 Y157.28 E221.30321
G1 X164.33 Y157.34 E221.33360
G1 X163.68 Y157.28 E221.36409
G1 X163.10 Y157.11 E221.39249
G1 X163.07 Y157.10 E221.39431
G1 X162.53 Y156.81 E221.42302
G1 X162.49 Y156.79 E221.42506
G1 X162.03 Y156.41 E221.45340
G1 X161.61 Y155.91 E221.48379
G1 X161.59 Y155.88 E221.48565
G1 X161.30 Y155.34 E221.51434
G1 X161.28 Y155.30 E221.51642
G1 X161.10 Y154.73 E221.54468
G1 X161.01 Y153.87 E221.58542
G1 X137.37 Y153.87 E222.69737
G1 X137.37 Y147.65 E222.98963
G1 X139.77 Y147.65 E223.10266
G1 X139.77 Y148.30 E223.13291
G1 X138.06 Y148.30 E223.21344
G1 X138.06 Y152.00 E223.38739
G1 X161.46 Y152.00 E224.48796
G1 X161.46 Y148.30 E224.66192
G1 X159.75 Y148.30 E224.74240
G1 X159.75 Y147.65 E224.77265
G1 X162.15 Y147.65 E224.88568
G1 X162.15 Y151.29 E225.05676
G1 X162.38 Y151.40 E225.06874
G1 X162.50 Y151.30 E225.07571
G1 X163.03 Y151.02 E225.10425
G1 X163.07 Y151.00 E225.10633
G1 X163.65 Y150.82 E225.13463
G1 X163.68 Y150.81 E225.13655
G1 X164.33 Y150.75 E225.16699
G0 F12000 X164.30 Y151.69
;TYPE:FILL
G1 F4800 X161.97 Y154.02 E225.32219
G0 F12000 X162.44 Y152.46
G1 F4800 X165.83 Y155.85 E225.54781
G0 F12000 X161.76 Y151.23
G0 X161.66 Y151.23
G1 F4800 X161.80 Y150.80 E225.56732
G1 X161.80 Y150.24 E225.58680
G1 X161.80 Y149.67 E225.60632
G1 X161.80 Y149.11 E225.62580
G1 X161.80 Y148.54 E225.64528
G1 X161.80 Y147.98 E225.66479
G1 X161.25 Y147.97 E225.68102
G1 X160.68 Y147.97 E225.69725
G1 X160.28 Y148.10 E225.71710
G0 F12000 X161.80 Y147.96
G0 X161.80 Y152.34
G0 X137.72 Y152.34
G0 X137.72 Y147.96
G0 X139.47 Y147.92
G0 X139.57 Y147.92
G1 F4800 X139.24 Y147.97 E225.72877
G1 X138.68 Y147.97 E225.74499
G1 X138.11 Y147.97 E225.76121
G1 X137.72 Y148.37 E225.78650
G1 X137.72 Y148.93 E225.80585
G1 X137.72 Y149.50 E225.82517
G1 X137.72 Y150.06 E225.84452
G1 X137.72 Y150.63 E225.86387
G1 X137.72 Y151.19 E225.88322
G1 X137.72 Y151.75 E225.90253
G1 X137.57 Y152.18 E225.92380
G0 F12000 X138.37 Y152.99
;LAYER:10
G0 X138.17 Y153.07 Z3.30
;TYPE:WALL-INNER
G1 F4800 X138.17 Y152.79 E225.93679
G1 X162.26 Y152.79 E227.06987
G1 X162.26 Y152.22 E227.09687
G1 X162.51 Y152.34 E227.10994
G1 X162.95 Y151.97 E227.13690
G1 X163.38 Y151.74 E227.15982
G1 X163.84 Y151.59 E227.18281
G1 X164.33 Y151.55 E227.20587
G1 X164.81 Y151.59 E227.22865
G1 X165.28 Y151.74 E227.25154
G1 X165.71 Y151.97 E227.27465
G1 X166.09 Y152.28 E227.29778
G1 X166.41 Y152.66 E227.32094
G1 X166.64 Y153.09 E227.34397
G1 X166.78 Y153.56 E227.36706
G1 X166.83 Y154.04 E227.38994
G1 X166.78 Y154.53 E227.41291
G1 X166.64 Y155.00 E227.43596
G1 X166.41 Y155.43 E227.45892
G1 X166.10 Y155.81 E227.48198
G1 X165.72 Y156.12 E227.50518
G1 X165.28 Y156.35 E227.52841
G1 X164.81 Y156.50 E227.55140
G1 X164.32 Y156.54 E227.57446
G1 X163.84 Y156.50 E227.59729
G1 X163.38 Y156.36 E227.62013
G1 X162.94 Y156.12 E227.64324
G1 X162.56 Y155.81 E227.66630
G1 X162.25 Y155.43 E227.68943
G1 X162.02 Y155.00 E227.71258
G1 X161.88 Y154.53 E227.73567
G1 X161.73 Y153.07 E227.80468
G1 X138.17 Y153.07 E228.91316
G0 F12000 X137.77 Y153.47
G1 F4800 X137.77 Y152.39 E228.96368
G1 X161.86 Y152.39 E230.09675
G1 X161.86 Y151.59 E230.13434
G1 X162.45 Y151.87 E230.16481
G1 X162.72 Y151.63 E230.18190
G1 X163.21 Y151.37 E230.20804
G1 X163.76 Y151.21 E230.23478
G1 X164.32 Y151.15 E230.26144
G1 X164.33 Y151.15 E230.26192
G1 X164.88 Y151.20 E230.28791
G1 X164.90 Y151.20 E230.28857
G1 X165.43 Y151.36 E230.31463
G1 X165.93 Y151.63 E230.34142
G1 X166.37 Y151.99 E230.36820
G1 X166.73 Y152.43 E230.39507
G1 X167.00 Y152.93 E230.42178
G1 X167.17 Y153.47 E230.44853
G1 X167.23 Y154.04 E230.47525
G1 X167.17 Y154.60 E230.50171
G1 X167.17 Y154.61 E230.50237
G1 X167.01 Y155.14 E230.52838
G1 X166.74 Y155.65 E230.55519
G1 X166.38 Y156.09 E230.58194
G1 X165.94 Y156.45 E230.60881
G1 X165.44 Y156.72 E230.63564
G1 X164.90 Y156.89 E230.66238
G1 X164.33 Y156.94 E230.68909
G1 X163.77 Y156.89 E230.71551
G1 X163.76 Y156.89 E230.71617
G1 X163.23 Y156.73 E230.74222
G1 X162.73 Y156.46 E230.76901
G1 X162.29 Y156.10 E230.79576
G1 X161.92 Y155.66 E230.82259
G1 X161.65 Y155.16 E230.84940
G1 X161.49 Y154.62 E230.87616
G1 X161.37 Y153.47 E230.93043
G1 X137.77 Y153.47 E232.04064
G0 F12000 X137.37 Y153.87
;TYPE:WALL-OUTER
G1 F4800 X137.37 Y147.65 E232.33290
G1 X139.77 Y147.65 E232.44593
G1 X139.77 Y148.30 E232.47618
G1 X138.06 Y148.30 E232.55671
G1 X138.06 Y152.00 E232.73066
G1 X161.46 Y152.00 E233.83124
G1 X161.46 Y148.30 E234.00519
G1 X159.75 Y148.30 E234.08567
G1 X159.75 Y147.65 E234.11592
G1 X162.15 Y147.65 E234.22895
G1 X162.15 Y151.29 E234.40003
G1 X162.38 Y151.40 E234.41201
G1 X162.50 Y151.30 E234.41915
G1 X163.02 Y151.02 E234.44716
G1 X163.06 Y151.00 E234.44925
G1 X163.64 Y150.82 E234.47761
G1 X163.68 Y150.81 E234.47982
G1 X164.28 Y150.75 E234.50804
G1 X164.33 Y150.75 E234.51036
G1 X164.92 Y150.80 E234.53838
G1 X164.97 Y150.81 E234.54051
G1 X165.54 Y150.98 E234.56886
G1 X165.59 Y151.00 E234.57112
G1 X166.12 Y151.28 E234.59924
G1 X166.16 Y151.30 E234.60153
G1 X166.62 Y151.68 E234.62968
G1 X166.66 Y151.71 E234.63192
G1 X167.04 Y152.18 E234.66017
G1 X167.07 Y152.21 E234.66231
G1 X167.35 Y152.74 E234.69059
G1 X167.38 Y152.78 E234.69288
G1 X167.55 Y153.36 E234.72099
G1 X167.56 Y153.40 E234.72321
G1 X167.62 Y154.00 E234.75143
G1 X167.63 Y154.04 E234.75365
G1 X167.57 Y154.64 E234.78178
G1 X167.56 Y154.69 E234.78419
G1 X167.39 Y155.26 E234.81221
G1 X167.38 Y155.31 E234.81443
G1 X167.09 Y155.84 E234.84267
G1 X167.07 Y155.88 E234.84496
G1 X166.66 Y156.38 E234.87538
G1 X166.20 Y156.76 E234.90356
G1 X166.16 Y156.79 E234.90589
G1 X165.63 Y157.07 E234.93405
G1 X165.59 Y157.09 E234.93613
G1 X165.02 Y157.27 E234.96450
G1 X164.97 Y157.28 E234.96671
G1 X164.37 Y157.34 E234.99493
G1 X164.33 Y157.34 E234.99720
G1 X163.73 Y157.29 E235.02523
G1 X163.69 Y157.28 E235.02740
G1 X163.11 Y157.11 E235.05575
G1 X163.06 Y157.09 E235.05801
G1 X162.54 Y156.81 E235.08613
G1 X162.49 Y156.79 E235.08842
G1 X161.99 Y156.38 E235.11884
G1 X161.59 Y155.88 E235.14912
G1 X161.30 Y155.35 E235.17751
G1 X161.28 Y155.31 E235.17981
G1 X161.10 Y154.73 E235.20792
G1 X161.09 Y154.69 E235.21018
G1 X161.01 Y153.87 E235.24898
G1 X137.37 Y153.87 E236.36094
G0 F12000 X137.58 Y153.57
G0 X137.82 Y152.21
;TYPE:FILL
G1 F4800 X137.72 Y151.82 E236.37782
G1 X137.72 Y151.26 E236.39730
G1 X137.72 Y150.69 E236.41678
G1 X137.72 Y150.13 E236.43630
G1 X137.72 Y149.57 E236.45578
G1 X137.72 Y149.00 E236.47526
G1 X137.72 Y148.44 E236.49478
G1 X137.77 Y147.93 E236.51427
G1 X138.38 Y147.97 E236.53051
G1 X138.94 Y147.97 E236.54673
G1 X139.35 Y148.10 E236.56664
G0 F12000 X139.35 Y148.00
G0 X137.72 Y147.96
G0 X137.72 Y152.34
G0 X161.80 Y152.34
G0 X161.80 Y147.96
G0 X159.98 Y147.95
G0 X159.98 Y147.85
G1 F4800 X160.39 Y147.97 E236.58286
G1 X160.95 Y147.97 E236.59909
G1 X161.52 Y147.97 E236.61527
G1 X161.80 Y148.26 E236.63350
G1 X161.80 Y148.83 E236.65299
G1 X161.80 Y149.39 E236.67250
G1 X161.80 Y149.96 E236.69198
G1 X161.80 Y150.52 E236.71147
G1 X161.80 Y151.08 E236.73095
G1 X161.81 Y151.38 E236.74479
G0 F12000 X162.44 Y152.46
G1 F4800 X165.83 Y155.85 E236.97040
G0 F12000 X161.97 Y154.02
G1 F4800 X164.30 Y151.69 E237.12553
;LAYER:11
G0 F12000 X164.34 Y151.55 Z3.60
;TYPE:WALL-INNER
G1 F4800 X164.81 Y151.59 E237.14780
G1 X165.28 Y151.74 E237.17122
G1 X165.71 Y151.97 E237.19418
G1 X166.09 Y152.28 E237.21725
G1 X166.40 Y152.66 E237.24028
G1 X166.64 Y153.09 E237.26353
G1 X166.78 Y153.56 E237.28662
G1 X166.83 Y154.05 E237.30973
G1 X166.78 Y154.53 E237.33237
G1 X166.64 Y155.00 E237.35518
G1 X166.41 Y155.43 E237.37856
G1 X166.10 Y155.81 E237.40149
G1 X165.72 Y156.12 E237.42465
G1 X165.29 Y156.35 E237.44753
G1 X164.81 Y156.50 E237.47092
G1 X164.32 Y156.54 E237.49408
G1 X163.85 Y156.50 E237.51638
G1 X163.37 Y156.35 E237.53981
G1 X162.94 Y156.12 E237.56277
G1 X162.56 Y155.81 E237.58583
G1 X162.25 Y155.43 E237.60889
G1 X162.02 Y155.00 E237.63215
G1 X161.88 Y154.53 E237.65527
G1 X161.73 Y153.07 E237.72414
G1 X138.17 Y153.07 E238.83261
G1 X138.17 Y152.79 E238.84560
G1 X162.26 Y152.79 E239.97868
G1 X162.26 Y152.22 E240.00568
G1 X162.51 Y152.34 E240.01875
G1 X162.95 Y151.97 E240.04575
G1 X163.37 Y151.74 E240.06826
G1 X163.84 Y151.59 E240.09166
G1 X164.34 Y151.55 E240.11486
G0 F12000 X164.32 Y151.15
G1 F4800 X164.33 Y151.15 E240.11566
G1 X164.88 Y151.20 E240.14147
G1 X165.42 Y151.36 E240.16823
G1 X165.92 Y151.63 E240.19478
G1 X166.37 Y151.99 E240.22167
G1 X166.73 Y152.43 E240.24840
G1 X166.74 Y152.44 E240.24907
G1 X167.00 Y152.93 E240.27520
G1 X167.17 Y153.47 E240.30188
G1 X167.22 Y154.03 E240.32865
G1 X167.23 Y154.05 E240.32936
G1 X167.17 Y154.59 E240.35493
G1 X167.17 Y154.61 E240.35578
G1 X167.01 Y155.13 E240.38167
G1 X166.75 Y155.64 E240.40859
G1 X166.39 Y156.08 E240.43531
G1 X165.95 Y156.45 E240.46214
G1 X165.94 Y156.46 E240.46294
G1 X165.45 Y156.72 E240.48891
G1 X164.90 Y156.88 E240.51573
G1 X164.34 Y156.94 E240.54240
G1 X164.32 Y156.94 E240.54320
G1 X163.78 Y156.89 E240.56905
G1 X163.23 Y156.73 E240.59581
G1 X162.73 Y156.46 E240.62236
G1 X162.29 Y156.10 E240.64919
G1 X161.93 Y155.67 E240.67592
G1 X161.92 Y155.65 E240.67672
G1 X161.66 Y155.17 E240.70273
G1 X161.49 Y154.62 E240.72951
G1 X161.37 Y153.47 E240.78407
G1 X137.77 Y153.47 E241.89428
G1 X137.77 Y152.39 E241.94480
G1 X161.86 Y152.39 E243.07788
G1 X161.86 Y151.59 E243.11547
G1 X162.45 Y151.87 E243.14594
G1 X162.72 Y151.63 E243.16303
G1 X163.21 Y151.37 E243.18879
G1 X163.75 Y151.21 E243.21560
G1 X164.32 Y151.15 E243.24232
G0 F12000 X164.28 Y150.75
;TYPE:WALL-OUTER
G1 F4800 X164.33 Y150.75 E243.24492
G1 X164.91 Y150.80 E243.27257
G1 X164.97 Y150.81 E243.27512
G1 X165.54 Y150.98 E243.30302
G1 X165.59 Y151.00 E243.30573
G1 X166.16 Y151.30 E243.33604
G1 X166.66 Y151.71 E243.36656
G1 X167.07 Y152.21 E243.39688
G1 X167.35 Y152.74 E243.42493
G1 X167.38 Y152.78 E243.42749
G1 X167.55 Y153.35 E243.45531
G1 X167.56 Y153.40 E243.45787
G1 X167.62 Y153.99 E243.48575
G1 X167.63 Y154.04 E243.48822
G1 X167.57 Y154.63 E243.51601
G1 X167.56 Y154.69 E243.51875
G1 X167.39 Y155.25 E243.54642
G1 X167.07 Y155.88 E243.57961
G1 X166.66 Y156.38 E243.60990
G1 X166.16 Y156.79 E243.64042
G1 X165.59 Y157.09 E243.67062
G1 X165.02 Y157.27 E243.69877
G1 X164.97 Y157.28 E243.70133
G1 X164.38 Y157.34 E243.72912
G1 X164.32 Y157.34 E243.73177
G1 X163.74 Y157.29 E243.75942
G1 X163.69 Y157.28 E243.76197
G1 X163.12 Y157.11 E243.79002
G1 X163.06 Y157.09 E243.79258
G1 X162.50 Y156.79 E243.82289
G1 X161.99 Y156.38 E243.85337
G1 X161.59 Y155.88 E243.88365
G1 X161.28 Y155.30 E243.91448
G1 X161.11 Y154.74 E243.94219
G1 X161.09 Y154.69 E243.94475
G1 X161.01 Y153.87 E243.98351
G1 X137.37 Y153.87 E245.09547
G1 X137.37 Y147.65 E245.38772
G1 X139.77 Y147.65 E245.50076
G1 X139.77 Y148.30 E245.53100
G1 X138.06 Y148.30 E245.61153
G1 X138.06 Y152.00 E245.78549
G1 X161.46 Y152.00 E246.88606
G1 X161.46 Y148.30 E247.06001
G1 X159.75 Y148.30 E247.14049
G1 X159.75 Y147.65 E247.17074
G1 X162.15 Y147.65 E247.28378
G1 X162.15 Y151.29 E247.45486
G1 X162.38 Y151.40 E247.46683
G1 X162.50 Y151.30 E247.47397
G1 X163.06 Y151.00 E247.50403
G1 X163.63 Y150.82 E247.53218
G1 X163.69 Y150.81 E247.53474
G1 X164.28 Y150.75 E247.56258
G0 F12000 X164.30 Y151.69
;TYPE:FILL
G1 F4800 X161.97 Y154.02 E247.71764
G0 F12000 X162.44 Y152.46
G1 F4800 X165.83 Y155.85 E247.94326
G0 F12000 X161.76 Y151.23
G0 X161.66 Y151.23
G1 F4800 X161.80 Y150.80 E247.96277
G1 X161.80 Y150.24 E247.98225
G1 X161.80 Y149.67 E248.00177
G1 X161.80 Y149.11 E248.02125
G1 X161.80 Y148.54 E248.04073
G1 X161.80 Y147.98 E248.06024
G1 X161.25 Y147.97 E248.07647
G1 X160.68 Y147.97 E248.09270
G1 X160.28 Y148.10 E248.11255
G0 F12000 X161.80 Y147.96
G0 X161.80 Y152.34
G0 X137.72 Y152.34
G0 X137.72 Y147.96
G0 X139.47 Y147.92
G0 X139.57 Y147.92
G1 F4800 X139.24 Y147.97 E248.12422
G1 X138.68 Y147.97 E248.14044
G1 X138.11 Y147.97 E248.15667
G1 X137.72 Y148.37 E248.18196
G1 X137.72 Y148.93 E248.20130
G1 X137.72 Y149.50 E248.22062
G1 X137.72 Y150.06 E248.23997
G1 X137.72 Y150.63 E248.25932
G1 X137.72 Y151.19 E248.27867
G1 X137.72 Y151.75 E248.29798
G1 X137.57 Y152.18 E248.31926
G0 F12000 X138.37 Y152.99
;LAYER:12
G0 X138.17 Y153.07 Z3.90
;TYPE:WALL-INNER
G1 F4800 X138.17 Y152.79 E248.33224
G1 X162.26 Y152.79 E249.46532
G1 X162.26 Y152.22 E249.49232
G1 X162.51 Y152.34 E249.50539
G1 X162.95 Y151.97 E249.53235
G1 X163.38 Y151.74 E249.55527
G1 X163.84 Y151.59 E249.57808
G1 X164.33 Y151.55 E249.60124
G1 X164.81 Y151.59 E249.62406
G1 X165.28 Y151.74 E249.64722
G1 X165.71 Y151.97 E249.67009
G1 X166.09 Y152.28 E249.69326
G1 X166.40 Y152.66 E249.71629
G1 X166.64 Y153.09 E249.73948
G1 X166.78 Y153.56 E249.76239
G1 X166.83 Y154.04 E249.78537
G1 X166.78 Y154.53 E249.80834
G1 X166.63 Y155.00 E249.83160
G1 X166.41 Y155.43 E249.85434
G1 X166.10 Y155.81 E249.87731
G1 X165.72 Y156.12 E249.90061
G1 X165.28 Y156.35 E249.92384
G1 X164.81 Y156.50 E249.94665
G1 X164.33 Y156.54 E249.96976
G1 X163.84 Y156.50 E249.99263
G1 X163.37 Y156.35 E250.01579
G1 X162.94 Y156.12 E250.03866
G1 X162.56 Y155.81 E250.06163
G1 X162.25 Y155.43 E250.08496
G1 X162.02 Y155.00 E250.10809
G1 X161.88 Y154.53 E250.13100
G1 X161.73 Y153.07 E250.20010
G1 X138.17 Y153.07 E251.30858
G0 F12000 X137.77 Y153.47
G1 F4800 X137.77 Y152.39 E251.35910
G1 X161.86 Y152.39 E252.49218
G1 X161.86 Y151.59 E252.52976
G1 X162.45 Y151.87 E252.56024
G1 X162.72 Y151.63 E252.57732
G1 X163.20 Y151.38 E252.60287
G1 X163.76 Y151.20 E252.63041
G1 X164.31 Y151.15 E252.65626
G1 X164.33 Y151.15 E252.65730
G1 X164.87 Y151.20 E252.68287
G1 X164.89 Y151.20 E252.68396
G1 X165.44 Y151.37 E252.71065
G1 X165.92 Y151.62 E252.73626
G1 X166.36 Y151.98 E252.76309
G1 X166.72 Y152.42 E252.78984
G1 X166.74 Y152.43 E252.79065
G1 X167.00 Y152.92 E252.81661
G1 X167.17 Y153.48 E252.84421
G1 X167.22 Y154.03 E252.87007
G1 X167.23 Y154.04 E252.87097
G1 X167.17 Y154.59 E252.89668
G1 X167.17 Y154.61 E252.89772
G1 X167.01 Y155.15 E252.92442
G1 X166.75 Y155.63 E252.95005
G1 X166.40 Y156.07 E252.97664
G1 X166.38 Y156.09 E252.97778
G1 X165.96 Y156.44 E253.00362
G1 X165.94 Y156.46 E253.00465
G1 X165.45 Y156.72 E253.03052
G1 X164.89 Y156.89 E253.05806
G1 X164.35 Y156.94 E253.08386
G1 X164.33 Y156.94 E253.08490
G1 X163.78 Y156.89 E253.11052
G1 X163.76 Y156.89 E253.11160
G1 X163.22 Y156.72 E253.13830
G1 X162.74 Y156.47 E253.16391
G1 X162.29 Y156.11 E253.19080
G1 X162.28 Y156.10 E253.19160
G1 X161.93 Y155.67 E253.21758
G1 X161.92 Y155.66 E253.21848
G1 X161.66 Y155.17 E253.24430
G1 X161.48 Y154.61 E253.27190
G1 X161.37 Y153.47 E253.32592
G1 X137.77 Y153.47 E254.43614
G0 F12000 X137.37 Y153.87
;TYPE:WALL-OUTER
G1 F4800 X137.37 Y147.65 E254.72839
G1 X139.77 Y147.65 E254.84143
G1 X139.77 Y148.30 E254.87168
G1 X138.06 Y148.30 E254.95221
G1 X138.06 Y152.00 E255.12616
G1 X161.46 Y152.00 E256.22673
G1 X161.46 Y148.30 E256.40068
G1 X159.75 Y148.30 E256.48117
G1 X159.75 Y147.65 E256.51141
G1 X162.15 Y147.65 E256.62445
G1 X162.15 Y151.29 E256.79553
G1 X162.38 Y151.40 E256.80750
G1 X162.50 Y151.30 E256.81465
G1 X163.01 Y151.03 E256.84207
G1 X163.07 Y151.00 E256.84499
G1 X163.68 Y150.81 E256.87527
G1 X164.33 Y150.75 E256.90576
G1 X164.97 Y150.81 E256.93620
G1 X165.59 Y151.00 E256.96661
G1 X166.11 Y151.27 E256.99416
G1 X166.16 Y151.30 E256.99705
G1 X166.66 Y151.71 E257.02750
G1 X167.07 Y152.21 E257.05782
G1 X167.35 Y152.73 E257.08551
G1 X167.38 Y152.78 E257.08844
G1 X167.56 Y153.40 E257.11863
G1 X167.63 Y154.04 E257.14916
G1 X167.56 Y154.69 E257.17970
G1 X167.38 Y155.31 E257.20994
G1 X167.10 Y155.82 E257.23759
G1 X167.07 Y155.88 E257.24047
G1 X166.70 Y156.33 E257.26798
G1 X166.66 Y156.38 E257.27098
G1 X166.16 Y156.79 E257.30140
G1 X165.64 Y157.07 E257.32897
G1 X165.59 Y157.09 E257.33189
G1 X164.97 Y157.28 E257.36217
G1 X164.33 Y157.34 E257.39261
G1 X163.68 Y157.28 E257.42310
G1 X163.06 Y157.09 E257.45351
G1 X162.55 Y156.82 E257.48106
G1 X162.49 Y156.79 E257.48394
G1 X162.04 Y156.42 E257.51145
G1 X161.99 Y156.38 E257.51446
G1 X161.62 Y155.92 E257.54200
G1 X161.59 Y155.88 E257.54474
G1 X161.31 Y155.36 E257.57244
G1 X161.28 Y155.31 E257.57536
G1 X161.09 Y154.69 E257.60560
G1 X161.01 Y153.87 E257.64450
G1 X137.37 Y153.87 E258.75645
G0 F12000 X137.58 Y153.57
G0 X137.82 Y152.21
;TYPE:FILL
G1 F4800 X137.72 Y151.82 E258.77333
G1 X137.72 Y151.26 E258.79281
G1 X137.72 Y150.69 E258.81230
G1 X137.72 Y150.13 E258.83181
G1 X137.72 Y149.57 E258.85130
G1 X137.72 Y149.00 E258.87078
G1 X137.72 Y148.44 E258.89029
G1 X137.77 Y147.93 E258.90978
G1 X138.38 Y147.97 E258.92602
G1 X138.94 Y147.97 E258.94225
G1 X139.35 Y148.10 E258.96216
G0 F12000 X139.35 Y148.00
G0 X137.72 Y147.96
G0 X137.72 Y152.34
G0 X161.80 Y152.34
G0 X161.80 Y147.96
G0 X159.98 Y147.95
G0 X159.98 Y147.85
G1 F4800 X160.39 Y147.97 E258.97838
G1 X160.95 Y147.97 E258.99460
G1 X161.52 Y147.97 E259.01079
G1 X161.80 Y148.26 E259.02902
G1 X161.80 Y148.83 E259.04850
G1 X161.80 Y149.39 E259.06802
G1 X161.80 Y149.96 E259.08750
G1 X161.80 Y150.52 E259.10698
G1 X161.80 Y151.08 E259.12646
G1 X161.81 Y151.38 E259.14030
G0 F12000 X162.44 Y152.46
G1 F4800 X165.83 Y155.85 E259.36592
G0 F12000 X161.97 Y154.02
G1 F4800 X164.30 Y151.69 E259.52111
;LAYER:13
G0 F12000 X164.33 Y151.55 Z4.20
;TYPE:WALL-INNER
G1 F4800 X164.81 Y151.59 E259.54366
G1 X165.28 Y151.74 E259.56686
G1 X165.71 Y151.97 E259.58984
G1 X166.09 Y152.28 E259.61280
G1 X166.41 Y152.66 E259.63630
G1 X166.64 Y153.09 E259.65911
G1 X166.78 Y153.56 E259.68212
G1 X166.83 Y154.05 E259.70533
G1 X166.78 Y154.53 E259.72801
G1 X166.63 Y155.00 E259.75123
G1 X166.41 Y155.43 E259.77412
G1 X166.10 Y155.81 E259.79701
G1 X165.71 Y156.12 E259.82058
G1 X165.28 Y156.35 E259.84337
G1 X164.81 Y156.50 E259.86647
G1 X164.32 Y156.54 E259.88967
G1 X163.84 Y156.50 E259.91226
G1 X163.37 Y156.35 E259.93546
G1 X162.94 Y156.12 E259.95846
G1 X162.56 Y155.81 E259.98136
G1 X162.25 Y155.43 E260.00486
G1 X162.02 Y155.00 E260.02759
G1 X161.88 Y154.53 E260.05079
G1 X161.73 Y153.07 E260.11984
G1 X138.17 Y153.07 E261.22832
G1 X138.17 Y152.79 E261.24130
G1 X162.26 Y152.79 E262.37438
G1 X162.26 Y152.22 E262.40138
G1 X162.51 Y152.34 E262.41445
G1 X162.95 Y151.97 E262.44145
G1 X163.37 Y151.74 E262.46414
G1 X163.84 Y151.59 E262.48723
G1 X164.33 Y151.55 E262.51048
G0 F12000 X164.30 Y151.15
G1 F4800 X164.33 Y151.15 E262.51185
G1 X164.86 Y151.20 E262.53690
G1 X164.90 Y151.20 E262.53846
G1 X165.41 Y151.36 E262.56383
G1 X165.44 Y151.37 E262.56511
G1 X165.91 Y151.62 E262.59045
G1 X166.35 Y151.97 E262.61709
G1 X166.72 Y152.42 E262.64414
G1 X166.74 Y152.44 E262.64548
G1 X166.99 Y152.91 E262.67075
G1 X167.01 Y152.94 E262.67214
G1 X167.17 Y153.48 E262.69860
G1 X167.22 Y154.02 E262.72431
G1 X167.23 Y154.05 E262.72559
G1 X167.17 Y154.58 E262.75073
G1 X167.17 Y154.61 E262.75225
G1 X167.01 Y155.15 E262.77879
G1 X166.75 Y155.63 E262.80426
G1 X166.40 Y156.07 E262.83112
G1 X166.38 Y156.09 E262.83226
G1 X165.96 Y156.44 E262.85794
G1 X165.94 Y156.46 E262.85927
G1 X165.46 Y156.71 E262.88461
G1 X165.43 Y156.72 E262.88600
G1 X164.92 Y156.88 E262.91136
G1 X164.89 Y156.89 E262.91259
G1 X164.35 Y156.94 E262.93811
G1 X164.32 Y156.94 E262.93948
G1 X163.79 Y156.89 E262.96458
G1 X163.76 Y156.89 E262.96614
G1 X163.24 Y156.73 E262.99151
G1 X163.22 Y156.72 E262.99279
G1 X162.74 Y156.47 E263.01823
G1 X162.30 Y156.11 E263.04499
G1 X161.93 Y155.68 E263.07175
G1 X161.66 Y155.18 E263.09844
G1 X161.65 Y155.15 E263.09983
G1 X161.48 Y154.61 E263.12633
G1 X161.37 Y153.47 E263.18040
G1 X137.77 Y153.47 E264.29062
G1 X137.77 Y152.39 E264.34114
G1 X161.86 Y152.39 E265.47421
G1 X161.86 Y151.59 E265.51180
G1 X162.45 Y151.87 E265.54227
G1 X162.72 Y151.63 E265.55936
G1 X163.19 Y151.38 E265.58453
G1 X163.22 Y151.37 E265.58592
G1 X163.74 Y151.21 E265.61128
G1 X163.76 Y151.20 E265.61251
G1 X164.30 Y151.15 E265.63808
G0 F12000 X164.26 Y150.75
;TYPE:WALL-OUTER
G1 F4800 X164.33 Y150.75 E265.64124
G1 X164.90 Y150.80 E265.66837
G1 X164.97 Y150.81 E265.67164
G1 X165.59 Y151.00 E265.70201
G1 X166.16 Y151.30 E265.73238
G1 X166.61 Y151.67 E265.75972
G1 X166.66 Y151.71 E265.76283
G1 X167.03 Y152.16 E265.79028
G1 X167.07 Y152.21 E265.79321
G1 X167.38 Y152.79 E265.82394
G1 X167.56 Y153.40 E265.85403
G1 X167.62 Y153.98 E265.88149
G1 X167.63 Y154.04 E265.88456
G1 X167.57 Y154.62 E265.91184
G1 X167.56 Y154.69 E265.91510
G1 X167.38 Y155.31 E265.94534
G1 X167.10 Y155.82 E265.97271
G1 X167.07 Y155.88 E265.97577
G1 X166.71 Y156.33 E266.00311
G1 X166.66 Y156.38 E266.00622
G1 X166.21 Y156.75 E266.03366
G1 X166.16 Y156.79 E266.03680
G1 X165.59 Y157.09 E266.06717
G1 X164.97 Y157.28 E266.09759
G1 X164.39 Y157.34 E266.12495
G1 X164.33 Y157.34 E266.12812
G1 X163.75 Y157.29 E266.15529
G1 X163.68 Y157.28 E266.15856
G1 X163.06 Y157.09 E266.18893
G1 X162.50 Y156.79 E266.21930
G1 X162.00 Y156.38 E266.24971
G1 X161.63 Y155.93 E266.27712
G1 X161.59 Y155.88 E266.28006
G1 X161.28 Y155.30 E266.31089
G1 X161.09 Y154.69 E266.34102
G1 X161.01 Y153.87 E266.37993
G1 X137.37 Y153.87 E267.49188
G1 X137.37 Y147.65 E267.78414
G1 X139.77 Y147.65 E267.89717
G1 X139.77 Y148.30 E267.92742
G1 X138.06 Y148.30 E268.00795
G1 X138.06 Y152.00 E268.18190
G1 X161.46 Y152.00 E269.28247
G1 X161.46 Y148.30 E269.45643
G1 X159.75 Y148.30 E269.53691
G1 X159.75 Y147.65 E269.56716
G1 X162.15 Y147.65 E269.68019
G1 X162.15 Y151.29 E269.85127
G1 X162.38 Y151.40 E269.86325
G1 X162.50 Y151.30 E269.87039
G1 X163.06 Y151.00 E269.90061
G1 X163.68 Y150.81 E269.93103
G1 X164.26 Y150.75 E269.95844
G0 F12000 X164.30 Y151.69
;TYPE:FILL
G1 F4800 X161.97 Y154.02 E270.11357
G0 F12000 X162.44 Y152.46
G1 F4800 X165.83 Y155.85 E270.33912
G0 F12000 X161.76 Y151.23
G0 X161.66 Y151.23
G1 F4800 X161.80 Y150.80 E270.35863
G1 X161.80 Y150.24 E270.37811
G1 X161.80 Y149.67 E270.39763
G1 X161.80 Y149.11 E270.41711
G1 X161.80 Y148.54 E270.43659
G1 X161.80 Y147.98 E270.45611
G1 X161.25 Y147.97 E270.47233
G1 X160.68 Y147.97 E270.48856
G1 X160.28 Y148.10 E270.50841
G0 F12000 X161.80 Y147.96
G0 X161.80 Y152.34
G0 X137.72 Y152.34
G0 X137.72 Y147.96
G0 X139.47 Y147.92
G0 X139.57 Y147.92
G1 F4800 X139.24 Y147.97 E270.52008
G1 X138.68 Y147.97 E270.53630
G1 X138.11 Y147.97 E270.55253
G1 X137.72 Y148.37 E270.57782
G1 X137.72 Y148.93 E270.59716
G1 X137.72 Y149.50 E270.61648
G1 X137.72 Y150.06 E270.63583
G1 X137.72 Y150.63 E270.65518
G1 X137.72 Y151.19 E270.67453
G1 X137.72 Y151.75 E270.69385
G1 X137.57 Y152.18 E270.71512
G0 F12000 X138.37 Y152.99
;LAYER:14
G0 X138.17 Y153.07 Z4.50
;TYPE:WALL-INNER
G1 F4800 X138.17 Y152.79 E270.72810
G1 X162.26 Y152.79 E271.86118
G1 X162.26 Y152.22 E271.88818
G1 X162.51 Y152.34 E271.90125
G1 X162.95 Y151.97 E271.92821
G1 X163.38 Y151.74 E271.95117
G1 X163.84 Y151.59 E271.97412
G1 X164.33 Y151.55 E271.99694
G1 X164.82 Y151.60 E272.02010
G1 X165.28 Y151.74 E272.04290
G1 X165.71 Y151.97 E272.06592
G1 X166.09 Y152.28 E272.08899
G1 X166.41 Y152.66 E272.11218
G1 X166.64 Y153.09 E272.13541
G1 X166.78 Y153.56 E272.15840
G1 X166.83 Y154.05 E272.18161
G1 X166.78 Y154.53 E272.20406
G1 X166.64 Y155.00 E272.22731
G1 X166.41 Y155.43 E272.25020
G1 X166.10 Y155.81 E272.27320
G1 X165.71 Y156.12 E272.29653
G1 X165.28 Y156.35 E272.31976
G1 X164.81 Y156.50 E272.34266
G1 X164.33 Y156.54 E272.36558
G1 X163.84 Y156.50 E272.38865
G1 X163.37 Y156.35 E272.41149
G1 X162.94 Y156.12 E272.43454
G1 X162.56 Y155.81 E272.45753
G1 X162.25 Y155.43 E272.48083
G1 X162.02 Y155.00 E272.50402
G1 X161.88 Y154.53 E272.52701
G1 X161.73 Y153.07 E272.59597
G1 X138.17 Y153.07 E273.70445
G0 F12000 X137.77 Y153.47
G1 F4800 X137.77 Y152.39 E273.75497
G1 X161.86 Y152.39 E274.88804
G1 X161.86 Y151.59 E274.92563
G1 X162.45 Y151.87 E274.95610
G1 X162.72 Y151.63 E274.97319
G1 X163.19 Y151.38 E274.99815
G1 X163.22 Y151.37 E274.99971
G1 X163.73 Y151.21 E275.02481
G1 X163.76 Y151.20 E275.02643
G1 X164.33 Y151.15 E275.05304
G1 X164.90 Y151.20 E275.07989
G1 X165.40 Y151.36 E275.10490
G1 X165.44 Y151.37 E275.10660
G1 X165.91 Y151.62 E275.13170
G1 X165.94 Y151.63 E275.13313
G1 X166.35 Y151.97 E275.15830
G1 X166.38 Y152.00 E275.16001
G1 X166.72 Y152.41 E275.18528
G1 X166.74 Y152.44 E275.18675
G1 X166.99 Y152.91 E275.21196
G1 X167.01 Y152.94 E275.21362
G1 X167.16 Y153.45 E275.23864
G1 X167.17 Y153.48 E275.24026
G1 X167.22 Y154.01 E275.26550
G1 X167.23 Y154.05 E275.26711
G1 X167.18 Y154.57 E275.29178
G1 X167.17 Y154.61 E275.29353
G1 X167.02 Y155.12 E275.31874
G1 X166.75 Y155.63 E275.34561
G1 X166.74 Y155.65 E275.34680
G1 X166.40 Y156.07 E275.37231
G1 X166.38 Y156.09 E275.37381
G1 X165.96 Y156.44 E275.39908
G1 X165.94 Y156.46 E275.40066
G1 X165.46 Y156.71 E275.42589
G1 X165.44 Y156.72 E275.42745
G1 X164.92 Y156.88 E275.45255
G1 X164.89 Y156.89 E275.45413
G1 X164.33 Y156.94 E275.48083
G1 X163.76 Y156.89 E275.50758
G1 X163.25 Y156.74 E275.53264
G1 X163.22 Y156.72 E275.53434
G1 X162.75 Y156.47 E275.55944
G1 X162.30 Y156.12 E275.58617
G1 X162.28 Y156.10 E275.58751
G1 X161.94 Y155.68 E275.61295
G1 X161.92 Y155.66 E275.61448
G1 X161.66 Y155.18 E275.63969
G1 X161.65 Y155.15 E275.64136
G1 X161.49 Y154.64 E275.66637
G1 X161.48 Y154.61 E275.66799
G1 X161.37 Y153.47 E275.72192
G1 X137.77 Y153.47 E276.83214
G0 F12000 X137.37 Y153.87
;TYPE:WALL-OUTER
G1 F4800 X137.37 Y147.65 E277.12439
G1 X139.77 Y147.65 E277.23743
G1 X139.77 Y148.30 E277.26767
G1 X138.06 Y148.30 E277.34821
G1 X138.06 Y152.00 E277.52216
G1 X161.46 Y152.00 E278.62273
G1 X161.46 Y148.30 E278.79668
G1 X159.75 Y148.30 E278.87717
G1 X159.75 Y147.65 E278.90741
G1 X162.15 Y147.65 E279.02045
G1 X162.15 Y151.29 E279.19153
G1 X162.38 Y151.40 E279.20350
G1 X162.50 Y151.30 E279.21048
G1 X163.00 Y151.03 E279.23748
G1 X163.07 Y151.00 E279.24099
G1 X163.68 Y150.81 E279.27127
G1 X164.33 Y150.75 E279.30176
G1 X164.97 Y150.81 E279.33220
G1 X165.59 Y151.00 E279.36237
G1 X166.10 Y151.27 E279.38963
G1 X166.16 Y151.30 E279.39304
G1 X166.60 Y151.66 E279.42001
G1 X166.66 Y151.71 E279.42342
G1 X167.03 Y152.16 E279.45054
G1 X167.07 Y152.21 E279.45384
G1 X167.34 Y152.72 E279.48091
G1 X167.38 Y152.78 E279.48442
G1 X167.56 Y153.40 E279.51466
G1 X167.62 Y153.97 E279.54174
G1 X167.63 Y154.04 E279.54515
G1 X167.57 Y154.61 E279.57204
G1 X167.56 Y154.69 E279.57569
G1 X167.38 Y155.31 E279.60592
G1 X167.11 Y155.81 E279.63298
G1 X167.07 Y155.88 E279.63646
G1 X166.71 Y156.32 E279.66340
G1 X166.66 Y156.38 E279.66681
G1 X166.22 Y156.74 E279.69392
G1 X166.16 Y156.79 E279.69723
G1 X165.65 Y157.06 E279.72436
G1 X165.59 Y157.09 E279.72787
G1 X164.97 Y157.28 E279.75815
G1 X164.33 Y157.34 E279.78859
G1 X163.68 Y157.28 E279.81907
G1 X163.07 Y157.10 E279.84925
G1 X162.56 Y156.82 E279.87651
G1 X162.49 Y156.79 E279.87991
G1 X162.05 Y156.43 E279.90692
G1 X162.00 Y156.38 E279.91026
G1 X161.63 Y155.93 E279.93737
G1 X161.59 Y155.88 E279.94061
G1 X161.31 Y155.37 E279.96782
G1 X161.28 Y155.31 E279.97134
G1 X161.09 Y154.69 E280.00158
G1 X161.01 Y153.87 E280.04048
G1 X137.37 Y153.87 E281.15243
G0 F12000 X137.58 Y153.57
G0 X137.82 Y152.21
;TYPE:FILL
G1 F4800 X137.72 Y151.82 E281.16931
G1 X137.72 Y151.26 E281.18879
G1 X137.72 Y150.69 E281.20827
G1 X137.72 Y150.13 E281.22779
G1 X137.72 Y149.57 E281.24727
G1 X137.72 Y149.00 E281.26676
G1 X137.72 Y148.44 E281.28627
G1 X137.77 Y147.93 E281.30576
G1 X138.38 Y147.97 E281.32200
G1 X138.94 Y147.97 E281.33823
G1 X139.35 Y148.10 E281.35814
G0 F12000 X139.35 Y148.00
G0 X137.72 Y147.96
G0 X137.72 Y152.34
G0 X161.80 Y152.34
G0 X161.80 Y147.96
G0 X159.98 Y147.95
G0 X159.98 Y147.85
G1 F4800 X160.39 Y147.97 E281.37436
G1 X160.95 Y147.97 E281.39058
G1 X161.52 Y147.97 E281.40677
G1 X161.80 Y148.26 E281.42500
G1 X161.80 Y148.83 E281.44448
G1 X161.80 Y149.39 E281.46399
G1 X161.80 Y149.96 E281.48348
G1 X161.80 Y150.52 E281.50296
G1 X161.80 Y151.08 E281.52244
G1 X161.81 Y151.38 E281.53628
G0 F12000 X162.44 Y152.46
G1 F4800 X165.83 Y155.85 E281.76189
G0 F12000 X161.97 Y154.02
G1 F4800 X164.30 Y151.69 E281.91703
;LAYER:15
G0 F12000 X164.33 Y151.55 Z4.80
;TYPE:WALL-INNER
G1 F4800 X164.82 Y151.60 E281.94009
G1 X165.28 Y151.74 E281.96279
G1 X165.71 Y151.97 E281.98598
G1 X166.09 Y152.28 E282.00891
G1 X166.41 Y152.66 E282.03224
G1 X166.64 Y153.09 E282.05524
G1 X166.78 Y153.56 E282.07843
G1 X166.83 Y154.04 E282.10121
G1 X166.78 Y154.53 E282.12409
G1 X166.64 Y155.00 E282.14702
G1 X166.41 Y155.43 E282.17026
G1 X166.10 Y155.81 E282.19318
G1 X165.71 Y156.12 E282.21669
G1 X165.28 Y156.35 E282.23956
G1 X164.81 Y156.50 E282.26270
G1 X164.33 Y156.54 E282.28553
G1 X163.84 Y156.50 E282.30864
G1 X163.38 Y156.36 E282.33134
G1 X162.94 Y156.12 E282.35448
G1 X162.56 Y155.81 E282.37752
G1 X162.25 Y155.43 E282.40075
G1 X162.02 Y155.00 E282.42383
G1 X161.88 Y154.53 E282.44702
G1 X161.73 Y153.07 E282.51593
G1 X138.17 Y153.07 E283.62441
G1 X138.17 Y152.79 E283.63739
G1 X162.26 Y152.79 E284.77047
G1 X162.26 Y152.22 E284.79747
G1 X162.51 Y152.34 E284.81054
G1 X162.95 Y151.97 E284.83754
G1 X163.37 Y151.74 E284.86027
G1 X163.84 Y151.59 E284.88345
G1 X164.33 Y151.55 E284.90633
G0 F12000 X164.29 Y151.15
G1 F4800 X164.33 Y151.15 E284.90826
G1 X164.85 Y151.20 E284.93289
G1 X164.90 Y151.20 E284.93497
G1 X165.40 Y151.35 E284.95964
G1 X165.90 Y151.62 E284.98634
G1 X165.94 Y151.63 E284.98815
G1 X166.35 Y151.97 E285.01325
G1 X166.71 Y152.41 E285.03996
G1 X166.74 Y152.44 E285.04173
G1 X166.99 Y152.90 E285.06665
G1 X167.01 Y152.94 E285.06863
G1 X167.16 Y153.44 E285.09339
G1 X167.22 Y154.01 E285.12009
G1 X167.23 Y154.04 E285.12189
G1 X167.18 Y154.57 E285.14666
G1 X167.17 Y154.61 E285.14874
G1 X167.02 Y155.11 E285.17336
G1 X167.01 Y155.15 E285.17518
G1 X166.76 Y155.62 E285.20012
G1 X166.74 Y155.65 E285.20193
G1 X166.40 Y156.06 E285.22699
G1 X165.97 Y156.43 E285.25370
G1 X165.94 Y156.46 E285.25571
G1 X165.47 Y156.71 E285.28046
G1 X165.44 Y156.72 E285.28239
G1 X164.93 Y156.88 E285.30725
G1 X164.37 Y156.94 E285.33385
G1 X164.33 Y156.94 E285.33579
G1 X163.80 Y156.89 E285.36046
G1 X163.76 Y156.89 E285.36254
G1 X163.25 Y156.74 E285.38736
G1 X162.75 Y156.47 E285.41401
G1 X162.72 Y156.46 E285.41572
G1 X162.31 Y156.12 E285.44079
G1 X162.28 Y156.10 E285.44246
G1 X161.94 Y155.69 E285.46753
G1 X161.67 Y155.19 E285.49426
G1 X161.65 Y155.15 E285.49624
G1 X161.50 Y154.65 E285.52101
G1 X161.37 Y153.47 E285.57677
G1 X137.77 Y153.47 E286.68699
G1 X137.77 Y152.39 E286.73751
G1 X161.86 Y152.39 E287.87059
G1 X161.86 Y151.59 E287.90817
G1 X162.45 Y151.87 E287.93865
G1 X162.72 Y151.63 E287.95573
G1 X163.18 Y151.39 E287.98031
G1 X163.22 Y151.37 E287.98225
G1 X163.73 Y151.21 E288.00710
G1 X164.29 Y151.15 E288.03375
G0 F12000 X164.33 Y150.75
;TYPE:WALL-OUTER
G1 F4800 X164.97 Y150.81 E288.06400
G1 X165.51 Y150.97 E288.09088
G1 X165.59 Y151.00 E288.09466
G1 X166.16 Y151.30 E288.12496
G1 X166.60 Y151.66 E288.15170
G1 X166.66 Y151.71 E288.15541
G1 X167.02 Y152.15 E288.18219
G1 X167.07 Y152.21 E288.18580
G1 X167.38 Y152.79 E288.21652
G1 X167.54 Y153.33 E288.24301
G1 X167.56 Y153.40 E288.24670
G1 X167.63 Y154.04 E288.27714
G1 X167.56 Y154.69 E288.30768
G1 X167.40 Y155.23 E288.33423
G1 X167.38 Y155.31 E288.33796
G1 X167.11 Y155.81 E288.36467
G1 X167.07 Y155.88 E288.36845
G1 X166.71 Y156.32 E288.39509
G1 X166.66 Y156.38 E288.39880
G1 X166.22 Y156.74 E288.42558
G1 X166.16 Y156.79 E288.42939
G1 X165.59 Y157.09 E288.45952
G1 X165.05 Y157.26 E288.48652
G1 X164.97 Y157.28 E288.49021
G1 X164.33 Y157.34 E288.52060
G1 X163.69 Y157.28 E288.55090
G1 X163.14 Y157.12 E288.57777
G1 X163.06 Y157.09 E288.58155
G1 X162.50 Y156.79 E288.61186
G1 X162.06 Y156.43 E288.63863
G1 X162.00 Y156.38 E288.64227
G1 X161.63 Y155.94 E288.66905
G1 X161.59 Y155.88 E288.67266
G1 X161.32 Y155.38 E288.69951
G1 X161.28 Y155.31 E288.70334
G1 X161.11 Y154.76 E288.72993
G1 X161.09 Y154.69 E288.73362
G1 X161.01 Y153.87 E288.77248
G1 X137.37 Y153.87 E289.88443
G1 X137.37 Y147.65 E290.17669
G1 X139.77 Y147.65 E290.28972
G1 X139.77 Y148.30 E290.31997
G1 X138.06 Y148.30 E290.40050
G1 X138.06 Y152.00 E290.57445
G1 X161.46 Y152.00 E291.67503
G1 X161.46 Y148.30 E291.84898
G1 X159.75 Y148.30 E291.92946
G1 X159.75 Y147.65 E291.95971
G1 X162.15 Y147.65 E292.07274
G1 X162.15 Y151.29 E292.24382
G1 X162.38 Y151.40 E292.25580
G1 X162.50 Y151.30 E292.26294
G1 X163.06 Y151.00 E292.29293
G1 X163.61 Y150.83 E292.31992
G1 X163.68 Y150.81 E292.32361
G1 X164.33 Y150.75 E292.35405
G0 F12000 X164.30 Y151.69
;TYPE:FILL
G1 F4800 X161.97 Y154.02 E292.50918
G0 F12000 X162.44 Y152.46
G1 F4800 X165.83 Y155.85 E292.73473
G0 F12000 X161.76 Y151.23
G0 X161.66 Y151.23
G1 F4800 X161.80 Y150.80 E292.75425
G1 X161.80 Y150.24 E292.77373
G1 X161.80 Y149.67 E292.79324
G1 X161.80 Y149.11 E292.81273
G1 X161.80 Y148.54 E292.83221
G1 X161.80 Y147.98 E292.85172
G1 X161.25 Y147.97 E292.86795
G1 X160.68 Y147.97 E292.88417
G1 X160.28 Y148.10 E292.90402
G0 F12000 X161.80 Y147.96
G0 X161.80 Y152.34
G0 X137.72 Y152.34
G0 X137.72 Y147.96
G0 X139.47 Y147.92
G0 X139.57 Y147.92
G1 F4800 X139.24 Y147.97 E292.91569
G1 X138.68 Y147.97 E292.93192
G1 X138.11 Y147.97 E292.94814
G1 X137.72 Y148.37 E292.97343
G1 X137.72 Y148.93 E292.99278
G1 X137.72 Y149.50 E293.01209
G1 X137.72 Y150.06 E293.03144
G1 X137.72 Y150.63 E293.05079
G1 X137.72 Y151.19 E293.07014
G1 X137.72 Y151.75 E293.08946
G1 X137.57 Y152.18 E293.11073
G0 F12000 X138.37 Y152.99
;LAYER:16
G0 X138.17 Y153.07 Z5.10
;TYPE:WALL-INNER
G1 F4800 X138.17 Y152.79 E293.12371
G1 X162.26 Y152.79 E294.25679
G1 X162.26 Y152.22 E294.28379
G1 X162.51 Y152.34 E294.29686
G1 X162.95 Y151.97 E294.32383
G1 X163.37 Y151.74 E294.34664
G1 X163.84 Y151.59 E294.36969
G1 X164.33 Y151.55 E294.39289
G1 X164.81 Y151.59 E294.41524
G1 X165.28 Y151.74 E294.43843
G1 X165.71 Y151.97 E294.46156
G1 X166.09 Y152.28 E294.48452
G1 X166.40 Y152.66 E294.50775
G1 X166.64 Y153.09 E294.53107
G1 X166.78 Y153.56 E294.55391
G1 X166.83 Y154.05 E294.57707
G1 X166.78 Y154.53 E294.59976
G1 X166.64 Y155.00 E294.62266
G1 X166.41 Y155.43 E294.64589
G1 X166.10 Y155.81 E294.66869
G1 X165.71 Y156.12 E294.69212
G1 X165.28 Y156.35 E294.71520
G1 X164.81 Y156.50 E294.73825
G1 X164.32 Y156.54 E294.76146
G1 X163.85 Y156.50 E294.78381
G1 X163.38 Y156.35 E294.80700
G1 X162.94 Y156.12 E294.83012
G1 X162.56 Y155.81 E294.85305
G1 X162.25 Y155.43 E294.87655
G1 X162.02 Y155.00 E294.89961
G1 X161.88 Y154.53 E294.92251
G1 X161.73 Y153.07 E294.99156
G1 X138.17 Y153.07 E296.10004
G0 F12000 X137.77 Y153.47
G1 F4800 X137.77 Y152.39 E296.15056
G1 X161.86 Y152.39 E297.28364
G1 X161.86 Y151.59 E297.32122
G1 X162.45 Y151.87 E297.35170
G1 X162.72 Y151.63 E297.36879
G1 X163.18 Y151.39 E297.39316
G1 X163.22 Y151.37 E297.39509
G1 X163.72 Y151.22 E297.41986
G1 X163.76 Y151.20 E297.42203
G1 X164.28 Y151.15 E297.44660
G1 X164.33 Y151.15 E297.44887
G1 X164.84 Y151.20 E297.47302
G1 X164.89 Y151.20 E297.47525
G1 X165.39 Y151.35 E297.50001
G1 X165.44 Y151.37 E297.50206
G1 X165.89 Y151.61 E297.52650
G1 X165.94 Y151.63 E297.52868
G1 X166.34 Y151.97 E297.55335
G1 X166.38 Y151.99 E297.55549
G1 X166.71 Y152.40 E297.58023
G1 X166.74 Y152.44 E297.58243
G1 X166.98 Y152.90 E297.60695
G1 X167.01 Y152.94 E297.60920
G1 X167.16 Y153.44 E297.63367
G1 X167.17 Y153.48 E297.63584
G1 X167.22 Y154.00 E297.66046
G1 X167.23 Y154.05 E297.66269
G1 X167.18 Y154.56 E297.68689
G1 X167.17 Y154.61 E297.68935
G1 X167.02 Y155.11 E297.71363
G1 X167.01 Y155.15 E297.71580
G1 X166.76 Y155.61 E297.74047
G1 X166.74 Y155.66 E297.74265
G1 X166.41 Y156.06 E297.76716
G1 X166.38 Y156.09 E297.76929
G1 X165.97 Y156.43 E297.79403
G1 X165.94 Y156.46 E297.79634
G1 X165.47 Y156.70 E297.82088
G1 X165.44 Y156.72 E297.82281
G1 X164.94 Y156.88 E297.84758
G1 X164.89 Y156.89 E297.84975
G1 X164.37 Y156.94 E297.87427
G1 X164.32 Y156.94 E297.87654
G1 X163.81 Y156.89 E297.90074
G1 X163.76 Y156.89 E297.90297
G1 X163.26 Y156.74 E297.92773
G1 X163.22 Y156.72 E297.92978
G1 X162.76 Y156.48 E297.95443
G1 X162.72 Y156.46 E297.95636
G1 X162.31 Y156.12 E297.98117
G1 X162.28 Y156.10 E297.98317
G1 X161.95 Y155.69 E298.00787
G1 X161.92 Y155.65 E298.01018
G1 X161.67 Y155.19 E298.03461
G1 X161.65 Y155.15 E298.03690
G1 X161.50 Y154.65 E298.06141
G1 X161.48 Y154.61 E298.06363
G1 X161.37 Y153.47 E298.11751
G1 X137.77 Y153.47 E299.22773
G0 F12000 X137.37 Y153.87
;TYPE:WALL-OUTER
G1 F4800 X137.37 Y147.65 E299.51999
G1 X139.77 Y147.65 E299.63302
G1 X139.77 Y148.30 E299.66327
G1 X138.06 Y148.30 E299.74380
G1 X138.06 Y152.00 E299.91775
G1 X161.46 Y152.00 E301.01832
G1 X161.46 Y148.30 E301.19227
G1 X159.75 Y148.30 E301.27276
G1 X159.75 Y147.65 E301.30300
G1 X162.15 Y147.65 E301.41604
G1 X162.15 Y151.29 E301.58712
