;-- START GCODE --
;Sliced for Type A Machines Series 1
;Sliced at: Tue 21-07-2015 18:43:57
;Basic settings: Layer height: 0.3 Walls: 1.2 Fill: 17
;Print Speed: 80 Support: 0
;Retraction Speed: 40 Retraction Distance: 1.2
;Print time: #P_TIME#
;Filament used: #F_AMNT#m #F_WGHT#g
;Filament cost: #F_COST#
M106 S255	 ;start with the fan on
G21        ;metric values
G90        ;absolute positioning
M106 S255    ;start with the fan on
G28     ;move to endstops
G29		;allows for auto-levelling
G1 X150 Y5  Z15.0 F12000 ;center and move the platform down 15mm
M109 S220 ;Heat To temp
G92 E0                  ;zero the extruded length
G1 F200 E30              ;extrude 30mm of feed stock
G92 E0                  ;zero the extruded length again
G1 X175 Y25  Z0 F12000 ;remove bugger
G1 X220 F12000 ;remove bugger
G1 X150 Y150  Z15 F12000 ;recenter and begin
G1 F12000

;Layer count: 109
;LAYER:0
M106 S255
G0 F12000 X129.90 Y137.26 Z0.30
;TYPE:SKIRT
G1 F2700 X140.52 Y137.26 E0.50095
G1 X147.71 Y141.58 E0.89627
G1 X147.17 Y147.01 E1.15367
G1 X147.41 Y147.81 E1.19276
G1 X147.67 Y148.29 E1.21864
G1 X148.02 Y148.72 E1.24458
G1 X148.44 Y149.06 E1.27027
G1 X148.93 Y149.32 E1.29648
G1 X149.45 Y149.48 E1.32211
G1 X150.00 Y149.53 E1.34817
G1 X150.55 Y149.48 E1.37423
G1 X151.07 Y149.32 E1.39981
G1 X151.56 Y149.06 E1.42595
G1 X151.98 Y148.72 E1.45152
G1 X152.33 Y148.29 E1.47782
G1 X152.59 Y147.81 E1.50353
G1 X152.83 Y147.01 E1.54257
G1 X152.29 Y141.58 E1.79998
G1 X159.46 Y137.27 E2.19435
G1 X170.10 Y137.24 E2.69625
G1 X170.59 Y142.20 E2.93109
G1 X170.99 Y142.41 E2.95240
G1 X172.71 Y143.82 E3.05707
G1 X174.12 Y145.54 E3.16202
G1 X175.17 Y147.50 E3.26700
G1 X175.82 Y149.62 E3.37147
G1 X176.04 Y151.83 E3.47620
G1 X175.82 Y154.04 E3.58101
G1 X175.18 Y156.17 E3.68588
G1 X174.13 Y158.14 E3.79103
G1 X172.72 Y159.85 E3.89579
G1 X171.01 Y161.26 E4.00021
G1 X169.05 Y162.31 E4.10521
G1 X166.92 Y162.96 E4.21026
G1 X164.72 Y163.18 E4.31455
G1 X163.15 Y163.03 E4.38897
G1 X161.71 Y164.21 E4.47678
G1 X158.07 Y166.16 E4.67126
G1 X154.13 Y167.36 E4.86579
G1 X150.92 Y167.68 E5.01777
G1 X150.14 Y167.79 E5.05502
G1 X146.54 Y167.44 E5.22531
G1 X145.77 Y167.33 E5.26233
G1 X141.97 Y166.18 E5.44950
G1 X138.33 Y164.24 E5.64380
G1 X135.14 Y161.63 E5.83823
G1 X132.52 Y158.44 E6.03267
G1 X130.57 Y154.81 E6.22728
G1 X129.37 Y150.86 E6.42173
G1 X129.03 Y147.46 E6.58291
G1 X128.97 Y146.66 E6.62062
G1 X129.90 Y137.26 E7.06608
G0 F12000 X130.26 Y137.66
G1 F2700 X140.41 Y137.66 E7.54472
G1 X147.28 Y141.79 E7.92289
G1 X146.77 Y147.05 E8.17214
G1 X147.04 Y147.96 E8.21664
G1 X147.34 Y148.51 E8.24636
G1 X147.74 Y149.00 E8.27601
G1 X148.22 Y149.40 E8.30560
G1 X148.77 Y149.69 E8.33518
G1 X149.38 Y149.88 E8.36484
G1 X150.00 Y149.94 E8.39446
G1 X150.63 Y149.88 E8.42407
G1 X151.23 Y149.69 E8.45379
G1 X151.78 Y149.40 E8.48313
G1 X152.27 Y149.00 E8.51299
G1 X152.67 Y148.51 E8.54260
G1 X152.96 Y147.96 E8.57201
G1 X153.24 Y147.05 E8.61675
G1 X152.72 Y141.79 E8.86600
G1 X159.57 Y137.67 E9.24324
G1 X169.74 Y137.65 E9.72273
G1 X170.22 Y142.45 E9.95052
G1 X170.77 Y142.75 E9.98005
G1 X172.42 Y144.10 E10.08104
G1 X173.79 Y145.76 E10.18227
G1 X174.80 Y147.66 E10.28351
G1 X175.42 Y149.70 E10.38428
G1 X175.64 Y151.83 E10.48527
G1 X175.43 Y153.96 E10.58638
G1 X174.81 Y156.02 E10.68752
G1 X173.80 Y157.92 E10.78895
G1 X172.44 Y159.57 E10.89000
G1 X170.79 Y160.93 E10.99074
G1 X168.90 Y161.94 E11.09200
G1 X166.84 Y162.57 E11.19331
G1 X164.72 Y162.78 E11.29391
G1 X163.02 Y162.62 E11.37434
G1 X161.49 Y163.88 E11.46808
G1 X157.92 Y165.79 E11.65883
G1 X154.05 Y166.97 E11.84965
G1 X150.86 Y167.29 E12.00073
G1 X150.13 Y167.38 E12.03546
G1 X146.59 Y167.04 E12.20324
G1 X145.85 Y166.94 E12.23840
G1 X142.12 Y165.81 E12.42217
G1 X138.56 Y163.91 E12.61280
G1 X135.43 Y161.34 E12.80350
G1 X132.86 Y158.22 E12.99423
G1 X130.94 Y154.65 E13.18510
G1 X129.77 Y150.78 E13.37586
G1 X129.43 Y147.43 E13.53499
G1 X129.37 Y146.67 E13.57087
G1 X130.26 Y137.66 E13.99751
G0 F12000 X130.62 Y138.06
G1 F2700 X140.30 Y138.06 E14.45380
G1 X146.86 Y142.01 E14.81483
G1 X146.36 Y147.10 E15.05603
G1 X146.67 Y148.11 E15.10615
G1 X147.00 Y148.74 E15.13940
G1 X147.45 Y149.28 E15.17287
G1 X148.00 Y149.73 E15.20627
G1 X148.62 Y150.06 E15.23941
G1 X149.30 Y150.27 E15.27302
G1 X150.00 Y150.34 E15.30619
G1 X150.70 Y150.27 E15.33936
G1 X151.38 Y150.06 E15.37293
G1 X152.00 Y149.73 E15.40603
G1 X152.55 Y149.28 E15.43957
G1 X153.00 Y148.74 E15.47291
G1 X153.33 Y148.11 E15.50615
G1 X153.64 Y147.09 E15.55637
G1 X153.14 Y142.01 E15.79747
G1 X159.68 Y138.07 E16.15755
G1 X169.38 Y138.05 E16.61474
G1 X169.84 Y142.71 E16.83551
G1 X170.55 Y143.08 E16.87327
G1 X172.14 Y144.39 E16.97055
G1 X173.46 Y145.98 E17.06803
G1 X174.43 Y147.81 E17.16558
G1 X175.03 Y149.78 E17.26265
G1 X175.24 Y151.83 E17.35994
G1 X175.04 Y153.89 E17.45735
G1 X174.44 Y155.86 E17.55475
G1 X173.46 Y157.69 E17.65247
G1 X172.15 Y159.29 E17.74979
G1 X170.57 Y160.59 E17.84678
G1 X168.74 Y161.57 E17.94439
G1 X166.76 Y162.17 E18.04194
G1 X164.72 Y162.38 E18.13884
G1 X162.90 Y162.20 E18.22516
G1 X161.26 Y163.54 E18.32486
G1 X157.77 Y165.42 E18.51191
G1 X153.97 Y166.57 E18.69899
G1 X150.83 Y166.89 E18.84803
G1 X150.12 Y166.98 E18.88143
G1 X146.64 Y166.64 E19.04671
G1 X145.94 Y166.55 E19.08001
G1 X142.28 Y165.44 E19.26038
G1 X138.78 Y163.57 E19.44730
G1 X135.71 Y161.06 E19.63432
G1 X133.19 Y158.00 E19.82133
G1 X131.31 Y154.50 E20.00847
G1 X130.16 Y150.71 E20.19548
G1 X129.83 Y147.39 E20.35268
G1 X129.77 Y146.67 E20.38665
G1 X130.62 Y138.06 E20.79449
G0 F12000 X130.99 Y138.46
G1 F2700 X140.19 Y138.46 E21.22847
G1 X146.44 Y142.22 E21.57235
G1 X145.95 Y147.13 E21.80525
G1 X146.30 Y148.27 E21.86119
G1 X146.67 Y148.96 E21.89803
G1 X147.17 Y149.57 E21.93522
G1 X147.78 Y150.07 E21.97234
G1 X148.47 Y150.44 E22.00932
G1 X149.22 Y150.66 E22.04644
G1 X150.00 Y150.74 E22.08340
G1 X150.78 Y150.66 E22.12036
G1 X151.53 Y150.44 E22.15732
G1 X152.23 Y150.06 E22.19454
G1 X152.84 Y149.57 E22.23167
G1 X153.33 Y148.96 E22.26856
G1 X153.70 Y148.27 E22.30556
G1 X154.05 Y147.13 E22.36151
G1 X153.56 Y142.22 E22.59437
G1 X159.80 Y138.47 E22.93740
G1 X169.02 Y138.45 E23.37224
G1 X169.46 Y142.96 E23.58595
G1 X170.32 Y143.41 E23.63194
G1 X171.86 Y144.67 E23.72552
G1 X173.12 Y146.21 E23.81928
G1 X174.06 Y147.96 E23.91308
G1 X174.64 Y149.86 E24.00646
G1 X174.83 Y151.83 E24.10001
G1 X174.64 Y153.81 E24.19372
G1 X174.07 Y155.71 E24.28743
G1 X173.13 Y157.47 E24.38135
G1 X171.87 Y159.00 E24.47499
G1 X170.34 Y160.26 E24.56829
G1 X168.59 Y161.20 E24.66217
G1 X166.68 Y161.78 E24.75597
G1 X164.72 Y161.97 E24.84918
G1 X162.77 Y161.79 E24.94156
G1 X161.04 Y163.21 E25.04715
G1 X157.61 Y165.05 E25.23047
G1 X153.89 Y166.18 E25.41385
G1 X150.76 Y166.49 E25.56204
G1 X150.12 Y166.58 E25.59287
G1 X146.68 Y166.24 E25.75563
G1 X146.02 Y166.15 E25.78708
G1 X142.43 Y165.06 E25.96409
G1 X139.00 Y163.24 E26.14727
G1 X135.99 Y160.77 E26.33061
G1 X133.52 Y157.77 E26.51390
G1 X131.69 Y154.34 E26.69736
G1 X130.55 Y150.63 E26.88062
G1 X130.23 Y147.35 E27.03579
G1 X130.17 Y146.67 E27.06787
G1 X130.99 Y138.46 E27.45693
G0 F12000 X131.35 Y138.86
G1 F2700 X140.08 Y138.86 E27.86861
G1 X146.02 Y142.43 E28.19531
G1 X145.55 Y147.18 E28.42011
G1 X145.93 Y148.42 E28.48142
G1 X146.34 Y149.18 E28.52229
G1 X146.88 Y149.85 E28.56307
G1 X147.55 Y150.40 E28.60368
G1 X148.32 Y150.81 E28.64484
G1 X149.14 Y151.06 E28.68536
G1 X150.00 Y151.14 E28.72610
G1 X150.86 Y151.06 E28.76685
G1 X151.68 Y150.81 E28.80741
G1 X152.45 Y150.40 E28.84838
G1 X153.12 Y149.85 E28.88923
G1 X153.67 Y149.18 E28.92984
G1 X154.07 Y148.42 E28.97067
G1 X154.45 Y147.18 E29.03207
G1 X153.98 Y142.43 E29.25683
G1 X159.91 Y138.87 E29.58268
G1 X168.65 Y138.85 E29.99517
G1 X169.09 Y143.21 E30.20182
G1 X170.10 Y143.75 E30.25604
G1 X171.57 Y144.96 E30.34590
G1 X172.79 Y146.43 E30.43598
G1 X173.69 Y148.12 E30.52600
G1 X174.24 Y149.94 E30.61573
G1 X174.43 Y151.83 E30.70558
G1 X174.25 Y153.73 E30.79555
G1 X173.69 Y155.56 E30.88551
G1 X172.80 Y157.25 E30.97574
G1 X171.59 Y158.72 E31.06566
G1 X170.12 Y159.93 E31.15528
G1 X168.43 Y160.83 E31.24543
G1 X166.60 Y161.39 E31.33553
G1 X164.72 Y161.57 E31.42504
G1 X162.82 Y161.39 E31.51485
G1 X162.67 Y161.35 E31.52204
G1 X160.81 Y162.88 E31.63559
G1 X157.46 Y164.68 E31.81521
G1 X153.81 Y165.79 E31.99485
G1 X150.73 Y166.09 E32.14100
G1 X150.11 Y166.18 E32.17044
G1 X146.73 Y165.84 E32.33069
G1 X146.11 Y165.76 E32.36028
G1 X142.58 Y164.69 E32.53390
G1 X139.22 Y162.90 E32.71341
G1 X136.28 Y160.49 E32.89299
G1 X133.86 Y157.55 E33.07260
G1 X132.06 Y154.19 E33.25231
G1 X130.95 Y150.55 E33.43188
G1 X130.63 Y147.31 E33.58505
G1 X130.57 Y146.68 E33.61524
G1 X131.35 Y138.86 E33.98549
G0 F12000 X131.71 Y139.26
G1 F2700 X139.97 Y139.26 E34.37487
G1 X145.59 Y142.64 E34.68441
G1 X145.14 Y147.22 E34.90102
G1 X145.56 Y148.57 E34.96800
G1 X146.00 Y149.41 E35.01249
G1 X146.60 Y150.14 E35.05702
G1 X147.33 Y150.73 E35.10139
G1 X148.16 Y151.18 E35.14596
G1 X149.07 Y151.45 E35.19061
G1 X150.00 Y151.54 E35.23492
G1 X150.94 Y151.45 E35.27922
G1 X151.84 Y151.18 E35.32396
G1 X152.67 Y150.74 E35.36824
G1 X153.40 Y150.13 E35.41284
G1 X154.00 Y149.41 E35.45733
G1 X154.45 Y148.58 E35.50172
G1 X154.86 Y147.22 E35.56879
G1 X154.41 Y142.65 E35.78535
G1 X160.02 Y139.27 E36.09410
G1 X168.29 Y139.25 E36.48423
G1 X168.71 Y143.46 E36.68387
G1 X169.88 Y144.08 E36.74631
G1 X171.29 Y145.24 E36.83245
G1 X172.45 Y146.66 E36.91878
G1 X173.32 Y148.27 E37.00511
G1 X173.85 Y150.01 E37.09114
G1 X174.03 Y151.83 E37.17729
G1 X173.85 Y153.65 E37.26352
G1 X173.32 Y155.40 E37.34979
G1 X172.46 Y157.02 E37.43626
G1 X171.30 Y158.43 E37.52246
G1 X169.89 Y159.59 E37.60838
G1 X168.28 Y160.46 E37.69478
G1 X166.53 Y160.99 E37.78115
G1 X164.72 Y161.17 E37.86701
G1 X162.90 Y161.00 E37.95308
G1 X162.59 Y160.90 E37.96851
G1 X160.59 Y162.54 E38.09032
G1 X157.30 Y164.31 E38.26622
G1 X153.73 Y165.39 E38.44215
G1 X150.67 Y165.70 E38.58721
G1 X150.10 Y165.77 E38.61433
G1 X146.77 Y165.45 E38.77207
G1 X146.19 Y165.37 E38.79980
G1 X142.74 Y164.32 E38.97008
G1 X139.45 Y162.57 E39.14583
G1 X136.56 Y160.21 E39.32172
G1 X134.19 Y157.32 E39.49761
G1 X132.43 Y154.04 E39.67359
G1 X131.34 Y150.47 E39.84946
G1 X131.02 Y147.28 E40.00059
G1 X130.97 Y146.68 E40.02894
G1 X131.71 Y139.26 E40.38037
G0 F12000 X132.07 Y139.66
G1 F2700 X139.86 Y139.66 E40.74740
G1 X145.17 Y142.86 E41.03979
G1 X144.74 Y147.26 E41.24824
G1 X145.18 Y148.73 E41.32074
G1 X145.67 Y149.63 E41.36899
G1 X146.31 Y150.42 E41.41724
G1 X147.10 Y151.07 E41.46532
G1 X148.01 Y151.55 E41.51372
G1 X148.98 Y151.85 E41.56182
G1 X150.00 Y151.95 E41.61001
G1 X151.02 Y151.85 E41.65820
G1 X152.00 Y151.55 E41.70635
G1 X152.90 Y151.07 E41.75451
G1 X153.69 Y150.42 E41.80283
G1 X154.34 Y149.63 E41.85098
G1 X154.82 Y148.73 E41.89920
G1 X155.26 Y147.26 E41.97175
G1 X154.83 Y142.86 E42.18021
G1 X160.13 Y139.67 E42.47180
G1 X167.93 Y139.65 E42.83962
G1 X168.33 Y143.71 E43.03220
G1 X169.65 Y144.42 E43.10287
G1 X171.00 Y145.53 E43.18529
G1 X172.12 Y146.88 E43.26794
G1 X172.94 Y148.42 E43.35053
G1 X173.45 Y150.09 E43.43281
G1 X173.63 Y151.83 E43.51527
G1 X173.46 Y153.57 E43.59780
G1 X172.95 Y155.25 E43.68036
G1 X172.13 Y156.80 E43.76312
G1 X171.02 Y158.15 E43.84557
G1 X169.67 Y159.26 E43.92784
G1 X168.12 Y160.09 E44.01048
G1 X166.45 Y160.60 E44.09316
G1 X164.72 Y160.77 E44.17527
G1 X162.97 Y160.60 E44.25769
G1 X162.50 Y160.46 E44.28129
G1 X160.37 Y162.21 E44.41128
G1 X157.15 Y163.94 E44.58349
G1 X153.66 Y165.00 E44.75572
G1 X150.64 Y165.30 E44.89879
G1 X150.10 Y165.37 E44.92448
G1 X146.82 Y165.05 E45.07971
G1 X146.28 Y164.98 E45.10558
G1 X142.89 Y163.95 E45.27245
G1 X139.67 Y162.23 E45.44454
G1 X136.84 Y159.92 E45.61668
G1 X134.53 Y157.10 E45.78889
G1 X132.80 Y153.88 E45.96113
G1 X131.74 Y150.39 E46.13331
G1 X131.42 Y147.24 E46.28245
G1 X131.38 Y146.68 E46.30890
G1 X132.07 Y139.66 E46.64152
G0 F12000 X132.44 Y140.06
G1 F2700 X139.75 Y140.06 E46.98624
G1 X144.75 Y143.07 E47.26145
G1 X144.33 Y147.29 E47.46162
G1 X144.81 Y148.88 E47.53993
G1 X145.33 Y149.85 E47.59196
G1 X146.03 Y150.70 E47.64379
G1 X146.88 Y151.40 E47.69569
G1 X147.85 Y151.92 E47.74765
G1 X148.91 Y152.24 E47.79949
G1 X150.00 Y152.35 E47.85142
G1 X151.10 Y152.24 E47.90336
G1 X152.15 Y151.92 E47.95505
G1 X153.12 Y151.40 E48.00720
G1 X153.97 Y150.70 E48.05910
G1 X154.67 Y149.85 E48.11084
G1 X155.19 Y148.88 E48.16282
G1 X155.67 Y147.29 E48.24118
G1 X155.25 Y143.07 E48.44130
G1 X160.24 Y140.07 E48.71578
G1 X167.57 Y140.05 E49.06120
G1 X167.95 Y143.97 E49.24682
G1 X167.96 Y143.97 E49.24701
G1 X169.43 Y144.75 E49.32570
G1 X170.72 Y145.81 E49.40440
G1 X171.79 Y147.10 E49.48333
G1 X172.57 Y148.58 E49.56216
G1 X173.06 Y150.17 E49.64075
G1 X173.22 Y151.83 E49.71951
G1 X173.06 Y153.50 E49.79830
G1 X172.58 Y155.10 E49.87718
G1 X171.79 Y156.58 E49.95614
G1 X170.73 Y157.87 E50.03490
G1 X169.45 Y158.93 E50.11346
G1 X167.97 Y159.72 E50.19240
G1 X166.37 Y160.20 E50.27136
G1 X164.71 Y160.37 E50.34979
G1 X163.05 Y160.21 E50.42847
G1 X162.41 Y160.01 E50.46024
G1 X160.14 Y161.88 E50.59851
G1 X156.99 Y163.56 E50.76700
G1 X153.58 Y164.60 E50.93551
G1 X150.60 Y164.90 E51.07630
G1 X150.09 Y164.97 E51.10085
G1 X146.87 Y164.65 E51.25356
G1 X146.36 Y164.59 E51.27759
G1 X143.04 Y163.58 E51.44106
G1 X139.89 Y161.90 E51.60943
G1 X137.13 Y159.64 E51.77789
G1 X134.86 Y156.88 E51.94633
G1 X133.17 Y153.73 E52.11488
G1 X132.13 Y150.31 E52.28335
G1 X131.82 Y147.21 E52.43045
G1 X131.78 Y146.69 E52.45506
G1 X132.44 Y140.06 E52.76887
G0 F12000 X132.80 Y140.46
G1 F2700 X139.63 Y140.46 E53.09129
G1 X144.32 Y143.28 E53.34935
G1 X143.93 Y147.33 E53.54136
G1 X144.44 Y149.04 E53.62528
G1 X145.00 Y150.08 E53.68085
G1 X145.75 Y150.99 E53.73651
G1 X146.66 Y151.74 E53.79213
G1 X147.70 Y152.29 E53.84789
G1 X148.82 Y152.63 E53.90328
G1 X150.00 Y152.75 E53.95901
G1 X151.18 Y152.63 E54.01474
G1 X152.30 Y152.29 E54.07013
G1 X153.34 Y151.74 E54.12584
G1 X154.25 Y150.99 E54.18136
G1 X155.01 Y150.07 E54.23728
G1 X155.56 Y149.04 E54.29266
G1 X156.08 Y147.33 E54.37663
G1 X155.68 Y143.28 E54.56864
G1 X160.35 Y140.47 E54.82594
G1 X167.21 Y140.45 E55.14906
G1 X167.58 Y144.27 E55.33012
G1 X167.80 Y144.34 E55.34106
G1 X169.21 Y145.09 E55.41605
G1 X170.44 Y146.10 E55.49104
G1 X171.45 Y147.33 E55.56621
G1 X172.20 Y148.73 E55.64138
G1 X172.66 Y150.25 E55.71627
G1 X172.82 Y151.83 E55.79129
G1 X172.67 Y153.42 E55.86638
G1 X172.21 Y154.94 E55.94151
G1 X171.46 Y156.35 E56.01678
G1 X170.45 Y157.58 E56.09185
G1 X169.22 Y158.59 E56.16669
G1 X167.82 Y159.34 E56.24190
G1 X166.29 Y159.81 E56.31711
G1 X164.71 Y159.96 E56.39189
G1 X163.13 Y159.81 E56.46687
G1 X162.32 Y159.57 E56.50687
G1 X159.92 Y161.54 E56.65331
G1 X156.84 Y163.19 E56.81807
G1 X153.50 Y164.21 E56.98283
G1 X150.57 Y164.50 E57.12158
G1 X150.08 Y164.57 E57.14479
G1 X146.91 Y164.25 E57.29500
G1 X146.45 Y164.19 E57.31712
G1 X143.20 Y163.21 E57.47728
G1 X140.12 Y161.56 E57.64194
G1 X137.41 Y159.35 E57.80667
G1 X135.19 Y156.65 E57.97140
G1 X133.54 Y153.57 E58.13626
G1 X132.53 Y150.23 E58.30094
G1 X132.22 Y147.17 E58.44610
G1 X132.18 Y146.69 E58.46881
G1 X132.80 Y140.46 E58.76381
G0 F12000 X133.16 Y140.86
G1 F2700 X139.52 Y140.86 E59.06396
G1 X143.90 Y143.49 E59.30480
G1 X143.52 Y147.37 E59.48866
G1 X144.07 Y149.19 E59.57826
G1 X144.66 Y150.29 E59.63725
G1 X145.46 Y151.27 E59.69685
G1 X146.44 Y152.07 E59.75642
G1 X147.54 Y152.66 E59.81535
G1 X148.75 Y153.03 E59.87493
G1 X150.00 Y153.15 E59.93421
G1 X151.25 Y153.03 E59.99348
G1 X152.46 Y152.66 E60.05293
G1 X153.56 Y152.07 E60.11202
G1 X154.54 Y151.27 E60.17160
G1 X155.34 Y150.30 E60.23104
G1 X155.93 Y149.19 E60.29017
G1 X156.48 Y147.37 E60.37971
G1 X156.10 Y143.50 E60.56352
G1 X160.47 Y140.87 E60.80373
G1 X166.84 Y140.85 E61.10450
G1 X167.21 Y144.58 E61.28097
G1 X167.65 Y144.71 E61.30266
G1 X168.99 Y145.42 E61.37398
G1 X170.15 Y146.38 E61.44529
G1 X171.12 Y147.55 E61.51671
G1 X171.83 Y148.89 E61.58814
G1 X172.27 Y150.33 E61.65933
G1 X172.42 Y151.84 E61.73065
G1 X172.28 Y153.34 E61.80200
G1 X171.84 Y154.79 E61.87343
G1 X171.12 Y156.13 E61.94497
G1 X170.16 Y157.30 E62.01630
G1 X169.00 Y158.26 E62.08745
G1 X167.66 Y158.97 E62.15897
G1 X166.21 Y159.41 E62.23044
G1 X164.71 Y159.56 E62.30147
G1 X163.21 Y159.42 E62.37277
G1 X162.23 Y159.12 E62.42095
G1 X159.70 Y161.21 E62.57567
G1 X156.69 Y162.82 E62.73673
G1 X153.42 Y163.82 E62.89778
G1 X150.51 Y164.11 E63.03583
G1 X150.07 Y164.16 E63.05633
G1 X146.96 Y163.86 E63.20406
G1 X146.53 Y163.80 E63.22429
G1 X143.35 Y162.84 E63.38104
G1 X140.34 Y161.23 E63.54205
G1 X137.70 Y159.07 E63.70307
G1 X135.53 Y156.43 E63.86408
G1 X133.91 Y153.42 E64.02518
G1 X132.92 Y150.15 E64.18617
G1 X132.62 Y147.13 E64.32930
G1 X132.58 Y146.69 E64.35012
G1 X133.16 Y140.86 E64.62634
G0 F12000 X133.52 Y141.26
G1 F2700 X139.41 Y141.26 E64.90415
G1 X143.48 Y143.71 E65.12783
G1 X143.11 Y147.41 E65.30350
G1 X143.70 Y149.34 E65.39840
G1 X144.33 Y150.53 E65.46182
G1 X145.18 Y151.56 E65.52474
G1 X146.21 Y152.40 E65.58763
G1 X147.39 Y153.04 E65.65099
G1 X148.67 Y153.42 E65.71384
G1 X150.00 Y153.55 E65.77695
G1 X151.33 Y153.42 E65.84006
G1 X152.61 Y153.03 E65.90310
G1 X153.79 Y152.41 E65.96603
G1 X154.82 Y151.56 E66.02919
G1 X155.67 Y150.52 E66.09225
G1 X156.30 Y149.34 E66.15524
G1 X156.89 Y147.41 E66.25039
G1 X156.52 Y143.71 E66.42605
G1 X160.58 Y141.27 E66.64908
G1 X166.48 Y141.25 E66.92750
G1 X166.84 Y144.88 E67.09946
G1 X167.50 Y145.08 E67.13194
G1 X168.76 Y145.76 E67.19951
G1 X169.87 Y146.66 E67.26709
G1 X170.78 Y147.77 E67.33480
G1 X171.46 Y149.04 E67.40254
G1 X171.88 Y150.41 E67.47003
G1 X172.02 Y151.84 E67.53760
G1 X171.88 Y153.26 E67.60526
G1 X171.47 Y154.64 E67.67300
G1 X170.79 Y155.91 E67.74078
G1 X169.88 Y157.01 E67.80839
G1 X168.78 Y157.92 E67.87586
G1 X167.51 Y158.60 E67.94362
G1 X166.13 Y159.02 E68.01136
G1 X164.71 Y159.16 E68.07874
G1 X163.29 Y159.03 E68.14629
G1 X162.12 Y158.67 E68.20392
G1 X162.05 Y158.76 E68.20905
G1 X159.47 Y160.87 E68.36625
G1 X156.53 Y162.45 E68.52358
G1 X153.34 Y163.42 E68.68093
G1 X150.47 Y163.71 E68.81674
G1 X150.07 Y163.76 E68.83606
G1 X147.00 Y163.46 E68.98129
G1 X146.62 Y163.41 E68.99965
G1 X143.50 Y162.46 E69.15302
G1 X140.56 Y160.90 E69.31034
G1 X137.98 Y158.78 E69.46763
G1 X135.86 Y156.21 E69.62493
G1 X134.28 Y153.26 E69.78230
G1 X133.31 Y150.07 E69.93959
G1 X133.02 Y147.10 E70.08067
G1 X132.98 Y146.70 E70.09965
G1 X133.52 Y141.26 E70.35707
G0 F12000 X133.88 Y141.66
G1 F2700 X139.30 Y141.66 E70.61257
G1 X143.06 Y143.92 E70.81908
G1 X142.71 Y147.46 E70.98663
G1 X143.33 Y149.50 E71.08717
G1 X144.00 Y150.75 E71.15413
G1 X144.89 Y151.84 E71.22087
G1 X145.99 Y152.74 E71.28758
G1 X147.24 Y153.41 E71.35452
G1 X148.59 Y153.82 E71.42104
G1 X150.00 Y153.96 E71.48795
G1 X151.41 Y153.82 E71.55486
G1 X152.76 Y153.41 E71.62124
G1 X154.02 Y152.74 E71.68839
G1 X155.11 Y151.84 E71.75503
G1 X156.00 Y150.75 E71.82157
G1 X156.68 Y149.49 E71.88879
G1 X157.29 Y147.46 E71.98921
G1 X156.94 Y143.92 E72.15673
G1 X160.69 Y141.67 E72.36265
G1 X166.12 Y141.66 E72.61871
G1 X166.47 Y145.19 E72.78612
G1 X167.34 Y145.45 E72.82934
G1 X168.54 Y146.09 E72.89322
G1 X169.59 Y146.95 E72.95711
G1 X170.45 Y148.00 E73.02110
G1 X171.09 Y149.19 E73.08508
G1 X171.48 Y150.49 E73.14888
G1 X171.62 Y151.84 E73.21276
G1 X171.49 Y153.19 E73.27667
G1 X171.09 Y154.48 E73.34067
G1 X170.46 Y155.68 E73.40472
G1 X169.59 Y156.73 E73.46864
G1 X168.55 Y157.59 E73.53243
G1 X167.35 Y158.23 E73.59646
G1 X166.06 Y158.63 E73.66050
G1 X164.71 Y158.76 E73.72418
G1 X163.36 Y158.63 E73.78804
G1 X162.06 Y158.24 E73.85224
G1 X161.99 Y158.20 E73.85608
G1 X161.76 Y158.47 E73.87280
G1 X159.25 Y160.54 E74.02632
G1 X156.38 Y162.08 E74.17995
G1 X153.26 Y163.03 E74.33356
G1 X150.41 Y163.31 E74.46852
G1 X150.06 Y163.36 E74.48527
G1 X147.05 Y163.06 E74.62799
G1 X146.70 Y163.02 E74.64449
G1 X143.66 Y162.09 E74.79451
G1 X140.78 Y160.56 E74.94809
G1 X138.26 Y158.50 E75.10167
G1 X136.19 Y155.98 E75.25524
G1 X134.66 Y153.11 E75.40892
G1 X133.71 Y150.00 E75.56251
G1 X133.41 Y147.06 E75.70160
G1 X133.38 Y146.70 E75.71869
G1 X133.88 Y141.66 E75.95729
G0 F12000 X134.25 Y142.06
G1 F2700 X139.19 Y142.06 E76.19048
G1 X142.63 Y144.13 E76.37984
G1 X142.30 Y147.49 E76.53910
G1 X142.96 Y149.65 E76.64560
G1 X143.66 Y150.97 E76.71592
G1 X144.61 Y152.13 E76.78649
G1 X145.76 Y153.07 E76.85688
G1 X147.09 Y153.78 E76.92760
G1 X148.51 Y154.21 E76.99774
G1 X150.00 Y154.36 E77.06844
G1 X151.49 Y154.21 E77.13913
G1 X152.91 Y153.78 E77.20923
G1 X154.24 Y153.07 E77.27990
G1 X155.39 Y152.12 E77.35040
G1 X156.34 Y150.97 E77.42080
G1 X157.04 Y149.65 E77.49128
G1 X157.70 Y147.49 E77.59772
G1 X157.37 Y144.13 E77.75699
G1 X160.80 Y142.07 E77.94576
G1 X165.76 Y142.06 E78.17952
G1 X166.09 Y145.49 E78.34238
G1 X167.19 Y145.83 E78.39635
G1 X168.32 Y146.43 E78.45650
G1 X169.30 Y147.23 E78.51664
G1 X170.12 Y148.22 E78.57694
G1 X170.72 Y149.35 E78.63720
G1 X171.09 Y150.57 E78.69730
G1 X171.22 Y151.84 E78.75748
G1 X171.09 Y153.11 E78.81765
G1 X170.72 Y154.33 E78.87795
G1 X170.12 Y155.46 E78.93826
G1 X169.31 Y156.45 E78.99847
G1 X168.33 Y157.26 E79.05850
G1 X167.20 Y157.86 E79.11884
G1 X165.98 Y158.23 E79.17916
G1 X164.71 Y158.36 E79.23911
G1 X163.44 Y158.24 E79.29927
G1 X162.21 Y157.87 E79.35976
G1 X161.89 Y157.69 E79.37723
G1 X161.48 Y158.19 E79.40755
G1 X159.03 Y160.21 E79.55734
G1 X156.22 Y161.71 E79.70726
G1 X153.18 Y162.63 E79.85717
G1 X150.38 Y162.91 E79.99005
G1 X150.05 Y162.96 E80.00546
G1 X147.09 Y162.67 E80.14567
G1 X146.79 Y162.62 E80.16033
G1 X143.81 Y161.72 E80.30694
G1 X141.01 Y160.23 E80.45683
G1 X138.55 Y158.21 E80.60669
G1 X136.53 Y155.76 E80.75655
G1 X135.03 Y152.96 E80.90649
G1 X134.10 Y149.92 E81.05638
G1 X133.81 Y147.02 E81.19344
G1 X133.79 Y146.70 E81.20867
G1 X134.25 Y142.06 E81.42846
G0 F12000 X134.61 Y142.46
G1 F2700 X139.08 Y142.46 E81.63935
G1 X142.21 Y144.34 E81.81153
G1 X141.90 Y147.53 E81.96269
G1 X142.59 Y149.81 E82.07471
G1 X143.33 Y151.19 E82.14882
G1 X144.32 Y152.41 E82.22307
G1 X145.54 Y153.41 E82.29729
G1 X146.93 Y154.15 E82.37134
G1 X148.43 Y154.61 E82.44562
G1 X150.00 Y154.76 E82.51987
G1 X151.57 Y154.61 E82.59412
G1 X153.07 Y154.15 E82.66824
G1 X154.46 Y153.41 E82.74250
G1 X155.68 Y152.41 E82.81669
G1 X156.67 Y151.19 E82.89077
G1 X157.42 Y149.81 E82.96509
G1 X158.11 Y147.53 E83.07701
G1 X157.79 Y144.34 E83.22812
G1 X160.91 Y142.47 E83.39974
G1 X165.39 Y142.46 E83.61114
G1 X165.73 Y145.83 E83.77107
G1 X165.89 Y145.85 E83.77861
G1 X167.04 Y146.20 E83.83529
G1 X168.09 Y146.76 E83.89174
G1 X169.02 Y147.52 E83.94820
G1 X169.78 Y148.44 E84.00474
G1 X170.35 Y149.50 E84.06131
G1 X170.69 Y150.65 E84.11771
G1 X170.81 Y151.84 E84.17415
G1 X170.70 Y153.03 E84.23063
G1 X170.35 Y154.18 E84.28723
G1 X169.79 Y155.24 E84.34381
G1 X169.03 Y156.16 E84.40029
G1 X168.10 Y156.92 E84.45664
G1 X167.05 Y157.49 E84.51324
G1 X165.90 Y157.84 E84.56983
G1 X164.71 Y157.96 E84.62612
G1 X163.52 Y157.84 E84.68254
G1 X162.37 Y157.49 E84.73930
G1 X161.78 Y157.18 E84.77040
G1 X161.19 Y157.90 E84.81432
G1 X158.80 Y159.87 E84.96046
G1 X156.07 Y161.34 E85.10662
G1 X153.10 Y162.24 E85.25284
G1 X150.32 Y162.52 E85.38468
G1 X150.05 Y162.55 E85.39772
G1 X147.14 Y162.27 E85.53541
G1 X146.87 Y162.23 E85.54821
G1 X143.97 Y161.35 E85.69147
G1 X141.23 Y159.89 E85.83762
G1 X138.83 Y157.93 E85.98376
G1 X136.86 Y155.53 E86.12994
G1 X135.40 Y152.80 E86.27619
G1 X134.50 Y149.84 E86.42233
G1 X134.21 Y146.99 E86.55740
G1 X134.19 Y146.71 E86.57074
G1 X134.61 Y142.46 E86.77172
G0 F12000 X134.97 Y142.86
G1 F2700 X138.97 Y142.86 E86.96025
G1 X141.79 Y144.56 E87.11528
G1 X141.49 Y147.57 E87.25825
G1 X142.21 Y149.96 E87.37572
G1 X142.99 Y151.41 E87.45366
G1 X144.04 Y152.69 E87.53166
G1 X145.32 Y153.74 E87.60972
G1 X146.78 Y154.52 E87.68751
G1 X148.36 Y155.00 E87.76547
G1 X150.00 Y155.16 E87.84332
G1 X151.64 Y155.00 E87.92118
G1 X153.23 Y154.52 E87.99914
G1 X154.68 Y153.74 E88.07688
G1 X155.96 Y152.69 E88.15515
G1 X157.01 Y151.42 E88.23288
G1 X157.79 Y149.96 E88.31080
G1 X158.51 Y147.57 E88.42838
G1 X158.21 Y144.56 E88.57134
G1 X161.02 Y142.87 E88.72582
G1 X165.03 Y142.86 E88.91487
G1 X165.36 Y146.20 E89.07319
G1 X165.81 Y146.24 E89.09441
G1 X166.88 Y146.57 E89.14734
G1 X167.87 Y147.09 E89.20008
G1 X168.73 Y147.80 E89.25279
G1 X169.45 Y148.67 E89.30565
G1 X169.97 Y149.66 E89.35848
G1 X170.30 Y150.72 E89.41118
G1 X170.41 Y151.84 E89.46393
G1 X170.30 Y152.95 E89.51671
G1 X169.98 Y154.02 E89.56953
G1 X169.45 Y155.01 E89.62240
G1 X168.74 Y155.88 E89.67516
G1 X167.88 Y156.59 E89.72783
G1 X166.89 Y157.12 E89.78070
G1 X165.82 Y157.44 E89.83358
G1 X164.71 Y157.55 E89.88613
G1 X163.60 Y157.45 E89.93890
G1 X162.52 Y157.12 E89.99191
G1 X161.68 Y156.68 E90.03661
G1 X160.91 Y157.62 E90.09418
G1 X158.58 Y159.54 E90.23663
G1 X155.91 Y160.97 E90.37906
G1 X153.03 Y161.85 E90.52154
G1 X150.28 Y162.12 E90.65148
G1 X150.04 Y162.15 E90.66303
G1 X147.19 Y161.87 E90.79821
G1 X146.96 Y161.84 E90.80916
G1 X144.12 Y160.98 E90.94901
G1 X141.45 Y159.56 E91.09148
G1 X139.12 Y157.64 E91.23393
G1 X137.20 Y155.31 E91.37638
G1 X135.77 Y152.65 E91.51891
G1 X134.89 Y149.76 E91.66131
G1 X134.61 Y146.95 E91.79439
G1 X134.59 Y146.71 E91.80584
G1 X134.97 Y142.86 E91.98805
G0 F12000 X135.33 Y143.26
G1 F2700 X138.86 Y143.26 E92.15428
G1 X141.36 Y144.77 E92.29215
G1 X141.06 Y147.88 E92.43948
G1 X141.16 Y147.88 E92.44452
G1 X141.84 Y150.11 E92.55460
G1 X142.66 Y151.64 E92.63629
G1 X143.76 Y152.98 E92.71791
G1 X145.09 Y154.07 E92.79943
G1 X146.62 Y154.89 E92.88133
G1 X148.28 Y155.40 E92.96280
G1 X150.00 Y155.56 E93.04444
G1 X151.72 Y155.40 E93.12609
G1 X153.38 Y154.89 E93.20765
G1 X154.91 Y154.08 E93.28935
G1 X156.25 Y152.98 E93.37098
G1 X157.34 Y151.64 E93.45260
G1 X158.16 Y150.11 E93.53424
G1 X158.84 Y147.88 E93.64434
G1 X158.94 Y147.88 E93.64938
G1 X158.64 Y144.77 E93.79671
G1 X161.13 Y143.27 E93.93406
G1 X164.67 Y143.26 E94.10080
G1 X165.00 Y146.57 E94.25751
G1 X165.73 Y146.64 E94.29237
G1 X166.73 Y146.94 E94.34157
G1 X167.65 Y147.43 E94.39060
G1 X168.45 Y148.09 E94.43961
G1 X169.11 Y148.89 E94.48875
G1 X169.60 Y149.81 E94.53785
G1 X169.91 Y150.80 E94.58685
G1 X170.01 Y151.84 E94.63585
G1 X169.91 Y152.87 E94.68494
G1 X169.61 Y153.87 E94.73405
G1 X169.12 Y154.79 E94.78321
G1 X168.46 Y155.59 E94.83225
G1 X167.66 Y156.25 E94.88122
G1 X166.74 Y156.75 E94.93032
G1 X165.74 Y157.05 E94.97947
G1 X164.71 Y157.15 E95.02837
G1 X163.67 Y157.05 E95.07740
G1 X162.67 Y156.75 E95.12666
G1 X161.75 Y156.26 E95.17579
G1 X161.61 Y156.14 E95.18481
G1 X160.62 Y157.34 E95.25778
G1 X158.35 Y159.20 E95.39648
G1 X155.76 Y160.59 E95.53526
G1 X152.95 Y161.45 E95.67399
G1 X150.22 Y161.72 E95.80293
G1 X150.03 Y161.75 E95.81207
G1 X147.23 Y161.47 E95.94475
G1 X147.04 Y161.45 E95.95383
G1 X144.27 Y160.61 E96.09030
G1 X141.68 Y159.22 E96.22907
G1 X139.40 Y157.36 E96.36777
G1 X137.53 Y155.09 E96.50653
G1 X136.14 Y152.49 E96.64532
G1 X135.28 Y149.68 E96.78403
G1 X135.01 Y146.91 E96.91512
G1 X134.99 Y146.71 E96.92467
G1 X135.33 Y143.26 E97.08807
G0 F12000 X135.69 Y143.66
G1 F2700 X138.75 Y143.66 E97.23199
G1 X140.94 Y144.98 E97.35269
G1 X140.67 Y147.70 E97.48162
G1 X139.43 Y147.70 E97.54019
G1 X139.43 Y148.28 E97.56735
G1 X140.87 Y148.28 E97.63507
G1 X141.47 Y150.27 E97.73329
G1 X142.32 Y151.86 E97.81833
G1 X143.47 Y153.26 E97.90377
G1 X144.87 Y154.41 E97.98897
G1 X146.47 Y155.26 E98.07446
G1 X148.20 Y155.79 E98.15997
G1 X150.00 Y155.97 E98.24516
G1 X151.80 Y155.79 E98.33036
G1 X153.53 Y155.26 E98.41587
G1 X155.13 Y154.41 E98.50131
G1 X156.53 Y153.26 E98.58638
G1 X157.68 Y151.86 E98.67189
G1 X158.53 Y150.27 E98.75718
G1 X159.13 Y148.28 E98.85521
G1 X160.57 Y148.28 E98.92292
G1 X160.57 Y147.70 E98.95009
G1 X159.33 Y147.70 E99.00866
G1 X159.06 Y144.98 E99.13759
G1 X161.25 Y143.67 E99.25780
G1 X164.31 Y143.66 E99.40215
G1 X164.61 Y146.74 E99.54786
G1 X164.59 Y146.95 E99.55805
G1 X164.70 Y146.94 E99.56312
G1 X165.65 Y147.03 E99.60846
G1 X166.57 Y147.31 E99.65390
G1 X167.42 Y147.76 E99.69926
G1 X168.17 Y148.37 E99.74456
G1 X168.78 Y149.12 E99.78995
G1 X169.23 Y149.96 E99.83533
G1 X169.51 Y150.88 E99.88064
G1 X169.61 Y151.84 E99.92595
G1 X169.51 Y152.80 E99.97129
G1 X169.24 Y153.72 E100.01671
G1 X168.78 Y154.57 E100.06207
G1 X168.17 Y155.31 E100.10743
G1 X167.43 Y155.92 E100.15272
G1 X166.58 Y156.38 E100.19813
G1 X165.66 Y156.66 E100.24353
G1 X164.71 Y156.75 E100.28874
G1 X163.75 Y156.66 E100.33408
G1 X162.83 Y156.38 E100.37955
G1 X161.98 Y155.93 E100.42493
G1 X161.55 Y155.58 E100.45093
G1 X160.34 Y157.05 E100.54095
G1 X158.13 Y158.87 E100.67597
G1 X155.61 Y160.22 E100.81101
G1 X152.87 Y161.06 E100.94603
G1 X150.19 Y161.32 E101.07299
G1 X150.03 Y161.34 E101.08070
G1 X147.28 Y161.08 E101.21085
G1 X147.13 Y161.06 E101.21808
G1 X144.43 Y160.24 E101.35120
G1 X141.90 Y158.89 E101.48623
G1 X139.68 Y157.07 E101.62128
G1 X137.86 Y154.86 E101.75630
G1 X136.51 Y152.34 E101.89134
G1 X135.68 Y149.60 E102.02635
G1 X135.41 Y146.88 E102.15540
G1 X135.39 Y146.72 E102.16311
G1 X135.69 Y143.66 E102.30769
G0 F12000 X136.06 Y144.06
G1 F2700 X138.64 Y144.06 E102.42931
G1 X140.52 Y145.19 E102.53285
G1 X140.31 Y147.30 E102.63274
G1 X139.03 Y147.30 E102.69306
G1 X139.03 Y148.68 E102.75795
G1 X140.57 Y148.68 E102.83057
G1 X141.10 Y150.42 E102.91632
G1 X141.99 Y152.09 E103.00562
G1 X143.19 Y153.55 E103.09455
G1 X144.65 Y154.74 E103.18354
G1 X146.31 Y155.63 E103.27261
G1 X148.12 Y156.18 E103.36182
G1 X150.00 Y156.37 E103.45081
G1 X151.88 Y156.18 E103.53979
G1 X153.69 Y155.63 E103.62900
G1 X155.35 Y154.74 E103.71799
G1 X156.81 Y153.55 E103.80685
G1 X158.01 Y152.08 E103.89624
G1 X158.90 Y150.42 E103.98512
G1 X159.43 Y148.68 E104.07101
G1 X160.97 Y148.68 E104.14363
G1 X160.97 Y147.30 E104.20852
G1 X159.69 Y147.30 E104.26883
G1 X159.48 Y145.19 E104.36872
G1 X161.36 Y144.07 E104.47178
G1 X163.94 Y144.06 E104.59382
G1 X164.21 Y146.74 E104.72053
G1 X164.14 Y147.40 E104.75181
G1 X164.70 Y147.34 E104.77806
G1 X165.57 Y147.43 E104.81965
G1 X166.42 Y147.68 E104.86140
G1 X167.20 Y148.10 E104.90300
G1 X167.88 Y148.66 E104.94462
G1 X168.44 Y149.34 E104.98629
G1 X168.86 Y150.12 E105.02794
G1 X169.12 Y150.96 E105.06954
G1 X169.21 Y151.84 E105.11115
G1 X169.12 Y152.72 E105.15275
G1 X168.87 Y153.56 E105.19443
G1 X168.45 Y154.34 E105.23610
G1 X167.89 Y155.03 E105.27774
G1 X167.21 Y155.59 E105.31931
G1 X166.43 Y156.00 E105.36102
G1 X165.58 Y156.26 E105.40271
G1 X164.71 Y156.35 E105.44418
G1 X163.83 Y156.26 E105.48582
G1 X162.98 Y156.01 E105.52759
G1 X162.20 Y155.59 E105.56924
G1 X161.52 Y155.03 E105.61078
G1 X161.50 Y155.01 E105.61226
G1 X160.06 Y156.77 E105.71954
G1 X157.91 Y158.54 E105.85087
G1 X155.45 Y159.85 E105.98219
G1 X152.79 Y160.66 E106.11350
G1 X150.13 Y160.93 E106.23946
G1 X150.02 Y160.94 E106.24475
G1 X147.32 Y160.68 E106.37240
G1 X147.21 Y160.66 E106.37778
G1 X144.58 Y159.86 E106.50749
G1 X142.12 Y158.55 E106.63884
G1 X139.97 Y156.79 E106.77017
G1 X138.20 Y154.64 E106.90146
G1 X136.88 Y152.19 E107.03278
G1 X136.07 Y149.52 E107.16408
G1 X135.80 Y146.84 E107.29114
G1 X135.79 Y146.72 E107.29696
G1 X136.06 Y144.06 E107.42273
G0 F12000 X136.42 Y144.46
G1 F2700 X138.53 Y144.46 E107.52199
G1 X140.09 Y145.41 E107.60836
G1 X139.95 Y146.90 E107.67924
G1 X138.63 Y146.90 E107.74135
G1 X138.63 Y149.08 E107.84396
G1 X140.27 Y149.08 E107.92144
G1 X140.73 Y150.57 E107.99517
G1 X141.66 Y152.31 E108.08785
G1 X142.91 Y153.83 E108.18072
G1 X144.43 Y155.08 E108.27360
G1 X146.16 Y156.01 E108.36630
G1 X148.04 Y156.58 E108.45901
G1 X150.00 Y156.77 E108.55184
G1 X151.96 Y156.58 E108.64466
G1 X153.84 Y156.01 E108.73737
G1 X155.57 Y155.08 E108.83003
G1 X157.10 Y153.83 E108.92294
G1 X158.35 Y152.31 E109.01582
G1 X159.27 Y150.57 E109.10848
G1 X159.73 Y149.08 E109.18220
G1 X161.37 Y149.08 E109.25968
G1 X161.37 Y146.90 E109.36229
G1 X160.05 Y146.90 E109.42440
G1 X159.91 Y145.41 E109.49529
G1 X161.47 Y144.47 E109.58123
G1 X163.58 Y144.46 E109.68092
G1 X163.81 Y146.74 E109.78863
G1 X163.69 Y147.88 E109.84307
G1 X163.90 Y147.82 E109.85317
G1 X164.70 Y147.74 E109.89104
G1 X165.50 Y147.82 E109.92893
G1 X166.27 Y148.05 E109.96694
G1 X166.98 Y148.43 E110.00485
G1 X167.60 Y148.94 E110.04274
G1 X168.11 Y149.56 E110.08073
G1 X168.49 Y150.27 E110.11865
G1 X168.72 Y151.04 E110.15655
G1 X168.80 Y151.84 E110.19442
G1 X168.73 Y152.64 E110.23232
G1 X168.49 Y153.41 E110.27030
G1 X168.12 Y154.12 E110.30824
G1 X167.60 Y154.74 E110.34616
G1 X166.99 Y155.25 E110.38401
G1 X166.28 Y155.63 E110.42199
G1 X165.50 Y155.87 E110.45994
G1 X164.71 Y155.95 E110.49775
G1 X163.91 Y155.87 E110.53565
G1 X163.13 Y155.64 E110.57369
G1 X162.43 Y155.26 E110.61164
G1 X161.80 Y154.75 E110.64951
G1 X161.50 Y154.37 E110.67238
G1 X161.48 Y154.40 E110.67399
G1 X159.77 Y156.48 E110.80084
G1 X157.68 Y158.20 E110.92842
G1 X155.30 Y159.48 E111.05608
G1 X152.71 Y160.27 E111.18365
G1 X150.09 Y160.53 E111.30753
G1 X150.01 Y160.54 E111.31148
G1 X147.37 Y160.28 E111.43662
G1 X147.30 Y160.27 E111.44014
G1 X144.73 Y159.49 E111.56645
G1 X142.34 Y158.22 E111.69410
G1 X140.25 Y156.51 E111.82171
G1 X138.53 Y154.42 E111.94929
G1 X137.25 Y152.03 E112.07695
G1 X136.47 Y149.44 E112.20451
G1 X136.20 Y146.81 E112.32953
G1 X136.20 Y146.72 E112.33350
G1 X136.42 Y144.46 E112.44046
G0 F12000 X136.78 Y144.86
G1 F2700 X138.41 Y144.86 E112.51742
G1 X139.67 Y145.62 E112.58663
G1 X139.59 Y146.50 E112.62847
G1 X138.23 Y146.50 E112.69232
G1 X138.23 Y149.48 E112.83266
G1 X139.98 Y149.48 E112.91500
G1 X140.36 Y150.73 E112.97664
G1 X141.32 Y152.53 E113.07293
G1 X142.62 Y154.12 E113.16960
G1 X144.21 Y155.41 E113.26627
G1 X146.01 Y156.38 E113.36257
G1 X147.96 Y156.97 E113.45897
G1 X150.00 Y157.17 E113.55559
G1 X152.04 Y156.97 E113.65220
G1 X154.00 Y156.38 E113.74860
G1 X155.80 Y155.41 E113.84487
G1 X157.38 Y154.12 E113.94154
G1 X158.68 Y152.53 E114.03823
G1 X159.65 Y150.73 E114.13450
G1 X160.02 Y149.48 E114.19614
G1 X161.77 Y149.48 E114.27848
G1 X161.77 Y146.50 E114.41882
G1 X160.42 Y146.50 E114.48267
G1 X160.33 Y145.62 E114.52451
G1 X161.58 Y144.87 E114.59330
G1 X163.22 Y144.86 E114.67064
G1 X163.40 Y146.74 E114.75935
G1 X163.24 Y148.45 E114.84075
G1 X163.28 Y148.43 E114.84343
G1 X163.98 Y148.22 E114.87754
G1 X164.70 Y148.15 E114.91170
G1 X165.42 Y148.21 E114.94586
G1 X166.12 Y148.43 E114.98015
G1 X166.75 Y148.77 E115.01435
G1 X167.31 Y149.23 E115.04852
G1 X167.78 Y149.79 E115.08276
G1 X168.12 Y150.43 E115.11698
G1 X168.33 Y151.12 E115.15118
G1 X168.40 Y151.84 E115.18535
G1 X168.33 Y152.56 E115.21951
G1 X168.12 Y153.26 E115.25380
G1 X167.78 Y153.90 E115.28799
G1 X167.32 Y154.46 E115.32220
G1 X166.76 Y154.92 E115.35637
G1 X166.12 Y155.26 E115.39061
G1 X165.43 Y155.47 E115.42486
G1 X164.71 Y155.54 E115.45898
G1 X163.98 Y155.47 E115.49318
G1 X163.29 Y155.26 E115.52746
G1 X162.65 Y154.92 E115.56168
G1 X162.09 Y154.46 E115.59586
G1 X161.63 Y153.90 E115.63006
G1 X161.46 Y153.59 E115.64674
G1 X161.15 Y154.18 E115.67822
G1 X159.49 Y156.20 E115.80135
G1 X157.46 Y157.87 E115.92525
G1 X155.14 Y159.11 E116.04918
G1 X152.63 Y159.88 E116.17305
G1 X150.04 Y160.13 E116.29598
G1 X150.00 Y160.14 E116.29745
G1 X147.42 Y159.88 E116.42008
G1 X147.38 Y159.88 E116.42174
G1 X144.89 Y159.12 E116.54470
G1 X142.57 Y157.88 E116.66864
G1 X140.53 Y156.22 E116.79253
G1 X138.87 Y154.19 E116.91639
G1 X137.62 Y151.88 E117.04031
G1 X136.86 Y149.36 E117.16418
G1 X136.60 Y146.77 E117.28720
G1 X136.60 Y146.72 E117.28929
G1 X136.78 Y144.86 E117.37743
G1 F2400 E116.17743
G0 F12000 X138.51 Y150.68
;TYPE:WALL-INNER
G1 F2400 E117.37743
G1 F2700 X139.09 Y150.68 E117.40450
G1 X139.24 Y151.19 E117.42973
G1 X140.32 Y153.20 E117.53734
G1 X141.77 Y154.97 E117.64497
G1 X143.53 Y156.42 E117.75263
G1 X145.54 Y157.49 E117.86024
G1 X147.73 Y158.16 E117.96789
G1 X150.00 Y158.38 E118.07555
G1 X152.27 Y158.16 E118.18320
G1 X154.46 Y157.49 E118.29085
G1 X156.47 Y156.41 E118.39844
G1 X158.23 Y154.97 E118.50603
G1 X159.68 Y153.20 E118.61372
G1 X160.76 Y151.19 E118.72132
G1 X160.91 Y150.68 E118.74654
G1 X162.97 Y150.68 E118.84355
G1 X162.97 Y149.96 E118.87769
G1 X163.75 Y149.54 E118.91912
G1 X164.22 Y149.40 E118.94229
G1 X164.70 Y149.35 E118.96532
G1 X165.18 Y149.40 E118.98811
G1 X165.65 Y149.54 E119.01138
G1 X166.09 Y149.77 E119.03456
G1 X166.46 Y150.08 E119.05735
G1 X166.78 Y150.46 E119.08067
G1 X167.00 Y150.88 E119.10343
G1 X167.15 Y151.36 E119.12685
G1 X167.20 Y151.84 E119.14979
G1 X167.15 Y152.33 E119.17271
G1 X167.01 Y152.79 E119.19573
G1 X166.78 Y153.23 E119.21902
G1 X166.47 Y153.60 E119.24177
G1 X166.09 Y153.92 E119.26499
G1 X165.66 Y154.15 E119.28809
G1 X165.19 Y154.29 E119.31126
G1 X164.71 Y154.34 E119.33400
G1 X164.21 Y154.29 E119.35745
G1 X163.75 Y154.15 E119.38026
G1 X163.32 Y153.92 E119.40340
G1 X162.94 Y153.61 E119.42635
G1 X162.63 Y153.23 E119.44956
G1 X162.39 Y152.79 E119.47306
G1 X162.20 Y152.22 E119.50141
G1 X160.89 Y152.11 E119.56350
G1 X160.14 Y153.51 E119.63823
G1 X158.63 Y155.35 E119.75057
G1 X156.79 Y156.87 E119.86307
G1 X154.68 Y158.00 E119.97582
G1 X152.39 Y158.69 E120.08872
G1 X150.00 Y158.93 E120.20212
G1 X147.62 Y158.70 E120.31466
G1 X145.34 Y158.01 E120.42696
G1 X143.24 Y156.88 E120.53957
G1 X141.38 Y155.37 E120.65247
G1 X139.87 Y153.52 E120.76504
G1 X138.74 Y151.42 E120.87779
G1 X138.51 Y150.68 E120.91413
G0 F12000 X137.97 Y150.28
G1 F2700 X139.38 Y150.28 E120.98062
G1 X139.61 Y151.04 E121.01797
G1 X140.65 Y152.98 E121.12190
G1 X142.05 Y154.68 E121.22580
G1 X143.75 Y156.08 E121.32970
G1 X145.70 Y157.12 E121.43365
G1 X147.81 Y157.76 E121.53754
G1 X150.00 Y157.98 E121.64150
G1 X152.19 Y157.76 E121.74546
G1 X154.30 Y157.12 E121.84935
G1 X156.25 Y156.08 E121.95325
G1 X157.95 Y154.68 E122.05716
G1 X159.35 Y152.98 E122.16109
G1 X160.39 Y151.04 E122.26499
G1 X160.62 Y150.28 E122.30234
G1 X162.57 Y150.28 E122.39444
G1 X162.57 Y149.24 E122.44339
G1 X162.97 Y149.50 E122.46580
G1 X163.59 Y149.17 E122.49934
G1 X164.13 Y149.00 E122.52610
G1 X164.70 Y148.95 E122.55287
G1 X165.26 Y149.00 E122.57954
G1 X165.81 Y149.17 E122.60626
G1 X166.31 Y149.44 E122.63313
G1 X166.75 Y149.79 E122.65991
G1 X167.11 Y150.24 E122.68681
G1 X167.38 Y150.73 E122.71343
G1 X167.54 Y151.28 E122.74030
G1 X167.60 Y151.84 E122.76698
G1 X167.54 Y152.41 E122.79374
G1 X167.38 Y152.95 E122.82045
G1 X167.11 Y153.45 E122.84749
G1 X166.75 Y153.89 E122.87396
G1 X166.31 Y154.25 E122.90096
G1 X165.81 Y154.52 E122.92765
G1 X165.27 Y154.69 E122.95452
G1 X164.70 Y154.74 E122.98124
G1 X164.14 Y154.69 E123.00795
G1 X163.60 Y154.52 E123.03476
G1 X163.10 Y154.26 E123.06143
G1 X162.66 Y153.89 E123.08840
G1 X162.29 Y153.46 E123.11520
G1 X162.02 Y152.95 E123.14224
G1 X161.91 Y152.60 E123.15969
G1 X161.12 Y152.53 E123.19693
G1 X160.48 Y153.73 E123.26109
G1 X158.92 Y155.63 E123.37712
G1 X157.01 Y157.20 E123.49324
G1 X154.83 Y158.37 E123.61000
G1 X152.47 Y159.09 E123.72638
G1 X150.00 Y159.33 E123.84363
G1 X147.54 Y159.09 E123.95986
G1 X145.19 Y158.38 E124.07576
G1 X143.01 Y157.22 E124.19221
G1 X141.10 Y155.65 E124.30873
G1 X139.54 Y153.75 E124.42494
G1 X138.37 Y151.57 E124.54170
G1 X137.97 Y150.28 E124.60519
G1 F2400 E123.40519
G0 F12000 X137.43 Y147.03
G1 F2400 E124.60519
G1 F2700 X137.40 Y146.73 E124.61964
G1 X137.43 Y146.42 E124.63405
G1 X137.43 Y147.03 E124.66277
G0 F12000 X137.50 Y145.70
G1 F2700 X137.51 Y145.66 E124.66461
G1 X138.19 Y145.66 E124.69701
G1 X138.26 Y145.70 E124.70059
G1 X137.50 Y145.70 E124.73624
G1 F2400 E123.53624
G0 F12000 X161.74 Y145.70
G1 F2400 E124.73624
G1 F2700 X161.80 Y145.67 E124.73947
G1 X162.50 Y145.67 E124.77215
G1 X162.50 Y145.70 E124.77390
G1 X161.74 Y145.70 E124.80951
G0 F12000 X162.57 Y146.43
G1 F2700 X162.60 Y146.74 E124.82400
G1 X162.57 Y147.04 E124.83855
G1 X162.57 Y146.43 E124.86746
G0 F12000 X162.17 Y146.10
;TYPE:WALL-OUTER
G1 F2700 X160.78 Y146.10 E124.93310
G1 X160.75 Y145.83 E124.94594
G1 X161.69 Y145.27 E124.99760
G1 X162.86 Y145.26 E125.05263
G1 X163.00 Y146.73 E125.12219
G1 X162.79 Y148.91 E125.22516
G1 X162.99 Y149.04 E125.23649
G1 X163.44 Y148.80 E125.26062
G1 X164.05 Y148.61 E125.29089
G1 X164.70 Y148.55 E125.32150
G1 X165.34 Y148.61 E125.35200
G1 X165.96 Y148.79 E125.38227
G1 X166.53 Y149.10 E125.41295
G1 X167.03 Y149.51 E125.44361
G1 X167.44 Y150.01 E125.47399
G1 X167.75 Y150.58 E125.50441
G1 X167.94 Y151.20 E125.53483
G1 X168.00 Y151.84 E125.56539
G1 X167.94 Y152.49 E125.59595
G1 X167.75 Y153.10 E125.62625
G1 X167.44 Y153.68 E125.65707
G1 X167.04 Y154.17 E125.68739
G1 X166.54 Y154.59 E125.71790
G1 X165.97 Y154.89 E125.74839
G1 X165.35 Y155.08 E125.77880
G1 X164.71 Y155.14 E125.80937
G1 X164.06 Y155.08 E125.83992
G1 X163.44 Y154.89 E125.87041
G1 X162.88 Y154.59 E125.90069
G1 X162.37 Y154.18 E125.93155
G1 X161.96 Y153.68 E125.96189
G1 X161.66 Y153.11 E125.99229
G1 X161.61 Y152.97 E125.99906
G1 X161.35 Y152.95 E126.01146
G1 X160.81 Y153.95 E126.06498
G1 X159.20 Y155.92 E126.18480
G1 X157.24 Y157.53 E126.30471
G1 X154.99 Y158.74 E126.42509
G1 X152.55 Y159.48 E126.54504
G1 X150.00 Y159.74 E126.66622
G1 X147.47 Y159.49 E126.78620
G1 X145.04 Y158.75 E126.90569
G1 X142.79 Y157.55 E127.02573
G1 X140.82 Y155.93 E127.14627
G1 X139.20 Y153.97 E127.26614
G1 X138.00 Y151.72 E127.38652
G1 X137.25 Y149.29 E127.50646
G1 X137.00 Y146.73 E127.62768
G1 X137.14 Y145.26 E127.69715
G1 X138.30 Y145.26 E127.75186
G1 X139.25 Y145.83 E127.80389
G1 X139.22 Y146.10 E127.81673
G1 X137.83 Y146.10 E127.88237
G1 X137.83 Y149.88 E128.06044
G1 X139.68 Y149.88 E128.14768
G1 X139.99 Y150.88 E128.19715
G1 X140.99 Y152.76 E128.29738
G1 X142.34 Y154.40 E128.39756
G1 X143.98 Y155.75 E128.49775
G1 X145.85 Y156.75 E128.59800
G1 X147.89 Y157.37 E128.69819
G1 X150.00 Y157.57 E128.79841
G1 X152.12 Y157.37 E128.89863
G1 X154.15 Y156.75 E128.99881
G1 X156.02 Y155.75 E129.09902
G1 X157.66 Y154.40 E129.19921
G1 X159.01 Y152.76 E129.29942
G1 X160.02 Y150.88 E129.39963
G1 X160.32 Y149.88 E129.44910
G1 X162.17 Y149.88 E129.53634
G1 X162.17 Y146.10 E129.71440
G0 F12000 X162.47 Y146.10
G0 X162.40 Y149.09
G0 X162.97 Y149.47
G0 X163.62 Y149.76
;TYPE:FILL
G1 F2700 X166.78 Y152.92 E129.92501
G0 F12000 X166.56 Y153.27
G1 F2700 X163.25 Y149.96 E130.14559
G0 F12000 X163.11 Y150.38
G1 F2700 X166.29 Y153.57 E130.35800
G0 F12000 X165.98 Y153.82
G1 F2700 X162.98 Y150.82 E130.55793
G0 F12000 X162.41 Y150.82
G1 F2700 X165.61 Y154.01 E130.77108
G0 F12000 X165.18 Y154.15
G1 F2700 X161.85 Y150.82 E130.99309
G0 F12000 X161.28 Y150.82
G1 F2700 X164.66 Y154.19 E131.21803
G0 F12000 X163.97 Y154.07
G1 F2700 X162.46 Y152.56 E131.31860
G0 F12000 X161.96 Y152.06
G1 F2700 X160.95 Y151.05 E131.38623
G0 F12000 X160.78 Y151.44
G1 F2700 X161.06 Y152.01 E131.42375
G1 X160.48 Y152.00 E131.43713
G1 X160.49 Y152.57 E131.45051
G1 X160.09 Y152.74 E131.46388
G1 X160.09 Y153.30 E131.47727
G1 X159.66 Y153.44 E131.49008
G1 X159.60 Y153.94 E131.50292
G1 X159.15 Y154.06 E131.51570
G1 X159.09 Y154.57 E131.52851
G1 X158.64 Y154.68 E131.54129
G1 X158.57 Y155.18 E131.55410
G1 X158.09 Y155.26 E131.56674
G1 X157.97 Y155.71 E131.57945
G1 X157.47 Y155.77 E131.59216
G1 X157.35 Y156.22 E131.60492
G1 X156.85 Y156.28 E131.61762
G1 X156.72 Y156.72 E131.63035
G1 X156.17 Y156.73 E131.64343
G1 X156.00 Y157.13 E131.65660
G1 X155.43 Y157.13 E131.66977
G1 X155.26 Y157.52 E131.68302
G1 X154.69 Y157.52 E131.69628
G1 X154.50 Y157.89 E131.70955
G1 X153.97 Y157.93 E131.72378
G1 X153.53 Y158.06 E131.73811
G1 X153.10 Y158.19 E131.75247
G1 X152.66 Y158.32 E131.76686
G1 X152.21 Y158.43 E131.78117
G1 X151.70 Y158.49 E131.79744
G1 X151.18 Y158.54 E131.81373
G1 X150.67 Y158.59 E131.83002
G1 X150.15 Y158.64 E131.84634
G1 X149.56 Y158.61 E131.86611
G1 X148.93 Y158.55 E131.88619
G1 X148.30 Y158.49 E131.90632
G1 X147.66 Y158.41 E131.92643
G1 X146.87 Y158.18 E131.95342
G1 X146.05 Y157.93 E131.98044
G1 X145.42 Y157.58 E132.01461
G0 F12000 X144.86 Y157.59
G1 F2700 X144.21 Y156.93 E132.05850
G0 F12000 X143.65 Y156.94
G1 F2700 X142.26 Y155.55 E132.15139
G0 F12000 X141.18 Y154.48
G1 F2700 X139.79 Y153.09 E132.24403
G0 F12000 X139.80 Y152.53
G1 F2700 X139.14 Y151.87 E132.28804
G0 F12000 X139.15 Y151.31
G1 F2700 X138.72 Y150.88 E132.31645
G1 F2400 E131.11645
G0 F12000 X137.63 Y149.23
G1 F2400 E132.31645
G1 F2700 X137.53 Y148.84 E132.32999
G1 X137.50 Y148.25 E132.34768
G1 X137.47 Y147.65 E132.36953
G1 X137.32 Y147.22 E132.39115
G1 F2400 E131.19115
G0 F12000 X164.03 Y149.60
G1 F2400 E132.39115
G1 F2700 X166.94 Y152.52 E132.58582
G0 F12000 X167.03 Y152.04
G1 F2700 X164.50 Y149.51 E132.75475
G0 F12000 X165.08 Y149.53
G1 F2700 X167.02 Y151.46 E132.88369
G0 F12000 X166.65 Y150.52
G1 F2700 X166.02 Y149.90 E132.92557
;LAYER:1
G0 F12000 X166.08 Y149.76 Z0.60
;TYPE:WALL-INNER
G1 F3180 X166.46 Y150.07 E132.94858
G1 X166.77 Y150.45 E132.97163
G1 X167.01 Y150.88 E132.99474
G1 X167.15 Y151.35 E133.01758
G1 X167.20 Y151.84 E133.04103
G1 X167.15 Y152.33 E133.06405
G1 X167.01 Y152.79 E133.08667
G1 X166.78 Y153.23 E133.10977
G1 X166.47 Y153.60 E133.13274
G1 X166.09 Y153.92 E133.15593
G1 X165.66 Y154.15 E133.17885
G1 X165.20 Y154.29 E133.20182
G1 X164.70 Y154.34 E133.22541
G1 X164.21 Y154.29 E133.24828
G1 X163.75 Y154.16 E133.27095
G1 X163.32 Y153.93 E133.29391
G1 X162.94 Y153.61 E133.31707
G1 X162.63 Y153.24 E133.34005
G1 X162.40 Y152.81 E133.36305
G1 X162.24 Y152.24 E133.39066
G1 X160.90 Y152.10 E133.45391
G1 X160.15 Y153.51 E133.52920
G1 X158.62 Y155.36 E133.64183
G1 X156.81 Y156.85 E133.75222
G1 X154.67 Y158.01 E133.86678
G1 X152.42 Y158.69 E133.97715
G1 X150.00 Y158.93 E134.09180
G1 X147.63 Y158.70 E134.20387
G1 X145.37 Y158.02 E134.31458
G1 X143.22 Y156.88 E134.42903
G1 X141.37 Y155.36 E134.54193
G1 X139.88 Y153.55 E134.65198
G1 X138.73 Y151.40 E134.76675
G1 X138.51 Y150.68 E134.80233
G1 X139.09 Y150.68 E134.82970
G1 X139.25 Y151.19 E134.85497
G1 X140.32 Y153.20 E134.96230
G1 X141.77 Y154.97 E135.06961
G1 X143.53 Y156.41 E135.17693
G1 X145.55 Y157.49 E135.28434
G1 X147.73 Y158.15 E135.39161
G1 X150.00 Y158.38 E135.49900
G1 X152.27 Y158.15 E135.60639
G1 X154.46 Y157.49 E135.71372
G1 X156.47 Y156.41 E135.82102
G1 X158.23 Y154.97 E135.92831
G1 X159.68 Y153.20 E136.03569
G1 X160.76 Y151.19 E136.14306
G1 X160.91 Y150.68 E136.16828
G1 X162.97 Y150.68 E136.26495
G1 X162.97 Y149.95 E136.29891
G1 X163.74 Y149.54 E136.34037
G1 X164.21 Y149.40 E136.36313
G1 X164.71 Y149.35 E136.38668
G1 X165.19 Y149.39 E136.40941
G1 X165.65 Y149.53 E136.43222
G1 X166.08 Y149.76 E136.45528
G0 F12000 X166.30 Y149.43
G1 F3180 X166.74 Y149.79 E136.48196
G1 X167.11 Y150.23 E136.50879
G1 X167.38 Y150.73 E136.53547
G1 X167.54 Y151.27 E136.56228
G1 X167.60 Y151.84 E136.58933
G1 X167.54 Y152.41 E136.61609
G1 X167.38 Y152.95 E136.64238
G1 X167.12 Y153.44 E136.66889
G1 X166.75 Y153.89 E136.69590
G1 X166.32 Y154.25 E136.72253
G1 X165.82 Y154.52 E136.74924
G1 X165.27 Y154.69 E136.77609
G1 X164.70 Y154.74 E136.80318
G1 X164.13 Y154.69 E136.82989
G1 X163.60 Y154.53 E136.85603
G1 X163.10 Y154.26 E136.88299
G1 X162.66 Y153.90 E136.90960
G1 X162.30 Y153.46 E136.93636
G1 X162.03 Y152.96 E136.96336
G1 X161.93 Y152.61 E136.98024
G1 X161.12 Y152.53 E137.01813
G1 X160.48 Y153.73 E137.08251
G1 X158.91 Y155.65 E137.19921
G1 X157.04 Y157.18 E137.31295
G1 X154.82 Y158.38 E137.43119
G1 X152.50 Y159.08 E137.54529
G1 X149.99 Y159.34 E137.66387
G1 X147.55 Y159.09 E137.77957
G1 X145.22 Y158.39 E137.89393
G1 X143.00 Y157.21 E138.01210
G1 X141.09 Y155.64 E138.12857
G1 X139.55 Y153.77 E138.24257
G1 X138.36 Y151.56 E138.36066
G1 X137.97 Y150.28 E138.42358
G1 X139.39 Y150.28 E138.49019
G1 X139.62 Y151.04 E138.52749
G1 X140.66 Y152.98 E138.63114
G1 X142.05 Y154.68 E138.73478
G1 X143.76 Y156.08 E138.83842
G1 X145.70 Y157.12 E138.94208
G1 X147.81 Y157.76 E139.04571
G1 X150.00 Y157.97 E139.14937
G1 X152.19 Y157.76 E139.25302
G1 X154.30 Y157.12 E139.35665
G1 X156.25 Y156.08 E139.46027
G1 X157.95 Y154.68 E139.56392
G1 X159.35 Y152.98 E139.66759
G1 X160.38 Y151.04 E139.77121
G1 X160.62 Y150.28 E139.80852
G1 X162.57 Y150.28 E139.90038
G1 X162.57 Y149.24 E139.94930
G1 X162.97 Y149.50 E139.97176
G1 X163.59 Y149.17 E140.00515
G1 X164.13 Y149.00 E140.03151
G1 X164.70 Y148.95 E140.05879
G1 X165.27 Y149.00 E140.08535
G1 X165.80 Y149.16 E140.11180
G1 X166.30 Y149.43 E140.13842
G0 F12000 X162.97 Y149.47
G0 X162.40 Y149.09
G0 X162.57 Y147.08
G1 F3180 X162.57 Y146.39 E140.17102
G1 X162.60 Y146.74 E140.18738
G1 X162.57 Y147.08 E140.20378
G0 F12000 X162.50 Y145.71
G1 F3180 X161.74 Y145.71 E140.23967
G1 X161.81 Y145.66 E140.24361
G1 X162.50 Y145.66 E140.27593
G1 X162.50 Y145.71 E140.27796
G1 F2400 E139.07796
G0 F12000 X138.26 Y145.71
G1 F2400 E140.27796
G1 F3180 X137.50 Y145.71 E140.31385
G1 X137.50 Y145.66 E140.31588
G1 X138.19 Y145.66 E140.34820
G1 X138.26 Y145.71 E140.35214
G0 F12000 X137.43 Y146.39
G1 F3180 X137.43 Y147.06 E140.38366
G1 X137.40 Y146.73 E140.39926
G1 X137.43 Y146.39 E140.41534
G0 F12000 X137.83 Y146.10
;TYPE:WALL-OUTER
G1 F3180 X137.83 Y149.88 E140.59286
G1 X139.68 Y149.88 E140.67988
G1 X139.99 Y150.88 E140.72927
G1 X140.99 Y152.76 E140.82922
G1 X142.34 Y154.40 E140.92915
G1 X143.98 Y155.75 E141.02908
G1 X145.85 Y156.75 E141.12904
G1 X147.89 Y157.37 E141.22898
G1 X150.00 Y157.57 E141.32895
G1 X152.12 Y157.37 E141.42891
G1 X154.15 Y156.75 E141.52885
G1 X156.02 Y155.75 E141.62877
G1 X157.66 Y154.40 E141.72870
G1 X159.01 Y152.76 E141.82867
G1 X160.01 Y150.88 E141.92858
G1 X160.32 Y149.88 E141.97797
G1 X162.17 Y149.88 E142.06500
G1 X162.17 Y146.10 E142.24252
G1 X160.78 Y146.10 E142.30800
G1 X160.75 Y145.83 E142.32086
G1 X161.70 Y145.26 E142.37283
G1 X162.86 Y145.26 E142.42744
G1 X163.00 Y146.74 E142.49702
G1 X162.79 Y148.91 E142.59959
G1 X162.99 Y149.04 E142.61085
G1 X163.44 Y148.79 E142.63511
G1 X164.05 Y148.61 E142.66485
G1 X164.70 Y148.54 E142.69582
G1 X165.35 Y148.61 E142.72621
G1 X165.95 Y148.79 E142.75611
G1 X166.53 Y149.10 E142.78662
G1 X167.03 Y149.51 E142.81704
G1 X167.44 Y150.00 E142.84751
G1 X167.75 Y150.57 E142.87788
G1 X167.94 Y151.19 E142.90823
G1 X168.00 Y151.84 E142.93916
G1 X167.94 Y152.49 E142.96965
G1 X167.75 Y153.10 E142.99948
G1 X167.45 Y153.67 E143.02999
G1 X167.04 Y154.17 E143.06045
G1 X166.54 Y154.58 E143.09085
G1 X165.97 Y154.89 E143.12124
G1 X165.35 Y155.08 E143.15164
G1 X164.70 Y155.14 E143.18256
G1 X164.06 Y155.08 E143.21300
G1 X163.45 Y154.90 E143.24288
G1 X162.88 Y154.59 E143.27341
G1 X162.38 Y154.18 E143.30383
G1 X161.96 Y153.69 E143.33427
G1 X161.65 Y153.11 E143.36514
G1 X161.62 Y152.98 E143.37136
G1 X161.35 Y152.95 E143.38394
G1 X160.81 Y153.96 E143.43777
G1 X159.21 Y155.91 E143.55642
G1 X159.19 Y155.93 E143.55756
G1 X157.26 Y157.52 E143.67544
G1 X154.98 Y158.75 E143.79732
G1 X152.58 Y159.47 E143.91501
G1 X150.02 Y159.73 E144.03595
G1 X150.00 Y159.74 E144.03718
G1 X147.49 Y159.49 E144.15567
G1 X147.46 Y159.49 E144.15704
G1 X145.07 Y158.76 E144.27464
G1 X142.80 Y157.56 E144.39560
G1 X140.82 Y155.94 E144.51550
G1 X140.81 Y155.93 E144.51664
G1 X139.22 Y153.99 E144.63448
G1 X137.99 Y151.71 E144.75636
G1 X137.26 Y149.32 E144.87404
G1 X137.00 Y146.76 E144.99499
G1 X137.00 Y146.73 E144.99617
G1 X137.14 Y145.26 E145.06565
G1 X138.30 Y145.26 E145.12027
G1 X139.25 Y145.83 E145.17223
G1 X139.22 Y146.10 E145.18509
G1 X137.83 Y146.10 E145.25057
G0 F12000 X137.44 Y147.24
;TYPE:FILL
G1 F3180 X137.45 Y147.51 E145.26191
G1 X137.47 Y148.04 E145.28268
G1 X137.50 Y148.58 E145.30001
G1 X137.53 Y149.12 E145.31386
G1 X137.50 Y149.43 E145.32839
G1 F2400 E144.12839
G0 F12000 X138.94 Y150.81
G1 F2400 E145.32839
G1 F3180 X138.93 Y151.11 E145.34065
G1 X139.00 Y151.60 E145.35448
G1 X139.40 Y151.77 E145.36799
G1 X139.39 Y152.34 E145.38132
G1 X139.79 Y152.50 E145.39465
G1 X139.79 Y153.07 E145.40789
G1 X140.19 Y153.23 E145.42110
G1 X140.23 Y153.75 E145.43418
G1 X140.68 Y153.86 E145.44722
G1 X140.74 Y154.37 E145.46034
G1 X141.19 Y154.48 E145.47347
G1 X141.25 Y154.99 E145.48652
G1 X141.72 Y155.09 E145.49969
G1 X141.82 Y155.55 E145.51285
G1 X142.33 Y155.60 E145.52598
G1 X142.44 Y156.06 E145.53905
G1 X142.95 Y156.11 E145.55216
G1 X143.06 Y156.56 E145.56516
G1 X143.59 Y156.60 E145.57820
G1 X143.75 Y157.00 E145.59179
G1 X144.33 Y156.99 E145.60526
G1 X144.49 Y157.39 E145.61868
G1 X145.06 Y157.39 E145.63198
G1 X145.23 Y157.78 E145.64532
G1 X145.74 Y157.84 E145.65996
G1 X146.17 Y157.97 E145.67478
G1 X146.61 Y158.10 E145.68961
G1 X147.04 Y158.23 E145.70436
G1 X147.47 Y158.36 E145.71919
G1 X147.95 Y158.45 E145.73517
G1 X148.46 Y158.50 E145.75203
G1 X148.97 Y158.55 E145.76890
G1 X149.49 Y158.60 E145.78582
G1 X150.02 Y158.64 E145.80270
G1 X150.63 Y158.59 E145.82315
G1 X151.26 Y158.53 E145.84347
G1 X151.88 Y158.46 E145.86360
G1 X152.56 Y158.35 E145.88445
G1 X153.37 Y158.11 E145.91213
G1 X154.18 Y157.86 E145.93968
G1 X154.93 Y157.39 E145.98156
G0 F12000 X155.48 Y157.41
G1 F3180 X156.15 Y156.74 E146.02573
G0 F12000 X156.71 Y156.75
G1 F3180 X160.03 Y153.42 E146.24715
G0 F12000 X160.01 Y152.88
G1 F3180 X160.68 Y152.21 E146.29179
G0 F12000 X160.93 Y151.96
G1 F3180 X162.07 Y150.81 E146.36809
G0 F12000 X162.64 Y150.81
G1 F3180 X161.44 Y152.02 E146.44802
G0 F12000 X161.94 Y152.07
G1 F3180 X164.51 Y149.51 E146.61862
G0 F12000 X165.06 Y149.52
G1 F3180 X162.37 Y152.21 E146.79747
G0 F12000 X162.50 Y152.65
G1 F3180 X165.51 Y149.64 E146.99774
G0 F12000 X165.89 Y149.82
G1 F3180 X162.68 Y153.03 E147.21138
G0 F12000 X162.91 Y153.36
G1 F3180 X166.22 Y150.06 E147.43127
G0 F12000 X166.50 Y150.34
G1 F3180 X163.20 Y153.64 E147.65100
G0 F12000 X163.53 Y153.88
G1 F3180 X166.73 Y150.67 E147.86427
G0 F12000 X166.91 Y151.06
G1 F3180 X163.91 Y154.06 E148.06397
G0 F12000 X164.36 Y154.17
G1 F3180 X167.02 Y151.51 E148.24099
G0 F12000 X167.04 Y152.06
G1 F3180 X164.92 Y154.18 E148.38199
G0 F12000 X165.68 Y153.98
G1 F3180 X166.83 Y152.82 E148.45902
G0 F12000 X163.77 Y149.68
G1 F3180 X163.11 Y150.35 E148.50339
G0 F12000 X161.51 Y150.81
G1 F3180 X160.66 Y151.66 E148.55984
;LAYER:2
G0 F12000 X160.76 Y151.19 Z0.90
;TYPE:WALL-INNER
G1 F3720 X160.91 Y150.68 E148.58506
G1 X162.97 Y150.68 E148.68173
G1 X162.97 Y149.95 E148.71569
G1 X163.74 Y149.54 E148.75715
G1 X164.20 Y149.40 E148.77957
G1 X164.71 Y149.35 E148.80364
G1 X165.19 Y149.39 E148.82614
G1 X165.64 Y149.53 E148.84870
G1 X166.09 Y149.77 E148.87243
G1 X166.47 Y150.08 E148.89556
G1 X166.77 Y150.45 E148.91779
G1 X167.01 Y150.89 E148.94171
G1 X167.15 Y151.34 E148.96374
G1 X167.20 Y151.85 E148.98786
G1 X167.15 Y152.33 E149.01045
G1 X167.01 Y152.79 E149.03287
G1 X166.78 Y153.23 E149.05664
G1 X166.47 Y153.61 E149.07973
G1 X166.10 Y153.91 E149.10196
G1 X165.65 Y154.15 E149.12595
G1 X165.21 Y154.29 E149.14793
G1 X164.69 Y154.34 E149.17204
G1 X164.22 Y154.29 E149.19468
G1 X163.76 Y154.16 E149.21718
G1 X163.31 Y153.92 E149.24077
G1 X162.95 Y153.62 E149.26323
G1 X162.63 Y153.24 E149.28638
G1 X162.40 Y152.81 E149.30965
G1 X162.24 Y152.24 E149.33715
G1 X160.90 Y152.10 E149.40040
G1 X160.15 Y153.51 E149.47553
G1 X158.63 Y155.36 E149.58830
G1 X156.78 Y156.88 E149.70076
G1 X154.67 Y158.01 E149.81339
G1 X152.38 Y158.70 E149.92581
G1 X150.00 Y158.93 E150.03849
G1 X147.63 Y158.70 E150.15046
G1 X145.33 Y158.01 E150.26318
G1 X143.22 Y156.88 E150.37566
G1 X141.38 Y155.36 E150.48810
G1 X139.85 Y153.51 E150.60079
G1 X138.73 Y151.40 E150.71335
G1 X138.51 Y150.68 E150.74899
G1 X139.09 Y150.68 E150.77637
G1 X139.25 Y151.19 E150.80164
G1 X140.32 Y153.20 E150.90896
G1 X141.77 Y154.97 E151.01628
G1 X143.53 Y156.41 E151.12360
G1 X145.55 Y157.49 E151.23101
G1 X147.73 Y158.15 E151.33828
G1 X150.00 Y158.38 E151.44567
G1 X152.27 Y158.15 E151.55305
G1 X154.46 Y157.49 E151.66038
G1 X156.47 Y156.41 E151.76769
G1 X158.23 Y154.97 E151.87497
G1 X159.68 Y153.20 E151.98236
G1 X160.76 Y151.19 E152.08972
G0 F12000 X160.38 Y151.04
G1 F3720 X160.62 Y150.28 E152.12703
G1 X162.57 Y150.28 E152.21890
G1 X162.57 Y149.24 E152.26782
G1 X162.97 Y149.50 E152.29027
G1 X163.59 Y149.17 E152.32367
G1 X164.12 Y149.01 E152.34972
G1 X164.71 Y148.95 E152.37734
G1 X165.26 Y149.00 E152.40376
G1 X165.80 Y149.16 E152.42991
G1 X166.31 Y149.43 E152.45730
G1 X166.75 Y149.80 E152.48411
G1 X167.10 Y150.22 E152.51014
G1 X167.38 Y150.74 E152.53777
G1 X167.54 Y151.26 E152.56347
G1 X167.60 Y151.84 E152.59100
G1 X167.54 Y152.41 E152.61766
G1 X167.38 Y152.94 E152.64365
G1 X167.11 Y153.45 E152.67103
G1 X166.75 Y153.90 E152.69806
G1 X166.32 Y154.25 E152.72399
G1 X165.81 Y154.53 E152.75155
G1 X165.28 Y154.68 E152.77725
G1 X164.70 Y154.74 E152.80495
G1 X164.14 Y154.69 E152.83147
G1 X163.61 Y154.53 E152.85732
G1 X163.09 Y154.25 E152.88499
G1 X162.66 Y153.90 E152.91112
G1 X162.30 Y153.47 E152.93771
G1 X162.03 Y152.96 E152.96504
G1 X161.93 Y152.61 E152.98188
G1 X161.12 Y152.53 E153.01977
G1 X160.48 Y153.74 E153.08432
G1 X158.92 Y155.63 E153.19969
G1 X158.91 Y155.64 E153.20036
G1 X157.01 Y157.20 E153.31601
G1 X157.00 Y157.21 E153.31681
G1 X154.84 Y158.37 E153.43221
G1 X154.82 Y158.38 E153.43301
G1 X152.47 Y159.09 E153.54843
G1 X150.01 Y159.33 E153.66462
G1 X150.00 Y159.34 E153.66547
G1 X147.56 Y159.10 E153.78046
G1 X147.54 Y159.09 E153.78146
G1 X145.19 Y158.38 E153.89689
G1 X143.01 Y157.22 E154.01303
G1 X141.10 Y155.65 E154.12935
G1 X139.53 Y153.75 E154.24555
G1 X139.52 Y153.73 E154.24636
G1 X138.37 Y151.57 E154.36176
G1 X137.97 Y150.28 E154.42531
G1 X139.39 Y150.28 E154.49192
G1 X139.62 Y151.04 E154.52923
G1 X140.66 Y152.98 E154.63287
G1 X142.05 Y154.68 E154.73651
G1 X143.76 Y156.08 E154.84015
G1 X145.70 Y157.12 E154.94382
G1 X147.81 Y157.76 E155.04745
G1 X150.00 Y157.97 E155.15110
G1 X152.19 Y157.76 E155.25476
G1 X154.30 Y157.12 E155.35839
G1 X156.25 Y156.08 E155.46201
G1 X157.95 Y154.68 E155.56565
G1 X159.35 Y152.98 E155.66932
G1 X160.38 Y151.04 E155.77294
G0 F12000 X162.51 Y150.22
G0 X162.57 Y147.08
G1 F3720 X162.57 Y146.39 E155.80554
G1 X162.60 Y146.74 E155.82189
G1 X162.57 Y147.08 E155.83830
G0 F12000 X162.50 Y145.71
G1 F3720 X161.74 Y145.71 E155.87419
G1 X161.81 Y145.66 E155.87809
G1 X162.50 Y145.66 E155.91045
G1 X162.50 Y145.71 E155.91249
G1 F2400 E154.71249
G0 F12000 X138.26 Y145.71
G1 F2400 E155.91249
G1 F3720 X137.50 Y145.71 E155.94838
G1 X137.50 Y145.66 E155.95041
G1 X138.19 Y145.66 E155.98272
G1 X138.26 Y145.71 E155.98667
G0 F12000 X137.43 Y146.39
G1 F3720 X137.43 Y147.07 E156.01889
G1 X137.40 Y146.73 E156.03510
G1 X137.43 Y146.39 E156.05127
G0 F12000 X137.83 Y146.10
;TYPE:WALL-OUTER
G1 F3720 X137.83 Y149.88 E156.22880
G1 X139.68 Y149.88 E156.31582
G1 X139.99 Y150.88 E156.36521
G1 X140.99 Y152.76 E156.46515
G1 X142.34 Y154.40 E156.56508
G1 X143.98 Y155.75 E156.66501
G1 X145.85 Y156.75 E156.76497
G1 X147.89 Y157.37 E156.86491
G1 X150.00 Y157.57 E156.96488
G1 X152.12 Y157.37 E157.06485
G1 X154.15 Y156.75 E157.16479
G1 X156.02 Y155.75 E157.26471
G1 X157.66 Y154.40 E157.36464
G1 X159.01 Y152.76 E157.46460
G1 X160.01 Y150.88 E157.56452
G1 X160.32 Y149.88 E157.61391
G1 X162.17 Y149.88 E157.70093
G1 X162.17 Y146.10 E157.87846
G1 X160.78 Y146.10 E157.94393
G1 X160.75 Y145.83 E157.95679
G1 X161.70 Y145.26 E158.00880
G1 X162.86 Y145.26 E158.06337
G1 X163.00 Y146.74 E158.13294
G1 X162.79 Y148.91 E158.23551
G1 X162.99 Y149.04 E158.24677
G1 X163.44 Y148.79 E158.27104
G1 X164.04 Y148.61 E158.30044
G1 X164.71 Y148.54 E158.33188
G1 X165.34 Y148.61 E158.36204
G1 X165.95 Y148.79 E158.39168
G1 X166.53 Y149.10 E158.42285
G1 X167.04 Y149.51 E158.45356
G1 X167.44 Y150.00 E158.48316
G1 X167.75 Y150.59 E158.51446
G1 X167.93 Y151.18 E158.54380
G1 X168.00 Y151.85 E158.57525
G1 X167.94 Y152.49 E158.60546
G1 X167.76 Y153.09 E158.63504
G1 X167.45 Y153.67 E158.66610
G1 X167.03 Y154.18 E158.69694
G1 X166.55 Y154.58 E158.72638
G1 X165.96 Y154.90 E158.75781
G1 X165.36 Y155.08 E158.78715
G1 X164.70 Y155.14 E158.81860
G1 X164.06 Y155.08 E158.84880
G1 X163.46 Y154.90 E158.87843
G1 X162.87 Y154.59 E158.90961
G1 X162.38 Y154.19 E158.93943
G1 X161.97 Y153.69 E158.96989
G1 X161.65 Y153.10 E159.00108
G1 X161.62 Y152.98 E159.00724
G1 X161.35 Y152.95 E159.01982
G1 X160.81 Y153.96 E159.07366
G1 X159.19 Y155.93 E159.19341
G1 X157.23 Y157.54 E159.31320
G1 X154.97 Y158.75 E159.43343
G1 X152.59 Y159.47 E159.55057
G1 X152.54 Y159.49 E159.55313
G1 X150.06 Y159.73 E159.67043
G1 X150.00 Y159.74 E159.67308
G1 X147.52 Y159.49 E159.79025
G1 X147.46 Y159.49 E159.79295
G1 X145.08 Y158.76 E159.91015
G1 X145.03 Y158.75 E159.91262
G1 X142.78 Y157.54 E160.03282
G1 X140.81 Y155.93 E160.15261
G1 X139.19 Y153.96 E160.27236
G1 X137.99 Y151.71 E160.39259
G1 X137.26 Y149.32 E160.50972
G1 X137.25 Y149.27 E160.51228
G1 X137.00 Y146.79 E160.62959
G1 X137.00 Y146.73 E160.63219
G1 X137.14 Y145.26 E160.70172
G1 X138.30 Y145.26 E160.75634
G1 X139.25 Y145.83 E160.80830
G1 X139.22 Y146.10 E160.82116
G1 X137.83 Y146.10 E160.88664
G0 F12000 X137.38 Y147.26
;TYPE:FILL
G1 F3720 X137.46 Y147.62 E160.90337
G1 X137.50 Y148.22 E160.92571
G1 X137.53 Y148.81 E160.94390
G1 X137.63 Y149.20 E160.96283
G1 F2400 E159.76283
G0 F12000 X138.70 Y150.83
G1 F2400 E160.96283
G1 F3720 X139.12 Y151.25 E160.99087
G0 F12000 X139.10 Y151.79
G1 F3720 X139.77 Y152.47 E161.03568
G0 F12000 X139.74 Y153.00
G1 F3720 X141.06 Y154.33 E161.12362
G0 F12000 X142.41 Y155.67
G1 F3720 X143.72 Y156.99 E161.21123
G0 F12000 X144.27 Y156.96
G1 F3720 X144.94 Y157.63 E161.25590
G0 F12000 X145.48 Y157.61
G1 F3720 X146.09 Y157.94 E161.28385
G1 X146.91 Y158.19 E161.31140
G1 X147.69 Y158.41 E161.33893
G1 X148.33 Y158.49 E161.35940
G1 X148.96 Y158.55 E161.37987
G1 X149.58 Y158.61 E161.40038
G1 X150.17 Y158.64 E161.42015
G1 X150.69 Y158.59 E161.43696
G1 X151.20 Y158.53 E161.45376
G1 X151.71 Y158.49 E161.47057
G1 X152.22 Y158.43 E161.48738
G1 X152.68 Y158.32 E161.50201
G1 X153.11 Y158.19 E161.51668
G1 X153.54 Y158.06 E161.53132
G1 X153.97 Y157.93 E161.54604
G1 X154.41 Y157.79 E161.56077
G1 X154.90 Y157.72 E161.57425
G1 X155.06 Y157.32 E161.58777
G1 X155.63 Y157.33 E161.60123
G1 X155.80 Y156.93 E161.61474
G1 X156.37 Y156.94 E161.62827
G1 X156.52 Y156.52 E161.64175
G1 X157.04 Y156.48 E161.65469
G1 X157.16 Y156.03 E161.66769
G1 X157.66 Y155.97 E161.68072
G1 X157.78 Y155.52 E161.69377
G1 X158.28 Y155.46 E161.70688
G1 X158.38 Y154.99 E161.71998
G1 X158.84 Y154.89 E161.73316
G1 X158.89 Y154.38 E161.74629
G1 X159.34 Y154.27 E161.75942
G1 X159.40 Y153.76 E161.77247
G1 X159.85 Y153.65 E161.78557
G1 X159.88 Y153.11 E161.79868
G1 X160.28 Y152.95 E161.81225
G1 X160.28 Y152.38 E161.82574
G1 X160.68 Y152.22 E161.83932
G1 X160.67 Y151.64 E161.85280
G1 X161.31 Y152.00 E161.88743
G0 F12000 X161.94 Y152.07
G1 F3720 X160.94 Y151.06 E161.95442
G0 F12000 X161.25 Y150.81
G1 F3720 X164.63 Y154.19 E162.17916
G0 F12000 X165.16 Y154.15
G1 F3720 X161.82 Y150.81 E162.40125
G0 F12000 X162.38 Y150.81
G1 F3720 X165.59 Y154.03 E162.61479
G0 F12000 X165.96 Y153.83
G1 F3720 X162.95 Y150.81 E162.81519
G0 F12000 X163.11 Y150.41
G1 F3720 X166.28 Y153.58 E163.02624
G0 F12000 X166.55 Y153.29
G1 F3720 X163.23 Y149.97 E163.24706
G0 F12000 X163.60 Y149.77
G1 F3720 X166.77 Y152.95 E163.45808
G0 F12000 X166.94 Y152.55
G1 F3720 X164.00 Y149.61 E163.65392
G0 F12000 X164.47 Y149.51
G1 F3720 X167.03 Y152.08 E163.82492
G0 F12000 X167.02 Y151.51
G1 F3720 X165.04 Y149.52 E163.95700
G0 F12000 X165.92 Y149.84
G1 F3720 X166.71 Y150.63 E164.00949
G0 F12000 X163.94 Y154.06
G1 F3720 X162.49 Y152.61 E164.10615
;LAYER:3
G0 F12000 X162.40 Y152.81 Z1.20
;TYPE:WALL-INNER
G1 F4260 X162.24 Y152.24 E164.13374
G1 X160.90 Y152.10 E164.19699
G1 X160.15 Y153.51 E164.27211
G1 X158.63 Y155.36 E164.38451
G1 X156.78 Y156.88 E164.49708
G1 X154.67 Y158.00 E164.60958
G1 X152.38 Y158.70 E164.72237
G1 X150.00 Y158.93 E164.83471
G1 X147.63 Y158.70 E164.94696
G1 X145.33 Y158.00 E165.05983
G1 X143.23 Y156.88 E165.17189
G1 X141.38 Y155.36 E165.28457
G1 X139.86 Y153.51 E165.39710
G1 X138.73 Y151.41 E165.50956
G1 X138.51 Y150.68 E165.54551
G1 X139.09 Y150.68 E165.57289
G1 X139.25 Y151.19 E165.59816
G1 X140.32 Y153.20 E165.70548
G1 X141.77 Y154.97 E165.81280
G1 X143.53 Y156.41 E165.92011
G1 X145.55 Y157.49 E166.02752
G1 X147.73 Y158.15 E166.13480
G1 X150.00 Y158.38 E166.24218
G1 X152.27 Y158.15 E166.34957
G1 X154.46 Y157.49 E166.45690
G1 X156.47 Y156.41 E166.56421
G1 X158.23 Y154.97 E166.67149
G1 X159.68 Y153.20 E166.77887
G1 X160.76 Y151.19 E166.88624
G1 X160.91 Y150.68 E166.91146
G1 X162.97 Y150.68 E167.00813
G1 X162.97 Y149.95 E167.04209
G1 X163.74 Y149.54 E167.08355
G1 X164.22 Y149.39 E167.10681
G1 X164.71 Y149.35 E167.12992
G1 X165.18 Y149.39 E167.15246
G1 X165.66 Y149.54 E167.17572
G1 X166.07 Y149.76 E167.19783
G1 X166.47 Y150.08 E167.22211
G1 X166.77 Y150.44 E167.24393
G1 X167.00 Y150.87 E167.26708
G1 X167.15 Y151.36 E167.29111
G1 X167.20 Y151.84 E167.31395
G1 X167.15 Y152.33 E167.33677
G1 X167.01 Y152.80 E167.35987
G1 X166.79 Y153.21 E167.38205
G1 X166.47 Y153.61 E167.40623
G1 X166.09 Y153.92 E167.42912
G1 X165.67 Y154.14 E167.45124
G1 X165.18 Y154.29 E167.47537
G1 X164.70 Y154.34 E167.49834
G1 X164.22 Y154.30 E167.52102
G1 X163.75 Y154.15 E167.54422
G1 X163.33 Y153.93 E167.56619
G1 X162.93 Y153.61 E167.59060
G1 X162.62 Y153.23 E167.61326
G1 X162.40 Y152.81 E167.63603
G0 F12000 X162.03 Y152.96
G1 F4260 X161.93 Y152.61 E167.65291
G1 X161.12 Y152.53 E167.69080
G1 X160.48 Y153.74 E167.75534
G1 X158.94 Y155.61 E167.86928
G1 X158.91 Y155.65 E167.87155
G1 X157.03 Y157.18 E167.98562
G1 X157.00 Y157.21 E167.98783
G1 X154.86 Y158.35 E168.10185
G1 X154.82 Y158.38 E168.10403
G1 X152.46 Y159.09 E168.22010
G1 X150.04 Y159.33 E168.33429
G1 X150.00 Y159.34 E168.33651
G1 X147.59 Y159.10 E168.45013
G1 X147.54 Y159.09 E168.45250
G1 X145.18 Y158.38 E168.56872
G1 X143.04 Y157.23 E168.68269
G1 X143.00 Y157.21 E168.68512
G1 X141.13 Y155.67 E168.79892
G1 X141.09 Y155.64 E168.80123
G1 X139.55 Y153.77 E168.91523
G1 X139.52 Y153.73 E168.91744
G1 X138.38 Y151.59 E169.03146
G1 X138.36 Y151.55 E169.03364
G1 X137.97 Y150.28 E169.09641
G1 X139.39 Y150.28 E169.16302
G1 X139.62 Y151.04 E169.20032
G1 X140.66 Y152.98 E169.30397
G1 X142.05 Y154.68 E169.40761
G1 X143.76 Y156.08 E169.51125
G1 X145.70 Y157.12 E169.61492
G1 X147.81 Y157.76 E169.71854
G1 X150.00 Y157.97 E169.82220
G1 X152.19 Y157.76 E169.92586
G1 X154.30 Y157.12 E170.02948
G1 X156.25 Y156.08 E170.13310
G1 X157.95 Y154.68 E170.23675
G1 X159.35 Y152.98 E170.34042
G1 X160.38 Y151.04 E170.44404
G1 X160.62 Y150.28 E170.48135
G1 X162.57 Y150.28 E170.57321
G1 X162.57 Y149.24 E170.62213
G1 X162.97 Y149.50 E170.64459
G1 X163.59 Y149.17 E170.67799
G1 X164.14 Y149.00 E170.70492
G1 X164.71 Y148.95 E170.73176
G1 X165.26 Y149.00 E170.75804
G1 X165.81 Y149.17 E170.78488
G1 X166.29 Y149.42 E170.81064
G1 X166.75 Y149.80 E170.83857
G1 X167.10 Y150.22 E170.86430
G1 X167.37 Y150.72 E170.89096
G1 X167.54 Y151.28 E170.91860
G1 X167.60 Y151.85 E170.94555
G1 X167.55 Y152.41 E170.97192
G1 X167.38 Y152.95 E170.99860
G1 X167.12 Y153.44 E171.02457
G1 X166.75 Y153.90 E171.05233
G1 X166.31 Y154.26 E171.07907
G1 X165.83 Y154.51 E171.10468
G1 X165.26 Y154.69 E171.13264
G1 X164.70 Y154.74 E171.15934
G1 X164.14 Y154.69 E171.18571
G1 X163.59 Y154.52 E171.21250
G1 X163.11 Y154.27 E171.23815
G1 X162.65 Y153.89 E171.26620
G1 X162.29 Y153.46 E171.29277
G1 X162.03 Y152.96 E171.31937
G0 F12000 X162.51 Y150.22
G0 X162.57 Y147.08
G1 F4260 X162.57 Y146.39 E171.35197
G1 X162.60 Y146.74 E171.36832
G1 X162.57 Y147.08 E171.38472
G0 F12000 X162.50 Y145.71
G1 F4260 X161.74 Y145.71 E171.42061
G1 X161.81 Y145.66 E171.42452
G1 X162.50 Y145.66 E171.45688
G1 X162.50 Y145.71 E171.45891
G1 F2400 E170.25891
G0 F12000 X138.26 Y145.71
G1 F2400 E171.45891
G1 F4260 X137.50 Y145.71 E171.49480
G1 X137.50 Y145.66 E171.49684
G1 X138.19 Y145.66 E171.52915
G1 X138.26 Y145.71 E171.53310
G0 F12000 X137.43 Y146.39
G1 F4260 X137.43 Y147.07 E171.56522
G1 X137.40 Y146.73 E171.58134
G1 X137.43 Y146.39 E171.59751
G0 F12000 X137.83 Y146.10
;TYPE:WALL-OUTER
G1 F4260 X137.83 Y149.88 E171.77504
G1 X139.68 Y149.88 E171.86206
G1 X139.99 Y150.88 E171.91145
G1 X140.99 Y152.76 E172.01139
G1 X142.34 Y154.40 E172.11132
G1 X143.98 Y155.75 E172.21125
G1 X145.85 Y156.75 E172.31121
G1 X147.89 Y157.37 E172.41115
G1 X150.00 Y157.57 E172.51112
G1 X152.12 Y157.37 E172.61109
G1 X154.15 Y156.75 E172.71103
G1 X156.02 Y155.75 E172.81095
G1 X157.66 Y154.40 E172.91088
G1 X159.01 Y152.76 E173.01084
G1 X160.01 Y150.88 E173.11076
G1 X160.32 Y149.88 E173.16015
G1 X162.17 Y149.88 E173.24717
G1 X162.17 Y146.10 E173.42470
G1 X160.78 Y146.10 E173.49018
G1 X160.75 Y145.83 E173.50303
G1 X161.70 Y145.26 E173.55504
G1 X162.86 Y145.26 E173.60961
G1 X163.00 Y146.74 E173.67918
G1 X162.79 Y148.91 E173.78175
G1 X162.99 Y149.04 E173.79301
G1 X163.44 Y148.79 E173.81728
G1 X164.06 Y148.61 E173.84741
G1 X164.70 Y148.55 E173.87799
G1 X165.34 Y148.61 E173.90814
G1 X165.96 Y148.79 E173.93851
G1 X166.52 Y149.09 E173.96826
G1 X167.03 Y149.51 E173.99946
G1 X167.43 Y149.99 E174.02900
G1 X167.74 Y150.56 E174.05948
G1 X167.94 Y151.20 E174.09080
G1 X168.00 Y151.85 E174.12133
G1 X167.94 Y152.48 E174.15120
G1 X167.75 Y153.10 E174.18184
G1 X167.45 Y153.66 E174.21181
G1 X167.04 Y154.18 E174.24280
G1 X166.53 Y154.59 E174.27345
G1 X165.99 Y154.88 E174.30272
G1 X165.35 Y155.08 E174.33419
G1 X164.70 Y155.14 E174.36467
G1 X164.06 Y155.08 E174.39487
G1 X163.44 Y154.90 E174.42522
G1 X162.89 Y154.60 E174.45477
G1 X162.37 Y154.18 E174.48621
G1 X161.96 Y153.68 E174.51665
G1 X161.65 Y153.11 E174.54710
G1 X161.62 Y152.98 E174.55347
G1 X161.35 Y152.95 E174.56605
G1 X160.81 Y153.96 E174.61988
G1 X159.19 Y155.93 E174.73963
G1 X157.23 Y157.54 E174.85942
G1 X154.97 Y158.75 E174.97965
G1 X152.54 Y159.49 E175.09930
G1 X150.08 Y159.73 E175.21529
G1 X150.00 Y159.74 E175.21931
G1 X147.55 Y159.50 E175.33511
G1 X147.46 Y159.49 E175.33922
G1 X145.03 Y158.75 E175.45879
G1 X142.78 Y157.54 E175.57905
G1 X140.81 Y155.93 E175.69884
G1 X139.19 Y153.96 E175.81860
G1 X137.99 Y151.71 E175.93882
G1 X137.25 Y149.27 E176.05846
G1 X137.01 Y146.82 E176.17445
G1 X137.00 Y146.73 E176.17843
G1 X137.14 Y145.26 E176.24796
G1 X138.30 Y145.26 E176.30257
G1 X139.25 Y145.83 E176.35454
G1 X139.22 Y146.10 E176.36740
G1 X137.83 Y146.10 E176.43287
G0 F12000 X137.42 Y147.25
;TYPE:FILL
G1 F4260 X137.45 Y147.51 E176.44340
G1 X137.47 Y148.05 E176.46445
G1 X137.50 Y148.59 E176.48220
G1 X137.53 Y149.12 E176.49661
G1 X137.50 Y149.43 E176.51090
G1 F2400 E175.31090
G0 F12000 X141.35 Y154.68
G1 F2400 E176.51090
G1 F4260 X141.16 Y154.88 E176.52397
G0 F12000 X145.01 Y157.67
G1 F4260 X145.22 Y157.47 E176.53760
G0 F12000 X148.38 Y158.35
G1 F4260 X148.68 Y158.66 E176.55809
G0 F12000 X150.61 Y158.73
G1 F4260 X150.91 Y158.42 E176.57858
G0 F12000 X154.34 Y157.67
G1 F4260 X154.56 Y157.89 E176.59322
G0 F12000 X158.36 Y155.03
G1 F4260 X158.56 Y155.23 E176.60646
G0 F12000 X161.14 Y152.56
G0 X161.90 Y152.64
G0 X162.78 Y153.21
G1 F4260 X166.06 Y149.93 E176.82445
G0 F12000 X162.44 Y152.46
G1 F4260 X164.09 Y154.11 E176.93408
G0 F12000 X162.06 Y152.08
G1 F4260 X160.96 Y150.98 E177.00723
;LAYER:4
G0 F12000 X160.76 Y151.19 Z1.50
;TYPE:WALL-INNER
G1 F4800 X160.91 Y150.68 E177.03245
G1 X162.97 Y150.68 E177.12911
G1 X162.97 Y149.95 E177.16308
G1 X163.74 Y149.54 E177.20453
G1 X164.22 Y149.39 E177.22788
G1 X164.70 Y149.35 E177.25080
G1 X165.19 Y149.39 E177.27358
G1 X165.66 Y149.54 E177.29669
G1 X166.07 Y149.76 E177.31870
G1 X166.47 Y150.08 E177.34295
G1 X166.78 Y150.46 E177.36574
G1 X167.01 Y150.89 E177.38902
G1 X167.15 Y151.36 E177.41207
G1 X167.20 Y151.84 E177.43495
G1 X167.15 Y152.33 E177.45801
G1 X167.01 Y152.80 E177.48077
G1 X166.79 Y153.21 E177.50278
G1 X166.47 Y153.61 E177.52716
G1 X166.09 Y153.92 E177.55022
G1 X165.65 Y154.15 E177.57339
G1 X165.19 Y154.29 E177.59634
G1 X164.70 Y154.34 E177.61926
G1 X164.21 Y154.29 E177.64227
G1 X163.75 Y154.15 E177.66513
G1 X163.34 Y153.93 E177.68710
G1 X162.93 Y153.61 E177.71148
G1 X162.62 Y153.23 E177.73427
G1 X162.40 Y152.81 E177.75704
G1 X162.24 Y152.24 E177.78463
G1 X160.90 Y152.10 E177.84788
G1 X160.15 Y153.51 E177.92318
G1 X158.65 Y155.34 E178.03414
G1 X158.63 Y155.36 E178.03564
G1 X156.81 Y156.86 E178.14657
G1 X154.70 Y157.99 E178.25906
G1 X154.67 Y158.01 E178.26083
G1 X152.41 Y158.69 E178.37162
G1 X152.38 Y158.70 E178.37339
G1 X150.00 Y158.93 E178.48564
G1 X147.62 Y158.70 E178.59809
G1 X145.37 Y158.02 E178.70899
G1 X145.33 Y158.01 E178.71066
G1 X143.26 Y156.90 E178.82139
G1 X143.22 Y156.88 E178.82306
G1 X141.40 Y155.38 E178.93415
G1 X141.37 Y155.36 E178.93586
G1 X139.88 Y153.54 E179.04639
G1 X139.86 Y153.51 E179.04819
G1 X138.75 Y151.43 E179.15907
G1 X138.73 Y151.40 E179.16084
G1 X138.51 Y150.68 E179.19642
G1 X139.09 Y150.68 E179.22380
G1 X139.25 Y151.19 E179.24907
G1 X140.32 Y153.20 E179.35639
G1 X141.77 Y154.97 E179.46371
G1 X143.53 Y156.41 E179.57103
G1 X145.55 Y157.49 E179.67844
G1 X147.73 Y158.15 E179.78571
G1 X150.00 Y158.38 E179.89309
G1 X152.27 Y158.15 E180.00048
G1 X154.46 Y157.49 E180.10781
G1 X156.47 Y156.41 E180.21512
G1 X158.23 Y154.97 E180.32240
G1 X159.68 Y153.20 E180.42979
G1 X160.76 Y151.19 E180.53715
G0 F12000 X160.38 Y151.04
G1 F4800 X160.62 Y150.28 E180.57446
G1 X162.57 Y150.28 E180.66633
G1 X162.57 Y149.24 E180.71525
G1 X162.97 Y149.50 E180.73770
G1 X163.59 Y149.17 E180.77110
G1 X164.14 Y149.00 E180.79808
G1 X164.70 Y148.95 E180.82473
G1 X165.27 Y149.00 E180.85130
G1 X165.81 Y149.17 E180.87795
G1 X166.29 Y149.42 E180.90362
G1 X166.75 Y149.79 E180.93151
G1 X167.11 Y150.24 E180.95828
G1 X167.38 Y150.74 E180.98526
G1 X167.54 Y151.28 E181.01189
G1 X167.60 Y151.84 E181.03845
G1 X167.54 Y152.41 E181.06521
G1 X167.38 Y152.95 E181.09170
G1 X167.13 Y153.43 E181.11728
G1 X166.75 Y153.90 E181.14568
G1 X166.31 Y154.25 E181.17202
G1 X165.81 Y154.53 E181.19906
G1 X165.26 Y154.69 E181.22568
G1 X164.70 Y154.74 E181.25234
G1 X164.13 Y154.69 E181.27904
G1 X163.59 Y154.52 E181.30563
G1 X163.12 Y154.27 E181.33118
G1 X162.65 Y153.89 E181.35921
G1 X162.29 Y153.46 E181.38591
G1 X162.02 Y152.95 E181.41261
G1 X161.93 Y152.61 E181.42939
G1 X161.12 Y152.53 E181.46728
G1 X160.48 Y153.73 E181.53165
G1 X158.96 Y155.59 E181.64452
G1 X158.91 Y155.65 E181.64810
G1 X157.06 Y157.16 E181.76063
G1 X157.00 Y157.21 E181.76414
G1 X154.89 Y158.34 E181.87694
G1 X154.82 Y158.38 E181.88056
G1 X152.53 Y159.07 E181.99317
G1 X152.46 Y159.09 E181.99676
G1 X150.00 Y159.34 E182.11275
G1 X147.54 Y159.09 E182.22897
G1 X145.25 Y158.40 E182.34154
G1 X145.18 Y158.38 E182.34529
G1 X143.07 Y157.25 E182.45777
G1 X143.00 Y157.21 E182.46158
G1 X141.15 Y155.69 E182.57415
G1 X141.09 Y155.64 E182.57759
G1 X139.57 Y153.79 E182.69032
G1 X139.52 Y153.74 E182.69373
G1 X138.39 Y151.62 E182.80653
G1 X138.36 Y151.55 E182.81021
G1 X137.97 Y150.28 E182.87287
G1 X139.39 Y150.28 E182.93948
G1 X139.62 Y151.04 E182.97679
G1 X140.66 Y152.98 E183.08043
G1 X142.05 Y154.68 E183.18407
G1 X143.76 Y156.08 E183.28771
G1 X145.70 Y157.12 E183.39138
G1 X147.81 Y157.76 E183.49501
G1 X150.00 Y157.97 E183.59866
G1 X152.19 Y157.76 E183.70232
G1 X154.30 Y157.12 E183.80595
G1 X156.25 Y156.08 E183.90957
G1 X157.95 Y154.68 E184.01321
G1 X159.35 Y152.98 E184.11688
G1 X160.38 Y151.04 E184.22050
G0 F12000 X162.51 Y150.22
G0 X162.57 Y147.08
G1 F4800 X162.57 Y146.39 E184.25310
G1 X162.60 Y146.74 E184.26946
G1 X162.57 Y147.08 E184.28586
G0 F12000 X162.50 Y145.71
G1 F4800 X161.74 Y145.71 E184.32175
G1 X161.81 Y145.66 E184.32565
G1 X162.50 Y145.66 E184.35801
G1 X162.50 Y145.71 E184.36005
G1 F2400 E183.16005
G0 F12000 X138.26 Y145.71
G1 F2400 E184.36005
G1 F4800 X137.50 Y145.71 E184.39594
G1 X137.50 Y145.66 E184.39797
G1 X138.19 Y145.66 E184.43028
G1 X138.26 Y145.71 E184.43423
G0 F12000 X137.43 Y146.39
G1 F4800 X137.43 Y147.08 E184.46683
G1 X137.40 Y146.74 E184.48323
G1 X137.43 Y146.39 E184.49958
G0 F12000 X137.83 Y146.10
;TYPE:WALL-OUTER
G1 F4800 X137.83 Y149.88 E184.67711
G1 X139.68 Y149.88 E184.76413
G1 X139.99 Y150.88 E184.81352
G1 X140.99 Y152.76 E184.91346
G1 X142.34 Y154.40 E185.01339
G1 X143.98 Y155.75 E185.11333
G1 X145.85 Y156.75 E185.21329
G1 X147.89 Y157.37 E185.31322
G1 X150.00 Y157.57 E185.41319
G1 X152.12 Y157.37 E185.51316
G1 X154.15 Y156.75 E185.61310
G1 X156.02 Y155.75 E185.71302
G1 X157.66 Y154.40 E185.81295
G1 X159.01 Y152.76 E185.91291
G1 X160.01 Y150.88 E186.01283
G1 X160.32 Y149.88 E186.06222
G1 X162.17 Y149.88 E186.14924
G1 X162.17 Y146.10 E186.32677
G1 X160.78 Y146.10 E186.39225
G1 X160.75 Y145.83 E186.40510
G1 X161.70 Y145.26 E186.45711
G1 X162.86 Y145.26 E186.51168
G1 X163.00 Y146.74 E186.58125
G1 X162.79 Y148.91 E186.68382
G1 X162.99 Y149.04 E186.69508
G1 X163.44 Y148.79 E186.71935
G1 X164.05 Y148.61 E186.74918
G1 X164.69 Y148.55 E186.77958
G1 X164.70 Y148.54 E186.78006
G1 X165.34 Y148.61 E186.80993
G1 X165.35 Y148.61 E186.81045
G1 X165.95 Y148.79 E186.84024
G1 X166.51 Y149.09 E186.87006
G1 X167.03 Y149.51 E186.90126
G1 X167.44 Y150.01 E186.93200
G1 X167.75 Y150.58 E186.96218
G1 X167.94 Y151.19 E186.99253
G1 X168.00 Y151.84 E187.02337
G1 X167.94 Y152.49 E187.05385
G1 X167.75 Y153.09 E187.08359
G1 X167.46 Y153.66 E187.11340
G1 X167.03 Y154.18 E187.14507
G1 X166.54 Y154.59 E187.17532
G1 X165.97 Y154.89 E187.20556
G1 X165.35 Y155.08 E187.23592
G1 X164.71 Y155.14 E187.26627
G1 X164.70 Y155.14 E187.26674
G1 X164.07 Y155.08 E187.29666
G1 X164.06 Y155.08 E187.29718
G1 X163.45 Y154.90 E187.32711
G1 X162.89 Y154.60 E187.35680
G1 X162.37 Y154.18 E187.38807
G1 X161.96 Y153.68 E187.41871
G1 X161.66 Y153.11 E187.44889
G1 X161.62 Y152.98 E187.45552
G1 X161.35 Y152.95 E187.46811
G1 X160.81 Y153.96 E187.52194
G1 X159.19 Y155.93 E187.64169
G1 X157.23 Y157.54 E187.76148
G1 X154.97 Y158.75 E187.88171
G1 X152.54 Y159.49 E188.00136
G1 X150.00 Y159.74 E188.12127
G1 X147.46 Y159.49 E188.24123
G1 X145.03 Y158.75 E188.36084
G1 X142.78 Y157.54 E188.48111
G1 X140.81 Y155.93 E188.60090
G1 X139.19 Y153.96 E188.72065
G1 X137.99 Y151.71 E188.84088
G1 X137.25 Y149.27 E188.96047
G1 X137.00 Y146.74 E189.08044
G1 X137.14 Y145.26 E189.15001
G1 X138.30 Y145.26 E189.20463
G1 X139.25 Y145.83 E189.25660
G1 X139.22 Y146.10 E189.26945
G1 X137.83 Y146.10 E189.33493
G0 F12000 X137.39 Y147.26
;TYPE:FILL
G1 F4800 X137.46 Y147.62 E189.35120
G1 X137.50 Y148.22 E189.37360
G1 X137.53 Y148.81 E189.39187
G1 X137.63 Y149.20 E189.41085
G1 F2400 E188.21085
G0 F12000 X141.35 Y154.68
G1 F2400 E189.41085
G1 F4800 X141.16 Y154.88 E189.42395
G0 F12000 X145.01 Y157.68
G1 F4800 X145.22 Y157.47 E189.43772
G0 F12000 X148.38 Y158.35
G1 F4800 X148.68 Y158.66 E189.45821
G0 F12000 X150.60 Y158.73
G1 F4800 X150.91 Y158.42 E189.47877
G0 F12000 X154.34 Y157.67
G1 F4800 X154.56 Y157.89 E189.49347
G0 F12000 X158.36 Y155.03
G1 F4800 X158.55 Y155.23 E189.50664
G0 F12000 X161.14 Y152.56
G0 X161.90 Y152.64
G0 X162.78 Y153.21
G1 F4800 X166.06 Y149.93 E189.72457
G0 F12000 X162.44 Y152.46
G1 F4800 X164.09 Y154.11 E189.83413
G0 F12000 X162.06 Y152.08
G1 F4800 X160.96 Y150.98 E189.90728
;LAYER:5
G0 F12000 X160.76 Y151.19 Z1.80
;TYPE:WALL-INNER
G1 F4800 X160.91 Y150.68 E189.93250
G1 X162.97 Y150.68 E190.02916
G1 X162.97 Y149.95 E190.06313
G1 X163.75 Y149.54 E190.10465
G1 X164.22 Y149.39 E190.12780
G1 X164.71 Y149.35 E190.15110
G1 X165.19 Y149.39 E190.17364
G1 X165.63 Y149.53 E190.19537
G1 X166.09 Y149.77 E190.21978
G1 X166.44 Y150.06 E190.24147
G1 X166.78 Y150.46 E190.26615
G1 X167.01 Y150.89 E190.28898
G1 X167.15 Y151.36 E190.31221
G1 X167.20 Y151.84 E190.33495
G1 X167.15 Y152.33 E190.35793
G1 X167.02 Y152.77 E190.37949
G1 X166.78 Y153.23 E190.40396
G1 X166.47 Y153.61 E190.42689
G1 X166.11 Y153.90 E190.44868
G1 X165.65 Y154.16 E190.47350
G1 X165.18 Y154.29 E190.49634
G1 X164.70 Y154.34 E190.51926
G1 X164.22 Y154.29 E190.54214
G1 X163.77 Y154.16 E190.56380
G1 X163.32 Y153.92 E190.58806
G1 X162.96 Y153.63 E190.61009
G1 X162.62 Y153.23 E190.63450
G1 X162.40 Y152.81 E190.65689
G1 X162.24 Y152.24 E190.68454
G1 X160.90 Y152.10 E190.74779
G1 X160.15 Y153.51 E190.82291
G1 X158.67 Y155.31 E190.93257
G1 X158.63 Y155.36 E190.93532
G1 X156.83 Y156.84 E191.04508
G1 X156.78 Y156.88 E191.04812
G1 X154.72 Y157.97 E191.15762
G1 X154.67 Y158.01 E191.16071
G1 X152.38 Y158.70 E191.27319
G1 X150.06 Y158.93 E191.38261
G1 X150.00 Y158.93 E191.38563
G1 X147.69 Y158.71 E191.49505
G1 X147.62 Y158.70 E191.49803
G1 X145.33 Y158.00 E191.61066
G1 X143.28 Y156.91 E191.71994
G1 X143.22 Y156.88 E191.72299
G1 X141.42 Y155.40 E191.83262
G1 X141.38 Y155.36 E191.83553
G1 X139.90 Y153.56 E191.94515
G1 X139.85 Y153.51 E191.94816
G1 X138.76 Y151.46 E192.05763
G1 X138.73 Y151.40 E192.06079
G1 X138.51 Y150.68 E192.09637
G1 X139.09 Y150.68 E192.12374
G1 X139.25 Y151.19 E192.14901
G1 X140.32 Y153.20 E192.25634
G1 X141.77 Y154.97 E192.36365
G1 X143.53 Y156.41 E192.47097
G1 X145.55 Y157.49 E192.57838
G1 X147.73 Y158.15 E192.68565
G1 X150.00 Y158.38 E192.79304
G1 X152.27 Y158.15 E192.90043
G1 X154.46 Y157.49 E193.00776
G1 X156.47 Y156.41 E193.11506
G1 X158.23 Y154.97 E193.22235
G1 X159.68 Y153.20 E193.32973
G1 X160.76 Y151.19 E193.43710
G0 F12000 X160.38 Y151.04
G1 F4800 X160.62 Y150.28 E193.47440
G1 X162.57 Y150.28 E193.56627
G1 X162.57 Y149.24 E193.61519
G1 X162.97 Y149.50 E193.63765
G1 X163.59 Y149.17 E193.67104
G1 X164.14 Y149.00 E193.69811
G1 X164.71 Y148.95 E193.72482
G1 X165.26 Y149.00 E193.75114
G1 X165.78 Y149.16 E193.77660
G1 X166.31 Y149.43 E193.80473
G1 X166.72 Y149.77 E193.82973
G1 X167.11 Y150.24 E193.85842
G1 X167.38 Y150.74 E193.88504
G1 X167.54 Y151.28 E193.91190
G1 X167.60 Y151.85 E193.93861
G1 X167.55 Y152.40 E193.96480
G1 X167.39 Y152.93 E193.99054
G1 X167.11 Y153.46 E194.01850
G1 X166.75 Y153.89 E194.04511
G1 X166.34 Y154.23 E194.07031
G1 X165.81 Y154.52 E194.09879
G1 X165.26 Y154.69 E194.12562
G1 X164.70 Y154.74 E194.15241
G1 X164.14 Y154.69 E194.17860
G1 X163.62 Y154.53 E194.20424
G1 X163.09 Y154.25 E194.23243
G1 X162.68 Y153.91 E194.25753
G1 X162.29 Y153.45 E194.28598
G1 X162.03 Y152.96 E194.31233
G1 X161.93 Y152.61 E194.32926
G1 X161.12 Y152.53 E194.36715
G1 X160.48 Y153.74 E194.43169
G1 X158.98 Y155.56 E194.54295
G1 X158.91 Y155.65 E194.54796
G1 X157.08 Y157.15 E194.65909
G1 X157.00 Y157.21 E194.66401
G1 X154.91 Y158.33 E194.77541
G1 X154.82 Y158.38 E194.78042
G1 X152.46 Y159.09 E194.89645
G1 X150.00 Y159.34 E195.01262
G1 X147.54 Y159.09 E195.12880
G1 X145.18 Y158.38 E195.24506
G1 X143.09 Y157.26 E195.35626
G1 X143.00 Y157.21 E195.36146
G1 X141.17 Y155.71 E195.47262
G1 X141.09 Y155.64 E195.47757
G1 X139.59 Y153.81 E195.58883
G1 X139.52 Y153.73 E195.59378
G1 X138.41 Y151.65 E195.70502
G1 X138.36 Y151.55 E195.71003
G1 X137.97 Y150.28 E195.77275
G1 X139.39 Y150.28 E195.83936
G1 X139.62 Y151.04 E195.87666
G1 X140.66 Y152.98 E195.98031
G1 X142.05 Y154.68 E196.08395
G1 X143.76 Y156.08 E196.18759
G1 X145.70 Y157.12 E196.29125
G1 X147.81 Y157.76 E196.39488
G1 X150.00 Y157.97 E196.49854
G1 X152.19 Y157.76 E196.60219
G1 X154.30 Y157.12 E196.70582
G1 X156.25 Y156.08 E196.80944
G1 X157.95 Y154.68 E196.91308
G1 X159.35 Y152.98 E197.01676
G1 X160.38 Y151.04 E197.12038
G0 F12000 X162.51 Y150.22
G0 X162.57 Y147.08
G1 F4800 X162.57 Y146.39 E197.15298
G1 X162.60 Y146.74 E197.16933
G1 X162.57 Y147.08 E197.18573
G0 F12000 X162.50 Y145.71
G1 F4800 X161.74 Y145.71 E197.22162
G1 X161.81 Y145.66 E197.22557
G1 X162.50 Y145.66 E197.25788
G1 X162.50 Y145.71 E197.25991
G1 F2400 E196.05991
G0 F12000 X138.26 Y145.71
G1 F2400 E197.25991
G1 F4800 X137.50 Y145.71 E197.29581
G1 X137.50 Y145.66 E197.29784
G1 X138.19 Y145.66 E197.33015
G1 X138.26 Y145.71 E197.33410
G0 F12000 X137.43 Y146.39
G1 F4800 X137.43 Y147.08 E197.36670
G1 X137.40 Y146.74 E197.38310
G1 X137.43 Y146.39 E197.39945
G0 F12000 X137.83 Y146.10
;TYPE:WALL-OUTER
G1 F4800 X137.83 Y149.88 E197.57698
G1 X139.68 Y149.88 E197.66400
G1 X139.99 Y150.88 E197.71339
G1 X140.99 Y152.76 E197.81333
G1 X142.34 Y154.40 E197.91326
G1 X143.98 Y155.75 E198.01319
G1 X145.85 Y156.75 E198.11315
G1 X147.89 Y157.37 E198.21309
G1 X150.00 Y157.57 E198.31306
G1 X152.12 Y157.37 E198.41303
G1 X154.15 Y156.75 E198.51297
G1 X156.02 Y155.75 E198.61289
G1 X157.66 Y154.40 E198.71282
G1 X159.01 Y152.76 E198.81278
G1 X160.01 Y150.88 E198.91270
G1 X160.32 Y149.88 E198.96209
G1 X162.17 Y149.88 E199.04911
G1 X162.17 Y146.10 E199.22664
G1 X160.78 Y146.10 E199.29211
G1 X160.75 Y145.83 E199.30497
G1 X161.68 Y145.28 E199.35578
G1 X161.70 Y145.26 E199.35694
G1 X162.86 Y145.26 E199.41155
G1 X163.00 Y146.74 E199.48113
G1 X162.79 Y148.91 E199.58370
G1 X162.99 Y149.04 E199.59496
G1 X163.44 Y148.79 E199.61922
G1 X164.04 Y148.61 E199.64881
G1 X164.69 Y148.55 E199.67921
G1 X164.71 Y148.54 E199.68002
G1 X165.33 Y148.61 E199.70937
G1 X165.35 Y148.61 E199.71036
G1 X165.93 Y148.79 E199.73912
G1 X166.52 Y149.09 E199.77026
G1 X166.53 Y149.10 E199.77102
G1 X167.01 Y149.49 E199.79980
G1 X167.44 Y150.00 E199.83135
G1 X167.74 Y150.57 E199.86170
G1 X167.75 Y150.59 E199.86250
G1 X167.93 Y151.19 E199.89208
G1 X168.00 Y151.83 E199.92254
G1 X168.00 Y151.84 E199.92321
G1 X167.94 Y152.47 E199.95270
G1 X167.94 Y152.49 E199.95355
G1 X167.76 Y153.08 E199.98260
G1 X167.46 Y153.66 E200.01357
G1 X167.45 Y153.68 E200.01433
G1 X167.05 Y154.16 E200.04408
G1 X166.56 Y154.56 E200.07351
G1 X165.96 Y154.89 E200.10580
G1 X165.36 Y155.08 E200.13543
G1 X164.72 Y155.14 E200.16584
G1 X164.70 Y155.14 E200.16664
G1 X164.08 Y155.08 E200.19604
G1 X164.06 Y155.08 E200.19689
G1 X163.47 Y154.90 E200.22593
G1 X162.88 Y154.59 E200.25715
G1 X162.40 Y154.20 E200.28647
G1 X161.97 Y153.69 E200.31799
G1 X161.66 Y153.12 E200.34834
G1 X161.62 Y152.98 E200.35529
G1 X161.35 Y152.95 E200.36787
G1 X160.81 Y153.96 E200.42170
G1 X159.19 Y155.93 E200.54145
G1 X157.23 Y157.54 E200.66124
G1 X154.97 Y158.75 E200.78147
G1 X152.54 Y159.49 E200.90112
G1 X150.00 Y159.74 E201.02103
G1 X147.46 Y159.49 E201.14099
G1 X145.03 Y158.75 E201.26060
G1 X142.78 Y157.54 E201.38087
G1 X140.81 Y155.93 E201.50066
G1 X139.19 Y153.96 E201.62041
G1 X137.99 Y151.71 E201.74064
G1 X137.25 Y149.27 E201.86024
G1 X137.00 Y146.74 E201.98020
G1 X137.14 Y145.26 E202.04978
G1 X138.30 Y145.26 E202.10439
G1 X139.25 Y145.83 E202.15636
G1 X139.22 Y146.10 E202.16921
G1 X137.83 Y146.10 E202.23469
G0 F12000 X137.41 Y147.26
;TYPE:FILL
G1 F4800 X137.45 Y147.51 E202.24456
G1 X137.47 Y148.05 E202.26556
G1 X137.50 Y148.59 E202.28324
G1 X137.52 Y149.12 E202.29753
G1 X137.50 Y149.43 E202.31186
G1 F2400 E201.11186
G0 F12000 X141.35 Y154.68
G1 F2400 E202.31186
G1 F4800 X141.16 Y154.88 E202.32497
G0 F12000 X145.01 Y157.67
G1 F4800 X145.22 Y157.47 E202.33861
G0 F12000 X148.38 Y158.35
G1 F4800 X148.68 Y158.66 E202.35909
G0 F12000 X150.60 Y158.73
G1 F4800 X150.91 Y158.42 E202.37965
G0 F12000 X154.34 Y157.67
G1 F4800 X154.56 Y157.89 E202.39435
G0 F12000 X158.36 Y155.03
G1 F4800 X158.56 Y155.23 E202.40759
G0 F12000 X161.14 Y152.56
G0 X161.90 Y152.64
G0 X162.79 Y153.21
G1 F4800 X166.06 Y149.93 E202.62559
G0 F12000 X162.44 Y152.46
G1 F4800 X164.09 Y154.11 E202.73508
G0 F12000 X162.06 Y152.08
G1 F4800 X160.96 Y150.98 E202.80823
;LAYER:6
G0 F12000 X160.76 Y151.19 Z2.10
;TYPE:WALL-INNER
G1 F4800 X160.91 Y150.68 E202.83345
G1 X162.97 Y150.68 E202.93011
G1 X162.97 Y149.95 E202.96408
G1 X163.74 Y149.54 E203.00547
G1 X164.22 Y149.39 E203.02879
G1 X164.70 Y149.35 E203.05166
G1 X165.19 Y149.39 E203.07458
G1 X165.66 Y149.54 E203.09774
G1 X166.09 Y149.77 E203.12082
G1 X166.47 Y150.08 E203.14385
G1 X166.78 Y150.46 E203.16711
G1 X167.01 Y150.89 E203.18988
G1 X167.15 Y151.36 E203.21295
G1 X167.20 Y151.85 E203.23620
G1 X167.15 Y152.33 E203.25875
G1 X167.01 Y152.80 E203.28215
G1 X166.78 Y153.23 E203.30507
G1 X166.49 Y153.58 E203.32646
G1 X166.09 Y153.92 E203.35116
G1 X165.66 Y154.15 E203.37416
G1 X165.19 Y154.29 E203.39711
G1 X164.70 Y154.34 E203.42022
G1 X164.22 Y154.29 E203.44319
G1 X163.74 Y154.15 E203.46645
G1 X163.31 Y153.92 E203.48924
G1 X162.93 Y153.61 E203.51244
G1 X162.62 Y153.23 E203.53543
G1 X162.40 Y152.81 E203.55795
G1 X162.24 Y152.24 E203.58564
G1 X160.90 Y152.10 E203.64889
G1 X160.15 Y153.51 E203.72402
G1 X158.69 Y155.29 E203.83228
G1 X158.63 Y155.36 E203.83656
G1 X156.85 Y156.82 E203.94485
G1 X156.78 Y156.88 E203.94926
G1 X154.75 Y157.96 E204.05734
G1 X154.67 Y158.01 E204.06189
G1 X152.47 Y158.67 E204.16992
G1 X152.38 Y158.70 E204.17436
G1 X150.09 Y158.93 E204.28231
G1 X150.00 Y158.93 E204.28675
G1 X147.72 Y158.71 E204.39475
G1 X147.62 Y158.70 E204.39914
G1 X145.42 Y158.03 E204.50730
G1 X145.33 Y158.01 E204.51167
G1 X143.31 Y156.92 E204.61967
G1 X143.22 Y156.88 E204.62426
G1 X141.44 Y155.42 E204.73238
G1 X141.38 Y155.37 E204.73650
G1 X139.91 Y153.58 E204.84488
G1 X139.85 Y153.51 E204.84929
G1 X138.77 Y151.49 E204.95737
G1 X138.73 Y151.40 E204.96192
G1 X138.51 Y150.68 E204.99750
G1 X139.09 Y150.68 E205.02488
G1 X139.25 Y151.19 E205.05014
G1 X140.32 Y153.20 E205.15747
G1 X141.77 Y154.97 E205.26479
G1 X143.53 Y156.41 E205.37210
G1 X145.55 Y157.49 E205.47951
G1 X147.73 Y158.15 E205.58679
G1 X150.00 Y158.38 E205.69417
G1 X152.27 Y158.15 E205.80156
G1 X154.46 Y157.49 E205.90889
G1 X156.47 Y156.41 E206.01619
G1 X158.23 Y154.97 E206.12348
G1 X159.68 Y153.20 E206.23086
G1 X160.76 Y151.19 E206.33823
G0 F12000 X160.38 Y151.04
G1 F4800 X160.62 Y150.28 E206.37554
G1 X162.57 Y150.28 E206.46740
G1 X162.57 Y149.24 E206.51633
G1 X162.97 Y149.50 E206.53878
G1 X163.59 Y149.17 E206.57218
G1 X164.14 Y149.00 E206.59898
G1 X164.70 Y148.95 E206.62572
G1 X165.27 Y149.00 E206.65238
G1 X165.81 Y149.17 E206.67908
G1 X166.31 Y149.43 E206.70584
G1 X166.75 Y149.80 E206.73268
G1 X167.11 Y150.24 E206.75945
G1 X167.38 Y150.74 E206.78622
G1 X167.54 Y151.28 E206.81281
G1 X167.60 Y151.84 E206.83957
G1 X167.55 Y152.41 E206.86608
G1 X167.38 Y152.96 E206.89318
G1 X167.11 Y153.45 E206.91967
G1 X166.78 Y153.86 E206.94464
G1 X166.31 Y154.26 E206.97328
G1 X165.81 Y154.52 E207.00009
G1 X165.27 Y154.69 E207.02655
G1 X164.70 Y154.74 E207.05335
G1 X164.13 Y154.69 E207.08014
G1 X163.59 Y154.52 E207.10705
G1 X163.09 Y154.26 E207.13341
G1 X162.65 Y153.90 E207.16022
G1 X162.29 Y153.45 E207.18726
G1 X162.03 Y152.96 E207.21363
G1 X161.93 Y152.61 E207.23051
G1 X161.12 Y152.53 E207.26840
G1 X160.48 Y153.74 E207.33294
G1 X159.00 Y155.54 E207.44277
G1 X158.91 Y155.64 E207.44899
G1 X157.10 Y157.13 E207.55909
G1 X157.00 Y157.21 E207.56533
G1 X154.94 Y158.31 E207.67529
G1 X154.82 Y158.38 E207.68168
G1 X152.59 Y159.06 E207.79150
G1 X152.46 Y159.09 E207.79780
G1 X150.00 Y159.34 E207.91388
G1 X147.54 Y159.09 E208.03010
G1 X145.31 Y158.41 E208.13998
G1 X145.18 Y158.38 E208.14638
G1 X143.12 Y157.28 E208.25612
G1 X143.00 Y157.21 E208.26271
G1 X141.19 Y155.73 E208.37247
G1 X141.09 Y155.65 E208.37862
G1 X139.61 Y153.84 E208.48869
G1 X139.52 Y153.74 E208.49493
G1 X138.42 Y151.67 E208.60489
G1 X138.36 Y151.55 E208.61135
G1 X137.97 Y150.28 E208.67401
G1 X139.39 Y150.28 E208.74062
G1 X139.62 Y151.04 E208.77792
G1 X140.66 Y152.98 E208.88157
G1 X142.05 Y154.68 E208.98521
G1 X143.76 Y156.08 E209.08885
G1 X145.70 Y157.12 E209.19252
G1 X147.81 Y157.76 E209.29614
G1 X150.00 Y157.97 E209.39980
G1 X152.19 Y157.76 E209.50346
G1 X154.30 Y157.12 E209.60708
G1 X156.25 Y156.08 E209.71070
G1 X157.95 Y154.68 E209.81435
G1 X159.35 Y152.98 E209.91802
G1 X160.38 Y151.04 E210.02164
G0 F12000 X162.51 Y150.22
G0 X162.57 Y147.08
G1 F4800 X162.57 Y146.39 E210.05424
G1 X162.60 Y146.74 E210.07059
G1 X162.57 Y147.08 E210.08699
G0 F12000 X162.50 Y145.71
G1 F4800 X161.74 Y145.71 E210.12288
G1 X161.81 Y145.66 E210.12679
G1 X162.50 Y145.66 E210.15915
G1 X162.50 Y145.71 E210.16118
G1 F2400 E208.96118
G0 F12000 X138.26 Y145.71
G1 F2400 E210.16118
G1 F4800 X137.50 Y145.71 E210.19707
G1 X137.50 Y145.66 E210.19911
G1 X138.19 Y145.66 E210.23142
G1 X138.26 Y145.71 E210.23537
G0 F12000 X137.43 Y146.39
G1 F4800 X137.43 Y147.08 E210.26796
G1 X137.40 Y146.74 E210.28437
G1 X137.43 Y146.39 E210.30072
G0 F12000 X137.83 Y146.10
;TYPE:WALL-OUTER
G1 F4800 X137.83 Y149.88 E210.47824
G1 X139.68 Y149.88 E210.56527
G1 X139.99 Y150.88 E210.61466
G1 X140.99 Y152.76 E210.71460
G1 X142.34 Y154.40 E210.81453
G1 X143.98 Y155.75 E210.91446
G1 X145.85 Y156.75 E211.01442
G1 X147.89 Y157.37 E211.11436
G1 X150.00 Y157.57 E211.21433
G1 X152.12 Y157.37 E211.31430
G1 X154.15 Y156.75 E211.41423
G1 X156.02 Y155.75 E211.51415
G1 X157.66 Y154.40 E211.61409
G1 X159.01 Y152.76 E211.71405
G1 X160.01 Y150.88 E211.81397
G1 X160.32 Y149.88 E211.86336
G1 X162.17 Y149.88 E211.95038
G1 X162.17 Y146.10 E212.12791
G1 X160.78 Y146.10 E212.19338
G1 X160.75 Y145.83 E212.20624
G1 X161.70 Y145.26 E212.25825
G1 X162.86 Y145.26 E212.31282
G1 X163.00 Y146.74 E212.38239
G1 X162.79 Y148.91 E212.48496
G1 X162.99 Y149.04 E212.49622
G1 X163.44 Y148.79 E212.52049
G1 X164.06 Y148.61 E212.55068
G1 X164.70 Y148.54 E212.58116
G1 X165.35 Y148.61 E212.61160
G1 X165.96 Y148.79 E212.64179
G1 X166.51 Y149.09 E212.67138
G1 X166.53 Y149.10 E212.67243
G1 X167.02 Y149.50 E212.70184
G1 X167.43 Y150.00 E212.73230
G1 X167.74 Y150.56 E212.76266
G1 X167.94 Y151.20 E212.79403
G1 X168.00 Y151.83 E212.82362
G1 X168.00 Y151.85 E212.82471
G1 X167.94 Y152.46 E212.85369
G1 X167.94 Y152.49 E212.85501
G1 X167.75 Y153.10 E212.88515
G1 X167.46 Y153.66 E212.91467
G1 X167.06 Y154.15 E212.94437
G1 X166.55 Y154.58 E212.97569
G1 X166.54 Y154.59 E212.97649
G1 X165.97 Y154.89 E213.00703
G1 X165.35 Y155.08 E213.03744
G1 X164.70 Y155.14 E213.06788
G1 X164.06 Y155.08 E213.09837
G1 X163.44 Y154.89 E213.12878
G1 X162.87 Y154.59 E213.15915
G1 X162.38 Y154.19 E213.18863
G1 X161.97 Y153.69 E213.21905
G1 X161.66 Y153.13 E213.24941
G1 X161.62 Y152.98 E213.25671
G1 X161.35 Y152.95 E213.26929
G1 X160.81 Y153.96 E213.32313
G1 X159.19 Y155.93 E213.44288
G1 X157.23 Y157.54 E213.56267
G1 X154.97 Y158.75 E213.68290
G1 X152.54 Y159.49 E213.80255
G1 X150.00 Y159.74 E213.92246
G1 X147.46 Y159.49 E214.04242
G1 X145.03 Y158.75 E214.16203
G1 X142.78 Y157.54 E214.28230
G1 X140.81 Y155.93 E214.40209
G1 X139.19 Y153.96 E214.52184
G1 X137.99 Y151.71 E214.64207
G1 X137.25 Y149.27 E214.76166
G1 X137.00 Y146.74 E214.88162
G1 X137.14 Y145.26 E214.95120
G1 X138.30 Y145.26 E215.00581
G1 X139.25 Y145.83 E215.05778
G1 X139.22 Y146.10 E215.07064
G1 X137.83 Y146.10 E215.13612
G0 F12000 X137.39 Y147.26
;TYPE:FILL
G1 F4800 X137.46 Y147.62 E215.15238
G1 X137.50 Y148.22 E215.17479
G1 X137.53 Y148.81 E215.19305
G1 X137.63 Y149.20 E215.21203
G1 F2400 E214.01203
G0 F12000 X141.35 Y154.68
G1 F2400 E215.21203
G1 F4800 X141.16 Y154.88 E215.22514
G0 F12000 X145.01 Y157.67
G1 F4800 X145.22 Y157.47 E215.23877
G0 F12000 X148.38 Y158.35
G1 F4800 X148.68 Y158.66 E215.25926
G0 F12000 X150.60 Y158.73
G1 F4800 X150.91 Y158.42 E215.27982
G0 F12000 X154.34 Y157.67
G1 F4800 X154.56 Y157.89 E215.29452
G0 F12000 X158.36 Y155.03
G1 F4800 X158.56 Y155.23 E215.30776
G0 F12000 X161.14 Y152.56
G0 X161.90 Y152.64
G0 X162.78 Y153.21
G1 F4800 X166.06 Y149.93 E215.52596
G0 F12000 X162.44 Y152.46
G1 F4800 X164.09 Y154.11 E215.63549
G0 F12000 X162.06 Y152.08
G1 F4800 X160.96 Y150.98 E215.70863
;LAYER:7
G0 F12000 X160.76 Y151.19 Z2.40
;TYPE:WALL-INNER
G1 F4800 X160.91 Y150.68 E215.73385
G1 X162.97 Y150.68 E215.83052
G1 X162.97 Y149.95 E215.86448
G1 X163.74 Y149.54 E215.90594
G1 X164.22 Y149.39 E215.92915
G1 X164.71 Y149.35 E215.95226
G1 X165.19 Y149.39 E215.97494
G1 X165.66 Y149.54 E215.99816
G1 X166.05 Y149.75 E216.01920
G1 X166.47 Y150.08 E216.04450
G1 X166.78 Y150.46 E216.06733
G1 X167.01 Y150.89 E216.09039
G1 X167.15 Y151.36 E216.11326
G1 X167.20 Y151.84 E216.13633
G1 X167.15 Y152.33 E216.15925
G1 X167.01 Y152.80 E216.18230
G1 X166.80 Y153.19 E216.20341
G1 X166.46 Y153.61 E216.22864
G1 X166.09 Y153.92 E216.25137
G1 X165.66 Y154.15 E216.27460
G1 X165.19 Y154.29 E216.29761
G1 X164.70 Y154.34 E216.32071
G1 X164.22 Y154.29 E216.34349
G1 X163.75 Y154.15 E216.36663
G1 X163.35 Y153.94 E216.38755
G1 X162.93 Y153.60 E216.41305
G1 X162.62 Y153.23 E216.43575
G1 X162.40 Y152.81 E216.45831
G1 X162.24 Y152.24 E216.48595
G1 X160.90 Y152.10 E216.54920
G1 X160.15 Y153.51 E216.62454
G1 X158.71 Y155.27 E216.73125
G1 X158.63 Y155.36 E216.73690
G1 X156.87 Y156.80 E216.84376
G1 X156.78 Y156.88 E216.84954
G1 X154.78 Y157.95 E216.95617
G1 X154.67 Y158.01 E216.96208
G1 X152.50 Y158.66 E217.06879
G1 X152.38 Y158.70 E217.07466
G1 X150.12 Y158.92 E217.18124
G1 X150.00 Y158.93 E217.18710
G1 X147.74 Y158.71 E217.29368
G1 X147.62 Y158.70 E217.29949
G1 X145.45 Y158.04 E217.40602
G1 X145.33 Y158.00 E217.41203
G1 X143.23 Y156.88 E217.52434
G1 X141.47 Y155.44 E217.63130
G1 X141.37 Y155.36 E217.63712
G1 X139.93 Y153.61 E217.74380
G1 X139.86 Y153.51 E217.74955
G1 X138.79 Y151.51 E217.85625
G1 X138.73 Y151.40 E217.86210
G1 X138.51 Y150.68 E217.89778
G1 X139.09 Y150.68 E217.92516
G1 X139.25 Y151.19 E217.95043
G1 X140.32 Y153.20 E218.05775
G1 X141.77 Y154.97 E218.16507
G1 X143.53 Y156.41 E218.27239
G1 X145.55 Y157.49 E218.37980
G1 X147.73 Y158.15 E218.48707
G1 X150.00 Y158.38 E218.59446
G1 X152.27 Y158.15 E218.70184
G1 X154.46 Y157.49 E218.80917
G1 X156.47 Y156.41 E218.91648
G1 X158.23 Y154.97 E219.02376
G1 X159.68 Y153.20 E219.13115
G1 X160.76 Y151.19 E219.23851
G0 F12000 X160.38 Y151.04
G1 F4800 X160.62 Y150.28 E219.27582
G1 X162.57 Y150.28 E219.36769
G1 X162.57 Y149.24 E219.41661
G1 X162.97 Y149.50 E219.43906
G1 X163.59 Y149.17 E219.47246
G1 X164.14 Y149.00 E219.49926
G1 X164.71 Y148.95 E219.52615
G1 X165.26 Y149.00 E219.55257
G1 X165.81 Y149.17 E219.57941
G1 X166.27 Y149.41 E219.60408
G1 X166.75 Y149.80 E219.63312
G1 X167.11 Y150.24 E219.65970
G1 X167.38 Y150.74 E219.68647
G1 X167.54 Y151.28 E219.71306
G1 X167.60 Y151.84 E219.73981
G1 X167.54 Y152.41 E219.76652
G1 X167.38 Y152.95 E219.79316
G1 X167.13 Y153.42 E219.81788
G1 X166.75 Y153.89 E219.84663
G1 X166.31 Y154.25 E219.87343
G1 X165.81 Y154.53 E219.90041
G1 X165.27 Y154.69 E219.92685
G1 X164.70 Y154.74 E219.95379
G1 X164.14 Y154.69 E219.98035
G1 X163.59 Y154.52 E220.00709
G1 X163.13 Y154.28 E220.03163
G1 X162.65 Y153.89 E220.06065
G1 X162.29 Y153.45 E220.08731
G1 X162.03 Y152.96 E220.11381
G1 X161.93 Y152.61 E220.13074
G1 X161.12 Y152.53 E220.16863
G1 X160.48 Y153.73 E220.23300
G1 X158.91 Y155.65 E220.34944
G1 X157.00 Y157.21 E220.46549
G1 X154.82 Y158.38 E220.58167
G1 X152.61 Y159.05 E220.69030
G1 X152.46 Y159.09 E220.69802
G1 X150.16 Y159.32 E220.80650
G1 X150.00 Y159.34 E220.81415
G1 X147.71 Y159.11 E220.92263
G1 X147.54 Y159.09 E220.93033
G1 X145.33 Y158.42 E221.03887
G1 X145.18 Y158.38 E221.04640
G1 X143.00 Y157.21 E221.16277
G1 X141.09 Y155.65 E221.27882
G1 X139.52 Y153.73 E221.39526
G1 X138.36 Y151.56 E221.51128
G1 X137.97 Y150.28 E221.57424
G1 X139.39 Y150.28 E221.64084
G1 X139.62 Y151.04 E221.67815
G1 X140.66 Y152.98 E221.78179
G1 X142.05 Y154.68 E221.88544
G1 X143.76 Y156.08 E221.98908
G1 X145.70 Y157.12 E222.09274
G1 X147.81 Y157.76 E222.19637
G1 X150.00 Y157.97 E222.30002
G1 X152.19 Y157.76 E222.40368
G1 X154.30 Y157.12 E222.50731
G1 X156.25 Y156.08 E222.61093
G1 X157.95 Y154.68 E222.71457
G1 X159.35 Y152.98 E222.81824
G1 X160.38 Y151.04 E222.92187
G0 F12000 X162.51 Y150.22
G0 X162.57 Y147.08
G1 F4800 X162.57 Y146.39 E222.95446
G1 X162.60 Y146.74 E222.97082
G1 X162.57 Y147.08 E222.98722
G0 F12000 X162.50 Y145.71
G1 F4800 X161.74 Y145.71 E223.02311
G1 X161.81 Y145.66 E223.02705
G1 X162.50 Y145.66 E223.05937
G1 X162.50 Y145.71 E223.06140
G1 F2400 E221.86140
G0 F12000 X138.26 Y145.71
G1 F2400 E223.06140
G1 F4800 X137.50 Y145.71 E223.09729
G1 X137.50 Y145.66 E223.09932
G1 X138.19 Y145.66 E223.13164
G1 X138.26 Y145.71 E223.13558
G0 F12000 X137.43 Y146.39
G1 F4800 X137.43 Y147.08 E223.16818
G1 X137.40 Y146.74 E223.18458
G1 X137.43 Y146.39 E223.20094
G0 F12000 X137.83 Y146.10
;TYPE:WALL-OUTER
G1 F4800 X137.83 Y149.88 E223.37846
G1 X139.68 Y149.88 E223.46549
G1 X139.99 Y150.88 E223.51488
G1 X140.99 Y152.76 E223.61482
G1 X142.34 Y154.40 E223.71475
G1 X143.98 Y155.75 E223.81468
G1 X145.85 Y156.75 E223.91464
G1 X147.89 Y157.37 E224.01458
G1 X150.00 Y157.57 E224.11455
G1 X152.12 Y157.37 E224.21451
G1 X154.15 Y156.75 E224.31445
G1 X156.02 Y155.75 E224.41437
G1 X157.66 Y154.40 E224.51430
G1 X159.01 Y152.76 E224.61427
G1 X160.01 Y150.88 E224.71419
G1 X160.32 Y149.88 E224.76358
G1 X162.17 Y149.88 E224.85060
G1 X162.17 Y146.10 E225.02812
G1 X160.78 Y146.10 E225.09360
G1 X160.75 Y145.83 E225.10646
G1 X161.70 Y145.26 E225.15843
G1 X162.86 Y145.26 E225.21304
G1 X163.00 Y146.74 E225.28262
G1 X162.79 Y148.91 E225.38519
G1 X162.99 Y149.04 E225.39645
G1 X163.44 Y148.79 E225.42071
G1 X164.06 Y148.61 E225.45090
G1 X164.67 Y148.55 E225.48006
G1 X164.70 Y148.54 E225.48143
G1 X165.32 Y148.60 E225.51041
G1 X165.35 Y148.61 E225.51187
G1 X165.96 Y148.79 E225.54202
G1 X166.50 Y149.08 E225.57074
G1 X167.01 Y149.50 E225.60179
G1 X167.03 Y149.51 E225.60307
G1 X167.43 Y149.99 E225.63221
G1 X167.44 Y150.01 E225.63348
G1 X167.74 Y150.56 E225.66265
G1 X167.94 Y151.20 E225.69420
G1 X168.00 Y151.84 E225.72474
G1 X167.94 Y152.46 E225.75376
G1 X167.94 Y152.49 E225.75523
G1 X167.75 Y153.10 E225.78536
G1 X167.47 Y153.64 E225.81409
G1 X167.06 Y154.16 E225.84498
G1 X166.56 Y154.57 E225.87540
G1 X166.53 Y154.59 E225.87691
G1 X165.99 Y154.88 E225.90597
G1 X165.35 Y155.08 E225.93762
G1 X164.73 Y155.14 E225.96678
G1 X164.70 Y155.14 E225.96815
G1 X164.09 Y155.08 E225.99707
G1 X164.06 Y155.08 E225.99859
G1 X163.44 Y154.89 E226.02896
G1 X162.91 Y154.61 E226.05724
G1 X162.39 Y154.19 E226.08853
G1 X161.97 Y153.70 E226.11888
G1 X161.96 Y153.68 E226.12016
G1 X161.67 Y153.13 E226.14932
G1 X161.65 Y153.10 E226.15071
G1 X161.62 Y152.98 E226.15688
G1 X161.35 Y152.95 E226.16946
G1 X160.81 Y153.96 E226.22329
G1 X159.19 Y155.93 E226.34304
G1 X157.22 Y157.55 E226.46303
G1 X154.98 Y158.75 E226.58284
G1 X152.54 Y159.49 E226.70273
G1 X150.00 Y159.74 E226.82264
G1 X147.46 Y159.49 E226.94260
G1 X145.03 Y158.75 E227.06221
