;-- START GCODE --
;Sliced for Type A Machines Series 1
;Sliced at: Tue 21-07-2015 19:08:03
;Basic settings: Layer height: 0.3 Walls: 1.2 Fill: 17
;Print Speed: 80 Support: 0
;Retraction Speed: 40 Retraction Distance: 1.2
;Print time: #P_TIME#
;Filament used: #F_AMNT#m #F_WGHT#g
;Filament cost: #F_COST#
M106 S255	 ;start with the fan on
G21        ;metric values
G90        ;absolute positioning
M106 S255    ;start with the fan on
G28     ;move to endstops
G29		;allows for auto-levelling
G1 X150 Y5  Z15.0 F12000 ;center and move the platform down 15mm
M109 S220 ;Heat To temp
G92 E0                  ;zero the extruded length
G1 F200 E30              ;extrude 30mm of feed stock
G92 E0                  ;zero the extruded length again
G1 X175 Y25  Z0 F12000 ;remove bugger
G1 X220 F12000 ;remove bugger
G1 X150 Y150  Z15 F12000 ;recenter and begin
G1 F12000

;Layer count: 91
;LAYER:0
M106 S255
G0 F12000 X135.10 Y143.42 Z0.30
;TYPE:SKIRT
G1 F2700 X137.69 Y141.28 E0.15829
G1 X138.29 Y140.79 E0.19486
G1 X141.92 Y138.84 E0.38926
G1 X145.13 Y137.86 E0.54731
G1 X145.89 Y137.63 E0.58511
G1 X149.11 Y137.31 E0.73745
G1 X149.90 Y137.22 E0.77485
G1 X153.42 Y137.56 E0.94164
G1 X154.20 Y137.66 E0.97909
G1 X157.30 Y138.60 E1.13157
G1 X158.06 Y138.83 E1.16894
G1 X161.66 Y140.76 E1.36176
G1 X163.15 Y141.97 E1.45232
G1 X164.68 Y141.82 E1.52492
G1 X166.89 Y142.03 E1.62957
G1 X169.03 Y142.68 E1.73510
G1 X170.99 Y143.72 E1.83989
G1 X172.71 Y145.13 E1.94435
G1 X174.12 Y146.84 E2.04925
G1 X175.17 Y148.81 E2.15430
G1 X175.82 Y150.93 E2.25895
G1 X176.04 Y153.13 E2.36327
G1 X175.82 Y155.35 E2.46835
G1 X175.18 Y157.48 E2.57338
G1 X174.13 Y159.44 E2.67810
G1 X172.73 Y161.16 E2.78299
G1 X171.01 Y162.57 E2.88787
G1 X170.59 Y162.80 E2.91002
G1 X170.11 Y167.74 E3.14406
G1 X159.48 Y167.74 E3.64520
G1 X156.53 Y165.97 E3.80727
G1 X152.29 Y163.42 E4.04049
G1 X152.83 Y157.99 E4.29808
G1 X152.59 Y157.19 E4.33711
G1 X152.33 Y156.71 E4.36282
G1 X151.98 Y156.28 E4.38913
G1 X151.56 Y155.94 E4.41469
G1 X151.07 Y155.68 E4.44083
G1 X150.55 Y155.52 E4.46641
G1 X150.00 Y155.47 E4.49247
G1 X149.45 Y155.52 E4.51853
G1 X148.93 Y155.68 E4.54416
G1 X148.44 Y155.94 E4.57037
G1 X148.02 Y156.28 E4.59606
G1 X147.67 Y156.71 E4.62200
G1 X147.41 Y157.19 E4.64788
G1 X147.17 Y157.99 E4.68697
G1 X147.71 Y163.42 E4.94437
G1 X140.52 Y167.74 E5.33969
G1 X129.90 Y167.74 E5.84083
G1 X128.96 Y158.27 E6.28958
G1 X129.30 Y154.85 E6.45154
G1 X129.40 Y154.06 E6.48885
G1 X130.33 Y150.97 E6.64131
G1 X130.56 Y150.21 E6.67872
G1 X132.49 Y146.60 E6.87159
G1 X135.10 Y143.42 E7.06576
G0 F12000 X135.38 Y143.70
G1 F2700 X137.94 Y141.59 E7.22221
G1 X138.51 Y141.12 E7.25693
G1 X142.08 Y139.21 E7.44761
G1 X145.24 Y138.25 E7.60377
G1 X145.97 Y138.02 E7.63975
G1 X149.16 Y137.71 E7.79077
G1 X149.90 Y137.62 E7.82603
G1 X153.37 Y137.96 E7.99044
G1 X154.12 Y138.05 E8.02604
G1 X157.18 Y138.98 E8.17689
G1 X157.90 Y139.20 E8.21238
G1 X161.44 Y141.09 E8.40152
G1 X163.02 Y142.39 E8.49800
G1 X164.68 Y142.22 E8.57662
G1 X166.81 Y142.43 E8.67756
G1 X168.88 Y143.05 E8.77932
G1 X170.77 Y144.06 E8.88042
G1 X172.42 Y145.41 E8.98116
G1 X173.79 Y147.07 E9.08234
G1 X174.80 Y148.96 E9.18365
G1 X175.42 Y151.01 E9.28456
G1 X175.64 Y153.13 E9.38523
G1 X175.43 Y155.27 E9.48657
G1 X174.81 Y157.33 E9.58784
G1 X173.80 Y159.22 E9.68887
G1 X172.44 Y160.88 E9.79011
G1 X170.78 Y162.24 E9.89120
G1 X170.22 Y162.55 E9.92165
G1 X169.74 Y167.34 E10.14863
G1 X159.59 Y167.34 E10.62741
G1 X156.74 Y165.62 E10.78426
G1 X152.72 Y163.21 E11.00555
G1 X153.24 Y157.94 E11.25499
G1 X152.96 Y157.04 E11.29968
G1 X152.67 Y156.49 E11.32909
G1 X152.27 Y156.00 E11.35871
G1 X151.78 Y155.60 E11.38856
G1 X151.23 Y155.31 E11.41791
G1 X150.63 Y155.12 E11.44762
G1 X150.00 Y155.06 E11.47724
G1 X149.38 Y155.12 E11.50686
G1 X148.77 Y155.31 E11.53651
G1 X148.22 Y155.60 E11.56609
G1 X147.74 Y156.00 E11.59568
G1 X147.34 Y156.49 E11.62533
G1 X147.04 Y157.04 E11.65506
G1 X146.77 Y157.95 E11.69956
G1 X147.28 Y163.21 E11.94881
G1 X140.41 Y167.34 E12.32697
G1 X130.26 Y167.34 E12.80576
G1 X129.36 Y158.27 E13.23555
G1 X129.69 Y154.89 E13.39538
G1 X129.79 Y154.15 E13.43088
G1 X130.72 Y151.09 E13.58172
G1 X130.94 Y150.36 E13.61727
G1 X132.83 Y146.83 E13.80646
G1 X135.38 Y143.70 E13.99688
G0 F12000 X135.67 Y143.98
G1 F2700 X138.17 Y141.93 E14.14955
G1 X138.74 Y141.45 E14.18440
G1 X142.23 Y139.59 E14.37128
G1 X145.36 Y138.63 E14.52563
G1 X146.05 Y138.42 E14.55968
G1 X149.21 Y138.11 E14.70937
G1 X149.91 Y138.02 E14.74249
G1 X153.33 Y138.36 E14.90459
G1 X154.04 Y138.44 E14.93828
G1 X157.07 Y139.37 E15.08757
G1 X157.75 Y139.57 E15.12118
G1 X161.22 Y141.43 E15.30664
G1 X162.90 Y142.80 E15.40906
G1 X164.68 Y142.62 E15.49365
G1 X166.74 Y142.82 E15.59085
G1 X168.73 Y143.42 E15.68891
G1 X170.55 Y144.39 E15.78628
G1 X172.14 Y145.70 E15.88330
G1 X173.45 Y147.29 E15.98076
G1 X174.43 Y149.12 E16.07842
G1 X175.03 Y151.09 E16.17558
G1 X175.24 Y153.13 E16.27256
G1 X175.04 Y155.19 E16.37015
G1 X174.44 Y157.18 E16.46773
G1 X173.47 Y159.00 E16.56501
G1 X172.16 Y160.60 E16.66253
G1 X170.56 Y161.91 E16.75994
G1 X169.84 Y162.29 E16.79857
G1 X169.38 Y166.94 E17.01853
G1 X159.70 Y166.94 E17.47501
G1 X156.94 Y165.28 E17.62661
G1 X156.95 Y165.28 E17.62668
G1 X153.14 Y163.00 E17.83607
G1 X153.64 Y157.90 E18.07737
G1 X153.33 Y156.89 E18.12754
G1 X153.00 Y156.26 E18.16078
G1 X152.55 Y155.72 E18.19412
G1 X152.00 Y155.27 E18.22766
G1 X151.38 Y154.94 E18.26076
G1 X150.70 Y154.73 E18.29433
G1 X150.00 Y154.66 E18.32750
G1 X149.30 Y154.73 E18.36067
G1 X148.62 Y154.94 E18.39428
G1 X148.00 Y155.27 E18.42742
G1 X147.45 Y155.72 E18.46082
G1 X147.00 Y156.26 E18.49429
G1 X146.67 Y156.89 E18.52754
G1 X146.36 Y157.91 E18.57771
G1 X146.86 Y162.99 E18.81886
G1 X140.30 Y166.94 E19.17989
G1 X130.62 Y166.94 E19.63637
G1 X129.76 Y158.27 E20.04721
G1 X130.09 Y154.94 E20.20495
G1 X130.18 Y154.23 E20.23855
G1 X131.10 Y151.20 E20.38780
G1 X131.31 Y150.52 E20.42147
G1 X133.16 Y147.05 E20.60698
G1 X135.67 Y143.98 E20.79371
G0 F12000 X135.95 Y144.27
G1 F2700 X138.45 Y142.21 E20.94641
G1 X138.96 Y141.79 E20.97748
G1 X142.38 Y139.96 E21.16062
G1 X145.48 Y139.01 E21.31313
G1 X146.13 Y138.81 E21.34533
G1 X149.26 Y138.50 E21.49368
G1 X149.91 Y138.42 E21.52462
G1 X153.28 Y138.75 E21.68434
G1 X153.95 Y138.84 E21.71623
G1 X156.95 Y139.75 E21.86383
G1 X157.59 Y139.94 E21.89562
G1 X160.99 Y141.76 E22.07739
G1 X162.77 Y143.22 E22.18581
G1 X164.68 Y143.03 E22.27637
G1 X166.66 Y143.21 E22.36988
G1 X168.57 Y143.79 E22.46415
G1 X170.32 Y144.73 E22.55780
G1 X171.85 Y145.98 E22.65113
G1 X173.12 Y147.52 E22.74487
G1 X174.06 Y149.27 E22.83878
G1 X174.63 Y151.17 E22.93225
G1 X174.83 Y153.14 E23.02553
G1 X174.64 Y155.12 E23.11938
G1 X174.07 Y157.02 E23.21322
G1 X173.13 Y158.77 E23.30683
G1 X171.87 Y160.31 E23.40063
G1 X170.34 Y161.57 E23.49432
G1 X169.46 Y162.04 E23.54115
G1 X169.02 Y166.54 E23.75406
G1 X159.81 Y166.54 E24.18819
G1 X157.15 Y164.94 E24.33456
G1 X157.15 Y164.94 E24.33461
G1 X153.56 Y162.78 E24.53201
G1 X154.05 Y157.87 E24.76506
G1 X153.70 Y156.73 E24.82100
G1 X153.33 Y156.04 E24.85801
G1 X152.84 Y155.43 E24.89490
G1 X152.23 Y154.94 E24.93203
G1 X151.53 Y154.56 E24.96924
G1 X150.78 Y154.34 E25.00621
G1 X150.00 Y154.26 E25.04317
G1 X149.22 Y154.34 E25.08013
G1 X148.47 Y154.56 E25.11725
G1 X147.78 Y154.93 E25.15423
G1 X147.17 Y155.43 E25.19135
G1 X146.67 Y156.04 E25.22854
G1 X146.30 Y156.73 E25.26537
G1 X145.95 Y157.87 E25.32131
G1 X146.44 Y162.78 E25.55422
G1 X140.19 Y166.54 E25.89810
G1 X130.98 Y166.54 E26.33222
G1 X130.17 Y158.27 E26.72411
G1 X130.49 Y154.98 E26.87977
G1 X130.57 Y154.31 E26.91152
G1 X131.48 Y151.32 E27.05910
G1 X131.68 Y150.67 E27.09094
G1 X133.50 Y147.27 E27.27275
G1 X135.95 Y144.27 E27.45583
G0 F12000 X136.24 Y144.55
G1 F2700 X138.71 Y142.52 E27.60668
G1 X139.18 Y142.12 E27.63598
G1 X142.54 Y140.33 E27.81533
G1 X145.59 Y139.39 E27.96596
G1 X146.21 Y139.21 E27.99627
G1 X149.28 Y138.91 E28.14159
G1 X149.92 Y138.83 E28.17215
G1 X153.24 Y139.15 E28.32952
G1 X153.87 Y139.23 E28.35950
G1 X156.83 Y140.13 E28.50552
G1 X157.44 Y140.31 E28.53544
G1 X160.77 Y142.09 E28.71350
G1 X162.68 Y143.65 E28.82959
G1 X162.80 Y143.62 E28.83560
G1 X164.69 Y143.43 E28.92503
G1 X166.58 Y143.61 E29.01480
G1 X168.42 Y144.16 E29.10537
G1 X170.10 Y145.06 E29.19531
G1 X171.57 Y146.27 E29.28492
G1 X172.78 Y147.74 E29.37494
G1 X173.69 Y149.43 E29.46511
G1 X174.24 Y151.25 E29.55489
G1 X174.43 Y153.14 E29.64447
G1 X174.25 Y155.04 E29.73463
G1 X173.69 Y156.87 E29.82472
G1 X172.80 Y158.55 E29.91457
G1 X171.59 Y160.03 E30.00465
G1 X170.11 Y161.24 E30.09462
G1 X169.09 Y161.79 E30.14968
G1 X168.66 Y166.14 E30.35558
G1 X159.92 Y166.14 E30.76740
G1 X157.36 Y164.59 E30.90855
G1 X157.36 Y164.59 E30.90860
G1 X153.98 Y162.57 E31.09407
G1 X154.45 Y157.82 E31.31897
G1 X154.07 Y156.58 E31.38037
G1 X153.67 Y155.82 E31.42119
G1 X153.12 Y155.15 E31.46181
G1 X152.45 Y154.60 E31.50265
G1 X151.68 Y154.19 E31.54363
G1 X150.86 Y153.94 E31.58419
G1 X150.00 Y153.86 E31.62493
G1 X149.14 Y153.94 E31.66568
G1 X148.32 Y154.19 E31.70620
G1 X147.55 Y154.60 E31.74736
G1 X146.88 Y155.15 E31.78797
G1 X146.34 Y155.82 E31.82875
G1 X145.93 Y156.58 E31.86962
G1 X145.55 Y157.83 E31.93097
G1 X146.02 Y162.57 E32.15573
G1 X140.08 Y166.14 E32.48243
G1 X131.34 Y166.14 E32.89425
G1 X130.57 Y158.27 E33.26718
G1 X130.89 Y155.03 E33.42071
G1 X130.97 Y154.40 E33.45060
G1 X131.86 Y151.43 E33.59661
G1 X132.05 Y150.83 E33.62658
G1 X133.83 Y147.50 E33.80471
G1 X136.24 Y144.55 E33.98403
G0 F12000 X136.52 Y144.84
G1 F2700 X138.96 Y142.83 E34.13304
G1 X139.41 Y142.45 E34.16053
G1 X142.69 Y140.70 E34.33608
G1 X145.71 Y139.78 E34.48489
G1 X146.29 Y139.60 E34.51333
G1 X149.33 Y139.30 E34.65747
G1 X149.92 Y139.23 E34.68569
G1 X153.19 Y139.55 E34.84073
G1 X153.79 Y139.62 E34.86886
G1 X156.72 Y140.51 E35.01327
G1 X157.29 Y140.69 E35.04131
G1 X160.55 Y142.43 E35.21570
G1 X162.59 Y144.10 E35.33993
G1 X162.88 Y144.01 E35.35417
G1 X164.69 Y143.83 E35.43994
G1 X166.50 Y144.00 E35.52601
G1 X168.26 Y144.53 E35.61280
G1 X169.88 Y145.40 E35.69902
G1 X171.29 Y146.55 E35.78495
G1 X172.45 Y147.96 E35.87126
G1 X173.32 Y149.58 E35.95770
G1 X173.85 Y151.33 E36.04377
G1 X174.03 Y153.14 E36.12966
G1 X173.85 Y154.96 E36.21607
G1 X173.32 Y156.72 E36.30242
G1 X172.46 Y158.33 E36.38860
G1 X171.30 Y159.75 E36.47496
G1 X169.89 Y160.91 E36.56121
G1 X168.71 Y161.54 E36.62448
G1 X168.29 Y165.74 E36.82332
G1 X160.03 Y165.74 E37.21279
G1 X157.56 Y164.25 E37.34871
G1 X157.56 Y164.25 E37.34876
G1 X154.41 Y162.36 E37.52231
G1 X154.86 Y157.79 E37.73896
G1 X154.45 Y156.42 E37.80608
G1 X154.00 Y155.59 E37.85046
G1 X153.40 Y154.87 E37.89496
G1 X152.67 Y154.26 E37.93956
G1 X151.84 Y153.82 E37.98384
G1 X150.94 Y153.55 E38.02858
G1 X150.00 Y153.46 E38.07288
G1 X149.07 Y153.55 E38.11719
G1 X148.16 Y153.82 E38.16184
G1 X147.33 Y154.27 E38.20641
G1 X146.60 Y154.86 E38.25077
G1 X146.00 Y155.59 E38.29530
G1 X145.56 Y156.43 E38.33980
G1 X145.14 Y157.78 E38.40678
G1 X145.59 Y162.36 E38.62339
G1 X139.97 Y165.74 E38.93293
G1 X131.71 Y165.74 E39.32240
G1 X130.97 Y158.27 E39.67638
G1 X131.28 Y155.07 E39.82782
G1 X131.36 Y154.48 E39.85586
G1 X132.25 Y151.55 E40.00023
G1 X132.42 Y150.98 E40.02834
G1 X134.16 Y147.72 E40.20277
G1 X136.52 Y144.84 E40.37840
G0 F12000 X136.81 Y145.12
G1 F2700 X139.22 Y143.13 E40.52554
G1 X139.63 Y142.79 E40.55116
G1 X142.85 Y141.07 E40.72299
G1 X145.83 Y140.16 E40.86994
G1 X146.37 Y140.00 E40.89646
G1 X149.38 Y139.70 E41.03913
G1 X149.93 Y139.63 E41.06541
G1 X153.15 Y139.95 E41.21803
G1 X153.70 Y140.02 E41.24431
G1 X156.60 Y140.90 E41.38708
G1 X157.13 Y141.06 E41.41330
G1 X160.32 Y142.76 E41.58400
G1 X162.50 Y144.54 E41.71651
G1 X162.96 Y144.40 E41.73893
G1 X164.69 Y144.23 E41.82102
G1 X166.43 Y144.40 E41.90335
G1 X168.11 Y144.91 E41.98639
G1 X169.65 Y145.73 E42.06888
G1 X171.00 Y146.84 E42.15115
G1 X172.12 Y148.19 E42.23373
G1 X172.94 Y149.73 E42.31644
G1 X173.45 Y151.41 E42.39883
G1 X173.63 Y153.14 E42.48101
G1 X173.46 Y154.88 E42.56368
G1 X172.95 Y156.56 E42.64634
G1 X172.13 Y158.10 E42.72877
G1 X171.02 Y159.46 E42.81141
G1 X169.67 Y160.57 E42.89394
G1 X168.33 Y161.29 E42.96544
G1 X167.93 Y165.34 E43.15726
G1 X160.15 Y165.34 E43.52443
G1 X157.77 Y163.91 E43.65513
G1 X157.77 Y163.91 E43.65518
G1 X154.83 Y162.15 E43.81679
G1 X155.26 Y157.75 E44.02530
G1 X154.82 Y156.27 E44.09789
G1 X154.34 Y155.37 E44.14611
G1 X153.69 Y154.58 E44.19426
G1 X152.90 Y153.93 E44.24258
G1 X152.00 Y153.45 E44.29074
G1 X151.02 Y153.15 E44.33889
G1 X150.00 Y153.05 E44.38708
G1 X148.98 Y153.15 E44.43527
G1 X148.01 Y153.45 E44.48337
G1 X147.10 Y153.93 E44.53177
G1 X146.31 Y154.58 E44.57985
G1 X145.67 Y155.37 E44.62810
G1 X145.18 Y156.27 E44.67635
G1 X144.74 Y157.75 E44.74889
G1 X145.17 Y162.14 E44.95730
G1 X139.86 Y165.34 E45.24969
G1 X132.07 Y165.34 E45.61686
G1 X131.37 Y158.27 E45.95188
G1 X131.68 Y155.12 E46.10119
G1 X131.75 Y154.56 E46.12737
G1 X132.63 Y151.67 E46.27017
G1 X132.79 Y151.13 E46.29639
G1 X134.50 Y147.94 E46.46713
G1 X136.81 Y145.12 E46.63912
G0 F12000 X137.09 Y145.40
G1 F2700 X139.47 Y143.44 E46.78441
G1 X139.86 Y143.12 E46.80825
G1 X143.00 Y141.44 E46.97629
G1 X145.94 Y140.54 E47.12141
G1 X146.44 Y140.39 E47.14606
G1 X149.43 Y140.10 E47.28735
G1 X149.93 Y140.03 E47.31150
G1 X153.11 Y140.34 E47.46180
G1 X153.62 Y140.41 E47.48623
G1 X156.48 Y141.28 E47.62737
G1 X156.98 Y141.43 E47.65171
G1 X160.10 Y143.10 E47.81872
G1 X162.41 Y144.99 E47.95944
G1 X163.03 Y144.80 E47.99009
G1 X164.69 Y144.63 E48.06848
G1 X166.35 Y144.79 E48.14716
G1 X167.96 Y145.28 E48.22646
G1 X169.43 Y146.06 E48.30519
G1 X170.72 Y147.12 E48.38378
G1 X171.78 Y148.41 E48.46264
G1 X172.57 Y149.89 E48.54161
G1 X173.06 Y151.48 E48.62025
G1 X173.22 Y153.14 E48.69879
G1 X173.06 Y154.81 E48.77772
G1 X172.58 Y156.41 E48.85662
G1 X171.79 Y157.88 E48.93538
G1 X170.74 Y159.18 E49.01430
G1 X169.44 Y160.24 E49.09311
G1 X167.97 Y161.03 E49.17176
G1 X167.95 Y161.03 E49.17270
G1 X167.57 Y164.94 E49.35774
G1 X160.26 Y164.94 E49.70260
G1 X157.97 Y163.57 E49.82808
G1 X157.97 Y163.56 E49.82813
G1 X155.25 Y161.93 E49.97779
G1 X155.67 Y157.71 E50.17805
G1 X155.19 Y156.12 E50.25641
G1 X154.67 Y155.15 E50.30840
G1 X153.97 Y154.30 E50.36013
G1 X153.12 Y153.60 E50.41203
G1 X152.15 Y153.08 E50.46419
G1 X151.10 Y152.76 E50.51588
G1 X150.00 Y152.65 E50.56781
G1 X148.91 Y152.76 E50.61974
G1 X147.85 Y153.08 E50.67158
G1 X146.88 Y153.60 E50.72355
G1 X146.03 Y154.30 E50.77544
G1 X145.33 Y155.15 E50.82727
G1 X144.81 Y156.12 E50.87930
G1 X144.33 Y157.71 E50.95756
G1 X144.75 Y161.93 E51.15776
G1 X139.75 Y164.94 E51.43298
G1 X132.43 Y164.94 E51.77784
G1 X131.77 Y158.27 E52.09390
G1 X132.08 Y155.16 E52.24112
G1 X132.14 Y154.65 E52.26545
G1 X133.01 Y151.78 E52.40659
G1 X133.16 Y151.29 E52.43098
G1 X134.83 Y148.16 E52.59805
G1 X137.09 Y145.40 E52.76628
G0 F12000 X137.38 Y145.69
G1 F2700 X139.70 Y143.77 E52.90843
G1 X140.08 Y143.45 E52.93174
G1 X143.16 Y141.81 E53.09600
G1 X146.06 Y140.92 E53.23925
G1 X146.52 Y140.78 E53.26202
G1 X149.48 Y140.49 E53.40204
G1 X149.94 Y140.44 E53.42400
G1 X153.06 Y140.74 E53.57197
G1 X153.54 Y140.80 E53.59450
G1 X156.37 Y141.66 E53.73407
G1 X156.82 Y141.80 E53.75655
G1 X159.88 Y143.43 E53.91986
G1 X162.32 Y145.43 E54.06876
G1 X163.11 Y145.19 E54.10764
G1 X164.69 Y145.03 E54.18233
G1 X166.27 Y145.19 E54.25731
G1 X167.80 Y145.65 E54.33282
G1 X169.21 Y146.40 E54.40788
G1 X170.44 Y147.40 E54.48272
G1 X171.45 Y148.63 E54.55790
G1 X172.20 Y150.04 E54.63313
G1 X172.66 Y151.56 E54.70808
G1 X172.82 Y153.14 E54.78292
G1 X172.67 Y154.73 E54.85810
G1 X172.21 Y156.25 E54.93332
G1 X171.46 Y157.66 E55.00832
G1 X170.45 Y158.89 E55.08353
G1 X169.22 Y159.90 E55.15862
G1 X167.82 Y160.65 E55.23358
G1 X167.58 Y160.73 E55.24526
G1 X167.21 Y164.54 E55.42580
G1 X160.37 Y164.54 E55.74830
G1 X158.18 Y163.22 E55.86856
G1 X155.68 Y161.72 E56.00632
G1 X156.08 Y157.67 E56.19842
G1 X155.56 Y155.96 E56.28239
G1 X155.01 Y154.93 E56.33777
G1 X154.25 Y154.01 E56.39369
G1 X153.34 Y153.26 E56.44921
G1 X152.30 Y152.71 E56.50492
G1 X151.18 Y152.37 E56.56031
G1 X150.00 Y152.25 E56.61604
G1 X148.82 Y152.37 E56.67177
G1 X147.70 Y152.71 E56.72716
G1 X146.66 Y153.26 E56.78292
G1 X145.75 Y154.01 E56.83854
G1 X145.00 Y154.92 E56.89420
G1 X144.44 Y155.96 E56.94977
G1 X143.93 Y157.67 E57.03369
G1 X144.32 Y161.72 E57.22570
G1 X139.63 Y164.54 E57.48376
G1 X132.79 Y164.54 E57.80627
G1 X132.18 Y158.27 E58.10338
G1 X132.48 Y155.20 E58.24852
G1 X132.54 Y154.73 E58.27100
G1 X133.40 Y151.90 E58.41051
G1 X133.53 Y151.44 E58.43303
G1 X135.17 Y148.39 E58.59639
G1 X137.38 Y145.69 E58.76093
G0 F12000 X137.66 Y145.97
G1 F2700 X139.96 Y144.08 E58.90133
G1 X140.31 Y143.79 E58.92270
G1 X143.31 Y142.18 E59.08320
G1 X146.18 Y141.31 E59.22462
G1 X146.60 Y141.18 E59.24552
G1 X149.49 Y140.89 E59.38260
G1 X149.94 Y140.84 E59.40403
G1 X153.02 Y141.14 E59.54959
G1 X153.45 Y141.19 E59.57031
G1 X156.25 Y142.04 E59.70821
G1 X156.67 Y142.17 E59.72886
G1 X159.66 Y143.77 E59.88848
G1 X162.24 Y145.88 E60.04559
G1 X163.19 Y145.59 E60.09264
G1 X164.69 Y145.44 E60.16368
G1 X166.19 Y145.58 E60.23492
G1 X167.65 Y146.02 E60.30670
G1 X168.98 Y146.73 E60.37805
G1 X170.15 Y147.69 E60.44923
G1 X171.12 Y148.86 E60.52066
G1 X171.83 Y150.19 E60.59216
G1 X172.27 Y151.64 E60.66341
G1 X172.42 Y153.14 E60.73455
G1 X172.28 Y154.65 E60.80604
G1 X171.84 Y156.10 E60.87747
G1 X171.13 Y157.44 E60.94881
G1 X170.17 Y158.61 E61.02029
G1 X169.00 Y159.57 E61.09166
G1 X167.66 Y160.28 E61.16289
G1 X167.21 Y160.42 E61.18531
G1 X166.84 Y164.14 E61.36135
G1 X160.48 Y164.14 E61.66160
G1 X158.39 Y162.88 E61.77658
G1 X156.10 Y161.51 E61.90241
G1 X156.48 Y157.63 E62.08632
G1 X155.93 Y155.81 E62.17586
G1 X155.34 Y154.70 E62.23499
G1 X154.54 Y153.73 E62.29443
G1 X153.56 Y152.93 E62.35401
G1 X152.46 Y152.34 E62.41310
G1 X151.25 Y151.97 E62.47255
G1 X150.00 Y151.85 E62.53182
G1 X148.75 Y151.97 E62.59110
G1 X147.54 Y152.34 E62.65068
G1 X146.44 Y152.93 E62.70961
G1 X145.46 Y153.73 E62.76918
G1 X144.66 Y154.71 E62.82879
G1 X144.07 Y155.81 E62.88777
G1 X143.52 Y157.63 E62.97737
G1 X143.90 Y161.51 E63.16123
G1 X139.52 Y164.14 E63.40207
G1 X133.16 Y164.14 E63.70232
G1 X132.58 Y158.27 E63.98047
G1 X132.88 Y155.25 E64.12348
G1 X132.93 Y154.81 E64.14411
G1 X133.78 Y152.01 E64.28202
G1 X133.91 Y151.60 E64.30268
G1 X135.50 Y148.61 E64.46235
G1 X137.66 Y145.97 E64.62320
G0 F12000 X137.94 Y146.25
G1 F2700 X140.23 Y144.37 E64.76294
G1 X140.53 Y144.12 E64.78129
G1 X143.46 Y142.55 E64.93802
G1 X146.29 Y141.69 E65.07761
G1 X146.68 Y141.57 E65.09659
G1 X149.55 Y141.29 E65.23257
G1 X149.95 Y141.24 E65.25163
G1 X152.97 Y141.54 E65.39487
G1 X153.37 Y141.59 E65.41369
G1 X156.13 Y142.43 E65.54999
G1 X156.52 Y142.54 E65.56878
G1 X159.43 Y144.10 E65.72473
G1 X162.01 Y146.21 E65.88190
G1 X162.11 Y146.33 E65.88921
G1 X163.27 Y145.98 E65.94627
G1 X164.69 Y145.84 E66.01361
G1 X166.12 Y145.97 E66.08116
G1 X167.50 Y146.39 E66.14918
G1 X168.76 Y147.07 E66.21679
G1 X169.87 Y147.97 E66.28429
G1 X170.78 Y149.08 E66.35196
G1 X171.46 Y150.35 E66.41975
G1 X171.88 Y151.72 E66.48731
G1 X172.02 Y153.14 E66.55471
G1 X171.88 Y154.57 E66.62251
G1 X171.47 Y155.95 E66.69024
G1 X170.79 Y157.21 E66.75786
G1 X169.88 Y158.32 E66.82559
G1 X168.77 Y159.24 E66.89324
G1 X167.51 Y159.91 E66.96077
G1 X166.84 Y160.12 E66.99395
G1 X166.48 Y163.74 E67.16544
G1 X160.59 Y163.74 E67.44333
G1 X158.59 Y162.54 E67.55309
G1 X156.52 Y161.29 E67.66697
G1 X156.89 Y157.59 E67.84273
G1 X156.30 Y155.66 E67.93787
G1 X155.67 Y154.48 E68.00087
G1 X154.82 Y153.44 E68.06392
G1 X153.79 Y152.59 E68.12708
G1 X152.61 Y151.97 E68.19001
G1 X151.33 Y151.58 E68.25306
G1 X150.00 Y151.45 E68.31617
G1 X148.67 Y151.58 E68.37928
G1 X147.39 Y151.96 E68.44213
G1 X146.21 Y152.60 E68.50548
G1 X145.18 Y153.44 E68.56837
G1 X144.33 Y154.47 E68.63130
G1 X143.70 Y155.66 E68.69471
G1 X143.11 Y157.59 E68.78962
G1 X143.48 Y161.29 E68.96528
G1 X139.41 Y163.74 E69.18897
G1 X133.52 Y163.74 E69.46687
G1 X132.98 Y158.27 E69.72607
G1 X133.27 Y155.29 E69.86699
G1 X133.32 Y154.90 E69.88576
G1 X134.16 Y152.13 E70.02201
G1 X134.28 Y151.75 E70.04084
G1 X135.84 Y148.83 E70.19683
G1 X137.94 Y146.25 E70.35397
G0 F12000 X138.23 Y146.54
G1 F2700 X140.49 Y144.68 E70.49183
G1 X140.76 Y144.45 E70.50840
G1 X143.62 Y142.93 E70.66138
G1 X146.41 Y142.07 E70.79905
G1 X146.76 Y141.97 E70.81620
G1 X149.59 Y141.69 E70.95063
G1 X149.96 Y141.64 E70.96774
G1 X152.93 Y141.94 E71.10866
G1 X153.29 Y141.98 E71.12562
G1 X156.02 Y142.81 E71.26031
G1 X156.36 Y142.91 E71.27721
G1 X159.21 Y144.44 E71.42947
G1 X161.73 Y146.50 E71.58296
G1 X161.98 Y146.80 E71.60176
G1 X162.05 Y146.77 E71.60524
G1 X163.35 Y146.38 E71.66930
G1 X164.69 Y146.24 E71.73299
G1 X166.04 Y146.37 E71.79680
G1 X167.34 Y146.76 E71.86108
G1 X168.54 Y147.40 E71.92501
G1 X169.59 Y148.26 E71.98875
G1 X170.45 Y149.31 E72.05274
G1 X171.09 Y150.50 E72.11679
G1 X171.48 Y151.80 E72.18066
G1 X171.62 Y153.14 E72.24436
G1 X171.49 Y154.50 E72.30842
G1 X171.09 Y155.79 E72.37245
G1 X170.46 Y156.99 E72.43633
G1 X169.60 Y158.04 E72.50037
G1 X168.55 Y158.90 E72.56430
G1 X167.36 Y159.54 E72.62814
G1 X166.47 Y159.81 E72.67201
G1 X166.12 Y163.34 E72.83900
G1 X160.70 Y163.34 E73.09459
G1 X158.80 Y162.19 E73.19910
G1 X158.80 Y162.19 E73.19917
G1 X156.94 Y161.08 E73.30116
G1 X157.29 Y157.54 E73.46876
G1 X156.68 Y155.51 E73.56919
G1 X156.00 Y154.25 E73.63640
G1 X155.11 Y153.16 E73.70294
G1 X154.02 Y152.26 E73.76958
G1 X152.76 Y151.59 E73.83674
G1 X151.41 Y151.18 E73.90312
G1 X150.00 Y151.04 E73.97003
G1 X148.59 Y151.18 E74.03694
G1 X147.24 Y151.59 E74.10345
G1 X145.99 Y152.26 E74.17040
G1 X144.89 Y153.16 E74.23710
G1 X144.00 Y154.25 E74.30385
G1 X143.33 Y155.50 E74.37081
G1 X142.71 Y157.54 E74.47130
G1 X143.06 Y161.08 E74.63890
G1 X139.30 Y163.34 E74.84541
G1 X133.88 Y163.34 E75.10100
G1 X133.38 Y158.27 E75.34125
G1 X133.67 Y155.34 E75.48004
G1 X133.71 Y154.98 E75.49695
G1 X134.54 Y152.25 E75.63163
G1 X134.65 Y151.90 E75.64858
G1 X136.17 Y149.06 E75.80088
G1 X138.23 Y146.54 E75.95433
G0 F12000 X138.51 Y146.82
G1 F2700 X140.73 Y145.00 E76.08947
G1 X140.98 Y144.79 E76.10504
G1 X143.77 Y143.30 E76.25429
G1 X146.53 Y142.45 E76.39014
G1 X146.84 Y142.36 E76.40537
G1 X149.65 Y142.08 E76.53870
G1 X149.96 Y142.05 E76.55348
G1 X152.88 Y142.33 E76.69198
G1 X153.20 Y142.37 E76.70709
G1 X155.90 Y143.19 E76.84016
G1 X156.21 Y143.28 E76.85524
G1 X158.99 Y144.77 E77.00378
G1 X161.45 Y146.78 E77.15359
G1 X161.88 Y147.31 E77.18602
G1 X162.20 Y147.14 E77.20305
G1 X163.43 Y146.77 E77.26340
G1 X164.69 Y146.64 E77.32340
G1 X165.96 Y146.76 E77.38351
G1 X167.19 Y147.13 E77.44399
G1 X168.31 Y147.74 E77.50423
G1 X169.30 Y148.54 E77.56428
G1 X170.11 Y149.53 E77.62455
G1 X170.72 Y150.66 E77.68487
G1 X171.09 Y151.88 E77.74502
G1 X171.22 Y153.14 E77.80503
G1 X171.09 Y154.42 E77.86534
G1 X170.72 Y155.64 E77.92564
G1 X170.12 Y156.77 E77.98583
G1 X169.31 Y157.76 E78.04612
G1 X168.33 Y158.57 E78.10633
G1 X167.20 Y159.17 E78.16648
G1 X166.09 Y159.51 E78.22105
G1 X165.76 Y162.94 E78.38354
G1 X160.81 Y162.94 E78.61678
G1 X159.00 Y161.85 E78.71607
G1 X159.01 Y161.85 E78.71614
G1 X157.37 Y160.87 E78.80620
G1 X157.70 Y157.51 E78.96551
G1 X157.04 Y155.35 E79.07195
G1 X156.34 Y154.03 E79.14244
G1 X155.39 Y152.88 E79.21283
G1 X154.24 Y151.93 E79.28333
G1 X152.91 Y151.22 E79.35401
G1 X151.49 Y150.79 E79.42410
G1 X150.00 Y150.64 E79.49480
G1 X148.51 Y150.79 E79.56549
G1 X147.09 Y151.22 E79.63563
G1 X145.76 Y151.93 E79.70635
G1 X144.61 Y152.87 E79.77675
G1 X143.66 Y154.03 E79.84731
G1 X142.96 Y155.35 E79.91763
G1 X142.30 Y157.51 E80.02413
G1 X142.63 Y160.87 E80.18340
G1 X139.19 Y162.94 E80.37275
G1 X134.25 Y162.94 E80.60599
G1 X133.78 Y158.27 E80.82729
G1 X134.07 Y155.38 E80.96400
G1 X134.11 Y155.06 E80.97906
G1 X134.93 Y152.36 E81.11212
G1 X135.02 Y152.06 E81.12720
G1 X136.50 Y149.28 E81.27578
G1 X138.51 Y146.82 E81.42555
G0 F12000 X138.80 Y147.10
G1 F2700 X141.00 Y145.30 E81.55965
G1 X141.21 Y145.12 E81.57261
G1 X143.93 Y143.67 E81.71803
G1 X146.64 Y142.84 E81.85206
G1 X146.91 Y142.75 E81.86541
G1 X149.70 Y142.48 E81.99737
G1 X149.97 Y142.45 E82.01001
G1 X152.84 Y142.73 E82.14620
G1 X153.12 Y142.76 E82.15945
G1 X155.79 Y143.57 E82.29088
G1 X156.05 Y143.66 E82.30410
G1 X158.76 Y145.10 E82.44897
G1 X161.16 Y147.06 E82.59506
G1 X161.78 Y147.82 E82.64112
G1 X162.35 Y147.51 E82.67176
G1 X163.50 Y147.16 E82.72842
G1 X164.69 Y147.04 E82.78467
G1 X165.88 Y147.16 E82.84108
G1 X167.04 Y147.50 E82.89787
G1 X168.09 Y148.07 E82.95437
G1 X169.02 Y148.83 E83.01077
G1 X169.78 Y149.75 E83.06729
G1 X170.35 Y150.81 E83.12385
G1 X170.69 Y151.96 E83.18032
G1 X170.81 Y153.15 E83.23663
G1 X170.70 Y154.34 E83.29325
G1 X170.35 Y155.49 E83.34979
G1 X169.79 Y156.54 E83.40624
G1 X169.03 Y157.47 E83.46285
G1 X168.10 Y158.23 E83.51934
G1 X167.05 Y158.80 E83.57575
G1 X165.90 Y159.15 E83.63234
G1 X165.73 Y159.16 E83.64053
G1 X165.39 Y162.54 E83.80027
G1 X160.92 Y162.54 E84.01121
G1 X159.21 Y161.51 E84.10527
G1 X157.79 Y160.66 E84.18336
G1 X158.11 Y157.47 E84.33457
G1 X157.42 Y155.19 E84.44649
G1 X156.67 Y153.81 E84.52081
G1 X155.68 Y152.59 E84.59489
G1 X154.46 Y151.59 E84.66907
G1 X153.07 Y150.85 E84.74334
G1 X151.57 Y150.39 E84.81746
G1 X150.00 Y150.24 E84.89171
G1 X148.43 Y150.39 E84.96596
G1 X146.93 Y150.85 E85.04024
G1 X145.54 Y151.59 E85.11429
G1 X144.32 Y152.59 E85.18851
G1 X143.33 Y153.81 E85.26276
G1 X142.59 Y155.19 E85.33687
G1 X141.90 Y157.47 E85.44894
G1 X142.21 Y160.66 E85.60005
G1 X139.08 Y162.54 E85.77223
G1 X134.61 Y162.54 E85.98316
G1 X134.19 Y158.26 E86.18555
G1 X134.47 Y155.43 E86.32013
G1 X134.50 Y155.15 E86.33329
G1 X135.31 Y152.48 E86.46475
G1 X135.39 Y152.21 E86.47797
G1 X136.84 Y149.50 E86.62289
G1 X138.80 Y147.10 E86.76893
G0 F12000 X139.08 Y147.39
G1 F2700 X141.25 Y145.61 E86.90120
G1 X141.43 Y145.46 E86.91228
G1 X144.08 Y144.04 E87.05396
G1 X146.76 Y143.22 E87.18611
G1 X146.99 Y143.15 E87.19760
G1 X149.75 Y142.88 E87.32829
G1 X149.97 Y142.85 E87.33874
G1 X152.80 Y143.13 E87.47259
G1 X153.03 Y143.16 E87.48395
G1 X155.67 Y143.96 E87.61381
G1 X155.90 Y144.03 E87.62515
G1 X158.54 Y145.44 E87.76633
G1 X160.88 Y147.35 E87.90873
G1 X161.68 Y148.33 E87.96842
G1 X162.51 Y147.88 E88.01267
G1 X163.58 Y147.56 E88.06558
G1 X164.69 Y147.45 E88.11818
G1 X165.81 Y147.55 E88.17091
G1 X166.88 Y147.88 E88.22390
G1 X167.87 Y148.41 E88.27668
G1 X168.73 Y149.11 E88.32937
G1 X169.44 Y149.98 E88.38217
G1 X169.97 Y150.97 E88.43504
G1 X170.30 Y152.03 E88.48776
G1 X170.41 Y153.15 E88.54042
G1 X170.30 Y154.26 E88.59329
G1 X169.98 Y155.33 E88.64610
G1 X169.45 Y156.32 E88.69887
G1 X168.74 Y157.19 E88.75172
G1 X167.88 Y157.90 E88.80453
G1 X166.89 Y158.43 E88.85719
G1 X165.82 Y158.75 E88.91004
G1 X165.36 Y158.80 E88.93189
G1 X165.03 Y162.14 E89.08997
G1 X161.03 Y162.14 E89.27855
G1 X159.42 Y161.17 E89.36739
G1 X158.21 Y160.44 E89.43356
G1 X158.51 Y157.43 E89.57657
G1 X157.79 Y155.04 E89.69415
G1 X157.01 Y153.58 E89.77206
G1 X155.96 Y152.31 E89.84979
G1 X154.68 Y151.26 E89.92807
G1 X153.23 Y150.48 E90.00581
G1 X151.64 Y150.00 E90.08377
G1 X150.00 Y149.84 E90.16162
G1 X148.36 Y150.00 E90.23948
G1 X146.78 Y150.48 E90.31744
G1 X145.32 Y151.26 E90.39522
G1 X144.04 Y152.31 E90.47329
G1 X142.99 Y153.59 E90.55129
G1 X142.21 Y155.04 E90.62922
G1 X141.49 Y157.43 E90.74665
G1 X141.79 Y160.44 E90.88967
G1 X138.97 Y162.14 E91.04469
G1 X134.97 Y162.14 E91.23327
G1 X134.59 Y158.26 E91.41671
G1 X134.86 Y155.47 E91.54915
G1 X134.89 Y155.23 E91.56051
G1 X135.69 Y152.60 E91.69031
G1 X135.76 Y152.37 E91.70169
G1 X137.17 Y149.72 E91.84292
G1 X139.08 Y147.39 E91.98528
G0 F12000 X139.37 Y147.67
G1 F2700 X141.50 Y145.91 E92.11570
G1 X141.66 Y145.79 E92.12497
G1 X144.23 Y144.41 E92.26286
G1 X146.88 Y143.60 E92.39319
G1 X147.07 Y143.54 E92.40280
G1 X149.76 Y143.28 E92.53040
G1 X149.98 Y143.25 E92.54047
G1 X152.75 Y143.53 E92.67191
G1 X152.95 Y143.55 E92.68147
G1 X155.55 Y144.34 E92.80965
G1 X155.75 Y144.40 E92.81916
G1 X158.32 Y145.77 E92.95665
G1 X160.59 Y147.63 E93.09539
G1 X161.61 Y148.86 E93.17040
G1 X161.75 Y148.75 E93.17901
G1 X162.66 Y148.25 E93.22811
G1 X163.66 Y147.95 E93.27729
G1 X164.69 Y147.85 E93.32620
G1 X165.73 Y147.95 E93.37518
G1 X166.73 Y148.25 E93.42443
G1 X167.65 Y148.74 E93.47355
G1 X168.45 Y149.40 E93.52251
G1 X169.11 Y150.20 E93.57162
G1 X169.60 Y151.12 E93.62074
G1 X169.91 Y152.11 E93.66976
G1 X170.01 Y153.15 E93.71872
G1 X169.91 Y154.18 E93.76785
G1 X169.61 Y155.18 E93.81696
G1 X169.12 Y156.10 E93.86599
G1 X168.46 Y156.91 E93.91515
G1 X167.66 Y157.56 E93.96421
G1 X166.74 Y158.06 E94.01322
G1 X165.74 Y158.36 E94.06232
G1 X165.00 Y158.44 E94.09777
G1 X164.67 Y161.74 E94.25420
G1 X161.14 Y161.74 E94.42047
G1 X158.64 Y160.23 E94.55835
G1 X158.94 Y157.12 E94.70567
G1 X158.84 Y157.12 E94.71072
G1 X158.16 Y154.89 E94.82081
G1 X157.34 Y153.36 E94.90246
G1 X156.25 Y152.02 E94.98408
G1 X154.91 Y150.92 E95.06570
G1 X153.38 Y150.11 E95.14741
G1 X151.72 Y149.60 E95.22896
G1 X150.00 Y149.44 E95.31061
G1 X148.28 Y149.60 E95.39226
G1 X146.62 Y150.11 E95.47372
G1 X145.09 Y150.93 E95.55562
G1 X143.76 Y152.02 E95.63714
G1 X142.66 Y153.36 E95.71876
G1 X141.84 Y154.89 E95.80045
G1 X141.16 Y157.12 E95.91053
G1 X141.06 Y157.12 E95.91558
G1 X141.36 Y160.23 E96.06290
G1 X138.86 Y161.74 E96.20077
G1 X135.33 Y161.74 E96.36705
G1 X134.99 Y158.26 E96.53153
G1 X135.26 Y155.51 E96.66189
G1 X135.28 Y155.31 E96.67134
G1 X136.07 Y152.71 E96.79956
G1 X136.13 Y152.52 E96.80907
G1 X137.51 Y149.95 E96.94660
G1 X139.37 Y147.67 E97.08527
G0 F12000 X139.65 Y147.96
G1 F2700 X141.76 Y146.22 E97.21381
G1 X141.88 Y146.12 E97.22128
G1 X144.39 Y144.78 E97.35540
G1 X146.99 Y143.99 E97.48389
G1 X147.15 Y143.94 E97.49159
G1 X149.81 Y143.68 E97.61772
G1 X149.98 Y143.66 E97.62580
G1 X152.71 Y143.92 E97.75492
G1 X152.87 Y143.94 E97.76258
G1 X155.59 Y144.77 E97.89681
G1 X158.09 Y146.11 E98.03063
G1 X160.31 Y147.92 E98.16562
G1 X161.55 Y149.43 E98.25765
G1 X161.97 Y149.08 E98.28321
G1 X162.82 Y148.62 E98.32857
G1 X163.74 Y148.34 E98.37401
G1 X164.69 Y148.25 E98.41927
G1 X165.65 Y148.34 E98.46456
G1 X166.57 Y148.62 E98.51007
G1 X167.42 Y149.07 E98.55543
G1 X168.17 Y149.68 E98.60071
G1 X168.78 Y150.43 E98.64610
G1 X169.23 Y151.27 E98.69148
G1 X169.51 Y152.19 E98.73680
G1 X169.61 Y153.15 E98.78207
G1 X169.51 Y154.11 E98.82746
G1 X169.24 Y155.03 E98.87283
G1 X168.78 Y155.88 E98.91814
G1 X168.18 Y156.62 E98.96358
G1 X167.43 Y157.23 E99.00895
G1 X166.59 Y157.69 E99.05423
G1 X165.66 Y157.97 E99.09962
G1 X164.71 Y158.06 E99.14489
G1 X164.59 Y158.05 E99.15057
G1 X164.61 Y158.26 E99.16081
G1 X164.31 Y161.34 E99.30633
G1 X161.25 Y161.34 E99.45030
G1 X159.06 Y160.02 E99.57100
G1 X159.33 Y157.30 E99.69993
G1 X160.57 Y157.30 E99.75850
G1 X160.57 Y156.72 E99.78566
G1 X159.13 Y156.72 E99.85338
G1 X158.53 Y154.73 E99.95140
G1 X157.68 Y153.14 E100.03670
G1 X156.53 Y151.74 E100.12220
G1 X155.13 Y150.59 E100.20727
G1 X153.53 Y149.74 E100.29272
G1 X151.80 Y149.21 E100.37822
G1 X150.00 Y149.03 E100.46342
G1 X148.20 Y149.21 E100.54862
G1 X146.47 Y149.74 E100.63413
G1 X144.87 Y150.59 E100.71961
G1 X143.47 Y151.74 E100.80482
G1 X142.32 Y153.14 E100.89025
G1 X141.47 Y154.73 E100.97530
G1 X140.87 Y156.72 E101.07352
G1 X139.43 Y156.72 E101.14123
G1 X139.43 Y157.30 E101.16840
G1 X140.67 Y157.30 E101.22697
G1 X140.94 Y160.02 E101.35571
G1 X138.75 Y161.34 E101.47641
G1 X135.69 Y161.34 E101.62038
G1 X135.39 Y158.26 E101.76590
G1 X135.66 Y155.56 E101.89413
G1 X135.68 Y155.40 E101.90178
G1 X136.46 Y152.83 E102.02836
G1 X136.50 Y152.67 E102.03601
G1 X137.84 Y150.17 E102.16985
G1 X139.65 Y147.96 E102.30480
G0 F12000 X139.94 Y148.24
G1 F2700 X142.01 Y146.53 E102.43150
G1 X142.10 Y146.46 E102.43716
G1 X144.54 Y145.15 E102.56756
G1 X147.11 Y144.37 E102.69415
G1 X147.23 Y144.33 E102.70001
G1 X149.87 Y144.07 E102.82496
G1 X149.99 Y144.06 E102.83075
G1 X152.66 Y144.32 E102.95750
G1 X152.78 Y144.34 E102.96330
G1 X155.44 Y145.14 E103.09405
G1 X157.87 Y146.44 E103.22416
G1 X160.03 Y148.20 E103.35546
G1 X161.50 Y149.99 E103.46464
G1 X161.51 Y149.97 E103.46568
G1 X162.19 Y149.41 E103.50729
G1 X162.97 Y149.00 E103.54890
G1 X163.82 Y148.74 E103.59063
G1 X164.70 Y148.65 E103.63219
G1 X165.57 Y148.74 E103.67378
G1 X166.42 Y148.99 E103.71550
G1 X167.20 Y149.41 E103.75716
G1 X167.88 Y149.97 E103.79872
G1 X168.44 Y150.65 E103.84043
G1 X168.86 Y151.43 E103.88205
G1 X169.12 Y152.27 E103.92369
G1 X169.21 Y153.15 E103.96526
G1 X169.12 Y154.03 E104.00690
G1 X168.87 Y154.87 E104.04857
G1 X168.45 Y155.65 E104.09017
G1 X167.89 Y156.34 E104.13190
G1 X167.21 Y156.90 E104.17351
G1 X166.43 Y157.31 E104.21510
G1 X165.59 Y157.57 E104.25679
G1 X164.71 Y157.66 E104.29835
G1 X164.14 Y157.60 E104.32512
G1 X164.21 Y158.26 E104.35639
G1 X163.94 Y160.94 E104.48296
G1 X161.37 Y160.94 E104.60458
G1 X159.48 Y159.81 E104.70812
G1 X159.69 Y157.70 E104.80801
G1 X160.97 Y157.70 E104.86833
G1 X160.97 Y156.32 E104.93322
G1 X159.43 Y156.32 E105.00584
G1 X158.90 Y154.58 E105.09172
G1 X158.01 Y152.92 E105.18060
G1 X156.81 Y151.45 E105.27000
G1 X155.35 Y150.26 E105.35886
G1 X153.69 Y149.37 E105.44785
G1 X151.88 Y148.82 E105.53705
G1 X150.00 Y148.63 E105.62604
G1 X148.12 Y148.82 E105.71502
G1 X146.31 Y149.37 E105.80423
G1 X144.65 Y150.26 E105.89330
G1 X143.19 Y151.45 E105.98230
G1 X141.99 Y152.91 E106.07123
G1 X141.10 Y154.58 E106.16053
G1 X140.57 Y156.32 E106.24628
G1 X139.03 Y156.32 E106.31890
G1 X139.03 Y157.70 E106.38374
G1 X140.31 Y157.70 E106.44405
G1 X140.52 Y159.81 E106.54380
G1 X138.64 Y160.94 E106.64735
G1 X136.06 Y160.94 E106.76896
G1 X135.79 Y158.26 E106.89553
G1 X136.06 Y155.60 E107.02167
G1 X136.07 Y155.48 E107.02747
G1 X136.84 Y152.94 E107.15244
G1 X136.88 Y152.83 E107.15821
G1 X138.18 Y150.39 E107.28836
G1 X139.94 Y148.24 E107.41959
G0 F12000 X140.22 Y148.52
G1 F2700 X142.26 Y146.84 E107.54425
G1 X142.33 Y146.79 E107.54823
G1 X144.70 Y145.52 E107.67486
G1 X147.31 Y144.73 E107.80355
G1 X149.91 Y144.47 E107.92713
G1 X149.99 Y144.46 E107.93083
G1 X152.62 Y144.72 E108.05522
G1 X152.70 Y144.73 E108.05916
G1 X155.28 Y145.51 E108.18645
G1 X157.65 Y146.78 E108.31287
G1 X159.74 Y148.49 E108.44052
G1 X161.42 Y150.53 E108.56514
G1 X161.48 Y150.59 E108.56913
G1 X161.50 Y150.63 E108.57088
G1 X161.80 Y150.26 E108.59336
G1 X162.42 Y149.75 E108.63126
G1 X163.13 Y149.37 E108.66921
G1 X163.90 Y149.13 E108.70715
G1 X164.70 Y149.05 E108.74506
G1 X165.50 Y149.13 E108.78291
G1 X166.27 Y149.36 E108.82090
G1 X166.98 Y149.74 E108.85887
G1 X167.60 Y150.25 E108.89674
G1 X168.11 Y150.87 E108.93467
G1 X168.49 Y151.58 E108.97260
G1 X168.72 Y152.35 E109.01054
G1 X168.80 Y153.15 E109.04841
G1 X168.73 Y153.95 E109.08636
G1 X168.49 Y154.72 E109.12425
G1 X168.12 Y155.43 E109.16214
G1 X167.61 Y156.05 E109.20014
G1 X166.98 Y156.56 E109.23807
G1 X166.28 Y156.94 E109.27596
G1 X165.51 Y157.18 E109.31391
G1 X164.71 Y157.26 E109.35178
G1 X163.91 Y157.18 E109.38972
G1 X163.69 Y157.12 E109.40023
G1 X163.81 Y158.26 E109.45467
G1 X163.58 Y160.54 E109.56228
G1 X161.48 Y160.54 E109.66160
G1 X159.91 Y159.59 E109.74796
G1 X160.05 Y158.10 E109.81885
G1 X161.37 Y158.10 E109.88095
G1 X161.37 Y155.92 E109.98357
G1 X159.73 Y155.92 E110.06105
G1 X159.27 Y154.43 E110.13477
G1 X158.35 Y152.69 E110.22743
G1 X157.10 Y151.17 E110.32030
G1 X155.57 Y149.92 E110.41322
G1 X153.84 Y148.99 E110.50588
G1 X151.96 Y148.42 E110.59859
G1 X150.00 Y148.23 E110.69141
G1 X148.04 Y148.42 E110.78423
G1 X146.16 Y148.99 E110.87695
G1 X144.43 Y149.92 E110.96965
G1 X142.91 Y151.17 E111.06252
G1 X141.66 Y152.69 E111.15540
G1 X140.73 Y154.43 E111.24808
G1 X140.27 Y155.92 E111.32180
G1 X138.63 Y155.92 E111.39928
G1 X138.63 Y158.09 E111.50180
G1 X139.95 Y158.10 E111.56391
G1 X140.09 Y159.59 E111.63470
G1 X138.53 Y160.54 E111.72107
G1 X136.42 Y160.54 E111.82038
G1 X136.19 Y158.26 E111.92799
G1 X136.45 Y155.65 E112.05205
G1 X136.46 Y155.56 E112.05594
G1 X137.25 Y152.98 E112.18322
G1 X138.51 Y150.62 E112.30968
G1 X140.22 Y148.52 E112.43726
G0 F12000 X140.51 Y148.81
G1 F2700 X142.52 Y147.15 E112.56017
G1 X142.55 Y147.12 E112.56225
G1 X144.85 Y145.89 E112.68508
G1 X147.39 Y145.12 E112.81007
G1 X149.96 Y144.87 E112.93194
G1 X150.00 Y144.86 E112.93384
G1 X152.57 Y145.12 E113.05589
G1 X152.62 Y145.12 E113.05799
G1 X155.13 Y145.88 E113.18178
G1 X157.43 Y147.11 E113.30452
G1 X159.46 Y148.77 E113.42845
G1 X161.12 Y150.78 E113.55133
G1 X161.15 Y150.82 E113.55341
G1 X161.46 Y151.41 E113.58493
G1 X161.62 Y151.10 E113.60127
G1 X162.08 Y150.54 E113.63549
G1 X162.64 Y150.08 E113.66966
G1 X163.28 Y149.74 E113.70388
G1 X163.98 Y149.53 E113.73812
G1 X164.70 Y149.46 E113.77234
G1 X165.42 Y149.53 E113.80649
G1 X166.11 Y149.73 E113.84072
G1 X166.75 Y150.08 E113.87496
G1 X167.31 Y150.54 E113.90914
G1 X167.78 Y151.10 E113.94335
G1 X168.12 Y151.74 E113.97755
G1 X168.33 Y152.43 E114.01178
G1 X168.40 Y153.15 E114.04596
G1 X168.33 Y153.87 E114.08016
G1 X168.12 Y154.57 E114.11434
G1 X167.78 Y155.21 E114.14852
G1 X167.32 Y155.77 E114.18281
G1 X166.76 Y156.23 E114.21698
G1 X166.12 Y156.57 E114.25118
G1 X165.43 Y156.78 E114.28543
G1 X164.71 Y156.85 E114.31960
G1 X163.98 Y156.79 E114.35380
G1 X163.29 Y156.58 E114.38804
G1 X163.24 Y156.55 E114.39093
G1 X163.40 Y158.26 E114.47234
G1 X163.22 Y160.14 E114.56100
G1 X161.59 Y160.14 E114.63796
G1 X160.33 Y159.38 E114.70717
G1 X160.42 Y158.50 E114.74901
G1 X161.77 Y158.50 E114.81286
G1 X161.77 Y155.52 E114.95320
G1 X160.02 Y155.52 E115.03554
G1 X159.65 Y154.27 E115.09718
G1 X158.68 Y152.47 E115.19345
G1 X157.38 Y150.88 E115.29015
G1 X155.80 Y149.59 E115.38681
G1 X154.00 Y148.62 E115.48308
G1 X152.04 Y148.03 E115.57948
G1 X150.00 Y147.83 E115.67609
G1 X147.96 Y148.03 E115.77271
G1 X146.01 Y148.62 E115.86911
G1 X144.21 Y149.59 E115.96542
G1 X142.62 Y150.88 E116.06208
G1 X141.32 Y152.47 E116.15875
G1 X140.36 Y154.27 E116.25504
G1 X139.98 Y155.52 E116.31668
G1 X138.23 Y155.52 E116.39902
G1 X138.23 Y158.49 E116.53922
G1 X139.59 Y158.50 E116.60307
G1 X139.67 Y159.38 E116.64486
G1 X138.41 Y160.14 E116.71407
G1 X136.78 Y160.14 E116.79104
G1 X136.60 Y158.26 E116.87970
G1 X136.85 Y155.69 E117.00162
G1 X136.86 Y155.65 E117.00371
G1 X137.62 Y153.14 E117.12749
G1 X138.84 Y150.84 E117.25027
G1 X140.51 Y148.81 E117.37413
G0 F12000 X141.36 Y149.66
;TYPE:WALL-INNER
G1 F2700 X143.23 Y148.12 E117.48810
G1 X145.31 Y147.01 E117.59978
G1 X147.62 Y146.30 E117.71350
G1 X150.01 Y146.07 E117.82650
G1 X152.38 Y146.30 E117.93880
G1 X154.67 Y147.00 E118.05166
G1 X156.76 Y148.12 E118.16356
G1 X158.61 Y149.63 E118.27620
G1 X160.14 Y151.49 E118.39007
G1 X161.27 Y153.60 E118.50279
G1 X162.30 Y152.38 E118.57810
G1 X162.62 Y151.78 E118.61049
G1 X162.94 Y151.39 E118.63387
G1 X163.31 Y151.09 E118.65662
G1 X163.75 Y150.85 E118.67994
G1 X164.21 Y150.71 E118.70290
G1 X164.70 Y150.66 E118.72612
G1 X165.19 Y150.71 E118.74905
G1 X165.65 Y150.85 E118.77189
G1 X166.09 Y151.08 E118.79523
G1 X166.47 Y151.39 E118.81832
G1 X166.77 Y151.77 E118.84120
G1 X167.00 Y152.20 E118.86428
G1 X167.15 Y152.66 E118.88735
G1 X167.20 Y153.16 E118.91062
G1 X167.15 Y153.64 E118.93350
G1 X167.01 Y154.10 E118.95645
G1 X166.78 Y154.54 E118.97960
G1 X166.47 Y154.92 E119.00275
G1 X166.09 Y155.23 E119.02570
G1 X165.66 Y155.46 E119.04870
G1 X165.19 Y155.60 E119.07197
G1 X164.71 Y155.65 E119.09481
G1 X164.22 Y155.60 E119.11812
G1 X163.75 Y155.46 E119.14103
G1 X162.97 Y155.04 E119.18272
G1 X162.97 Y154.32 E119.21686
G1 X160.91 Y154.32 E119.31386
G1 X160.76 Y153.81 E119.33909
G1 X159.68 Y151.80 E119.44669
G1 X158.23 Y150.03 E119.55437
G1 X156.47 Y148.59 E119.66197
G1 X154.46 Y147.51 E119.76956
G1 X152.27 Y146.84 E119.87721
G1 X150.00 Y146.62 E119.98486
G1 X147.73 Y146.84 E120.09252
G1 X145.54 Y147.51 E120.20016
G1 X143.53 Y148.58 E120.30778
G1 X141.77 Y150.03 E120.41544
G1 X140.32 Y151.80 E120.52306
G1 X139.24 Y153.81 E120.63068
G1 X139.09 Y154.32 E120.65591
G1 X138.51 Y154.32 E120.68307
G1 X138.73 Y153.60 E120.71861
G1 X139.85 Y151.51 E120.83046
G1 X141.36 Y149.66 E120.94306
G0 F12000 X141.08 Y149.37
G1 F2700 X143.00 Y147.79 E121.06069
G1 X145.16 Y146.64 E121.17596
G1 X147.54 Y145.91 E121.29357
G1 X150.00 Y145.67 E121.41008
G1 X152.46 Y145.91 E121.52631
G1 X154.82 Y146.63 E121.64292
G1 X156.98 Y147.78 E121.75815
G1 X158.90 Y149.35 E121.87501
G1 X160.48 Y151.27 E121.99247
G1 X161.34 Y152.89 E122.07920
G1 X161.97 Y152.16 E122.12471
G1 X162.29 Y151.55 E122.15711
G1 X162.65 Y151.11 E122.18372
G1 X163.09 Y150.75 E122.21086
G1 X163.59 Y150.48 E122.23736
G1 X164.13 Y150.32 E122.26417
G1 X164.70 Y150.26 E122.29108
G1 X165.26 Y150.31 E122.31785
G1 X165.81 Y150.48 E122.34445
G1 X166.31 Y150.74 E122.37120
G1 X166.75 Y151.11 E122.39834
G1 X167.11 Y151.54 E122.42471
G1 X167.38 Y152.05 E122.45178
G1 X167.54 Y152.59 E122.47839
G1 X167.60 Y153.15 E122.50517
G1 X167.54 Y153.72 E122.53208
G1 X167.38 Y154.26 E122.55863
G1 X167.11 Y154.76 E122.58557
G1 X166.75 Y155.20 E122.61221
G1 X166.31 Y155.56 E122.63908
G1 X165.81 Y155.83 E122.66594
G1 X165.27 Y156.00 E122.69270
G1 X164.70 Y156.05 E122.71952
G1 X164.14 Y156.00 E122.74619
G1 X163.60 Y155.83 E122.77295
G1 X162.96 Y155.50 E122.80679
G1 X162.57 Y155.76 E122.82916
G1 X162.57 Y154.72 E122.87811
G1 X160.62 Y154.72 E122.97020
G1 X160.39 Y153.96 E123.00756
G1 X159.35 Y152.02 E123.11146
G1 X157.95 Y150.32 E123.21539
G1 X156.25 Y148.92 E123.31930
G1 X154.30 Y147.88 E123.42320
G1 X152.19 Y147.24 E123.52709
G1 X150.00 Y147.02 E123.63105
G1 X147.81 Y147.24 E123.73501
G1 X145.70 Y147.88 E123.83890
G1 X143.75 Y148.92 E123.94284
G1 X142.05 Y150.32 E124.04675
G1 X140.65 Y152.02 E124.15065
G1 X139.61 Y153.96 E124.25457
G1 X139.38 Y154.72 E124.29193
G1 X137.97 Y154.72 E124.35847
G1 X138.36 Y153.44 E124.42139
G1 X139.51 Y151.29 E124.53679
G1 X141.08 Y149.37 E124.65325
G1 F2400 E123.45325
G0 F12000 X137.43 Y157.96
G1 F2400 E124.65325
G1 F2700 X137.43 Y158.57 E124.68216
G1 X137.40 Y158.26 E124.69666
G1 X137.43 Y157.96 E124.71120
G0 F12000 X137.50 Y159.29
G1 F2700 X138.26 Y159.29 E124.74714
G1 X138.19 Y159.34 E124.75103
G1 X137.51 Y159.34 E124.78338
G1 X137.50 Y159.29 E124.78551
G1 F2400 E123.58551
G0 F12000 X161.74 Y159.30
G1 F2400 E124.78551
G1 F2700 X162.50 Y159.30 E124.82112
G1 X162.49 Y159.34 E124.82296
G1 X161.81 Y159.34 E124.85531
G1 X161.74 Y159.30 E124.85889
G0 F12000 X162.57 Y158.57
G1 F2700 X162.57 Y157.96 E124.88780
G1 X162.60 Y158.26 E124.90234
G1 X162.57 Y158.57 E124.91684
G0 F12000 X162.17 Y158.90
;TYPE:WALL-OUTER
G1 F2700 X162.17 Y155.12 E125.09491
G1 X160.32 Y155.12 E125.18215
G1 X160.02 Y154.12 E125.23161
G1 X159.01 Y152.24 E125.33183
G1 X157.66 Y150.60 E125.43204
G1 X156.02 Y149.25 E125.53222
G1 X154.15 Y148.25 E125.63243
G1 X152.12 Y147.63 E125.73262
G1 X150.00 Y147.43 E125.83284
G1 X147.89 Y147.63 E125.93306
G1 X145.85 Y148.25 E126.03325
G1 X143.98 Y149.25 E126.13350
G1 X142.34 Y150.60 E126.23368
G1 X140.99 Y152.24 E126.33386
G1 X139.99 Y154.12 E126.43410
G1 X139.68 Y155.12 E126.48357
G1 X137.83 Y155.12 E126.57081
G1 X137.83 Y158.89 E126.74864
G1 X139.22 Y158.90 E126.81428
G1 X139.25 Y159.17 E126.82717
G1 X138.30 Y159.74 E126.87920
G1 X137.14 Y159.74 E126.93390
G1 X137.00 Y158.26 E127.00361
G1 X137.25 Y155.73 E127.12354
G1 X137.99 Y153.29 E127.24400
G1 X139.18 Y151.07 E127.36284
G1 X140.79 Y149.09 E127.48339
G1 X142.78 Y147.46 E127.60437
G1 X145.00 Y146.26 E127.72359
G1 X147.46 Y145.51 E127.84479
G1 X150.00 Y145.27 E127.96495
G1 X152.53 Y145.51 E128.08496
G1 X154.98 Y146.25 E128.20544
G1 X157.20 Y147.44 E128.32428
G1 X159.18 Y149.06 E128.44486
G1 X160.81 Y151.04 E128.56580
G1 X161.42 Y152.18 E128.62686
G1 X161.63 Y151.93 E128.64255
G1 X161.95 Y151.33 E128.67458
G1 X162.37 Y150.83 E128.70527
G1 X162.87 Y150.41 E128.73587
G1 X163.44 Y150.11 E128.76634
G1 X164.05 Y149.92 E128.79665
G1 X164.70 Y149.86 E128.82731
G1 X165.34 Y149.92 E128.85781
G1 X165.96 Y150.10 E128.88825
G1 X166.53 Y150.41 E128.91854
G1 X167.03 Y150.82 E128.94941
G1 X167.44 Y151.32 E128.97963
G1 X167.75 Y151.89 E129.01029
G1 X167.94 Y152.51 E129.04060
G1 X168.00 Y153.15 E129.07117
G1 X167.94 Y153.80 E129.10177
G1 X167.75 Y154.41 E129.13218
G1 X167.45 Y154.98 E129.16243
G1 X167.04 Y155.49 E129.19319
G1 X166.53 Y155.90 E129.22375
G1 X165.97 Y156.20 E129.25420
G1 X165.35 Y156.39 E129.28452
G1 X164.71 Y156.45 E129.31513
G1 X164.06 Y156.39 E129.34569
G1 X163.44 Y156.21 E129.37613
G1 X162.99 Y155.96 E129.40048
G1 X162.79 Y156.09 E129.41177
G1 X163.00 Y158.26 E129.51464
G1 X162.86 Y159.74 E129.58435
G1 X161.70 Y159.74 E129.63905
G1 X160.75 Y159.17 E129.69108
G1 X160.78 Y158.90 E129.70393
G1 X162.17 Y158.90 E129.76957
G0 F12000 X162.17 Y159.20
G0 X162.54 Y159.39
G0 X162.40 Y155.91
G0 X162.97 Y155.53
G0 X164.23 Y155.46
;TYPE:FILL
G1 F2700 X163.11 Y154.34 E129.84423
G0 F12000 X162.95 Y154.18
G1 F2700 X161.87 Y153.10 E129.91612
G0 F12000 X161.61 Y153.41
G1 F2700 X162.38 Y154.18 E129.96760
G0 F12000 X161.82 Y154.18
G1 F2700 X161.13 Y153.78 E129.99860
G1 X161.25 Y154.18 E130.01837
G0 F12000 X160.96 Y153.33
G1 F2700 X160.31 Y152.67 E130.06202
G0 F12000 X160.32 Y152.11
G1 F2700 X159.24 Y151.04 E130.13384
G0 F12000 X158.58 Y149.81
G1 F2700 X158.43 Y149.67 E130.14338
G0 F12000 X157.23 Y149.03
G1 F2700 X156.15 Y147.95 E130.21534
G0 F12000 X155.60 Y147.96
G1 F2700 X154.94 Y147.30 E130.25942
G0 F12000 X154.42 Y147.35
G1 F2700 X153.81 Y147.02 E130.28651
G1 X153.00 Y146.78 E130.31362
G1 X152.22 Y146.57 E130.34064
G1 X151.59 Y146.50 E130.36071
G1 X150.97 Y146.44 E130.38084
G1 X150.34 Y146.38 E130.40097
G1 X149.76 Y146.37 E130.41955
G1 X149.25 Y146.42 E130.43605
G1 X148.73 Y146.47 E130.45252
G1 X148.22 Y146.52 E130.46899
G1 X147.71 Y146.58 E130.48551
G1 X147.26 Y146.70 E130.49992
G1 X146.83 Y146.83 E130.51436
G1 X146.40 Y146.96 E130.52869
G1 X145.96 Y147.09 E130.54295
G1 X145.53 Y147.23 E130.55720
G1 X145.04 Y147.31 E130.57045
G1 X144.88 Y147.71 E130.58371
G1 X144.31 Y147.70 E130.59700
G1 X144.14 Y148.10 E130.61035
G1 X143.57 Y148.10 E130.62354
G1 X143.42 Y148.51 E130.63676
G1 X142.91 Y148.56 E130.64951
G1 X142.79 Y149.01 E130.66212
G1 X142.29 Y149.07 E130.67466
G1 X142.17 Y149.52 E130.68728
G1 X141.67 Y149.59 E130.69980
G1 X141.57 Y150.06 E130.71231
G1 X141.12 Y150.17 E130.72511
G1 X141.06 Y150.67 E130.73782
G1 X140.61 Y150.79 E130.75053
G1 X140.55 Y151.30 E130.76324
G1 X140.10 Y151.42 E130.77596
G1 X140.08 Y151.96 E130.78919
G1 X139.68 Y152.12 E130.80260
G1 X139.68 Y152.69 E130.81597
G1 X139.28 Y152.86 E130.82936
G1 X139.29 Y153.43 E130.84273
G1 X138.90 Y153.61 E130.85610
G1 X139.03 Y154.02 E130.87659
G1 F2400 E129.67659
G0 F12000 X137.44 Y155.82
G1 F2400 E130.87659
G1 F2700 X137.51 Y156.18 E130.88933
G1 X137.49 Y156.72 E130.90542
G1 X137.46 Y157.26 E130.92486
G1 X137.63 Y157.71 E130.94779
G1 F2400 E129.74779
G0 F12000 X162.13 Y152.79
G1 F2400 E130.94779
G1 F2700 X164.83 Y155.50 E131.12786
G0 F12000 X165.31 Y155.42
G1 F2700 X162.39 Y152.49 E131.32303
G0 F12000 X162.59 Y152.13
G1 F2700 X165.73 Y155.26 E131.53210
G0 F12000 X166.08 Y155.05
G1 F2700 X162.80 Y151.77 E131.75071
G0 F12000 X163.06 Y151.47
G1 F2700 X166.39 Y154.79 E131.97235
G0 F12000 X166.64 Y154.48
G1 F2700 X163.38 Y151.21 E132.19020
G0 F12000 X163.74 Y151.01
G1 F2700 X166.84 Y154.12 E132.39720
G0 F12000 X166.99 Y153.69
G1 F2700 X164.16 Y150.87 E132.58547
G0 F12000 X164.66 Y150.81
G1 F2700 X167.05 Y153.19 E132.74459
G0 F12000 X166.96 Y152.54
G1 F2700 X165.32 Y150.90 E132.85410
G0 F12000 X163.11 Y154.91
G1 F2700 X163.23 Y155.02 E132.86197
;LAYER:1
G0 F12000 X162.97 Y155.05 Z0.60
;TYPE:WALL-INNER
G1 F1380 X162.97 Y154.32 E132.89607
G1 X160.91 Y154.32 E132.99274
G1 X160.76 Y153.81 E133.01796
G1 X159.68 Y151.80 E133.12533
G1 X158.23 Y150.03 E133.23271
G1 X156.47 Y148.59 E133.33999
G1 X154.46 Y147.51 E133.44730
G1 X152.27 Y146.85 E133.55463
G1 X150.00 Y146.62 E133.66202
G1 X147.73 Y146.85 E133.76940
G1 X145.55 Y147.51 E133.87668
G1 X143.53 Y148.59 E133.98409
G1 X141.77 Y150.03 E134.09140
G1 X140.32 Y151.80 E134.19872
G1 X139.25 Y153.81 E134.30604
G1 X139.09 Y154.32 E134.33131
G1 X138.51 Y154.32 E134.35874
G1 X138.73 Y153.60 E134.39437
G1 X139.86 Y151.49 E134.50709
G1 X141.37 Y149.64 E134.61936
G1 X143.22 Y148.12 E134.73209
G1 X145.33 Y147.00 E134.84443
G1 X147.63 Y146.30 E134.95728
G1 X150.00 Y146.07 E135.06958
G1 X152.38 Y146.30 E135.18198
G1 X154.67 Y146.99 E135.29440
G1 X156.78 Y148.12 E135.40712
G1 X158.63 Y149.64 E135.51942
G1 X160.15 Y151.49 E135.63212
G1 X160.57 Y152.28 E135.67457
G1 X160.87 Y152.84 E135.70414
G1 X162.07 Y152.83 E135.76044
G1 X162.62 Y151.77 E135.81654
G1 X162.94 Y151.39 E135.83987
G1 X163.31 Y151.08 E135.86293
G1 X163.74 Y150.85 E135.88549
G1 X164.21 Y150.71 E135.90853
G1 X164.71 Y150.66 E135.93240
G1 X165.18 Y150.70 E135.95456
G1 X165.65 Y150.84 E135.97770
G1 X166.08 Y151.07 E136.00060
G1 X166.47 Y151.39 E136.02420
G1 X166.78 Y151.77 E136.04723
G1 X167.00 Y152.19 E136.06979
G1 X167.15 Y152.66 E136.09272
G1 X167.20 Y153.16 E136.11665
G1 X167.15 Y153.63 E136.13872
G1 X167.01 Y154.10 E136.16191
G1 X166.78 Y154.53 E136.18491
G1 X166.47 Y154.92 E136.20841
G1 X166.09 Y155.23 E136.23130
G1 X165.67 Y155.46 E136.25395
G1 X165.20 Y155.60 E136.27708
G1 X164.69 Y155.65 E136.30086
G1 X164.23 Y155.61 E136.32284
G1 X163.75 Y155.46 E136.34632
G1 X162.97 Y155.05 E136.38801
G0 F12000 X162.96 Y155.50
G1 F1380 X162.57 Y155.76 E136.41038
G1 X162.57 Y154.72 E136.45930
G1 X160.62 Y154.72 E136.55117
G1 X160.38 Y153.96 E136.58848
G1 X159.35 Y152.02 E136.69210
G1 X157.95 Y150.32 E136.79577
G1 X156.25 Y148.92 E136.89941
G1 X154.30 Y147.88 E137.00303
G1 X152.19 Y147.24 E137.10666
G1 X150.00 Y147.03 E137.21032
G1 X147.81 Y147.24 E137.31397
G1 X145.70 Y147.88 E137.41760
G1 X143.76 Y148.92 E137.52126
G1 X142.05 Y150.32 E137.62491
G1 X140.66 Y152.02 E137.72855
G1 X139.62 Y153.96 E137.83219
G1 X139.39 Y154.72 E137.86950
G1 X137.97 Y154.72 E137.93615
G1 X138.35 Y153.46 E137.99828
G1 X138.36 Y153.44 E137.99913
G1 X139.52 Y151.27 E138.11479
G1 X141.08 Y149.37 E138.23068
G1 X142.99 Y147.79 E138.34721
G1 X145.17 Y146.63 E138.46328
G1 X147.53 Y145.91 E138.57962
G1 X149.99 Y145.67 E138.69572
G1 X150.00 Y145.66 E138.69628
G1 X152.45 Y145.91 E138.81180
G1 X152.46 Y145.91 E138.81241
G1 X154.81 Y146.62 E138.92784
G1 X156.99 Y147.78 E139.04432
G1 X158.90 Y149.34 E139.16024
G1 X160.47 Y151.26 E139.27674
G1 X160.92 Y152.10 E139.32148
G1 X161.11 Y152.44 E139.33973
G1 X161.82 Y152.43 E139.37351
G1 X162.29 Y151.55 E139.42047
G1 X162.65 Y151.11 E139.44718
G1 X163.09 Y150.74 E139.47429
G1 X163.58 Y150.48 E139.50022
G1 X164.13 Y150.32 E139.52714
G1 X164.71 Y150.26 E139.55475
G1 X165.25 Y150.31 E139.58046
G1 X165.80 Y150.47 E139.60732
G1 X166.31 Y150.74 E139.63413
G1 X166.75 Y151.10 E139.66101
G1 X167.11 Y151.55 E139.68811
G1 X167.37 Y152.04 E139.71412
G1 X167.54 Y152.58 E139.74094
G1 X167.60 Y153.16 E139.76850
G1 X167.55 Y153.71 E139.79421
G1 X167.38 Y154.26 E139.82122
G1 X167.12 Y154.76 E139.84778
G1 X166.75 Y155.20 E139.87479
G1 X166.31 Y155.57 E139.90180
G1 X165.82 Y155.83 E139.92785
G1 X165.27 Y156.00 E139.95482
G1 X164.69 Y156.05 E139.98229
G1 X164.15 Y156.00 E140.00796
G1 X163.60 Y155.84 E140.03492
G1 X162.96 Y155.50 E140.06888
G0 F12000 X162.40 Y155.91
G0 X162.57 Y157.92
G1 F1380 X162.60 Y158.26 E140.08529
G1 X162.57 Y158.61 E140.10164
G1 X162.57 Y157.92 E140.13424
G0 F12000 X162.50 Y159.29
G1 F1380 X162.50 Y159.34 E140.13627
G1 X161.81 Y159.34 E140.16858
G1 X161.74 Y159.29 E140.17253
G1 X162.50 Y159.29 E140.20842
G1 F2400 E139.00842
G0 F12000 X138.26 Y159.29
G1 F2400 E140.20842
G1 F1380 X138.19 Y159.34 E140.21237
G1 X137.50 Y159.34 E140.24468
G1 X137.50 Y159.29 E140.24671
G1 X138.26 Y159.29 E140.28260
G0 F12000 X137.43 Y158.61
G1 F1380 X137.40 Y158.26 E140.29896
G1 X137.43 Y157.92 E140.31536
G1 X137.43 Y158.61 E140.34796
G0 F12000 X137.83 Y158.90
;TYPE:WALL-OUTER
G1 F1380 X139.22 Y158.90 E140.41343
G1 X139.25 Y159.17 E140.42629
G1 X138.30 Y159.74 E140.47826
G1 X137.14 Y159.74 E140.53287
G1 X137.00 Y158.26 E140.60245
G1 X137.25 Y155.73 E140.72241
G1 X137.97 Y153.34 E140.83973
G1 X137.99 Y153.29 E140.84235
G1 X139.19 Y151.04 E140.96205
G1 X140.77 Y149.11 E141.07957
G1 X140.81 Y149.07 E141.08194
G1 X142.74 Y147.49 E141.19959
G1 X142.78 Y147.46 E141.20179
G1 X145.03 Y146.25 E141.32206
G1 X147.42 Y145.53 E141.43940
G1 X147.47 Y145.51 E141.44181
G1 X150.00 Y145.26 E141.56162
G1 X152.54 Y145.51 E141.68154
G1 X154.93 Y146.24 E141.79891
G1 X154.98 Y146.25 E141.80153
G1 X157.22 Y147.45 E141.92123
G1 X159.16 Y149.04 E142.03878
G1 X159.19 Y149.07 E142.04116
G1 X160.78 Y151.00 E142.15877
G1 X160.81 Y151.04 E142.16098
G1 X161.27 Y151.91 E142.20723
G1 X161.34 Y152.04 E142.21418
G1 X161.58 Y152.03 E142.22542
G1 X161.95 Y151.33 E142.26281
G1 X162.37 Y150.82 E142.29363
G1 X162.87 Y150.41 E142.32401
G1 X163.43 Y150.11 E142.35425
G1 X164.05 Y149.92 E142.38441
G1 X164.71 Y149.86 E142.41561
G1 X165.33 Y149.92 E142.44520
G1 X165.96 Y150.10 E142.47580
G1 X166.53 Y150.41 E142.50620
G1 X167.03 Y150.82 E142.53699
G1 X167.44 Y151.32 E142.56740
G1 X167.75 Y151.89 E142.59762
G1 X167.93 Y152.50 E142.62778
G1 X168.00 Y153.16 E142.65895
G1 X167.94 Y153.79 E142.68858
G1 X167.75 Y154.41 E142.71914
G1 X167.45 Y154.98 E142.74952
G1 X167.04 Y155.49 E142.78038
G1 X166.54 Y155.90 E142.81076
G1 X165.97 Y156.20 E142.84091
G1 X165.36 Y156.39 E142.87119
G1 X164.70 Y156.46 E142.90230
G1 X164.07 Y156.39 E142.93193
G1 X163.45 Y156.21 E142.96254
G1 X162.99 Y155.96 E142.98708
G1 X162.79 Y156.09 E142.99830
G1 X163.00 Y158.26 E143.10087
G1 X162.86 Y159.74 E143.17045
G1 X161.70 Y159.74 E143.22506
G1 X160.75 Y159.17 E143.27703
G1 X160.78 Y158.90 E143.28988
G1 X162.17 Y158.90 E143.35536
G1 X162.17 Y155.12 E143.53289
G1 X160.32 Y155.12 E143.61991
G1 X160.01 Y154.12 E143.66930
G1 X159.01 Y152.24 E143.76922
G1 X157.66 Y150.60 E143.86918
G1 X156.02 Y149.25 E143.96911
G1 X154.15 Y148.25 E144.06903
G1 X152.12 Y147.63 E144.16897
G1 X150.00 Y147.43 E144.26894
G1 X147.89 Y147.63 E144.36891
G1 X145.85 Y148.25 E144.46884
G1 X143.98 Y149.25 E144.56881
G1 X142.34 Y150.60 E144.66874
G1 X140.99 Y152.24 E144.76867
G1 X139.99 Y154.12 E144.86861
G1 X139.68 Y155.12 E144.91800
G1 X137.83 Y155.12 E145.00502
G1 X137.83 Y158.90 E145.18255
G0 F12000 X137.27 Y157.56
;TYPE:FILL
G1 F1380 X137.48 Y157.07 E145.20685
G1 X137.51 Y156.47 E145.22701
G1 X137.55 Y155.87 E145.24312
G1 X137.63 Y155.51 E145.26052
G1 F2400 E144.06052
G0 F12000 X138.83 Y153.75
G1 F2400 E145.26052
G1 F1380 X139.46 Y153.12 E145.30239
G0 F12000 X139.43 Y152.58
G1 F1380 X140.10 Y151.91 E145.34746
G0 F12000 X140.39 Y151.06
G1 F1380 X142.79 Y148.66 E145.50745
G0 F12000 X143.64 Y148.37
G1 F1380 X144.32 Y147.69 E145.55262
G0 F12000 X144.85 Y147.72
G1 F1380 X145.48 Y147.09 E145.59450
G0 F12000 X145.88 Y147.26
G1 F1380 X146.49 Y146.93 E145.62204
G1 X147.30 Y146.69 E145.64955
G1 X148.01 Y146.54 E145.67312
G1 X148.63 Y146.48 E145.69363
G1 X149.26 Y146.42 E145.71414
G1 X149.88 Y146.36 E145.73461
G1 X150.42 Y146.39 E145.75146
G1 X150.93 Y146.44 E145.76830
G1 X151.45 Y146.49 E145.78516
G1 X151.96 Y146.54 E145.80209
G1 X152.45 Y146.61 E145.81898
G1 X152.88 Y146.74 E145.83378
G1 X153.32 Y146.87 E145.84861
G1 X153.75 Y147.00 E145.86346
G1 X154.18 Y147.14 E145.87829
G1 X154.70 Y147.18 E145.89318
G1 X154.87 Y147.58 E145.90687
G1 X155.45 Y147.57 E145.92045
G1 X155.61 Y147.97 E145.93414
G1 X156.18 Y147.96 E145.94779
G1 X156.34 Y148.36 E145.96138
G1 X156.88 Y148.39 E145.97470
G1 X157.00 Y148.84 E145.98788
G1 X157.50 Y148.90 E146.00101
G1 X157.61 Y149.35 E146.01421
G1 X158.12 Y149.40 E146.02737
G1 X158.23 Y149.86 E146.04050
G1 X158.70 Y149.95 E146.05367
G1 X158.76 Y150.46 E146.06666
G1 X159.21 Y150.57 E146.07971
G1 X159.27 Y151.08 E146.09274
G1 X159.72 Y151.19 E146.10571
G1 X159.77 Y151.71 E146.11862
G1 X160.18 Y151.86 E146.13214
G1 X160.18 Y152.43 E146.14562
G1 X160.58 Y152.59 E146.15927
G1 X160.57 Y153.16 E146.17285
G1 X161.04 Y152.98 E146.19672
G0 F12000 X161.61 Y152.97
G1 F1380 X160.86 Y153.72 E146.24631
G0 F12000 X161.00 Y154.14
G1 F1380 X164.31 Y150.84 E146.46610
G0 F12000 X164.89 Y150.81
G1 F1380 X161.53 Y154.18 E146.69016
G0 F12000 X162.09 Y154.18
G1 F1380 X165.37 Y150.91 E146.90819
G0 F12000 X165.77 Y151.07
G1 F1380 X162.66 Y154.18 E147.11547
G0 F12000 X163.11 Y154.30
G1 F1380 X166.12 Y151.28 E147.31587
G0 F12000 X166.42 Y151.55
G1 F1380 X163.11 Y154.86 E147.53617
G0 F12000 X163.41 Y155.12
G1 F1380 X166.67 Y151.86 E147.75310
G0 F12000 X166.87 Y152.23
G1 F1380 X163.78 Y155.32 E147.95866
G0 F12000 X164.21 Y155.45
G1 F1380 X167.00 Y152.66 E148.14466
G0 F12000 X167.06 Y153.17
G1 F1380 X164.71 Y155.51 E148.30049
G0 F12000 X165.39 Y155.39
G1 F1380 X166.94 Y153.85 E148.40340
G0 F12000 X163.36 Y151.22
G1 F1380 X162.78 Y151.81 E148.44218
;LAYER:2
G0 F12000 X162.63 Y151.77 Z0.90
;TYPE:WALL-INNER
G1 F1380 X162.94 Y151.39 E148.46514
G1 X163.31 Y151.08 E148.48800
G1 X163.75 Y150.85 E148.51132
G1 X164.19 Y150.71 E148.53322
G1 X164.71 Y150.66 E148.55758
G1 X165.19 Y150.71 E148.58031
G1 X165.64 Y150.84 E148.60238
G1 X166.09 Y151.08 E148.62650
G1 X166.47 Y151.39 E148.64942
G1 X166.78 Y151.77 E148.67251
G1 X167.01 Y152.20 E148.69541
G1 X167.15 Y152.65 E148.71771
G1 X167.20 Y153.16 E148.74146
G1 X167.15 Y153.64 E148.76452
G1 X167.02 Y154.09 E148.78659
G1 X166.78 Y154.55 E148.81081
G1 X166.47 Y154.92 E148.83364
G1 X166.09 Y155.23 E148.85656
G1 X165.66 Y155.46 E148.87954
G1 X165.21 Y155.60 E148.90191
G1 X164.70 Y155.65 E148.92598
G1 X164.22 Y155.61 E148.94862
G1 X163.76 Y155.47 E148.97113
G1 X162.97 Y155.05 E149.01322
G1 X162.97 Y154.32 E149.04741
G1 X160.91 Y154.32 E149.14408
G1 X160.76 Y153.81 E149.16930
G1 X159.68 Y151.80 E149.27667
G1 X158.23 Y150.03 E149.38405
G1 X156.47 Y148.59 E149.49134
G1 X154.46 Y147.51 E149.59864
G1 X152.27 Y146.85 E149.70597
G1 X150.00 Y146.62 E149.81336
G1 X147.73 Y146.85 E149.92075
G1 X145.55 Y147.51 E150.02802
G1 X143.53 Y148.59 E150.13543
G1 X141.77 Y150.03 E150.24274
G1 X140.32 Y151.80 E150.35006
G1 X139.25 Y153.81 E150.45739
G1 X139.09 Y154.32 E150.48265
G1 X138.51 Y154.32 E150.51003
G1 X138.72 Y153.62 E150.54482
G1 X139.85 Y151.51 E150.65728
G1 X141.38 Y149.64 E150.77090
G1 X143.21 Y148.13 E150.88243
G1 X145.33 Y147.00 E150.99569
G1 X147.60 Y146.31 E151.10748
G1 X149.99 Y146.07 E151.21998
G1 X150.00 Y146.07 E151.22093
G1 X152.36 Y146.30 E151.33209
G1 X152.38 Y146.30 E151.33314
G1 X154.65 Y146.99 E151.44488
G1 X156.76 Y148.11 E151.55723
G1 X158.61 Y149.63 E151.66982
G1 X158.62 Y149.64 E151.67048
G1 X160.15 Y151.49 E151.78328
G1 X160.56 Y152.27 E151.82501
G1 X160.88 Y152.84 E151.85552
G1 X162.07 Y152.83 E151.91154
G1 X162.63 Y151.77 E151.96800
G0 F12000 X162.29 Y151.55
G1 F1380 X162.65 Y151.11 E151.99477
G1 X163.09 Y150.75 E152.02158
G1 X163.59 Y150.48 E152.04826
G1 X164.12 Y150.32 E152.07402
G1 X164.71 Y150.26 E152.10192
G1 X165.27 Y150.31 E152.12848
G1 X165.79 Y150.47 E152.15433
G1 X166.31 Y150.75 E152.18185
G1 X166.75 Y151.11 E152.20879
G1 X167.11 Y151.55 E152.23542
G1 X167.38 Y152.05 E152.26208
G1 X167.54 Y152.57 E152.28784
G1 X167.60 Y153.16 E152.31570
G1 X167.54 Y153.72 E152.34232
G1 X167.39 Y154.25 E152.36803
G1 X167.11 Y154.76 E152.39568
G1 X166.75 Y155.21 E152.42261
G1 X166.31 Y155.57 E152.44921
G1 X165.81 Y155.83 E152.47584
G1 X165.28 Y155.99 E152.50174
G1 X164.70 Y156.05 E152.52950
G1 X164.14 Y156.00 E152.55602
G1 X163.61 Y155.84 E152.58212
G1 X162.96 Y155.50 E152.61640
G1 X162.57 Y155.76 E152.63867
G1 X162.57 Y154.72 E152.68759
G1 X160.62 Y154.72 E152.77945
G1 X160.38 Y153.96 E152.81676
G1 X159.35 Y152.02 E152.92038
G1 X157.95 Y150.32 E153.02405
G1 X156.25 Y148.92 E153.12770
G1 X154.30 Y147.88 E153.23132
G1 X152.19 Y147.24 E153.33494
G1 X150.00 Y147.03 E153.43860
G1 X147.81 Y147.24 E153.54226
G1 X145.70 Y147.88 E153.64588
G1 X143.76 Y148.92 E153.74955
G1 X142.05 Y150.32 E153.85319
G1 X140.66 Y152.02 E153.95683
G1 X139.62 Y153.96 E154.06048
G1 X139.39 Y154.72 E154.09778
G1 X137.97 Y154.72 E154.16444
G1 X138.34 Y153.50 E154.22460
G1 X138.36 Y153.44 E154.22747
G1 X139.49 Y151.32 E154.34075
G1 X139.52 Y151.26 E154.34353
G1 X141.09 Y149.36 E154.45974
G1 X143.00 Y147.79 E154.57591
G1 X145.18 Y146.62 E154.69214
G1 X147.49 Y145.92 E154.80569
G1 X147.54 Y145.91 E154.80845
G1 X149.94 Y145.67 E154.92193
G1 X150.00 Y145.66 E154.92472
G1 X152.40 Y145.90 E155.03787
G1 X152.46 Y145.91 E155.04075
G1 X154.77 Y146.61 E155.15422
G1 X154.82 Y146.62 E155.15707
G1 X156.95 Y147.76 E155.27035
G1 X157.00 Y147.79 E155.27313
G1 X158.91 Y149.36 E155.38937
G1 X160.48 Y151.26 E155.50541
G1 X160.91 Y152.08 E155.54912
G1 X161.11 Y152.44 E155.56823
G1 X161.82 Y152.43 E155.60187
G1 X162.29 Y151.55 E155.64894
G0 F12000 X162.57 Y157.92
G1 F1380 X162.60 Y158.26 E155.66534
G1 X162.57 Y158.61 E155.68169
G1 X162.57 Y157.92 E155.71429
G0 F12000 X162.50 Y159.29
G1 F1380 X162.50 Y159.34 E155.71632
G1 X161.81 Y159.34 E155.74864
G1 X161.74 Y159.29 E155.75258
G1 X162.50 Y159.29 E155.78847
G1 F2400 E154.58847
G0 F12000 X138.26 Y159.29
G1 F2400 E155.78847
G1 F1380 X138.19 Y159.34 E155.79242
G1 X137.50 Y159.34 E155.82473
G1 X137.50 Y159.29 E155.82676
G1 X138.26 Y159.29 E155.86266
G0 F12000 X137.43 Y158.61
G1 F1380 X137.40 Y158.26 E155.87901
G1 X137.43 Y157.92 E155.89541
G1 X137.43 Y158.61 E155.92801
G0 F12000 X137.83 Y158.90
;TYPE:WALL-OUTER
G1 F1380 X139.22 Y158.90 E155.99349
G1 X139.25 Y159.17 E156.00634
G1 X138.30 Y159.74 E156.05831
G1 X137.14 Y159.74 E156.11292
G1 X137.00 Y158.26 E156.18255
G1 X137.25 Y155.73 E156.30242
G1 X137.99 Y153.29 E156.42206
G1 X139.19 Y151.04 E156.54228
G1 X140.81 Y149.07 E156.66204
G1 X142.78 Y147.46 E156.78183
G1 X145.03 Y146.25 E156.90210
G1 X147.46 Y145.51 E157.02171
G1 X149.91 Y145.27 E157.13712
G1 X150.00 Y145.26 E157.14171
G1 X152.44 Y145.50 E157.25694
G1 X152.54 Y145.51 E157.26158
G1 X154.97 Y146.25 E157.38123
G1 X157.23 Y147.46 E157.50146
G1 X159.19 Y149.07 E157.62125
G1 X160.81 Y151.04 E157.74100
G1 X161.26 Y151.89 E157.78643
G1 X161.34 Y152.04 E157.79422
G1 X161.58 Y152.03 E157.80542
G1 X161.96 Y151.32 E157.84342
G1 X162.37 Y150.82 E157.87383
G1 X162.87 Y150.41 E157.90414
G1 X163.43 Y150.11 E157.93434
G1 X164.04 Y149.93 E157.96427
G1 X164.70 Y149.86 E157.99553
G1 X165.34 Y149.92 E158.02563
G1 X165.95 Y150.10 E158.05552
G1 X166.53 Y150.41 E158.08672
G1 X167.04 Y150.82 E158.11720
G1 X167.44 Y151.32 E158.14735
G1 X167.75 Y151.89 E158.17790
G1 X167.93 Y152.50 E158.20764
G1 X168.00 Y153.16 E158.23876
G1 X167.94 Y153.80 E158.26916
G1 X167.76 Y154.40 E158.29864
G1 X167.44 Y154.99 E158.33007
G1 X167.03 Y155.49 E158.36059
G1 X166.54 Y155.90 E158.39070
G1 X165.96 Y156.21 E158.42153
G1 X165.37 Y156.39 E158.45079
G1 X164.70 Y156.46 E158.48223
G1 X164.06 Y156.39 E158.51253
G1 X163.46 Y156.21 E158.54222
G1 X162.99 Y155.96 E158.56713
G1 X162.79 Y156.09 E158.57829
G1 X163.00 Y158.26 E158.68086
G1 X162.86 Y159.74 E158.75043
G1 X161.70 Y159.74 E158.80504
G1 X160.75 Y159.17 E158.85701
G1 X160.78 Y158.90 E158.86987
G1 X162.17 Y158.90 E158.93535
G1 X162.17 Y155.12 E159.11287
G1 X160.32 Y155.12 E159.19990
G1 X160.01 Y154.12 E159.24929
G1 X159.01 Y152.24 E159.34921
G1 X157.66 Y150.60 E159.44917
G1 X156.02 Y149.25 E159.54910
G1 X154.15 Y148.25 E159.64902
G1 X152.12 Y147.63 E159.74896
G1 X150.00 Y147.43 E159.84893
G1 X147.89 Y147.63 E159.94889
G1 X145.85 Y148.25 E160.04883
G1 X143.98 Y149.25 E160.14879
G1 X142.34 Y150.60 E160.24872
G1 X140.99 Y152.24 E160.34866
G1 X139.99 Y154.12 E160.44860
G1 X139.68 Y155.12 E160.49799
G1 X137.83 Y155.12 E160.58501
G1 X137.83 Y158.90 E160.76254
G0 F12000 X137.63 Y157.66
;TYPE:FILL
G1 F1380 X137.46 Y157.21 E160.78537
G1 X137.49 Y156.67 E160.80474
G1 X137.51 Y156.13 E160.82071
G1 X137.44 Y155.78 E160.83758
G1 F2400 E159.63758
G0 F12000 X139.04 Y154.00
G1 F2400 E160.83758
G1 F1380 X138.91 Y153.58 E160.85242
G1 X139.30 Y153.41 E160.86591
G1 X139.29 Y152.84 E160.87937
G1 X139.69 Y152.67 E160.89303
G1 X139.69 Y152.10 E160.90660
G1 X140.09 Y151.94 E160.92021
G1 X140.11 Y151.40 E160.93353
G1 X140.56 Y151.28 E160.94655
G1 X140.62 Y150.78 E160.95958
G1 X141.07 Y150.66 E160.97263
G1 X141.13 Y150.16 E160.98570
G1 X141.58 Y150.05 E160.99885
G1 X141.67 Y149.57 E161.01198
G1 X142.18 Y149.52 E161.02509
G1 X142.29 Y149.06 E161.03812
G1 X142.80 Y149.01 E161.05115
G1 X142.91 Y148.56 E161.06416
G1 X143.43 Y148.51 E161.07716
G1 X143.58 Y148.09 E161.09056
G1 X144.15 Y148.10 E161.10400
G1 X144.31 Y147.70 E161.11751
G1 X144.88 Y147.71 E161.13099
G1 X145.05 Y147.30 E161.14457
G1 X145.53 Y147.23 E161.15810
G1 X145.96 Y147.09 E161.17277
G1 X146.40 Y146.96 E161.18741
G1 X146.83 Y146.83 E161.20206
G1 X147.26 Y146.70 E161.21669
G1 X147.71 Y146.58 E161.23131
G1 X148.21 Y146.52 E161.24792
G1 X148.73 Y146.47 E161.26448
G1 X149.24 Y146.42 E161.28108
G1 X149.75 Y146.37 E161.29782
G1 X150.33 Y146.38 E161.31653
G1 X150.95 Y146.44 E161.33707
G1 X151.58 Y146.50 E161.35758
G1 X152.20 Y146.56 E161.37808
G1 X152.98 Y146.77 E161.40574
G1 X153.79 Y147.02 E161.43338
G1 X154.40 Y147.35 E161.46621
G0 F12000 X154.89 Y147.28
G1 F1380 X155.56 Y147.94 E161.51058
G0 F12000 X156.10 Y147.92
G1 F1380 X157.14 Y148.96 E161.57937
G0 F12000 X158.29 Y149.55
G1 F1380 X158.72 Y149.97 E161.60781
G0 F12000 X159.31 Y151.13
G1 F1380 X160.36 Y152.18 E161.67726
G0 F12000 X160.32 Y152.71
G1 F1380 X161.80 Y154.18 E161.77551
G0 F12000 X161.24 Y154.18
G1 F1380 X160.92 Y153.87 E161.79667
G0 F12000 X161.16 Y152.98
G1 F1380 X162.37 Y154.18 E161.87693
G0 F12000 X162.93 Y154.18
G1 F1380 X161.72 Y152.97 E161.95756
G0 F12000 X162.19 Y152.88
G1 F1380 X164.81 Y155.50 E162.13151
G0 F12000 X165.30 Y155.43
G1 F1380 X162.39 Y152.51 E162.32510
G0 F12000 X162.58 Y152.15
G1 F1380 X165.71 Y155.27 E162.53325
G0 F12000 X166.07 Y155.07
G1 F1380 X162.79 Y151.79 E162.75148
G0 F12000 X163.05 Y151.48
G1 F1380 X166.38 Y154.81 E162.97307
G0 F12000 X166.63 Y154.50
G1 F1380 X163.36 Y151.22 E163.19093
G0 F12000 X163.72 Y151.02
G1 F1380 X166.83 Y154.14 E163.39825
G0 F12000 X166.98 Y153.72
G1 F1380 X164.13 Y150.88 E163.58758
G0 F12000 X164.63 Y150.81
G1 F1380 X167.05 Y153.23 E163.74856
G0 F12000 X166.98 Y152.59
G1 F1380 X165.26 Y150.87 E163.86305
G0 F12000 X163.11 Y154.36
G1 F1380 X164.20 Y155.46 E163.93586
G0 F12000 X163.19 Y155.01
G1 F1380 X163.11 Y154.92 E163.94175
;LAYER:3
G0 F12000 X162.97 Y155.05 Z1.20
;TYPE:WALL-INNER
G1 F1140 X162.97 Y154.32 E163.97571
G1 X160.91 Y154.32 E164.07238
G1 X160.76 Y153.81 E164.09760
G1 X159.68 Y151.80 E164.20497
G1 X158.23 Y150.03 E164.31235
G1 X156.47 Y148.59 E164.41963
G1 X154.46 Y147.51 E164.52694
G1 X152.27 Y146.85 E164.63427
G1 X150.00 Y146.62 E164.74166
G1 X147.73 Y146.85 E164.84904
G1 X145.55 Y147.51 E164.95632
G1 X143.53 Y148.59 E165.06373
G1 X141.77 Y150.03 E165.17104
G1 X140.32 Y151.80 E165.27836
G1 X139.25 Y153.81 E165.38568
G1 X139.09 Y154.32 E165.41095
G1 X138.51 Y154.32 E165.43833
G1 X138.73 Y153.60 E165.47412
G1 X139.82 Y151.55 E165.58340
G1 X139.86 Y151.49 E165.58660
G1 X141.33 Y149.69 E165.69605
G1 X141.37 Y149.64 E165.69896
G1 X143.17 Y148.16 E165.80855
G1 X143.22 Y148.12 E165.81160
G1 X145.28 Y147.03 E165.92113
G1 X145.34 Y146.99 E165.92429
G1 X147.56 Y146.32 E166.03370
G1 X147.62 Y146.30 E166.03671
G1 X150.00 Y146.07 E166.14910
G1 X152.38 Y146.30 E166.26155
G1 X154.61 Y146.97 E166.37111
G1 X154.67 Y146.99 E166.37397
G1 X156.72 Y148.09 E166.48342
G1 X156.78 Y148.12 E166.48647
G1 X158.58 Y149.60 E166.59610
G1 X158.63 Y149.64 E166.59921
G1 X160.10 Y151.44 E166.70847
G1 X160.15 Y151.49 E166.71164
G1 X160.55 Y152.24 E166.75196
G1 X160.86 Y152.83 E166.78331
G1 X162.06 Y152.83 E166.83999
G1 X162.62 Y151.77 E166.89661
G1 X162.94 Y151.39 E166.91964
G1 X163.31 Y151.08 E166.94256
G1 X163.75 Y150.85 E166.96586
G1 X164.22 Y150.71 E166.98891
G1 X164.71 Y150.66 E167.01206
G1 X165.19 Y150.71 E167.03475
G1 X165.66 Y150.85 E167.05775
G1 X166.09 Y151.08 E167.08094
G1 X166.47 Y151.39 E167.10397
G1 X166.78 Y151.77 E167.12700
G1 X167.01 Y152.20 E167.14998
G1 X167.15 Y152.67 E167.17322
G1 X167.20 Y153.16 E167.19605
G1 X167.15 Y153.64 E167.21902
G1 X167.01 Y154.11 E167.24197
G1 X166.78 Y154.54 E167.26516
G1 X166.47 Y154.92 E167.28835
G1 X166.09 Y155.23 E167.31109
G1 X165.66 Y155.46 E167.33423
G1 X165.19 Y155.61 E167.35736
G1 X164.70 Y155.65 E167.38042
G1 X164.22 Y155.61 E167.40320
G1 X163.75 Y155.46 E167.42646
G1 X162.97 Y155.05 E167.46796
G0 F12000 X162.97 Y155.50
G1 F1140 X162.57 Y155.76 E167.49041
G1 X162.57 Y154.72 E167.53933
G1 X160.62 Y154.72 E167.63120
G1 X160.38 Y153.96 E167.66850
G1 X159.35 Y152.02 E167.77212
G1 X157.95 Y150.32 E167.87580
G1 X156.25 Y148.92 E167.97944
G1 X154.30 Y147.88 E168.08306
G1 X152.19 Y147.24 E168.18669
G1 X150.00 Y147.03 E168.29034
G1 X147.81 Y147.24 E168.39400
G1 X145.70 Y147.88 E168.49763
G1 X143.76 Y148.92 E168.60129
G1 X142.05 Y150.32 E168.70493
G1 X140.66 Y152.02 E168.80858
G1 X139.62 Y153.96 E168.91222
G1 X139.39 Y154.72 E168.94953
G1 X137.97 Y154.72 E169.01613
G1 X138.36 Y153.44 E169.07909
G1 X139.47 Y151.36 E169.19025
G1 X139.52 Y151.26 E169.19530
G1 X141.03 Y149.44 E169.30656
G1 X141.09 Y149.35 E169.31152
G1 X142.92 Y147.85 E169.42268
G1 X143.00 Y147.79 E169.42760
G1 X145.09 Y146.67 E169.53904
G1 X145.18 Y146.62 E169.54405
G1 X147.44 Y145.94 E169.65524
G1 X147.54 Y145.91 E169.66012
G1 X150.00 Y145.66 E169.77625
G1 X152.46 Y145.91 E169.89243
G1 X154.72 Y146.59 E170.00362
G1 X154.82 Y146.62 E170.00858
G1 X156.91 Y147.74 E170.11985
G1 X157.00 Y147.79 E170.12505
G1 X158.83 Y149.29 E170.23620
G1 X158.91 Y149.36 E170.24105
G1 X160.41 Y151.19 E170.35238
G1 X160.48 Y151.26 E170.35719
G1 X160.90 Y152.06 E170.39960
G1 X161.10 Y152.44 E170.41959
G1 X161.82 Y152.44 E170.45360
G1 X162.29 Y151.55 E170.50075
G1 X162.65 Y151.11 E170.52755
G1 X163.09 Y150.75 E170.55439
G1 X163.60 Y150.47 E170.58132
G1 X164.14 Y150.31 E170.60790
G1 X164.71 Y150.26 E170.63474
G1 X165.27 Y150.31 E170.66121
G1 X165.81 Y150.48 E170.68794
G1 X166.31 Y150.74 E170.71463
G1 X166.75 Y151.10 E170.74140
G1 X167.11 Y151.54 E170.76810
G1 X167.38 Y152.05 E170.79507
G1 X167.54 Y152.59 E170.82176
G1 X167.60 Y153.16 E170.84860
G1 X167.54 Y153.72 E170.87512
G1 X167.38 Y154.26 E170.90151
G1 X167.11 Y154.77 E170.92861
G1 X166.75 Y155.20 E170.95525
G1 X166.31 Y155.56 E170.98192
G1 X165.81 Y155.83 E171.00886
G1 X165.26 Y156.00 E171.03560
G1 X164.70 Y156.05 E171.06244
G1 X164.14 Y156.00 E171.08887
G1 X163.59 Y155.83 E171.11571
G1 X162.97 Y155.50 E171.14915
G0 F12000 X162.40 Y155.91
G0 X162.57 Y157.92
G1 F1140 X162.60 Y158.26 E171.16555
G1 X162.57 Y158.61 E171.18190
G1 X162.57 Y157.92 E171.21450
G0 F12000 X162.50 Y159.29
G1 F1140 X162.50 Y159.34 E171.21653
G1 X161.81 Y159.34 E171.24890
G1 X161.74 Y159.29 E171.25280
G1 X162.50 Y159.29 E171.28869
G1 F2400 E170.08869
G0 F12000 X138.26 Y159.29
G1 F2400 E171.28869
G1 F1140 X138.19 Y159.34 E171.29264
G1 X137.50 Y159.34 E171.32495
G1 X137.50 Y159.29 E171.32698
G1 X138.26 Y159.29 E171.36287
G0 F12000 X137.43 Y158.61
G1 F1140 X137.40 Y158.26 E171.37923
G1 X137.43 Y157.92 E171.39563
G1 X137.43 Y158.61 E171.42823
G0 F12000 X137.83 Y158.90
;TYPE:WALL-OUTER
G1 F1140 X139.22 Y158.90 E171.49371
G1 X139.25 Y159.17 E171.50656
G1 X138.30 Y159.74 E171.55853
G1 X137.14 Y159.74 E171.61314
G1 X137.00 Y158.26 E171.68272
G1 X137.25 Y155.73 E171.80268
G1 X137.99 Y153.29 E171.92228
G1 X139.19 Y151.04 E172.04251
G1 X140.81 Y149.07 E172.16226
G1 X142.78 Y147.46 E172.28205
G1 X145.03 Y146.25 E172.40232
G1 X147.33 Y145.56 E172.51528
G1 X147.47 Y145.51 E172.52202
G1 X150.00 Y145.26 E172.64188
G1 X152.54 Y145.51 E172.76179
G1 X154.84 Y146.21 E172.87490
G1 X154.97 Y146.25 E172.88151
G1 X157.23 Y147.46 E173.00167
G1 X159.19 Y149.07 E173.12146
G1 X160.81 Y151.04 E173.24141
G1 X161.26 Y151.87 E173.28567
G1 X161.34 Y152.04 E173.29434
G1 X161.58 Y152.04 E173.30563
G1 X161.95 Y151.33 E173.34314
G1 X162.36 Y150.83 E173.37366
G1 X162.86 Y150.42 E173.40397
G1 X163.44 Y150.11 E173.43482
G1 X164.06 Y149.92 E173.46524
G1 X164.70 Y149.86 E173.49544
G1 X165.34 Y149.92 E173.52563
G1 X165.35 Y149.92 E173.52620
G1 X165.97 Y150.11 E173.55657
G1 X166.53 Y150.41 E173.58694
G1 X167.03 Y150.82 E173.61708
G1 X167.44 Y151.31 E173.64742
G1 X167.75 Y151.89 E173.67792
G1 X167.94 Y152.51 E173.70861
G1 X168.00 Y153.15 E173.73886
G1 X167.94 Y153.79 E173.76906
G1 X167.94 Y153.80 E173.76963
G1 X167.75 Y154.41 E173.79946
G1 X167.45 Y154.98 E173.82993
G1 X167.04 Y155.48 E173.86049
G1 X166.54 Y155.89 E173.89080
G1 X165.97 Y156.20 E173.92129
G1 X165.35 Y156.39 E173.95205
G1 X164.71 Y156.45 E173.98225
G1 X164.07 Y156.39 E174.01244
G1 X164.06 Y156.39 E174.01301
G1 X163.44 Y156.21 E174.04315
G1 X162.99 Y155.96 E174.06742
G1 X162.79 Y156.09 E174.07868
G1 X163.00 Y158.26 E174.18125
G1 X162.86 Y159.74 E174.25082
G1 X161.70 Y159.74 E174.30544
G1 X160.75 Y159.17 E174.35738
G1 X160.78 Y158.90 E174.37028
G1 X162.17 Y158.90 E174.43576
G1 X162.17 Y155.12 E174.61329
G1 X160.32 Y155.12 E174.70031
G1 X160.01 Y154.12 E174.74970
G1 X159.01 Y152.24 E174.84962
G1 X157.66 Y150.60 E174.94958
G1 X156.02 Y149.25 E175.04951
G1 X154.15 Y148.25 E175.14943
G1 X152.12 Y147.63 E175.24937
G1 X150.00 Y147.43 E175.34934
G1 X147.89 Y147.63 E175.44931
G1 X145.85 Y148.25 E175.54924
G1 X143.98 Y149.25 E175.64921
G1 X142.34 Y150.60 E175.74914
G1 X140.99 Y152.24 E175.84907
G1 X139.99 Y154.12 E175.94901
G1 X139.68 Y155.12 E175.99840
G1 X137.83 Y155.12 E176.08542
G1 X137.83 Y158.90 E176.26295
G0 F12000 X137.27 Y157.56
;TYPE:FILL
G1 F1140 X137.48 Y157.07 E176.28724
G1 X137.51 Y156.47 E176.30736
G1 X137.55 Y155.87 E176.32343
G1 X137.63 Y155.51 E176.34081
G1 F2400 E175.14081
G0 F12000 X140.90 Y150.88
G1 F2400 E176.34081
G1 F1140 X140.70 Y150.68 E176.35398
G0 F12000 X144.35 Y147.68
G1 F1140 X144.55 Y147.88 E176.36749
G0 F12000 X149.50 Y146.53
G1 F1140 X149.69 Y146.24 E176.38801
G1 X149.83 Y146.50 E176.40200
G0 F12000 X155.03 Y147.66
G1 F1140 X155.23 Y147.45 E176.41564
G0 F12000 X158.81 Y150.52
G1 F1140 X159.01 Y150.33 E176.42871
G0 F12000 X161.12 Y152.41
G0 X162.43 Y152.45
G1 F1140 X165.38 Y155.40 E176.62522
G0 F12000 X161.81 Y154.18
G1 F1140 X165.15 Y150.84 E176.84757
;LAYER:4
G0 F12000 X165.19 Y150.70 Z1.50
;TYPE:WALL-INNER
G1 F1200 X165.66 Y150.85 E176.87073
G1 X166.09 Y151.08 E176.89366
G1 X166.45 Y151.38 E176.91576
G1 X166.76 Y151.75 E176.93859
G1 X167.01 Y152.20 E176.96306
G1 X167.15 Y152.67 E176.98591
G1 X167.20 Y153.16 E177.00893
G1 X167.15 Y153.64 E177.03181
G1 X167.01 Y154.11 E177.05502
G1 X166.78 Y154.54 E177.07800
G1 X166.49 Y154.90 E177.09972
G1 X166.11 Y155.21 E177.12280
G1 X165.66 Y155.46 E177.14720
G1 X165.19 Y155.61 E177.17021
G1 X164.70 Y155.65 E177.19332
G1 X164.22 Y155.61 E177.21591
G1 X163.77 Y155.47 E177.23799
G1 X162.97 Y155.06 E177.28053
G1 X162.97 Y154.32 E177.31496
G1 X160.91 Y154.32 E177.41163
G1 X160.76 Y153.81 E177.43685
G1 X159.68 Y151.80 E177.54422
G1 X158.23 Y150.03 E177.65160
G1 X156.47 Y148.59 E177.75889
G1 X154.46 Y147.51 E177.86619
G1 X152.27 Y146.85 E177.97352
G1 X150.00 Y146.62 E178.08091
G1 X147.73 Y146.85 E178.18830
G1 X145.55 Y147.51 E178.29557
G1 X143.53 Y148.59 E178.40298
G1 X141.77 Y150.03 E178.51030
G1 X140.32 Y151.80 E178.61761
G1 X139.25 Y153.81 E178.72494
G1 X139.09 Y154.32 E178.75021
G1 X138.51 Y154.32 E178.77758
G1 X138.69 Y153.70 E178.80804
G1 X138.73 Y153.59 E178.81347
G1 X139.80 Y151.59 E178.92051
G1 X139.85 Y151.49 E178.92575
G1 X141.30 Y149.73 E179.03297
G1 X141.37 Y149.64 E179.03831
G1 X143.14 Y148.19 E179.14571
G1 X143.23 Y148.12 E179.15102
G1 X145.24 Y147.05 E179.25820
G1 X145.33 Y146.99 E179.26340
G1 X147.51 Y146.33 E179.37066
G1 X147.62 Y146.30 E179.37601
G1 X149.89 Y146.08 E179.48321
G1 X150.00 Y146.07 E179.48850
G1 X152.27 Y146.29 E179.59551
G1 X152.38 Y146.30 E179.60076
G1 X154.56 Y146.96 E179.70808
G1 X154.67 Y147.00 E179.71349
G1 X156.68 Y148.07 E179.82052
G1 X156.78 Y148.12 E179.82576
G1 X158.54 Y149.57 E179.93302
G1 X158.63 Y149.64 E179.93837
G1 X160.07 Y151.40 E180.04573
G1 X160.15 Y151.49 E180.05104
G1 X160.87 Y152.84 E180.12276
G1 X162.07 Y152.83 E180.17925
G1 X162.63 Y151.77 E180.23589
G1 X162.92 Y151.41 E180.25758
G1 X163.29 Y151.09 E180.28065
G1 X163.75 Y150.85 E180.30495
G1 X164.21 Y150.71 E180.32786
G1 X164.71 Y150.66 E180.35106
G1 X165.19 Y150.70 E180.37375
G0 F12000 X165.26 Y150.31
G1 F1200 X165.81 Y150.48 E180.40055
G1 X166.31 Y150.75 E180.42738
G1 X166.72 Y151.08 E180.45238
G1 X167.09 Y151.52 E180.47935
G1 X167.38 Y152.05 E180.50767
G1 X167.54 Y152.59 E180.53411
G1 X167.60 Y153.16 E180.56119
G1 X167.55 Y153.72 E180.58752
G1 X167.38 Y154.26 E180.61422
G1 X167.11 Y154.77 E180.64119
G1 X166.77 Y155.18 E180.66649
G1 X166.34 Y155.54 E180.69303
G1 X165.81 Y155.83 E180.72139
G1 X165.27 Y156.00 E180.74799
G1 X164.69 Y156.05 E180.77502
G1 X164.14 Y156.00 E180.80125
G1 X163.62 Y155.84 E180.82667
G1 X162.96 Y155.50 E180.86191
G1 X162.57 Y155.76 E180.88402
G1 X162.57 Y154.72 E180.93299
G1 X160.62 Y154.72 E181.02486
G1 X160.38 Y153.96 E181.06216
G1 X159.35 Y152.02 E181.16579
G1 X157.95 Y150.32 E181.26946
G1 X156.25 Y148.92 E181.37310
G1 X154.30 Y147.88 E181.47672
G1 X152.19 Y147.24 E181.58035
G1 X150.00 Y147.03 E181.68401
G1 X147.81 Y147.24 E181.78766
G1 X145.70 Y147.88 E181.89129
G1 X143.76 Y148.92 E181.99495
G1 X142.05 Y150.32 E182.09859
G1 X140.66 Y152.02 E182.20224
G1 X139.62 Y153.96 E182.30588
G1 X139.39 Y154.72 E182.34319
G1 X137.97 Y154.72 E182.40984
G1 X138.31 Y153.59 E182.46569
G1 X138.36 Y153.44 E182.47282
G1 X139.45 Y151.40 E182.58185
G1 X139.52 Y151.26 E182.58907
G1 X140.99 Y149.47 E182.69799
G1 X141.09 Y149.35 E182.70521
G1 X142.88 Y147.88 E182.81433
G1 X143.00 Y147.79 E182.82148
G1 X145.05 Y146.69 E182.93058
G1 X145.18 Y146.62 E182.93769
G1 X147.54 Y145.91 E183.05376
G1 X149.85 Y145.68 E183.16294
G1 X150.00 Y145.66 E183.17007
G1 X152.31 Y145.89 E183.27902
G1 X152.46 Y145.91 E183.28616
G1 X154.82 Y146.62 E183.40242
G1 X156.87 Y147.72 E183.51145
G1 X157.00 Y147.79 E183.51867
G1 X158.79 Y149.26 E183.62763
G1 X158.91 Y149.36 E183.63485
G1 X160.38 Y151.15 E183.74394
G1 X160.48 Y151.27 E183.75109
G1 X161.10 Y152.44 E183.81342
G1 X161.82 Y152.43 E183.84729
G1 X162.29 Y151.55 E183.89440
G1 X162.63 Y151.13 E183.91986
G1 X163.07 Y150.76 E183.94668
G1 X163.59 Y150.48 E183.97467
G1 X164.13 Y150.31 E184.00132
G1 X164.71 Y150.26 E184.02845
G1 X165.26 Y150.31 E184.05477
G0 F12000 X162.40 Y155.91
G0 X162.57 Y157.92
G1 F1200 X162.60 Y158.26 E184.07117
G1 X162.57 Y158.61 E184.08753
G1 X162.57 Y157.92 E184.12013
G0 F12000 X162.50 Y159.29
G1 F1200 X162.50 Y159.34 E184.12216
G1 X161.81 Y159.34 E184.15452
G1 X161.74 Y159.29 E184.15842
G1 X162.50 Y159.29 E184.19431
G1 F2400 E182.99431
G0 F12000 X138.26 Y159.29
G1 F2400 E184.19431
G1 F1200 X138.19 Y159.34 E184.19826
G1 X137.50 Y159.34 E184.23058
G1 X137.50 Y159.29 E184.23261
G1 X138.26 Y159.29 E184.26850
G0 F12000 X137.43 Y158.61
G1 F1200 X137.40 Y158.26 E184.28485
G1 X137.43 Y157.92 E184.30125
G1 X137.43 Y158.61 E184.33385
G0 F12000 X137.83 Y158.90
;TYPE:WALL-OUTER
G1 F1200 X139.22 Y158.90 E184.39933
G1 X139.25 Y159.17 E184.41219
G1 X138.30 Y159.74 E184.46416
G1 X137.14 Y159.74 E184.51877
G1 X137.00 Y158.26 E184.58839
G1 X137.25 Y155.73 E184.70826
G1 X137.99 Y153.29 E184.82790
G1 X139.19 Y151.04 E184.94813
G1 X140.81 Y149.07 E185.06788
G1 X142.78 Y147.46 E185.18767
G1 X145.03 Y146.25 E185.30794
G1 X147.46 Y145.51 E185.42755
G1 X150.00 Y145.26 E185.54751
G1 X152.54 Y145.51 E185.66742
G1 X154.97 Y146.25 E185.78707
G1 X157.23 Y147.46 E185.90730
G1 X159.19 Y149.07 E186.02709
G1 X160.81 Y151.04 E186.14684
G1 X161.34 Y152.04 E186.19998
G1 X161.58 Y152.04 E186.21122
G1 X161.95 Y151.34 E186.24849
G1 X161.96 Y151.32 E186.24929
G1 X162.34 Y150.85 E186.27786
G1 X162.84 Y150.43 E186.30841
G1 X163.43 Y150.11 E186.33970
G1 X163.44 Y150.10 E186.34060
G1 X164.06 Y149.92 E186.37073
G1 X164.69 Y149.86 E186.40065
G1 X164.71 Y149.86 E186.40141
G1 X165.33 Y149.92 E186.43080
G1 X165.35 Y149.92 E186.43175
G1 X165.97 Y150.11 E186.46212
G1 X166.53 Y150.41 E186.49249
G1 X167.01 Y150.80 E186.52147
G1 X167.42 Y151.29 E186.55175
G1 X167.74 Y151.88 E186.58309
G1 X167.75 Y151.90 E186.58400
G1 X167.94 Y152.51 E186.61413
G1 X168.00 Y153.14 E186.64400
G1 X168.00 Y153.16 E186.64476
G1 X167.94 Y153.78 E186.67421
G1 X167.94 Y153.80 E186.67515
G1 X167.75 Y154.41 E186.70524
G1 X167.44 Y154.99 E186.73601
G1 X167.06 Y155.46 E186.76462
G1 X166.56 Y155.88 E186.79527
G1 X165.98 Y156.20 E186.82644
G1 X165.96 Y156.21 E186.82735
G1 X165.35 Y156.39 E186.85754
G1 X164.72 Y156.45 E186.88736
G1 X164.70 Y156.46 E186.88812
G1 X164.08 Y156.39 E186.91756
G1 X164.06 Y156.39 E186.91851
G1 X163.47 Y156.21 E186.94723
G1 X162.99 Y155.96 E186.97300
G1 X162.79 Y156.10 E186.98414
G1 X163.00 Y158.26 E187.08666
G1 X162.86 Y159.74 E187.15624
G1 X161.70 Y159.74 E187.21085
G1 X160.75 Y159.17 E187.26282
G1 X160.78 Y158.90 E187.27568
G1 X162.17 Y158.90 E187.34116
G1 X162.17 Y155.12 E187.51868
G1 X160.32 Y155.12 E187.60571
G1 X160.01 Y154.12 E187.65510
G1 X159.01 Y152.24 E187.75501
G1 X157.66 Y150.60 E187.85498
G1 X156.02 Y149.25 E187.95491
G1 X154.15 Y148.25 E188.05483
G1 X152.12 Y147.63 E188.15477
G1 X150.00 Y147.43 E188.25473
G1 X147.89 Y147.63 E188.35470
G1 X145.85 Y148.25 E188.45464
G1 X143.98 Y149.25 E188.55460
G1 X142.34 Y150.60 E188.65453
G1 X140.99 Y152.24 E188.75446
G1 X139.99 Y154.12 E188.85441
G1 X139.68 Y155.12 E188.90380
G1 X137.83 Y155.12 E188.99082
G1 X137.83 Y158.90 E189.16834
G0 F12000 X137.63 Y157.66
;TYPE:FILL
G1 F1200 X137.46 Y157.21 E189.19118
G1 X137.49 Y156.67 E189.21055
G1 X137.51 Y156.13 E189.22651
G1 X137.44 Y155.78 E189.24339
G1 F2400 E188.04339
G0 F12000 X140.90 Y150.88
G1 F2400 E189.24339
G1 F1200 X140.70 Y150.68 E189.25659
G0 F12000 X144.35 Y147.68
G1 F1200 X144.55 Y147.88 E189.27013
G0 F12000 X149.50 Y146.53
G1 F1200 X149.69 Y146.24 E189.29064
G1 X149.83 Y146.50 E189.30459
G0 F12000 X155.03 Y147.66
G1 F1200 X155.23 Y147.45 E189.31823
G0 F12000 X158.81 Y150.52
G1 F1200 X159.01 Y150.33 E189.33130
G0 F12000 X161.12 Y152.41
G0 X162.43 Y152.45
G1 F1200 X165.38 Y155.40 E189.52778
G0 F12000 X161.81 Y154.18
G1 F1200 X165.15 Y150.84 E189.75020
;LAYER:5
G0 F12000 X165.18 Y150.70 Z1.80
;TYPE:WALL-INNER
G1 F1200 X165.66 Y150.85 E189.77369
G1 X166.09 Y151.08 E189.79649
G1 X166.44 Y151.37 E189.81798
G1 X166.78 Y151.77 E189.84289
G1 X167.01 Y152.20 E189.86566
G1 X167.15 Y152.67 E189.88861
G1 X167.20 Y153.16 E189.91191
G1 X167.15 Y153.64 E189.93446
G1 X167.01 Y154.11 E189.95766
G1 X166.78 Y154.54 E189.98079
G1 X166.49 Y154.90 E190.00221
G1 X166.09 Y155.23 E190.02705
G1 X165.66 Y155.46 E190.04989
G1 X165.18 Y155.61 E190.07313
G1 X164.70 Y155.65 E190.09619
G1 X164.22 Y155.61 E190.11873
G1 X163.75 Y155.47 E190.14183
G1 X162.97 Y155.05 E190.18356
G1 X162.97 Y154.32 E190.21752
G1 X160.91 Y154.32 E190.31419
G1 X160.76 Y153.81 E190.33941
G1 X159.68 Y151.80 E190.44678
G1 X158.23 Y150.03 E190.55416
G1 X156.47 Y148.59 E190.66145
G1 X154.46 Y147.51 E190.76875
G1 X152.27 Y146.85 E190.87608
G1 X150.00 Y146.62 E190.98347
G1 X147.73 Y146.85 E191.09086
G1 X145.55 Y147.51 E191.19813
G1 X143.53 Y148.59 E191.30554
G1 X141.77 Y150.03 E191.41286
G1 X140.32 Y151.80 E191.52017
G1 X139.25 Y153.81 E191.62750
G1 X139.09 Y154.32 E191.65277
G1 X138.51 Y154.32 E191.68014
G1 X138.73 Y153.60 E191.71592
G1 X139.78 Y151.63 E191.82101
G1 X139.85 Y151.49 E191.82827
G1 X141.38 Y149.64 E191.94104
G1 X143.10 Y148.22 E192.04606
G1 X143.22 Y148.12 E192.05341
G1 X145.33 Y147.00 E192.16585
G1 X147.62 Y146.30 E192.27848
G1 X150.00 Y146.07 E192.39092
G1 X152.38 Y146.30 E192.50332
G1 X154.67 Y147.00 E192.61599
G1 X156.64 Y148.05 E192.72102
G1 X156.78 Y148.12 E192.72845
G1 X158.51 Y149.54 E192.83351
G1 X158.62 Y149.64 E192.84069
G1 X160.15 Y151.49 E192.95349
G1 X160.53 Y152.22 E192.99240
G1 X160.87 Y152.84 E193.02544
G1 X162.07 Y152.83 E193.08179
G1 X162.62 Y151.77 E193.13835
G1 X162.91 Y151.42 E193.15961
G1 X163.32 Y151.07 E193.18465
G1 X163.75 Y150.85 E193.20738
G1 X164.18 Y150.72 E193.22861
G1 X164.71 Y150.66 E193.25397
G1 X165.18 Y150.70 E193.27614
G0 F12000 X165.26 Y150.31
G1 F1200 X165.81 Y150.48 E193.30328
G1 X166.31 Y150.74 E193.32963
G1 X166.72 Y151.08 E193.35476
G1 X167.11 Y151.55 E193.38330
G1 X167.38 Y152.05 E193.41015
G1 X167.54 Y152.59 E193.43661
G1 X167.60 Y153.16 E193.46341
G1 X167.55 Y153.72 E193.48993
G1 X167.38 Y154.26 E193.51676
G1 X167.11 Y154.77 E193.54370
G1 X166.78 Y155.18 E193.56850
G1 X166.31 Y155.57 E193.59725
G1 X165.81 Y155.83 E193.62391
G1 X165.26 Y156.00 E193.65079
G1 X164.69 Y156.05 E193.67763
G1 X164.14 Y156.00 E193.70382
G1 X163.60 Y155.84 E193.73051
G1 X162.97 Y155.50 E193.76416
G1 X162.57 Y155.76 E193.78661
G1 X162.57 Y154.72 E193.83553
G1 X160.62 Y154.72 E193.92740
G1 X160.38 Y153.96 E193.96471
G1 X159.35 Y152.02 E194.06833
G1 X157.95 Y150.32 E194.17200
G1 X156.25 Y148.92 E194.27564
G1 X154.30 Y147.88 E194.37926
G1 X152.19 Y147.24 E194.48289
G1 X150.00 Y147.03 E194.58655
G1 X147.81 Y147.24 E194.69020
G1 X145.70 Y147.88 E194.79383
G1 X143.76 Y148.92 E194.89750
G1 X142.05 Y150.32 E195.00114
G1 X140.66 Y152.02 E195.10478
G1 X139.62 Y153.96 E195.20842
G1 X139.39 Y154.72 E195.24573
G1 X137.97 Y154.72 E195.31234
G1 X138.36 Y153.44 E195.37530
G1 X139.52 Y151.26 E195.49148
G1 X141.09 Y149.36 E195.60762
G1 X143.00 Y147.79 E195.72380
G1 X145.18 Y146.62 E195.84003
G1 X147.54 Y145.91 E195.95629
G1 X150.00 Y145.66 E196.07247
G1 X152.46 Y145.91 E196.18864
G1 X154.82 Y146.62 E196.30490
G1 X157.00 Y147.79 E196.42109
G1 X158.91 Y149.36 E196.53727
G1 X160.47 Y151.26 E196.65321
G1 X160.89 Y152.03 E196.69429
G1 X161.11 Y152.44 E196.71599
G1 X161.82 Y152.43 E196.74981
G1 X162.29 Y151.54 E196.79702
G1 X162.63 Y151.13 E196.82202
G1 X163.10 Y150.74 E196.85073
G1 X163.60 Y150.48 E196.87733
G1 X164.09 Y150.32 E196.90182
G1 X164.71 Y150.26 E196.93088
G1 X165.26 Y150.31 E196.95711
G0 F12000 X162.40 Y155.91
G0 X162.57 Y157.92
G1 F1200 X162.60 Y158.26 E196.97351
G1 X162.57 Y158.61 E196.98986
G1 X162.57 Y157.92 E197.02246
G0 F12000 X162.50 Y159.29
G1 F1200 X162.50 Y159.34 E197.02449
G1 X161.81 Y159.34 E197.05686
G1 X161.74 Y159.29 E197.06076
G1 X162.50 Y159.29 E197.09665
G1 F2400 E195.89665
G0 F12000 X138.26 Y159.29
G1 F2400 E197.09665
G1 F1200 X138.19 Y159.34 E197.10060
G1 X137.50 Y159.34 E197.13291
G1 X137.50 Y159.29 E197.13494
G1 X138.26 Y159.29 E197.17083
G0 F12000 X137.43 Y158.61
G1 F1200 X137.40 Y158.26 E197.18719
G1 X137.43 Y157.92 E197.20359
G1 X137.43 Y158.61 E197.23619
G0 F12000 X137.83 Y158.90
;TYPE:WALL-OUTER
G1 F1200 X139.22 Y158.90 E197.30166
G1 X139.25 Y159.17 E197.31452
G1 X138.30 Y159.74 E197.36649
G1 X137.14 Y159.74 E197.42110
G1 X137.00 Y158.26 E197.49068
G1 X137.25 Y155.73 E197.61064
G1 X137.99 Y153.29 E197.73048
G1 X139.19 Y151.04 E197.85028
G1 X140.81 Y149.07 E197.97024
G1 X142.78 Y147.46 E198.09003
G1 X145.03 Y146.25 E198.21029
G1 X147.46 Y145.51 E198.32990
G1 X150.00 Y145.26 E198.44986
G1 X152.54 Y145.51 E198.56977
G1 X154.98 Y146.25 E198.68967
G1 X157.22 Y147.45 E198.80947
G1 X159.19 Y149.07 E198.92946
G1 X160.81 Y151.04 E199.04921
G1 X161.34 Y152.04 E199.10235
G1 X161.58 Y152.04 E199.11364
G1 X161.96 Y151.32 E199.15156
G1 X162.34 Y150.86 E199.17993
G1 X162.87 Y150.41 E199.21261
G1 X163.44 Y150.11 E199.24281
G1 X164.02 Y149.93 E199.27127
G1 X164.68 Y149.86 E199.30278
G1 X164.71 Y149.86 E199.30387
G1 X165.32 Y149.92 E199.33284
G1 X165.35 Y149.92 E199.33417
G1 X165.97 Y150.11 E199.36454
G1 X166.53 Y150.41 E199.39491
G1 X167.00 Y150.80 E199.42355
G1 X167.44 Y151.32 E199.45567
G1 X167.74 Y151.87 E199.48517
G1 X167.94 Y152.51 E199.51660
G1 X168.00 Y153.14 E199.54614
G1 X168.00 Y153.16 E199.54723
G1 X167.94 Y153.77 E199.57621
G1 X167.94 Y153.80 E199.57758
G1 X167.75 Y154.41 E199.60766
G1 X167.46 Y154.97 E199.63718
G1 X167.06 Y155.46 E199.66668
G1 X166.53 Y155.90 E199.69917
G1 X165.98 Y156.19 E199.72851
G1 X165.36 Y156.38 E199.75904
G1 X165.34 Y156.39 E199.76008
G1 X164.72 Y156.45 E199.78947
G1 X164.70 Y156.46 E199.79056
G1 X164.09 Y156.40 E199.81954
G1 X164.06 Y156.39 E199.82091
G1 X163.46 Y156.21 E199.85001
G1 X163.44 Y156.21 E199.85100
G1 X162.99 Y155.96 E199.87531
G1 X162.79 Y156.09 E199.88657
G1 X163.00 Y158.26 E199.98914
G1 X162.86 Y159.74 E200.05871
G1 X161.70 Y159.74 E200.11333
G1 X160.75 Y159.17 E200.16529
G1 X160.78 Y158.90 E200.17815
G1 X162.17 Y158.90 E200.24363
G1 X162.17 Y155.12 E200.42116
G1 X160.32 Y155.12 E200.50818
G1 X160.01 Y154.12 E200.55757
G1 X159.01 Y152.24 E200.65749
G1 X157.66 Y150.60 E200.75745
G1 X156.02 Y149.25 E200.85738
G1 X154.15 Y148.25 E200.95730
G1 X152.12 Y147.63 E201.05724
G1 X150.00 Y147.43 E201.15721
G1 X147.89 Y147.63 E201.25717
G1 X145.85 Y148.25 E201.35711
G1 X143.98 Y149.25 E201.45707
G1 X142.34 Y150.60 E201.55700
G1 X140.99 Y152.24 E201.65694
G1 X139.99 Y154.12 E201.75688
G1 X139.68 Y155.12 E201.80627
G1 X137.83 Y155.12 E201.89329
G1 X137.83 Y158.90 E202.07082
G0 F12000 X137.27 Y157.56
;TYPE:FILL
G1 F1200 X137.48 Y157.07 E202.09512
G1 X137.51 Y156.47 E202.11528
G1 X137.55 Y155.87 E202.13139
G1 X137.63 Y155.51 E202.14879
G1 F2400 E200.94879
G0 F12000 X140.90 Y150.88
G1 F2400 E202.14879
G1 F1200 X140.70 Y150.68 E202.16196
G0 F12000 X144.35 Y147.68
G1 F1200 X144.55 Y147.88 E202.17553
G0 F12000 X149.50 Y146.53
G1 F1200 X149.69 Y146.24 E202.19605
G1 X149.83 Y146.50 E202.21004
G0 F12000 X155.03 Y147.66
G1 F1200 X155.23 Y147.45 E202.22377
G0 F12000 X158.81 Y150.52
G1 F1200 X159.01 Y150.33 E202.23681
G0 F12000 X161.12 Y152.41
G0 X162.43 Y152.45
G1 F1200 X165.38 Y155.40 E202.43332
G0 F12000 X161.81 Y154.18
G1 F1200 X165.15 Y150.84 E202.65568
;LAYER:6
G0 F12000 X165.19 Y150.71 Z2.10
;TYPE:WALL-INNER
G1 F1200 X165.66 Y150.85 E202.67892
G1 X166.08 Y151.08 E202.70165
G1 X166.47 Y151.39 E202.72492
G1 X166.78 Y151.77 E202.74814
G1 X167.01 Y152.19 E202.77074
G1 X167.15 Y152.67 E202.79424
G1 X167.20 Y153.16 E202.81707
G1 X167.15 Y153.64 E202.84018
G1 X167.01 Y154.11 E202.86294
G1 X166.78 Y154.54 E202.88621
G1 X166.47 Y154.92 E202.90914
G1 X166.09 Y155.23 E202.93244
G1 X165.66 Y155.46 E202.95517
G1 X165.18 Y155.61 E202.97856
G1 X164.70 Y155.65 E203.00143
G1 X164.22 Y155.61 E203.02435
G1 X163.78 Y155.47 E203.04559
G1 X162.97 Y155.06 E203.08869
G1 X162.97 Y154.32 E203.12322
G1 X160.91 Y154.32 E203.21989
G1 X160.76 Y153.81 E203.24511
G1 X159.68 Y151.80 E203.35248
G1 X158.23 Y150.03 E203.45986
G1 X156.47 Y148.59 E203.56715
G1 X154.46 Y147.51 E203.67445
G1 X152.27 Y146.85 E203.78178
G1 X150.00 Y146.62 E203.88917
G1 X147.73 Y146.85 E203.99655
G1 X145.55 Y147.51 E204.10383
G1 X143.53 Y148.59 E204.21124
G1 X141.77 Y150.03 E204.31855
G1 X140.32 Y151.80 E204.42587
G1 X139.25 Y153.81 E204.53320
G1 X139.09 Y154.32 E204.55846
G1 X138.51 Y154.32 E204.58589
G1 X138.67 Y153.79 E204.61203
G1 X138.73 Y153.60 E204.62153
G1 X139.85 Y151.49 E204.73397
G1 X141.37 Y149.64 E204.84663
G1 X143.23 Y148.12 E204.95933
G1 X145.33 Y147.00 E205.07160
G1 X147.43 Y146.36 E205.17463
G1 X147.62 Y146.30 E205.18419
G1 X149.80 Y146.09 E205.28713
G1 X150.00 Y146.07 E205.29677
G1 X152.18 Y146.28 E205.39952
G1 X152.38 Y146.30 E205.40912
G1 X154.48 Y146.94 E205.51215
G1 X154.67 Y146.99 E205.52154
G1 X156.78 Y148.12 E205.63398
G1 X158.63 Y149.64 E205.74668
G1 X160.15 Y151.49 E205.85934
G1 X160.87 Y152.84 E205.93106
G1 X162.06 Y152.83 E205.98751
G1 X162.62 Y151.77 E206.04411
G1 X162.93 Y151.39 E206.06700
G1 X163.32 Y151.08 E206.09026
G1 X163.74 Y150.85 E206.11310
G1 X164.22 Y150.71 E206.13639
G1 X164.70 Y150.66 E206.15935
G1 X165.19 Y150.71 E206.18209
G0 F12000 X165.26 Y150.31
G1 F1200 X165.81 Y150.48 E206.20905
G1 X166.31 Y150.74 E206.23567
G1 X166.75 Y151.11 E206.26254
G1 X167.11 Y151.55 E206.28931
G1 X167.38 Y152.04 E206.31563
G1 X167.54 Y152.59 E206.34282
G1 X167.60 Y153.16 E206.36939
G1 X167.54 Y153.72 E206.39619
G1 X167.38 Y154.26 E206.42263
G1 X167.11 Y154.77 E206.44974
G1 X166.75 Y155.21 E206.47654
G1 X166.31 Y155.56 E206.50297
G1 X165.81 Y155.83 E206.52964
G1 X165.26 Y156.00 E206.55676
G1 X164.70 Y156.05 E206.58333
G1 X164.14 Y156.00 E206.60993
G1 X163.64 Y155.85 E206.63456
G1 X162.96 Y155.50 E206.67051
G1 X162.57 Y155.76 E206.69255
G1 X162.57 Y154.72 E206.74152
G1 X160.62 Y154.72 E206.83339
G1 X160.38 Y153.96 E206.87069
G1 X159.35 Y152.02 E206.97431
G1 X157.95 Y150.32 E207.07799
G1 X156.25 Y148.92 E207.18163
G1 X154.30 Y147.88 E207.28525
G1 X152.19 Y147.24 E207.38888
G1 X150.00 Y147.03 E207.49253
G1 X147.81 Y147.24 E207.59619
G1 X145.70 Y147.88 E207.69982
G1 X143.76 Y148.92 E207.80348
G1 X142.05 Y150.32 E207.90712
G1 X140.66 Y152.02 E208.01076
G1 X139.62 Y153.96 E208.11441
G1 X139.39 Y154.72 E208.15171
G1 X137.97 Y154.72 E208.21837
G1 X138.29 Y153.68 E208.26983
G1 X138.36 Y153.44 E208.28140
G1 X139.52 Y151.27 E208.39736
G1 X141.09 Y149.35 E208.51380
G1 X143.00 Y147.79 E208.62984
G1 X145.18 Y146.62 E208.74607
G1 X147.31 Y145.98 E208.85092
G1 X147.54 Y145.91 E208.86237
G1 X149.76 Y145.69 E208.96711
G1 X150.00 Y145.66 E208.97855
G1 X152.22 Y145.88 E209.08320
G1 X152.46 Y145.91 E209.09468
G1 X154.59 Y146.55 E209.19944
G1 X154.82 Y146.62 E209.21100
G1 X157.00 Y147.79 E209.32712
G1 X158.91 Y149.35 E209.44317
G1 X160.48 Y151.27 E209.55961
G1 X161.10 Y152.44 E209.62194
G1 X161.82 Y152.43 E209.65581
G1 X162.29 Y151.54 E209.70321
G1 X162.66 Y151.10 E209.72998
G1 X163.09 Y150.75 E209.75641
G1 X163.59 Y150.48 E209.78314
G1 X164.14 Y150.31 E209.81012
G1 X164.70 Y150.26 E209.83682
G1 X165.26 Y150.31 E209.86324
G0 F12000 X162.40 Y155.91
G0 X162.57 Y157.92
G1 F1200 X162.60 Y158.26 E209.87965
G1 X162.57 Y158.61 E209.89600
G1 X162.57 Y157.92 E209.92860
G0 F12000 X162.50 Y159.29
G1 F1200 X162.50 Y159.34 E209.93063
G1 X161.81 Y159.34 E209.96299
G1 X161.74 Y159.29 E209.96690
G1 X162.50 Y159.29 E210.00279
G1 F2400 E208.80279
G0 F12000 X138.26 Y159.29
G1 F2400 E210.00279
G1 F1200 X138.19 Y159.34 E210.00673
G1 X137.50 Y159.34 E210.03905
G1 X137.50 Y159.29 E210.04108
G1 X138.26 Y159.29 E210.07697
G0 F12000 X137.43 Y158.61
G1 F1200 X137.40 Y158.26 E210.09332
G1 X137.43 Y157.92 E210.10972
G1 X137.43 Y158.61 E210.14232
G0 F12000 X137.83 Y158.90
;TYPE:WALL-OUTER
G1 F1200 X139.22 Y158.90 E210.20780
G1 X139.25 Y159.17 E210.22066
G1 X138.30 Y159.74 E210.27263
G1 X137.14 Y159.74 E210.32724
G1 X137.00 Y158.26 E210.39686
G1 X137.25 Y155.73 E210.51673
G1 X137.99 Y153.29 E210.63661
G1 X139.19 Y151.04 E210.75642
G1 X140.81 Y149.07 E210.87637
G1 X142.78 Y147.46 E210.99616
G1 X145.03 Y146.25 E211.11643
G1 X147.46 Y145.51 E211.23604
G1 X150.00 Y145.26 E211.35600
G1 X152.54 Y145.51 E211.47591
G1 X154.98 Y146.25 E211.59580
G1 X157.22 Y147.45 E211.71561
G1 X159.19 Y149.07 E211.83559
G1 X160.81 Y151.04 E211.95535
G1 X161.34 Y152.04 E212.00849
G1 X161.58 Y152.04 E212.01973
G1 X161.96 Y151.32 E212.05773
G1 X162.37 Y150.82 E212.08811
G1 X162.87 Y150.41 E212.11859
G1 X163.41 Y150.12 E212.14759
G1 X163.44 Y150.11 E212.14894
G1 X164.03 Y149.93 E212.17807
G1 X164.06 Y149.92 E212.17955
G1 X164.70 Y149.86 E212.20984
G1 X165.34 Y149.92 E212.24014
G1 X165.93 Y150.10 E212.26913
G1 X166.51 Y150.40 E212.29960
G1 X167.03 Y150.82 E212.33148
G1 X167.45 Y151.32 E212.36199
G1 X167.74 Y151.86 E212.39084
G1 X167.75 Y151.89 E212.39213
G1 X167.93 Y152.49 E212.42146
G1 X167.94 Y152.51 E212.42293
G1 X168.00 Y153.16 E212.45319
G1 X167.94 Y153.80 E212.48372
G1 X167.76 Y154.39 E212.51247
G1 X167.75 Y154.42 E212.51421
G1 X167.46 Y154.96 E212.54309
G1 X167.45 Y154.99 E212.54445
G1 X167.03 Y155.49 E212.57493
G1 X166.53 Y155.90 E212.60542
G1 X165.99 Y156.19 E212.63427
G1 X165.97 Y156.20 E212.63570
G1 X165.37 Y156.38 E212.66490
G1 X165.34 Y156.39 E212.66637
G1 X164.70 Y156.46 E212.69662
G1 X164.06 Y156.39 E212.72710
G1 X163.48 Y156.22 E212.75532
G1 X162.98 Y155.96 E212.78168
G1 X162.79 Y156.10 E212.79278
G1 X163.00 Y158.26 E212.89530
G1 X162.86 Y159.74 E212.96488
G1 X161.70 Y159.74 E213.01945
G1 X160.75 Y159.17 E213.07145
G1 X160.78 Y158.90 E213.08431
G1 X162.17 Y158.90 E213.14979
G1 X162.17 Y155.12 E213.32732
G1 X160.32 Y155.12 E213.41434
G1 X160.01 Y154.12 E213.46373
G1 X159.01 Y152.24 E213.56365
G1 X157.66 Y150.60 E213.66361
G1 X156.02 Y149.25 E213.76354
G1 X154.15 Y148.25 E213.86346
G1 X152.12 Y147.63 E213.96340
G1 X150.00 Y147.43 E214.06337
G1 X147.89 Y147.63 E214.16333
G1 X145.85 Y148.25 E214.26327
G1 X143.98 Y149.25 E214.36323
G1 X142.34 Y150.60 E214.46316
G1 X140.99 Y152.24 E214.56310
G1 X139.99 Y154.12 E214.66304
G1 X139.68 Y155.12 E214.71243
G1 X137.83 Y155.12 E214.79945
G1 X137.83 Y158.90 E214.97698
G0 F12000 X137.63 Y157.66
;TYPE:FILL
G1 F1200 X137.46 Y157.21 E214.99981
G1 X137.49 Y156.67 E215.01918
G1 X137.51 Y156.13 E215.03515
G1 X137.44 Y155.78 E215.05202
G1 F2400 E213.85202
G0 F12000 X140.90 Y150.88
G1 F2400 E215.05202
G1 F1200 X140.70 Y150.68 E215.06519
G0 F12000 X144.35 Y147.68
G1 F1200 X144.55 Y147.88 E215.07870
G0 F12000 X149.50 Y146.53
G1 F1200 X149.69 Y146.24 E215.09921
G1 X149.83 Y146.50 E215.11316
G0 F12000 X155.03 Y147.66
G1 F1200 X155.23 Y147.45 E215.12686
G0 F12000 X158.81 Y150.52
G1 F1200 X159.01 Y150.33 E215.13990
G0 F12000 X161.12 Y152.41
G0 X162.42 Y152.44
G1 F1200 X165.38 Y155.40 E215.33648
G0 F12000 X161.81 Y154.18
G1 F1200 X165.15 Y150.84 E215.55883
;LAYER:7
G0 F12000 X165.19 Y150.71 Z2.40
;TYPE:WALL-INNER
G1 F1200 X165.65 Y150.84 E215.58172
G1 X166.09 Y151.08 E215.60472
G1 X166.47 Y151.39 E215.62795
G1 X166.78 Y151.77 E215.65111
G1 X167.01 Y152.20 E215.67398
G1 X167.15 Y152.67 E215.69732
G1 X167.20 Y153.16 E215.72029
G1 X167.15 Y153.64 E215.74308
G1 X167.01 Y154.11 E215.76598
G1 X166.78 Y154.54 E215.78921
G1 X166.47 Y154.92 E215.81213
G1 X166.09 Y155.23 E215.83536
G1 X165.66 Y155.46 E215.85819
G1 X165.18 Y155.61 E215.88158
G1 X164.70 Y155.65 E215.90460
G1 X164.22 Y155.61 E215.92724
G1 X163.75 Y155.46 E215.95039
G1 X162.97 Y155.05 E215.99200
G1 X162.97 Y154.32 E216.02596
G1 X160.91 Y154.32 E216.12262
G1 X160.76 Y153.81 E216.14785
G1 X159.68 Y151.80 E216.25521
G1 X158.23 Y150.03 E216.36260
G1 X156.47 Y148.59 E216.46988
G1 X154.46 Y147.51 E216.57719
G1 X152.27 Y146.85 E216.68452
G1 X150.00 Y146.62 E216.79190
G1 X147.73 Y146.85 E216.89929
G1 X145.55 Y147.51 E217.00656
G1 X143.53 Y148.59 E217.11397
G1 X141.77 Y150.03 E217.22129
G1 X140.32 Y151.80 E217.32861
G1 X139.25 Y153.81 E217.43593
G1 X139.09 Y154.32 E217.46120
G1 X138.51 Y154.32 E217.48858
G1 X138.73 Y153.60 E217.52436
G1 X139.74 Y151.71 E217.62506
G1 X139.85 Y151.49 E217.63670
G1 X141.38 Y149.64 E217.74947
G1 X143.22 Y148.12 E217.86187
G1 X145.33 Y147.00 E217.97428
G1 X147.62 Y146.30 E218.08691
G1 X150.00 Y146.07 E218.19935
G1 X152.38 Y146.30 E218.31175
G1 X154.67 Y147.00 E218.42442
G1 X156.56 Y148.00 E218.52508
G1 X156.78 Y148.12 E218.53689
G1 X158.62 Y149.64 E218.64919
G1 X160.15 Y151.49 E218.76192
G1 X160.52 Y152.19 E218.79913
G1 X160.87 Y152.84 E218.83383
G1 X162.07 Y152.83 E218.89028
G1 X162.62 Y151.77 E218.94667
G1 X162.93 Y151.39 E218.96965
G1 X163.32 Y151.08 E218.99298
G1 X163.75 Y150.85 E219.01592
G1 X164.22 Y150.71 E219.03911
G1 X164.71 Y150.66 E219.06212
G1 X165.19 Y150.71 E219.08490
G0 F12000 X165.26 Y150.31
G1 F1200 X165.81 Y150.47 E219.11158
G1 X166.31 Y150.75 E219.13852
G1 X166.75 Y151.11 E219.16532
G1 X167.11 Y151.54 E219.19199
G1 X167.38 Y152.05 E219.21886
G1 X167.54 Y152.59 E219.24550
G1 X167.60 Y153.16 E219.27216
G1 X167.54 Y153.72 E219.29877
G1 X167.38 Y154.26 E219.32535
G1 X167.11 Y154.76 E219.35227
G1 X166.75 Y155.21 E219.37914
G1 X166.31 Y155.56 E219.40568
G1 X165.81 Y155.83 E219.43270
G1 X165.26 Y156.00 E219.45944
G1 X164.70 Y156.05 E219.48619
G1 X164.14 Y156.00 E219.51261
G1 X163.59 Y155.83 E219.53940
G1 X162.97 Y155.50 E219.57294
G1 X162.57 Y155.76 E219.59539
G1 X162.57 Y154.72 E219.64431
G1 X160.62 Y154.72 E219.73618
G1 X160.38 Y153.96 E219.77349
G1 X159.35 Y152.02 E219.87711
G1 X157.95 Y150.32 E219.98078
G1 X156.25 Y148.92 E220.08442
G1 X154.30 Y147.88 E220.18804
G1 X152.19 Y147.24 E220.29167
G1 X150.00 Y147.03 E220.39533
G1 X147.81 Y147.24 E220.49898
G1 X145.70 Y147.88 E220.60261
G1 X143.76 Y148.92 E220.70627
G1 X142.05 Y150.32 E220.80992
G1 X140.66 Y152.02 E220.91356
G1 X139.62 Y153.96 E221.01720
G1 X139.39 Y154.72 E221.05451
G1 X137.97 Y154.72 E221.12112
G1 X138.36 Y153.44 E221.18403
G1 X139.52 Y151.26 E221.30026
G1 X141.09 Y149.36 E221.41640
G1 X143.00 Y147.79 E221.53258
G1 X145.18 Y146.62 E221.64880
G1 X147.54 Y145.91 E221.76506
G1 X150.00 Y145.66 E221.88124
G1 X152.46 Y145.91 E221.99742
G1 X154.82 Y146.62 E222.11368
G1 X157.00 Y147.79 E222.22987
G1 X158.91 Y149.36 E222.34604
G1 X160.48 Y151.26 E222.46201
G1 X160.87 Y152.00 E222.50132
G1 X161.10 Y152.44 E222.52475
G1 X161.82 Y152.43 E222.55862
G1 X162.29 Y151.54 E222.60579
G1 X162.65 Y151.10 E222.63256
G1 X163.09 Y150.75 E222.65927
G1 X163.59 Y150.48 E222.68614
G1 X164.14 Y150.31 E222.71278
G1 X164.71 Y150.26 E222.73962
G1 X165.26 Y150.31 E222.76604
G0 F12000 X162.40 Y155.91
G0 X162.57 Y157.92
G1 F1200 X162.60 Y158.26 E222.78244
G1 X162.57 Y158.61 E222.79879
G1 X162.57 Y157.92 E222.83139
G0 F12000 X162.50 Y159.29
G1 F1200 X162.50 Y159.34 E222.83342
G1 X161.81 Y159.34 E222.86574
G1 X161.74 Y159.29 E222.86968
G1 X162.50 Y159.29 E222.90557
G1 F2400 E221.70557
G0 F12000 X138.26 Y159.29
G1 F2400 E222.90557
G1 F1200 X138.19 Y159.34 E222.90952
G1 X137.50 Y159.34 E222.94183
G1 X137.50 Y159.29 E222.94386
G1 X138.26 Y159.29 E222.97975
G0 F12000 X137.43 Y158.61
G1 F1200 X137.40 Y158.26 E222.99616
G1 X137.43 Y157.92 E223.01260
G1 X137.43 Y158.61 E223.04530
G0 F12000 X137.83 Y158.90
;TYPE:WALL-OUTER
G1 F1200 X139.22 Y158.90 E223.11077
G1 X139.25 Y159.17 E223.12363
G1 X138.30 Y159.74 E223.17560
