;-- START GCODE --
;Sliced for Type A Machines Series 1
;Sliced at: Tue 21-04-2015 00:00:28
;Basic settings: Layer height: 0.15 Walls: 0.4 Fill: 8
;Print Speed: 75 Support: 0
;Retraction Speed: 40 Retraction Distance: 1.2
;Print time: #P_TIME#
;Filament used: #F_AMNT#m #F_WGHT#g
;Filament cost: #F_COST#
M106 S255	 ;start with the fan on
G21        ;metric values
G90        ;absolute positioning
M106 S255    ;start with the fan on
G28     ;move to endstops
G29		;allows for auto-levelling
G1 X150 Y5  Z15.0 F2400 ;center and move the platform down 15mm
M109 S230 ;Heat To temp
G92 E0                  ;zero the extruded length
G1 F200 E30              ;extrude 30mm of feed stock
G92 E0                  ;zero the extruded length again
G1 X175 Y25  Z0 F2400 ;remove bugger
G1 X220 F2400 ;remove bugger
G1 X150 Y150  Z15 F2400 ;recenter and begin
G1 F2400

;Layer count: 50
;LAYER:-2
;RAFT
G0 F2400 X130.98 Y130.41 Z0.30
;TYPE:SUPPORT
G1 F600 X131.38 Y130.01 E0.04957
G1 X132.41 Y129.10 E0.16927
G1 X132.83 Y128.73 E0.21838
G1 X133.92 Y127.89 E0.33853
G1 X134.37 Y127.54 E0.38806
G1 X135.50 Y126.77 E0.50812
G1 X135.50 Y126.77 E0.50821
G1 X135.96 Y126.45 E0.55691
G1 X137.15 Y125.75 E0.67719
G1 X137.63 Y125.47 E0.72573
G1 X138.96 Y124.79 E0.85642
G1 X140.69 Y124.01 E1.02234
G1 X142.40 Y123.36 E1.18119
G1 X142.97 Y123.16 E1.23427
G1 X144.28 Y122.78 E1.35333
G1 X144.28 Y122.78 E1.35342
G1 X144.82 Y122.62 E1.40315
G1 X146.28 Y122.29 E1.53342
G1 X148.03 Y121.99 E1.68853
G1 X148.63 Y121.89 E1.74175
G1 X149.37 Y121.82 E1.80647
G1 X150.53 Y121.71 E1.90845
G1 X152.22 Y121.66 E2.05556
G1 X152.43 Y121.64 E2.07392
G1 X154.40 Y121.71 E2.24636
G1 X156.00 Y121.86 E2.38657
G1 X156.37 Y121.89 E2.41893
G1 X157.72 Y122.11 E2.53801
G1 X158.28 Y122.19 E2.58777
G1 X159.62 Y122.49 E2.70791
G1 X160.17 Y122.62 E2.75714
G1 X161.60 Y123.03 E2.88682
G1 X163.40 Y123.65 E3.05295
G1 X165.08 Y124.34 E3.21210
G1 X165.64 Y124.59 E3.26520
G1 X166.86 Y125.21 E3.38445
G1 X166.86 Y125.21 E3.38454
G1 X167.36 Y125.46 E3.43370
G1 X168.54 Y126.16 E3.55355
G1 X169.03 Y126.45 E3.60275
G1 X170.16 Y127.22 E3.72254
G1 X170.63 Y127.54 E3.77194
G1 X171.72 Y128.38 E3.89197
G1 X172.17 Y128.73 E3.94169
G1 X173.62 Y130.01 E4.11038
G1 X174.59 Y130.98 E4.23039
G1 X174.99 Y131.38 E4.27997
G1 X175.90 Y132.41 E4.39966
G1 X176.27 Y132.83 E4.44878
G1 X177.11 Y133.91 E4.56837
G1 X177.46 Y134.37 E4.61846
G1 X178.23 Y135.50 E4.73852
G1 X178.23 Y135.50 E4.73860
G1 X178.54 Y135.96 E4.78730
G1 X179.24 Y137.14 E4.90688
G1 X179.53 Y137.63 E4.95613
G1 X180.21 Y138.96 E5.08682
G1 X180.99 Y140.69 E5.25273
G1 X181.64 Y142.40 E5.41158
G1 X181.84 Y142.97 E5.46466
G1 X182.22 Y144.28 E5.58373
G1 X182.22 Y144.28 E5.58381
G1 X182.38 Y144.82 E5.63355
G1 X182.71 Y146.28 E5.76382
G1 X183.01 Y148.03 E5.91892
G1 X183.11 Y148.63 E5.97215
G1 X183.25 Y150.12 E6.10228
G1 X183.33 Y151.89 E6.25699
G1 X183.35 Y152.49 E6.31001
G1 X183.29 Y154.43 E6.47956
G1 X183.11 Y156.36 E6.64873
G1 X182.81 Y158.28 E6.81809
G1 X182.38 Y160.17 E6.98737
G1 X181.84 Y162.03 E7.15647
G1 X181.19 Y163.86 E7.32582
G1 X180.42 Y165.63 E7.49498
G1 X179.54 Y167.36 E7.66417
G1 X178.55 Y169.03 E7.83338
G1 X177.46 Y170.63 E8.00258
G1 X176.27 Y172.16 E8.17196
G1 X174.99 Y173.62 E8.34102
G1 X173.62 Y174.99 E8.51011
G1 X172.17 Y176.27 E8.67929
G1 X170.64 Y177.46 E8.84872
G1 X169.03 Y178.55 E9.01792
G1 X167.37 Y179.53 E9.18713
G1 X165.64 Y180.41 E9.35632
G1 X163.86 Y181.18 E9.52549
G1 X162.03 Y181.84 E9.69483
G1 X160.18 Y182.38 E9.86393
G1 X158.28 Y182.81 E10.03322
G1 X156.37 Y183.11 E10.20258
G1 X154.44 Y183.29 E10.37165
G1 X152.50 Y183.35 E10.54059
G1 X150.57 Y183.29 E10.70978
G1 X148.64 Y183.11 E10.87912
G1 X146.72 Y182.81 E11.04848
G1 X144.83 Y182.38 E11.21776
G1 X142.97 Y181.84 E11.38686
G1 X141.14 Y181.19 E11.55621
G1 X139.37 Y180.42 E11.72537
G1 X137.64 Y179.54 E11.89456
G1 X135.97 Y178.55 E12.06378
G1 X134.37 Y177.46 E12.23297
G1 X132.84 Y176.27 E12.40235
G1 X131.38 Y174.99 E12.57141
G1 X130.01 Y173.62 E12.74050
G1 X128.73 Y172.17 E12.90968
G1 X127.54 Y170.64 E13.07912
G1 X126.45 Y169.03 E13.24831
G1 X125.47 Y167.37 E13.41753
G1 X124.59 Y165.64 E13.58671
G1 X123.82 Y163.86 E13.75588
G1 X123.16 Y162.03 E13.92523
G1 X122.62 Y160.18 E14.09433
G1 X122.19 Y158.28 E14.26361
G1 X121.89 Y156.37 E14.43297
G1 X121.71 Y154.44 E14.60204
G1 X121.65 Y152.51 E14.77089
G1 X121.69 Y151.13 E14.89135
G1 X121.71 Y150.56 E14.94096
G1 X121.85 Y149.08 E15.07031
G1 X122.10 Y147.32 E15.22578
G1 X122.19 Y146.72 E15.27882
G1 X122.49 Y145.38 E15.39896
G1 X122.62 Y144.83 E15.44819
G1 X123.03 Y143.40 E15.57786
G1 X123.65 Y141.60 E15.74399
G1 X124.34 Y139.92 E15.90315
G1 X124.59 Y139.36 E15.95625
G1 X125.21 Y138.14 E16.07550
G1 X125.21 Y138.14 E16.07559
G1 X125.46 Y137.64 E16.12475
G1 X126.16 Y136.46 E16.24459
G1 X126.45 Y135.97 E16.29380
G1 X127.22 Y134.84 E16.41371
G1 X127.54 Y134.37 E16.46299
G1 X128.38 Y133.28 E16.58334
G1 X128.73 Y132.83 E16.63274
G1 X130.01 Y131.38 E16.80143
G1 X130.98 Y130.41 E16.92144
G0 F2400 X130.50 Y130.74
G1 F600 X130.50 Y174.26 E20.72064
G0 F2400 X131.50 Y175.23
G1 F600 X131.50 Y129.76 E24.69053
G0 F2400 X132.50 Y128.88
G1 F600 X132.50 Y176.12 E28.81443
G0 F2400 X133.50 Y176.92
G1 F600 X133.50 Y128.08 E33.07872
G0 F2400 X134.50 Y127.32
G1 F600 X134.50 Y177.68 E37.47520
G0 F2400 X135.50 Y178.36
G1 F600 X135.50 Y126.64 E41.99023
G0 F2400 X136.50 Y126.02
G1 F600 X136.50 Y178.99 E46.61493
G0 F2400 X137.50 Y179.58
G1 F600 X137.50 Y125.42 E51.34291
G0 F2400 X138.50 Y124.91
G1 F600 X138.50 Y180.09 E56.16117
G0 F2400 X139.50 Y180.59
G1 F600 X139.50 Y124.43 E61.06421
G0 F2400 X140.50 Y123.98
G1 F600 X140.50 Y181.02 E66.04442
G0 F2400 X141.50 Y181.43
G1 F600 X141.50 Y123.59 E71.09405
G0 F2400 X142.50 Y123.21
G1 F600 X142.50 Y181.78 E76.20775
G0 F2400 X143.50 Y182.11
G1 F600 X143.50 Y122.89 E81.37743
G0 F2400 X144.50 Y122.60
G1 F600 X144.50 Y182.40 E86.59782
G0 F2400 X145.50 Y182.64
G1 F600 X145.50 Y122.36 E91.86092
G0 F2400 X146.50 Y122.15
G1 F600 X146.50 Y182.86 E97.16199
G0 F2400 X147.50 Y183.04
G1 F600 X147.50 Y121.97 E102.49335
G0 F2400 X148.50 Y121.81
G1 F600 X148.50 Y183.19 E107.85310
G0 F2400 X149.50 Y183.30
G1 F600 X149.50 Y121.70 E113.23056
G0 F2400 X150.50 Y121.61
G1 F600 X150.50 Y183.39 E118.62453
G0 F2400 X151.50 Y183.43
G1 F600 X151.50 Y121.58 E124.02443
G0 F2400 X152.50 Y121.54
G1 F600 X152.50 Y183.46 E129.42984
G0 F2400 X153.50 Y183.43
G1 F600 X153.50 Y121.57 E134.82991
G0 F2400 X154.50 Y121.61
G1 F600 X154.50 Y183.39 E140.22362
G0 F2400 X155.50 Y183.29
G1 F600 X155.50 Y121.70 E145.60091
G0 F2400 X156.50 Y121.81
G1 F600 X156.50 Y183.19 E150.96056
G0 F2400 X157.50 Y183.03
G1 F600 X157.50 Y121.97 E156.29245
G0 F2400 X158.50 Y122.14
G1 F600 X158.50 Y182.86 E161.59449
G0 F2400 X159.50 Y182.64
G1 F600 X159.50 Y122.36 E166.85740
G0 F2400 X160.50 Y122.60
G1 F600 X160.50 Y182.40 E172.07780
G0 F2400 X161.50 Y182.11
G1 F600 X161.50 Y122.89 E177.24756
G0 F2400 X162.50 Y123.23
G1 F600 X162.50 Y181.79 E182.36005
G0 F2400 X163.50 Y181.43
G1 F600 X163.50 Y123.58 E187.41081
G0 F2400 X164.50 Y123.99
G1 F600 X164.50 Y181.02 E192.39015
G0 F2400 X165.50 Y180.59
G1 F600 X165.50 Y124.41 E197.29484
G0 F2400 X166.50 Y124.91
G1 F600 X166.50 Y180.09 E202.11301
G0 F2400 X167.50 Y179.58
G1 F600 X167.50 Y125.42 E206.84108
G0 F2400 X168.50 Y126.02
G1 F600 X168.50 Y178.99 E211.46587
G0 F2400 X169.50 Y178.36
G1 F600 X169.50 Y126.64 E215.98099
G0 F2400 X170.50 Y127.32
G1 F600 X170.50 Y177.68 E220.37755
G0 F2400 X171.50 Y176.92
G1 F600 X171.50 Y128.08 E224.64184
G0 F2400 X172.50 Y128.88
G1 F600 X172.50 Y176.12 E228.76574
G0 F2400 X173.50 Y175.24
G1 F600 X173.50 Y129.77 E232.73563
G0 F2400 X174.50 Y130.74
G1 F600 X174.50 Y174.26 E236.53483
G0 F2400 X175.50 Y173.20
G1 F600 X175.50 Y131.80 E240.14929
G0 F2400 X176.50 Y132.96
G1 F600 X176.50 Y172.04 E243.56172
G0 F2400 X177.50 Y170.75
G1 F600 X177.50 Y134.25 E246.74915
G0 F2400 X178.50 Y135.71
G1 F600 X178.50 Y169.29 E249.68086
G0 F2400 X179.50 Y167.63
G1 F600 X179.50 Y137.37 E252.32271
G0 F2400 X180.50 Y139.35
G1 F600 X180.50 Y165.70 E254.62371
G0 F2400 X181.50 Y163.29
G1 F600 X181.50 Y141.74 E256.50581
G0 F2400 X182.50 Y144.87
G1 F600 X182.50 Y160.13 E257.83786
G0 F2400 X129.50 Y173.20
G1 F600 X129.50 Y131.80 E261.45232
G0 F2400 X128.50 Y132.96
G1 F600 X128.50 Y172.04 E264.86475
G0 F2400 X127.50 Y170.75
G1 F600 X127.50 Y134.25 E268.05218
G0 F2400 X126.50 Y135.71
G1 F600 X126.50 Y169.29 E270.98407
G0 F2400 X125.50 Y167.63
G1 F600 X125.50 Y137.37 E273.62600
G0 F2400 X124.50 Y139.30
G1 F600 X124.50 Y165.70 E275.93111
G0 F2400 X123.50 Y163.29
G1 F600 X123.50 Y141.71 E277.81573
G0 F2400 X122.50 Y144.87
G1 F600 X122.50 Y160.12 E279.14735
M106 S255
;LAYER:-1
;RAFT
G0 F2400 X122.60 Y160.22 Z0.50
;TYPE:SUPPORT
G1 F4500 X144.78 Y182.40 E279.66902
G0 F2400 X145.51 Y182.57
G1 F4500 X122.43 Y159.49 E280.21182
G0 F2400 X122.27 Y158.76
G1 F4500 X146.24 Y182.73 E280.77561
G0 F2400 X146.95 Y182.87
G1 F4500 X122.13 Y158.05 E281.35943
G0 F2400 X122.02 Y157.38
G1 F4500 X147.62 Y182.98 E281.96155
G0 F2400 X148.29 Y183.09
G1 F4500 X121.91 Y156.70 E282.58199
G0 F2400 X121.83 Y156.06
G1 F4500 X148.94 Y183.17 E283.21962
G0 F2400 X149.57 Y183.23
G1 F4500 X121.77 Y155.43 E283.87332
G0 F2400 X121.71 Y154.81
G1 F4500 X150.19 Y183.28 E284.54309
G0 F2400 X150.80 Y183.33
G1 F4500 X121.67 Y154.20 E285.22813
G0 F2400 X121.65 Y153.62
G1 F4500 X151.38 Y183.34 E285.92734
G0 F2400 X151.97 Y183.36
G1 F4500 X121.64 Y153.03 E286.64071
G0 F2400 X121.62 Y152.45
G1 F4500 X152.55 Y183.38 E287.36810
G0 F2400 X153.10 Y183.36
G1 F4500 X121.64 Y151.90 E288.10799
G0 F2400 X121.65 Y151.35
G1 F4500 X153.65 Y183.34 E288.86037
G0 F2400 X154.19 Y183.32
G1 F4500 X121.67 Y150.80 E289.62523
G0 F2400 X121.70 Y150.27
G1 F4500 X154.72 Y183.29 E290.40179
G0 F2400 X155.24 Y183.24
G1 F4500 X121.75 Y149.75 E291.18937
G0 F2400 X121.80 Y149.24
G1 F4500 X155.76 Y183.19 E291.98799
G0 F2400 X156.28 Y183.15
G1 F4500 X121.87 Y148.74 E292.79724
G0 F2400 X121.94 Y148.24
G1 F4500 X156.77 Y183.07 E293.61638
G0 F2400 X157.26 Y183.00
G1 F4500 X122.01 Y147.75 E294.44532
G0 F2400 X122.08 Y147.26
G1 F4500 X157.75 Y182.92 E295.28403
G0 F2400 X158.23 Y182.84
G1 F4500 X122.16 Y146.76 E296.13253
G0 F2400 X122.26 Y146.30
G1 F4500 X158.70 Y182.74 E296.98961
G0 F2400 X159.16 Y182.64
G1 F4500 X122.36 Y145.84 E297.85512
G0 F2400 X122.46 Y145.37
G1 F4500 X159.62 Y182.53 E298.72904
G0 F2400 X160.09 Y182.43
G1 F4500 X122.57 Y144.91 E299.61142
G0 F2400 X122.69 Y144.47
G1 F4500 X160.53 Y182.31 E300.50134
G0 F2400 X160.97 Y182.18
G1 F4500 X122.82 Y144.03 E301.39861
G0 F2400 X122.94 Y143.59
G1 F4500 X161.41 Y182.05 E302.30320
G0 F2400 X161.84 Y181.93
G1 F4500 X123.08 Y143.16 E303.21489
G0 F2400 X123.22 Y142.74
G1 F4500 X162.27 Y181.79 E304.13323
G0 F2400 X162.69 Y181.64
G1 F4500 X123.37 Y142.32 E305.05793
G0 F2400 X123.51 Y141.90
G1 F4500 X163.10 Y181.49 E305.98901
G0 F2400 X163.52 Y181.34
G1 F4500 X123.66 Y141.48 E306.92634
G0 F2400 X123.83 Y141.08
G1 F4500 X163.93 Y181.18 E307.86945
G0 F2400 X164.32 Y181.01
G1 F4500 X124.00 Y140.69 E308.81790
G0 F2400 X124.16 Y140.29
G1 F4500 X164.72 Y180.84 E309.77171
G0 F2400 X165.12 Y180.67
G1 F4500 X124.33 Y139.89 E310.73089
G0 F2400 X124.50 Y139.49
G1 F4500 X165.51 Y180.50 E311.69543
G0 F2400 X165.89 Y180.32
G1 F4500 X124.68 Y139.11 E312.66465
G0 F2400 X124.87 Y138.73
G1 F4500 X166.27 Y180.13 E313.63818
G0 F2400 X166.64 Y179.94
G1 F4500 X125.06 Y138.36 E314.61605
G0 F2400 X125.25 Y137.98
G1 F4500 X167.02 Y179.74 E315.59824
G0 F2400 X167.39 Y179.55
G1 F4500 X125.45 Y137.61 E316.58470
G0 F2400 X125.66 Y137.25
G1 F4500 X167.75 Y179.34 E317.57458
G0 F2400 X168.10 Y179.13
G1 F4500 X125.87 Y136.90 E318.56788
G0 F2400 X126.08 Y136.54
G1 F4500 X168.46 Y178.92 E319.56460
G0 F2400 X168.81 Y178.71
G1 F4500 X126.29 Y136.19 E320.56474
G0 F2400 X126.50 Y135.84
G1 F4500 X169.16 Y178.49 E321.56798
G0 F2400 X169.50 Y178.27
G1 F4500 X126.73 Y135.50 E322.57378
G0 F2400 X126.96 Y135.16
G1 F4500 X169.84 Y178.04 E323.58211
G0 F2400 X170.17 Y177.81
G1 F4500 X127.19 Y134.83 E324.59300
G0 F2400 X127.42 Y134.49
G1 F4500 X170.51 Y177.58 E325.60644
G0 F2400 X170.84 Y177.34
G1 F4500 X127.66 Y134.16 E326.62189
G0 F2400 X127.91 Y133.84
G1 F4500 X171.15 Y177.09 E327.63902
G0 F2400 X171.47 Y176.85
G1 F4500 X128.15 Y133.53 E328.65784
G0 F2400 X128.40 Y133.21
G1 F4500 X171.79 Y176.60 E329.67833
G0 F2400 X172.11 Y176.35
G1 F4500 X128.65 Y132.89 E330.70050
G0 F2400 X128.91 Y132.58
G1 F4500 X172.41 Y176.09 E331.72370
G0 F2400 X172.72 Y175.83
G1 F4500 X129.17 Y132.28 E332.74775
G0 F2400 X129.44 Y131.98
G1 F4500 X173.01 Y175.56 E333.77263
G0 F2400 X173.32 Y175.30
G1 F4500 X129.70 Y131.68 E334.79836
G0 F2400 X129.97 Y131.38
G1 F4500 X173.62 Y175.03 E335.82492
G0 F2400 X173.90 Y174.75
G1 F4500 X130.25 Y131.10 E336.85156
G0 F2400 X130.53 Y130.81
G1 F4500 X174.18 Y174.47 E337.87821
G0 F2400 X174.47 Y174.18
G1 F4500 X130.81 Y130.53 E338.90486
G0 F2400 X131.10 Y130.25
G1 F4500 X174.75 Y173.90 E339.93150
G0 F2400 X175.03 Y173.62
G1 F4500 X131.38 Y129.97 E340.95806
G0 F2400 X131.68 Y129.70
G1 F4500 X175.30 Y173.32 E341.98377
G0 F2400 X175.56 Y173.01
G1 F4500 X131.98 Y129.44 E343.00865
G0 F2400 X132.28 Y129.17
G1 F4500 X175.83 Y172.72 E344.03270
G0 F2400 X176.09 Y172.41
G1 F4500 X132.59 Y128.91 E345.05589
G0 F2400 X132.89 Y128.65
G1 F4500 X176.35 Y172.11 E346.07805
G0 F2400 X176.60 Y171.79
G1 F4500 X133.21 Y128.40 E347.09854
G0 F2400 X133.53 Y128.15
G1 F4500 X176.85 Y171.47 E348.11734
G0 F2400 X177.09 Y171.15
G1 F4500 X133.84 Y127.91 E349.13447
G0 F2400 X134.16 Y127.66
G1 F4500 X177.34 Y170.84 E350.14991
G0 F2400 X177.58 Y170.51
G1 F4500 X134.49 Y127.42 E351.16332
G0 F2400 X134.83 Y127.19
G1 F4500 X177.81 Y170.17 E352.17419
G0 F2400 X178.04 Y169.84
G1 F4500 X135.16 Y126.96 E353.18252
G0 F2400 X135.50 Y126.73
G1 F4500 X178.27 Y169.50 E354.18829
G0 F2400 X178.50 Y169.16
G1 F4500 X135.84 Y126.50 E355.19152
G0 F2400 X136.19 Y126.29
G1 F4500 X178.71 Y168.81 E356.19162
G0 F2400 X178.92 Y168.46
G1 F4500 X136.54 Y126.08 E357.18832
G0 F2400 X136.90 Y125.87
G1 F4500 X179.13 Y168.10 E358.18160
G0 F2400 X179.34 Y167.75
G1 F4500 X137.25 Y125.66 E359.17147
G0 F2400 X137.61 Y125.45
G1 F4500 X179.55 Y167.39 E360.15792
G0 F2400 X179.75 Y167.02
G1 F4500 X137.98 Y125.25 E361.14010
G0 F2400 X138.36 Y125.06
G1 F4500 X179.94 Y166.64 E362.11795
G0 F2400 X180.13 Y166.27
G1 F4500 X138.73 Y124.87 E363.09149
G0 F2400 X139.11 Y124.69
G1 F4500 X180.32 Y165.89 E364.06057
G0 F2400 X180.50 Y165.51
G1 F4500 X139.50 Y124.51 E365.02481
G0 F2400 X139.89 Y124.34
G1 F4500 X180.67 Y165.12 E365.98389
G0 F2400 X180.84 Y164.72
G1 F4500 X140.28 Y124.16 E366.93783
G0 F2400 X140.67 Y123.98
G1 F4500 X181.01 Y164.33 E367.88664
G0 F2400 X181.19 Y163.93
G1 F4500 X141.08 Y123.83 E368.82981
G0 F2400 X141.49 Y123.67
G1 F4500 X181.34 Y163.52 E369.76688
G0 F2400 X181.49 Y163.10
G1 F4500 X141.91 Y123.52 E370.69777
G0 F2400 X142.32 Y123.37
G1 F4500 X181.64 Y162.69 E371.62252
G0 F2400 X181.79 Y162.27
G1 F4500 X142.73 Y123.21 E372.54108
G0 F2400 X143.16 Y123.07
G1 F4500 X181.93 Y161.85 E373.45295
G0 F2400 X182.06 Y161.41
G1 F4500 X143.59 Y122.95 E374.35750
G0 F2400 X144.03 Y122.82
G1 F4500 X182.18 Y160.97 E375.25476
G0 F2400 X182.31 Y160.53
G1 F4500 X144.47 Y122.69 E376.14470
G0 F2400 X144.91 Y122.57
G1 F4500 X182.43 Y160.09 E377.02705
G0 F2400 X182.53 Y159.62
G1 F4500 X145.38 Y122.47 E377.90098
G0 F2400 X145.84 Y122.36
G1 F4500 X182.64 Y159.16 E378.76648
G0 F2400 X182.74 Y158.70
G1 F4500 X146.30 Y122.26 E379.62350
G0 F2400 X146.78 Y122.18
G1 F4500 X182.84 Y158.24 E380.47153
G0 F2400 X182.92 Y157.75
G1 F4500 X147.27 Y122.09 E381.31003
G0 F2400 X147.75 Y122.01
G1 F4500 X183.00 Y157.26 E382.13901
G0 F2400 X183.07 Y156.77
G1 F4500 X148.23 Y121.93 E382.95847
G0 F2400 X148.72 Y121.85
G1 F4500 X183.15 Y156.28 E383.76809
G0 F2400 X183.20 Y155.76
G1 F4500 X149.24 Y121.80 E384.56669
G0 F2400 X149.76 Y121.76
G1 F4500 X183.25 Y155.24 E385.35427
G0 F2400 X183.29 Y154.73
G1 F4500 X150.27 Y121.71 E386.13084
G0 F2400 X150.81 Y121.67
G1 F4500 X183.33 Y154.19 E386.89570
G0 F2400 X183.35 Y153.65
G1 F4500 X151.35 Y121.65 E387.64817
G0 F2400 X151.90 Y121.63
G1 F4500 X183.36 Y153.10 E388.38817
G0 F2400 X183.38 Y152.55
G1 F4500 X152.44 Y121.61 E389.11574
G0 F2400 X153.03 Y121.63
G1 F4500 X183.36 Y151.96 E389.82905
G0 F2400 X183.33 Y151.37
G1 F4500 X153.61 Y121.65 E390.52799
G0 F2400 X154.20 Y121.67
G1 F4500 X183.31 Y150.78 E391.21257
G0 F2400 X183.28 Y150.19
G1 F4500 X154.81 Y121.72 E391.88220
G0 F2400 X155.43 Y121.77
G1 F4500 X183.23 Y149.57 E392.53588
G0 F2400 X183.17 Y148.94
G1 F4500 X156.06 Y121.83 E393.17349
G0 F2400 X156.70 Y121.91
G1 F4500 X183.08 Y148.29 E393.79381
G0 F2400 X182.96 Y147.61
G1 F4500 X157.38 Y122.02 E394.39558
G0 F2400 X158.05 Y122.13
G1 F4500 X182.85 Y146.93 E394.97879
G0 F2400 X182.73 Y146.24
G1 F4500 X158.76 Y122.27 E395.54253
G0 F2400 X159.49 Y122.43
G1 F4500 X182.56 Y145.51 E396.08530
G0 F2400 X182.40 Y144.78
G1 F4500 X160.22 Y122.60 E396.60694
G0 F2400 X161.01 Y122.83
G1 F4500 X182.17 Y143.98 E397.10444
G0 F2400 X181.94 Y143.19
G1 F4500 X161.82 Y123.08 E397.57742
G0 F2400 X162.69 Y123.37
G1 F4500 X181.63 Y142.31 E398.02290
G0 F2400 X181.29 Y141.41
G1 F4500 X163.56 Y123.68 E398.43981
G0 F2400 X164.54 Y124.09
G1 F4500 X180.93 Y140.48 E398.82529
G0 F2400 X180.47 Y139.45
G1 F4500 X165.51 Y124.50 E399.17692
G0 F2400 X166.64 Y125.06
G1 F4500 X179.94 Y138.36 E399.48955
G0 F2400 X179.26 Y137.12
G1 F4500 X167.88 Y125.74 E399.75722
G0 F2400 X169.32 Y126.61
G1 F4500 X178.38 Y135.67 E399.97028
G0 F2400 X177.00 Y133.73
G1 F4500 X171.27 Y128.00 E400.10502
G0 F2400 X122.83 Y161.01
G1 F4500 X143.98 Y182.17 E400.60248
G0 F2400 X143.19 Y181.94
G1 F4500 X123.06 Y161.81 E401.07578
G0 F2400 X123.36 Y162.67
G1 F4500 X142.33 Y181.64 E401.52196
G0 F2400 X141.44 Y181.32
G1 F4500 X123.67 Y163.56 E401.93986
G0 F2400 X124.07 Y164.51
G1 F4500 X140.49 Y180.93 E402.32604
G0 F2400 X139.49 Y180.50
G1 F4500 X124.50 Y165.51 E402.67859
G0 F2400 X125.06 Y166.64
G1 F4500 X138.36 Y179.93 E402.99123
G0 F2400 X137.12 Y179.26
G1 F4500 X125.73 Y167.88 E403.25898
G0 F2400 X126.61 Y169.32
G1 F4500 X135.67 Y178.38 E403.47208
G0 F2400 X133.72 Y177.00
G1 F4500 X128.00 Y171.27 E403.60680
;LAYER:-1
;RAFT
G0 F2400 X127.89 Y171.18 Z0.70
;TYPE:SUPPORT
G1 F600 X177.11 Y171.18 E405.24403
G0 F2400 X176.83 Y171.54
G1 F600 X128.16 Y171.54 E406.86270
G0 F2400 X128.44 Y171.90
G1 F600 X176.55 Y171.90 E408.46278
G0 F2400 X176.27 Y172.26
G1 F600 X128.73 Y172.26 E410.04386
G0 F2400 X129.05 Y172.62
G1 F600 X175.95 Y172.62 E411.60383
G0 F2400 X175.63 Y172.98
G1 F600 X129.37 Y172.98 E413.14268
G0 F2400 X129.68 Y173.34
G1 F600 X175.31 Y173.34 E414.66040
G0 F2400 X174.99 Y173.70
G1 F600 X130.00 Y173.70 E416.15671
G0 F2400 X130.37 Y174.06
G1 F600 X174.63 Y174.06 E417.62907
G0 F2400 X174.27 Y174.42
G1 F600 X130.72 Y174.42 E419.07748
G0 F2400 X131.09 Y174.78
G1 F600 X173.91 Y174.78 E420.50192
G0 F2400 X173.54 Y175.14
G1 F600 X131.46 Y175.14 E421.90144
G0 F2400 X131.87 Y175.50
G1 F600 X173.13 Y175.50 E423.27382
G0 F2400 X172.72 Y175.86
G1 F600 X132.28 Y175.86 E424.61902
G0 F2400 X132.69 Y176.22
G1 F600 X172.31 Y176.22 E425.93709
G0 F2400 X171.87 Y176.58
G1 F600 X133.13 Y176.58 E427.22529
G0 F2400 X133.60 Y176.94
G1 F600 X171.40 Y176.94 E428.48265
G0 F2400 X170.94 Y177.30
G1 F600 X134.06 Y177.30 E429.70915
G0 F2400 X134.55 Y177.66
G1 F600 X170.45 Y177.66 E430.90299
G0 F2400 X169.92 Y178.02
G1 F600 X135.08 Y178.02 E432.06158
G0 F2400 X135.61 Y178.38
G1 F600 X169.39 Y178.38 E433.18490
G0 F2400 X168.83 Y178.74
G1 F600 X136.17 Y178.74 E434.27095
G0 F2400 X136.78 Y179.10
G1 F600 X168.22 Y179.10 E435.31651
G0 F2400 X167.61 Y179.46
G1 F600 X137.39 Y179.46 E436.32163
G0 F2400 X138.06 Y179.82
G1 F600 X166.94 Y179.82 E437.28202
G0 F2400 X166.23 Y180.18
G1 F600 X138.77 Y180.18 E438.19538
G0 F2400 X139.50 Y180.54
G1 F600 X165.50 Y180.54 E439.06001
G0 F2400 X164.67 Y180.90
G1 F600 X140.33 Y180.90 E439.86936
G0 F2400 X141.17 Y181.26
G1 F600 X163.83 Y181.26 E440.62283
G0 F2400 X162.83 Y181.62
G1 F600 X142.17 Y181.62 E441.30979
G0 F2400 X143.22 Y181.98
G1 F600 X161.77 Y181.98 E441.92663
G0 F2400 X160.53 Y182.34
G1 F600 X144.47 Y182.34 E442.46096
G0 F2400 X145.97 Y182.70
G1 F600 X159.03 Y182.70 E442.89520
G0 F2400 X157.06 Y183.06
G1 F600 X147.93 Y183.06 E443.19860
G0 F2400 X127.61 Y170.82
G1 F600 X177.39 Y170.82 E444.85445
G0 F2400 X177.65 Y170.46
G1 F600 X127.35 Y170.46 E446.52754
G0 F2400 X127.10 Y170.10
G1 F600 X177.90 Y170.10 E448.21689
G0 F2400 X178.14 Y169.74
G1 F600 X126.86 Y169.74 E449.92250
G0 F2400 X126.61 Y169.38
G1 F600 X178.38 Y169.38 E451.64441
G0 F2400 X178.62 Y169.02
G1 F600 X126.37 Y169.02 E453.38232
G0 F2400 X126.16 Y168.66
G1 F600 X178.84 Y168.66 E455.13440
G0 F2400 X179.05 Y168.30
G1 F600 X125.95 Y168.30 E456.90064
G0 F2400 X125.73 Y167.94
G1 F600 X179.26 Y167.94 E458.68106
G0 F2400 X179.48 Y167.58
G1 F600 X125.52 Y167.58 E460.47564
G0 F2400 X125.32 Y167.22
G1 F600 X179.68 Y167.22 E462.28346
G0 F2400 X179.86 Y166.86
G1 F600 X125.14 Y166.86 E464.10346
G0 F2400 X124.96 Y166.50
G1 F600 X180.04 Y166.50 E465.93563
G0 F2400 X180.22 Y166.14
G1 F600 X124.77 Y166.14 E467.77997
G0 F2400 X124.59 Y165.78
G1 F600 X180.41 Y165.78 E469.63648
G0 F2400 X180.57 Y165.42
G1 F600 X124.42 Y165.42 E471.50397
G0 F2400 X124.27 Y165.06
G1 F600 X180.73 Y165.06 E473.38184
G0 F2400 X180.88 Y164.70
G1 F600 X124.11 Y164.70 E475.27008
G0 F2400 X123.96 Y164.34
G1 F600 X181.04 Y164.34 E477.16870
G0 F2400 X181.20 Y163.98
G1 F600 X123.80 Y163.98 E479.07770
G0 F2400 X123.66 Y163.62
G1 F600 X181.33 Y163.62 E480.99582
G0 F2400 X181.46 Y163.26
G1 F600 X123.53 Y163.26 E482.92254
G0 F2400 X123.41 Y162.90
G1 F600 X181.59 Y162.90 E484.85792
G0 F2400 X181.72 Y162.54
G1 F600 X123.28 Y162.54 E486.80190
G0 F2400 X123.15 Y162.18
G1 F600 X181.85 Y162.18 E488.75451
G0 F2400 X181.97 Y161.82
G1 F600 X123.03 Y161.82 E490.71463
G0 F2400 X122.93 Y161.46
G1 F600 X182.07 Y161.46 E492.68173
G0 F2400 X182.18 Y161.10
G1 F600 X122.82 Y161.10 E494.65575
G0 F2400 X122.72 Y160.74
G1 F600 X182.28 Y160.74 E496.63676
G0 F2400 X182.38 Y160.38
G1 F600 X122.61 Y160.38 E498.62468
G0 F2400 X122.52 Y160.02
G1 F600 X182.48 Y160.02 E500.61886
G0 F2400 X182.56 Y159.66
G1 F600 X122.44 Y159.66 E502.61836
G0 F2400 X122.36 Y159.30
G1 F600 X182.64 Y159.30 E504.62325
G0 F2400 X182.72 Y158.94
G1 F600 X122.28 Y158.94 E506.63353
G0 F2400 X122.20 Y158.58
G1 F600 X182.80 Y158.58 E508.64912
G0 F2400 X182.88 Y158.22
G1 F600 X122.12 Y158.22 E510.66981
G0 F2400 X122.07 Y157.86
G1 F600 X182.93 Y157.86 E512.69429
G0 F2400 X182.99 Y157.50
G1 F600 X122.01 Y157.50 E514.72256
G0 F2400 X121.95 Y157.14
G1 F600 X183.05 Y157.14 E516.75462
G0 F2400 X183.10 Y156.78
G1 F600 X121.89 Y156.78 E518.79047
G0 F2400 X121.84 Y156.42
G1 F600 X183.16 Y156.42 E520.83012
G0 F2400 X183.20 Y156.06
G1 F600 X121.80 Y156.06 E522.87222
G0 F2400 X121.77 Y155.70
G1 F600 X183.23 Y155.70 E524.91659
G0 F2400 X183.27 Y155.34
G1 F600 X121.73 Y155.34 E526.96318
G0 F2400 X121.70 Y154.98
G1 F600 X183.30 Y154.98 E529.01201
G0 F2400 X183.33 Y154.62
G1 F600 X121.67 Y154.62 E531.06309
G0 F2400 X121.64 Y154.26
G1 F600 X183.36 Y154.26 E533.11568
G0 F2400 X183.37 Y153.90
G1 F600 X121.63 Y153.90 E535.16902
G0 F2400 X121.62 Y153.54
G1 F600 X183.38 Y153.54 E537.22314
G0 F2400 X183.39 Y153.18
G1 F600 X121.61 Y153.18 E539.27802
G0 F2400 X121.60 Y152.82
G1 F600 X183.40 Y152.82 E541.33362
G0 F2400 X183.41 Y152.46
G1 F600 X121.59 Y152.46 E543.38983
G0 F2400 X121.60 Y152.10
G1 F600 X183.40 Y152.10 E545.44514
G0 F2400 X183.38 Y151.74
G1 F600 X121.61 Y151.74 E547.49955
G0 F2400 X121.62 Y151.38
G1 F600 X183.36 Y151.38 E549.55304
G0 F2400 X183.35 Y151.02
G1 F600 X121.64 Y151.02 E551.60565
G0 F2400 X121.65 Y150.66
G1 F600 X183.33 Y150.66 E553.65737
G0 F2400 X183.32 Y150.30
G1 F600 X121.67 Y150.30 E555.70766
G0 F2400 X121.71 Y149.94
G1 F600 X183.29 Y149.94 E557.75598
G0 F2400 X183.26 Y149.58
G1 F600 X121.74 Y149.58 E559.80208
G0 F2400 X121.77 Y149.22
G1 F600 X183.22 Y149.22 E561.84595
G0 F2400 X183.19 Y148.86
G1 F600 X121.82 Y148.86 E563.88722
G0 F2400 X121.87 Y148.50
G1 F600 X183.15 Y148.50 E565.92527
G0 F2400 X183.09 Y148.14
G1 F600 X121.92 Y148.14 E567.95953
G0 F2400 X121.98 Y147.78
G1 F600 X183.03 Y147.78 E569.98996
G0 F2400 X182.96 Y147.42
G1 F600 X122.03 Y147.42 E572.01663
G0 F2400 X122.08 Y147.06
G1 F600 X182.90 Y147.06 E574.03948
G0 F2400 X182.84 Y146.70
G1 F600 X122.14 Y146.70 E576.05847
G0 F2400 X122.22 Y146.34
G1 F600 X182.78 Y146.34 E578.07277
G0 F2400 X182.70 Y145.98
G1 F600 X122.30 Y145.98 E580.08182
G0 F2400 X122.38 Y145.62
G1 F600 X182.62 Y145.62 E582.08547
G0 F2400 X182.54 Y145.26
G1 F600 X122.46 Y145.26 E584.08381
G0 F2400 X122.54 Y144.90
G1 F600 X182.46 Y144.90 E586.07675
G0 F2400 X182.36 Y144.54
G1 F600 X122.64 Y144.54 E588.06315
G0 F2400 X122.74 Y144.18
G1 F600 X182.26 Y144.18 E590.04263
G0 F2400 X182.15 Y143.82
G1 F600 X122.85 Y143.82 E592.01515
G0 F2400 X122.95 Y143.46
G1 F600 X182.05 Y143.46 E593.98076
G0 F2400 X181.94 Y143.10
G1 F600 X123.07 Y143.10 E595.93892
G0 F2400 X123.19 Y142.74
G1 F600 X181.82 Y142.74 E597.88893
G0 F2400 X181.69 Y142.38
G1 F600 X123.32 Y142.38 E599.83035
G0 F2400 X123.44 Y142.02
G1 F600 X181.55 Y142.02 E601.76320
G0 F2400 X181.42 Y141.66
G1 F600 X123.56 Y141.66 E603.68746
G0 F2400 X123.71 Y141.30
G1 F600 X181.28 Y141.30 E605.60245
G0 F2400 X181.15 Y140.94
G1 F600 X123.86 Y140.94 E607.50792
G0 F2400 X124.01 Y140.58
G1 F600 X181.01 Y140.58 E609.40372
G0 F2400 X180.84 Y140.22
G1 F600 X124.16 Y140.22 E611.28907
G0 F2400 X124.31 Y139.86
G1 F600 X180.68 Y139.86 E613.16401
G0 F2400 X180.52 Y139.50
G1 F600 X124.46 Y139.50 E615.02851
G0 F2400 X124.63 Y139.14
G1 F600 X180.36 Y139.14 E616.88203
G0 F2400 X180.19 Y138.78
G1 F600 X124.81 Y138.78 E618.72371
G0 F2400 X125.00 Y138.42
G1 F600 X180.00 Y138.42 E620.55321
G0 F2400 X179.82 Y138.06
G1 F600 X125.18 Y138.06 E622.37041
G0 F2400 X125.36 Y137.70
G1 F600 X179.63 Y137.70 E624.17544
G0 F2400 X179.43 Y137.34
G1 F600 X125.57 Y137.34 E625.96683
G0 F2400 X125.78 Y136.98
G1 F600 X179.22 Y136.98 E627.74409
G0 F2400 X179.00 Y136.62
G1 F600 X126.00 Y136.62 E629.50717
G0 F2400 X126.21 Y136.26
G1 F600 X178.79 Y136.26 E631.25609
G0 F2400 X178.57 Y135.90
G1 F600 X126.42 Y135.90 E632.99064
G0 F2400 X126.67 Y135.54
G1 F600 X178.33 Y135.54 E634.70889
G0 F2400 X178.09 Y135.18
G1 F600 X126.91 Y135.18 E636.41091
G0 F2400 X127.16 Y134.82
G1 F600 X177.84 Y134.82 E638.09667
G0 F2400 X177.60 Y134.46
G1 F600 X127.40 Y134.46 E639.76616
G0 F2400 X127.67 Y134.10
G1 F600 X177.33 Y134.10 E641.41789
G0 F2400 X177.05 Y133.74
G1 F600 X127.95 Y133.74 E643.05100
G0 F2400 X128.23 Y133.38
G1 F600 X176.77 Y133.38 E644.66551
G0 F2400 X176.49 Y133.02
G1 F600 X128.51 Y133.02 E646.26143
G0 F2400 X128.80 Y132.66
G1 F600 X176.20 Y132.66 E647.83783
G0 F2400 X175.88 Y132.30
G1 F600 X129.12 Y132.30 E649.39311
G0 F2400 X129.44 Y131.94
G1 F600 X175.56 Y131.94 E650.92727
G0 F2400 X175.25 Y131.58
G1 F600 X129.75 Y131.58 E652.44034
G0 F2400 X130.09 Y131.22
G1 F600 X174.91 Y131.22 E653.93132
G0 F2400 X174.55 Y130.86
G1 F600 X130.45 Y130.86 E655.39836
G0 F2400 X130.81 Y130.50
G1 F600 X174.19 Y130.50 E656.84148
G0 F2400 X173.83 Y130.14
G1 F600 X131.17 Y130.14 E658.26063
G0 F2400 X131.55 Y129.78
G1 F600 X173.45 Y129.78 E659.65423
G0 F2400 X173.04 Y129.42
G1 F600 X131.96 Y129.42 E661.02065
G0 F2400 X132.37 Y129.06
G1 F600 X172.63 Y129.06 E662.35991
G0 F2400 X172.22 Y128.70
G1 F600 X132.78 Y128.70 E663.67202
G0 F2400 X133.24 Y128.34
G1 F600 X171.76 Y128.34 E664.95343
G0 F2400 X171.30 Y127.98
G1 F600 X133.70 Y127.98 E666.20401
G0 F2400 X134.16 Y127.62
G1 F600 X170.84 Y127.62 E667.42379
G0 F2400 X170.33 Y127.26
G1 F600 X134.67 Y127.26 E668.60988
G0 F2400 X135.20 Y126.90
G1 F600 X169.80 Y126.90 E669.76072
G0 F2400 X169.27 Y126.54
G1 F600 X135.73 Y126.54 E670.87626
G0 F2400 X136.31 Y126.18
G1 F600 X168.69 Y126.18 E671.95339
G0 F2400 X168.09 Y125.82
G1 F600 X136.92 Y125.82 E672.99004
G0 F2400 X137.53 Y125.46
G1 F600 X167.48 Y125.46 E673.98622
G0 F2400 X166.78 Y125.10
G1 F600 X138.22 Y125.10 E674.93626
G0 F2400 X138.92 Y124.74
G1 F600 X166.08 Y124.74 E675.83937
G0 F2400 X165.31 Y124.38
G1 F600 X139.72 Y124.38 E676.69037
G0 F2400 X140.52 Y124.02
G1 F600 X164.45 Y124.02 E677.48625
G0 F2400 X163.59 Y123.66
G1 F600 X141.45 Y123.66 E678.22260
G0 F2400 X142.41 Y123.30
G1 F600 X162.57 Y123.30 E678.89315
G0 F2400 X161.51 Y122.94
G1 F600 X143.50 Y122.94 E679.49207
G0 F2400 X144.74 Y122.58
G1 F600 X160.26 Y122.58 E680.00823
G0 F2400 X158.67 Y122.22
G1 F600 X146.34 Y122.22 E680.41833
G0 F2400 X148.45 Y121.86
G1 F600 X156.56 Y121.86 E680.68827
;LAYER:-1
;RAFT
G0 F2400 X156.42 Y121.84 Z0.90
;TYPE:SUPPORT
G1 F600 X156.42 Y183.16 E682.72788
G0 F2400 X156.06 Y183.20
G1 F600 X156.06 Y121.80 E684.76992
G0 F2400 X155.70 Y121.77
G1 F600 X155.70 Y183.23 E686.81422
G0 F2400 X155.34 Y183.26
G1 F600 X155.34 Y121.73 E688.86072
G0 F2400 X154.98 Y121.70
G1 F600 X154.98 Y183.30 E690.90947
G0 F2400 X154.62 Y183.33
G1 F600 X154.62 Y121.67 E692.96046
G0 F2400 X154.26 Y121.64
G1 F600 X154.26 Y183.35 E695.01301
G0 F2400 X153.90 Y183.37
G1 F600 X153.90 Y121.63 E697.06632
G0 F2400 X153.54 Y121.62
G1 F600 X153.54 Y183.38 E699.12040
G0 F2400 X153.18 Y183.39
G1 F600 X153.18 Y121.61 E701.17525
G0 F2400 X152.82 Y121.60
G1 F600 X152.82 Y183.40 E703.23082
G0 F2400 X152.46 Y183.41
G1 F600 X152.46 Y121.59 E705.28703
G0 F2400 X152.10 Y121.60
G1 F600 X152.10 Y183.40 E707.34241
G0 F2400 X151.74 Y183.39
G1 F600 X151.74 Y121.61 E709.39702
G0 F2400 X151.38 Y121.62
G1 F600 X151.38 Y183.38 E711.45087
G0 F2400 X151.02 Y183.36
G1 F600 X151.02 Y121.64 E713.50398
G0 F2400 X150.66 Y121.65
G1 F600 X150.66 Y183.35 E715.55633
G0 F2400 X150.30 Y183.33
G1 F600 X150.30 Y121.67 E717.60692
G0 F2400 X149.94 Y121.71
G1 F600 X149.94 Y183.29 E719.65524
G0 F2400 X149.58 Y183.26
G1 F600 X149.58 Y121.74 E721.70134
G0 F2400 X149.22 Y121.77
G1 F600 X149.22 Y183.22 E723.74518
G0 F2400 X148.86 Y183.19
G1 F600 X148.86 Y121.81 E725.78678
G0 F2400 X148.50 Y121.85
G1 F600 X148.50 Y183.15 E727.82553
G0 F2400 X148.14 Y183.09
G1 F600 X148.14 Y121.91 E729.86035
G0 F2400 X147.78 Y121.97
G1 F600 X147.78 Y183.03 E731.89122
G0 F2400 X147.42 Y182.98
G1 F600 X147.42 Y122.03 E733.91815
G0 F2400 X147.06 Y122.10
G1 F600 X147.06 Y182.92 E735.94114
G0 F2400 X146.70 Y182.86
G1 F600 X146.70 Y122.16 E737.96013
G0 F2400 X146.34 Y122.22
G1 F600 X146.34 Y182.78 E739.97443
G0 F2400 X145.98 Y182.70
G1 F600 X145.98 Y122.30 E741.98347
G0 F2400 X145.62 Y122.38
G1 F600 X145.62 Y182.62 E743.98713
G0 F2400 X145.26 Y182.54
G1 F600 X145.26 Y122.46 E745.98543
G0 F2400 X144.90 Y122.54
G1 F600 X144.90 Y182.46 E747.97838
G0 F2400 X144.54 Y182.36
G1 F600 X144.54 Y122.64 E749.96474
G0 F2400 X144.18 Y122.74
G1 F600 X144.18 Y182.25 E751.94415
G0 F2400 X143.82 Y182.15
G1 F600 X143.82 Y122.85 E753.91661
G0 F2400 X143.46 Y122.95
G1 F600 X143.46 Y182.05 E755.88215
G0 F2400 X143.10 Y181.94
G1 F600 X143.10 Y123.06 E757.84074
G0 F2400 X142.74 Y123.18
G1 F600 X142.74 Y181.82 E759.79131
G0 F2400 X142.38 Y181.69
G1 F600 X142.38 Y123.31 E761.73307
G0 F2400 X142.02 Y123.45
G1 F600 X142.02 Y181.56 E763.66609
G0 F2400 X141.66 Y181.43
G1 F600 X141.66 Y123.58 E765.59028
G0 F2400 X141.30 Y123.72
G1 F600 X141.30 Y181.31 E767.50574
G0 F2400 X140.94 Y181.16
G1 F600 X140.94 Y123.85 E769.41194
G0 F2400 X140.58 Y123.99
G1 F600 X140.58 Y181.01 E771.30827
G0 F2400 X140.22 Y180.85
G1 F600 X140.22 Y124.15 E773.19398
G0 F2400 X139.86 Y124.32
G1 F600 X139.86 Y180.69 E775.06912
G0 F2400 X139.50 Y180.54
G1 F600 X139.50 Y124.48 E776.93365
G0 F2400 X139.14 Y124.64
G1 F600 X139.14 Y180.37 E778.78711
G0 F2400 X138.78 Y180.18
G1 F600 X138.78 Y124.81 E780.62876
G0 F2400 X138.42 Y125.00
G1 F600 X138.42 Y180.00 E782.45823
G0 F2400 X138.06 Y179.82
G1 F600 X138.06 Y125.18 E784.27546
G0 F2400 X137.70 Y125.36
G1 F600 X137.70 Y179.63 E786.08049
G0 F2400 X137.34 Y179.43
G1 F600 X137.34 Y125.57 E787.87188
G0 F2400 X136.98 Y125.78
G1 F600 X136.98 Y179.22 E789.64910
G0 F2400 X136.62 Y179.00
G1 F600 X136.62 Y126.00 E791.41216
G0 F2400 X136.26 Y126.21
G1 F600 X136.26 Y178.79 E793.16101
G0 F2400 X135.90 Y178.57
G1 F600 X135.90 Y126.42 E794.89549
G0 F2400 X135.54 Y126.67
G1 F600 X135.54 Y178.33 E796.61368
G0 F2400 X135.18 Y178.08
G1 F600 X135.18 Y126.91 E798.31563
G0 F2400 X134.82 Y127.16
G1 F600 X134.82 Y177.84 E800.00132
G0 F2400 X134.46 Y177.59
G1 F600 X134.46 Y127.40 E801.67078
G0 F2400 X134.10 Y127.67
G1 F600 X134.10 Y177.33 E803.32248
G0 F2400 X133.74 Y177.05
G1 F600 X133.74 Y127.95 E804.95555
G0 F2400 X133.38 Y128.23
G1 F600 X133.38 Y176.77 E806.57003
G0 F2400 X133.02 Y176.49
G1 F600 X133.02 Y128.51 E808.16595
G0 F2400 X132.66 Y128.80
G1 F600 X132.66 Y176.20 E809.74232
G0 F2400 X132.30 Y175.88
G1 F600 X132.30 Y129.12 E811.29756
G0 F2400 X131.94 Y129.44
G1 F600 X131.94 Y175.56 E812.83168
G0 F2400 X131.58 Y175.24
G1 F600 X131.58 Y129.75 E814.34469
G0 F2400 X131.22 Y130.09
G1 F600 X131.22 Y174.91 E815.83564
G0 F2400 X130.86 Y174.55
G1 F600 X130.86 Y130.44 E817.30264
G0 F2400 X130.50 Y130.81
G1 F600 X130.50 Y174.19 E818.74570
G0 F2400 X130.14 Y173.83
G1 F600 X130.14 Y131.16 E820.16481
G0 F2400 X129.78 Y131.55
G1 F600 X129.78 Y173.45 E821.55831
G0 F2400 X129.42 Y173.04
G1 F600 X129.42 Y131.96 E822.92467
G0 F2400 X129.06 Y132.37
G1 F600 X129.06 Y172.63 E824.26386
G0 F2400 X128.70 Y172.22
G1 F600 X128.70 Y132.78 E825.57590
G0 F2400 X128.34 Y133.24
G1 F600 X128.34 Y171.76 E826.85725
G0 F2400 X127.98 Y171.30
G1 F600 X127.98 Y133.70 E828.10776
G0 F2400 X127.62 Y134.16
G1 F600 X127.62 Y170.83 E829.32741
G0 F2400 X127.26 Y170.33
G1 F600 X127.26 Y134.67 E830.51344
G0 F2400 X126.90 Y135.20
G1 F600 X126.90 Y169.80 E831.66420
G0 F2400 X126.54 Y169.27
G1 F600 X126.54 Y135.73 E832.77972
G0 F2400 X126.18 Y136.31
G1 F600 X126.18 Y168.69 E833.85678
G0 F2400 X125.82 Y168.08
G1 F600 X125.82 Y136.92 E834.89336
G0 F2400 X125.46 Y137.53
G1 F600 X125.46 Y167.47 E835.88947
G0 F2400 X125.10 Y166.78
G1 F600 X125.10 Y138.22 E836.83941
G0 F2400 X124.74 Y138.92
G1 F600 X124.74 Y166.07 E837.74233
G0 F2400 X124.38 Y165.31
G1 F600 X124.38 Y139.69 E838.59435
G0 F2400 X124.02 Y140.56
G1 F600 X124.02 Y164.48 E839.39013
G0 F2400 X123.66 Y163.60
G1 F600 X123.66 Y141.41 E840.12814
G0 F2400 X123.30 Y142.43
G1 F600 X123.30 Y162.60 E840.79920
G0 F2400 X122.94 Y161.49
G1 F600 X122.94 Y143.50 E841.39782
G0 F2400 X122.58 Y144.74
G1 F600 X122.58 Y160.25 E841.91375
G0 F2400 X122.22 Y158.67
G1 F600 X122.22 Y146.33 E842.32411
G0 F2400 X121.86 Y148.58
G1 F600 X121.86 Y156.55 E842.58903
G0 F2400 X156.78 Y183.10
G1 F600 X156.78 Y121.89 E844.62481
G0 F2400 X157.14 Y121.95
G1 F600 X157.14 Y183.05 E846.65681
G0 F2400 X157.50 Y182.99
G1 F600 X157.50 Y122.01 E848.68501
G0 F2400 X157.86 Y122.07
G1 F600 X157.86 Y182.93 E850.70942
G0 F2400 X158.22 Y182.88
G1 F600 X158.22 Y122.12 E852.73004
G0 F2400 X158.58 Y122.20
G1 F600 X158.58 Y182.80 E854.74561
G0 F2400 X158.94 Y182.72
G1 F600 X158.94 Y122.28 E856.75582
G0 F2400 X159.30 Y122.36
G1 F600 X159.30 Y182.64 E858.76064
G0 F2400 X159.66 Y182.56
G1 F600 X159.66 Y122.44 E860.76010
G0 F2400 X160.02 Y122.52
G1 F600 X160.02 Y182.48 E862.75421
G0 F2400 X160.38 Y182.38
G1 F600 X160.38 Y122.61 E864.74211
G0 F2400 X160.74 Y122.72
G1 F600 X160.74 Y182.28 E866.72308
G0 F2400 X161.10 Y182.17
G1 F600 X161.10 Y122.82 E868.69710
G0 F2400 X161.46 Y122.93
G1 F600 X161.46 Y182.07 E870.66421
G0 F2400 X161.82 Y181.97
G1 F600 X161.82 Y123.04 E872.62399
G0 F2400 X162.18 Y123.17
G1 F600 X162.18 Y181.85 E874.57593
G0 F2400 X162.54 Y181.72
G1 F600 X162.54 Y123.29 E876.51945
G0 F2400 X162.90 Y123.41
G1 F600 X162.90 Y181.59 E878.45456
G0 F2400 X163.26 Y181.46
G1 F600 X163.26 Y123.54 E880.38122
G0 F2400 X163.62 Y123.67
G1 F600 X163.62 Y181.33 E882.29900
G0 F2400 X163.98 Y181.20
G1 F600 X163.98 Y123.83 E884.20720
G0 F2400 X164.34 Y123.98
G1 F600 X164.34 Y181.04 E886.10519
G0 F2400 X164.70 Y180.88
G1 F600 X164.70 Y124.13 E887.99297
G0 F2400 X165.06 Y124.28
G1 F600 X165.06 Y180.73 E889.87054
G0 F2400 X165.42 Y180.57
G1 F600 X165.42 Y124.43 E891.73793
G0 F2400 X165.78 Y124.59
G1 F600 X165.78 Y180.41 E893.59444
G0 F2400 X166.14 Y180.22
G1 F600 X166.14 Y124.77 E895.43878
G0 F2400 X166.50 Y124.96
G1 F600 X166.50 Y180.04 E897.27095
G0 F2400 X166.86 Y179.86
G1 F600 X166.86 Y125.14 E899.09091
G0 F2400 X167.22 Y125.32
G1 F600 X167.22 Y179.68 E900.89867
G0 F2400 X167.58 Y179.48
G1 F600 X167.58 Y125.52 E902.69322
G0 F2400 X167.94 Y125.73
G1 F600 X167.94 Y179.26 E904.47360
G0 F2400 X168.30 Y179.05
G1 F600 X168.30 Y125.95 E906.23981
G0 F2400 X168.66 Y126.16
G1 F600 X168.66 Y178.84 E907.99186
G0 F2400 X169.02 Y178.62
G1 F600 X169.02 Y126.37 E909.72977
G0 F2400 X169.38 Y126.61
G1 F600 X169.38 Y178.38 E911.45164
G0 F2400 X169.74 Y178.14
G1 F600 X169.74 Y126.86 E913.15726
G0 F2400 X170.10 Y127.10
G1 F600 X170.10 Y177.90 E914.84657
G0 F2400 X170.46 Y177.65
G1 F600 X170.46 Y127.35 E916.51966
G0 F2400 X170.82 Y127.61
G1 F600 X170.82 Y177.39 E918.17548
G0 F2400 X171.18 Y177.11
G1 F600 X171.18 Y127.89 E919.81271
G0 F2400 X171.54 Y128.17
G1 F600 X171.54 Y176.83 E921.43135
G0 F2400 X171.90 Y176.55
G1 F600 X171.90 Y128.45 E923.03139
G0 F2400 X172.26 Y128.73
G1 F600 X172.26 Y176.27 E924.61245
G0 F2400 X172.62 Y175.95
G1 F600 X172.62 Y129.05 E926.17238
G0 F2400 X172.98 Y129.37
G1 F600 X172.98 Y175.63 E927.71119
G0 F2400 X173.34 Y175.31
G1 F600 X173.34 Y129.68 E929.22889
G0 F2400 X173.70 Y130.01
G1 F600 X173.70 Y174.99 E930.72516
G0 F2400 X174.06 Y174.63
G1 F600 X174.06 Y130.37 E932.19749
G0 F2400 X174.42 Y130.73
G1 F600 X174.42 Y174.27 E933.64586
G0 F2400 X174.78 Y173.91
G1 F600 X174.78 Y131.09 E935.07030
G0 F2400 X175.14 Y131.46
G1 F600 X175.14 Y173.54 E936.46982
G0 F2400 X175.50 Y173.13
G1 F600 X175.50 Y131.87 E937.84220
G0 F2400 X175.86 Y132.28
G1 F600 X175.86 Y172.72 E939.18740
G0 F2400 X176.22 Y172.31
G1 F600 X176.22 Y132.69 E940.50547
G0 F2400 X176.58 Y133.13
G1 F600 X176.58 Y171.87 E941.79367
G0 F2400 X176.94 Y171.40
G1 F600 X176.94 Y133.60 E943.05103
G0 F2400 X177.30 Y134.06
G1 F600 X177.30 Y170.94 E944.27753
G0 F2400 X177.66 Y170.45
G1 F600 X177.66 Y134.55 E945.47137
G0 F2400 X178.02 Y135.08
G1 F600 X178.02 Y169.92 E946.62992
G0 F2400 X178.38 Y169.39
G1 F600 X178.38 Y135.61 E947.75322
G0 F2400 X178.74 Y136.18
G1 F600 X178.74 Y168.83 E948.83919
G0 F2400 X179.10 Y168.22
G1 F600 X179.10 Y136.78 E949.88469
G0 F2400 X179.46 Y137.39
G1 F600 X179.46 Y167.61 E950.88975
G0 F2400 X179.82 Y166.94
G1 F600 X179.82 Y138.06 E951.85010
G0 F2400 X180.18 Y138.77
G1 F600 X180.18 Y166.23 E952.76349
G0 F2400 X180.54 Y165.50
G1 F600 X180.54 Y139.54 E953.62672
G0 F2400 X180.90 Y140.34
G1 F600 X180.90 Y164.67 E954.43578
G0 F2400 X181.26 Y163.83
G1 F600 X181.26 Y141.24 E955.18712
G0 F2400 X181.62 Y142.20
G1 F600 X181.62 Y162.83 E955.87315
G0 F2400 X181.98 Y161.77
G1 F600 X181.98 Y143.23 E956.49002
G0 F2400 X182.34 Y144.47
G1 F600 X182.34 Y160.53 E957.02435
G0 F2400 X182.70 Y159.03
G1 F600 X182.70 Y145.97 E957.45862
G0 F2400 X183.06 Y147.99
G1 F600 X183.06 Y157.06 E957.76059
;LAYER:0
G1 F2400 E956.56059
G0 X177.95 Y155.71 Z1.22
;TYPE:WALL-OUTER
G1 F2400 E957.76059
G1 F600 X177.69 Y157.31 E957.78760
G1 X177.35 Y158.87 E957.81418
G1 X176.89 Y160.43 E957.84111
G1 X176.35 Y161.94 E957.86780
G1 X175.71 Y163.42 E957.89478
G1 X174.98 Y164.85 E957.92138
G1 X174.16 Y166.24 E957.94827
G1 X173.26 Y167.57 E957.97497
G1 X172.26 Y168.85 E958.00187
G1 X171.19 Y170.06 E958.02878
G1 X170.06 Y171.19 E958.05537
G1 X168.86 Y172.26 E958.08216
G1 X167.57 Y173.25 E958.10917
G1 X166.25 Y174.15 E958.13575
G1 X164.86 Y174.97 E958.16263
G1 X163.43 Y175.70 E958.18934
G1 X161.94 Y176.35 E958.21625
G1 X160.43 Y176.89 E958.24302
G1 X158.88 Y177.34 E958.26987
G1 X157.31 Y177.69 E958.29654
G1 X155.71 Y177.95 E958.32354
G1 X154.12 Y178.10 E958.35019
G1 X152.50 Y178.15 E958.37702
G1 X150.89 Y178.10 E958.40386
G1 X149.29 Y177.95 E958.43050
G1 X147.69 Y177.69 E958.45751
G1 X146.12 Y177.34 E958.48418
G1 X144.57 Y176.89 E958.51102
G1 X143.06 Y176.35 E958.53780
G1 X141.57 Y175.71 E958.56471
G1 X140.15 Y174.98 E958.59138
G1 X138.75 Y174.15 E958.61830
G1 X137.43 Y173.26 E958.64487
G1 X136.15 Y172.26 E958.67188
G1 X134.94 Y171.19 E958.69869
G1 X133.81 Y170.06 E958.72535
G1 X132.74 Y168.86 E958.75207
G1 X131.75 Y167.57 E958.77908
G1 X130.85 Y166.25 E958.80566
G1 X130.02 Y164.85 E958.83267
G1 X129.29 Y163.43 E958.85932
G1 X128.65 Y161.94 E958.88625
G1 X128.11 Y160.43 E958.91293
G1 X127.66 Y158.87 E958.93986
G1 X127.31 Y157.31 E958.96651
G1 X127.05 Y155.71 E958.99345
G1 X126.90 Y154.12 E959.02009
G1 X126.85 Y152.51 E959.04683
G1 X126.90 Y150.88 E959.07387
G1 X127.01 Y149.70 E959.09366
G1 X127.24 Y148.09 E959.12061
G1 X127.31 Y147.69 E959.12744
G1 X127.66 Y146.13 E959.15403
G1 X127.99 Y144.97 E959.17405
G1 X128.51 Y143.45 E959.20084
G1 X129.13 Y141.95 E959.22783
G1 X129.29 Y141.59 E959.23440
G1 X130.02 Y140.15 E959.26120
G1 X130.84 Y138.75 E959.28813
G1 X131.74 Y137.43 E959.31471
G1 X132.74 Y136.15 E959.34180
G1 X133.80 Y134.95 E959.36832
G1 X134.95 Y133.80 E959.39541
G1 X136.14 Y132.74 E959.42190
G1 X137.42 Y131.75 E959.44889
G1 X138.76 Y130.84 E959.47569
G1 X140.14 Y130.03 E959.50241
G1 X141.22 Y129.47 E959.52255
G1 X142.68 Y128.82 E959.54919
G1 X144.19 Y128.24 E959.57613
G1 X144.57 Y128.11 E959.58283
G1 X146.12 Y127.66 E959.60967
G1 X147.29 Y127.39 E959.62964
G1 X148.89 Y127.12 E959.65655
G1 X149.28 Y127.05 E959.66315
G1 X150.86 Y126.91 E959.68950
G1 X152.48 Y126.85 E959.71642
G1 X152.50 Y126.85 E959.71690
G1 X154.08 Y126.90 E959.74312
G1 X155.71 Y127.05 E959.77030
G1 X157.31 Y127.31 E959.79730
G1 X158.88 Y127.66 E959.82397
G1 X160.04 Y127.99 E959.84407
G1 X161.55 Y128.51 E959.87071
G1 X163.05 Y129.13 E959.89769
G1 X163.41 Y129.29 E959.90427
G1 X164.86 Y130.02 E959.93116
G1 X166.25 Y130.84 E959.95799
G1 X167.57 Y131.74 E959.98457
G1 X168.85 Y132.74 E960.01166
G1 X170.05 Y133.80 E960.03819
G1 X171.20 Y134.95 E960.06527
G1 X172.26 Y136.14 E960.09177
G1 X173.25 Y137.42 E960.11872
G1 X174.16 Y138.76 E960.14555
G1 X174.98 Y140.15 E960.17237
G1 X175.53 Y141.22 E960.19242
G1 X176.18 Y142.68 E960.21906
G1 X176.76 Y144.19 E960.24599
G1 X176.89 Y144.57 E960.25260
G1 X177.34 Y146.12 E960.27941
G1 X177.60 Y147.29 E960.29942
G1 X177.88 Y148.89 E960.32638
G1 X177.95 Y149.28 E960.33300
G1 X178.06 Y150.48 E960.35299
G1 X178.14 Y152.10 E960.37996
G1 X178.15 Y152.49 E960.38657
G1 X178.10 Y154.11 E960.41347
G1 X177.95 Y155.71 E960.44012
G0 F2400 X177.65 Y155.67
G0 X176.00 Y156.13
G0 X175.81 Y155.89
G1 F600 X175.10 Y154.82 E960.46148
G1 X175.09 Y154.79 E960.46202
G1 X174.31 Y153.83 E960.48261
G1 X173.56 Y153.04 E960.50077
G1 X173.54 Y153.01 E960.50132
G1 X173.00 Y152.52 E960.51347
G1 X173.50 Y152.06 E960.52476
G1 X174.30 Y151.22 E960.54407
G1 X175.07 Y150.27 E960.56443
G1 X175.72 Y149.34 E960.58323
G1 X175.86 Y149.18 E960.58686
G1 X174.84 Y148.36 E960.60874
G1 X174.81 Y148.33 E960.60930
G1 X173.83 Y147.66 E960.62917
G1 X173.81 Y147.63 E960.62969
G1 X172.82 Y147.06 E960.64865
G1 X172.17 Y146.75 E960.66061
G1 X172.54 Y146.14 E960.67237
G1 X173.06 Y145.13 E960.69127
G1 X173.52 Y144.02 E960.71135
G1 X173.89 Y142.93 E960.73041
G1 X173.96 Y142.72 E960.73404
G1 X172.74 Y142.22 E960.75596
G1 X171.61 Y141.84 E960.77587
G1 X171.58 Y141.83 E960.77643
G1 X170.46 Y141.56 E960.79548
G1 X169.76 Y141.44 E960.80735
G1 X169.93 Y140.78 E960.81868
G1 X169.94 Y140.76 E960.81901
G1 X170.14 Y139.67 E960.83737
G1 X170.15 Y139.64 E960.83787
G1 X170.28 Y138.44 E960.85807
G1 X170.32 Y137.31 E960.87687
G1 X170.38 Y137.08 E960.88075
G1 X169.03 Y136.94 E960.90331
G1 X167.79 Y136.89 E960.92391
G1 X166.65 Y136.94 E960.94280
G1 X165.94 Y137.02 E960.95467
G1 X165.92 Y136.34 E960.96594
G1 X165.92 Y136.32 E960.96641
G1 X165.81 Y135.21 E960.98493
G1 X165.81 Y135.18 E960.98534
G1 X165.60 Y134.02 E961.00504
G1 X165.60 Y133.99 E961.00556
G1 X165.32 Y132.88 E961.02455
G1 X165.28 Y132.67 E961.02807
G1 X164.00 Y132.91 E961.04973
G1 X163.96 Y132.91 E961.05024
G1 X162.81 Y133.21 E961.07005
G1 X162.78 Y133.21 E961.07060
G1 X161.73 Y133.57 E961.08899
G1 X161.70 Y133.58 E961.08953
G1 X161.04 Y133.86 E961.10152
G1 X160.82 Y133.19 E961.11327
G1 X160.40 Y132.15 E961.13188
G1 X159.85 Y131.06 E961.15220
G1 X159.17 Y129.89 E961.17472
G1 X158.01 Y130.46 E961.19609
G1 X157.98 Y130.47 E961.19662
G1 X156.96 Y131.08 E961.21643
G1 X156.93 Y131.09 E961.21700
G1 X155.99 Y131.76 E961.23611
G1 X155.44 Y132.21 E961.24796
G1 X155.04 Y131.63 E961.25969
G1 X154.34 Y130.75 E961.27831
G1 X153.51 Y129.84 E961.29891
G1 X152.53 Y128.93 E961.32114
G1 X151.55 Y129.83 E961.34325
G1 X150.74 Y130.70 E961.36301
G1 X150.72 Y130.72 E961.36354
G1 X150.02 Y131.60 E961.38227
G1 X149.61 Y132.21 E961.39442
G1 X149.08 Y131.78 E961.40559
G1 X148.14 Y131.11 E961.42479
G1 X147.11 Y130.50 E961.44476
G1 X147.08 Y130.47 E961.44536
G1 X146.06 Y129.97 E961.46430
G1 X145.88 Y129.86 E961.46782
G1 X145.20 Y131.01 E961.49009
G1 X144.65 Y132.11 E961.51045
G1 X144.22 Y133.16 E961.52934
G1 X144.00 Y133.84 E961.54122
G1 X143.35 Y133.57 E961.55298
G1 X142.28 Y133.20 E961.57182
G1 X141.10 Y132.89 E961.59219
G1 X140.00 Y132.69 E961.61077
G1 X139.79 Y132.62 E961.61447
G1 X139.45 Y133.90 E961.63650
G1 X139.44 Y133.93 E961.63701
G1 X139.23 Y135.11 E961.65687
G1 X139.22 Y135.14 E961.65741
G1 X139.11 Y136.28 E961.67641
G1 X139.09 Y136.99 E961.68829
G1 X138.40 Y136.91 E961.69985
G1 X137.28 Y136.86 E961.71850
G1 X137.26 Y136.86 E961.71890
G1 X136.03 Y136.90 E961.73925
G1 X134.70 Y137.04 E961.76150
G1 X134.74 Y138.37 E961.78357
G1 X134.87 Y139.59 E961.80395
G1 X135.08 Y140.71 E961.82283
G1 X135.26 Y141.40 E961.83471
G1 X134.57 Y141.52 E961.84645
G1 X133.47 Y141.79 E961.86531
G1 X132.34 Y142.16 E961.88508
G1 X132.31 Y142.17 E961.88558
G1 X131.27 Y142.60 E961.90430
G1 X131.05 Y142.65 E961.90811
G1 X131.48 Y143.95 E961.93080
G1 X131.94 Y145.04 E961.95053
G1 X131.94 Y145.07 E961.95092
G1 X132.47 Y146.09 E961.97006
G1 X132.84 Y146.70 E961.98191
G1 X132.20 Y147.01 E961.99366
G1 X131.25 Y147.57 E962.01194
G1 X131.22 Y147.58 E962.01244
G1 X130.21 Y148.28 E962.03289
G1 X129.17 Y149.12 E962.05514
G1 X129.90 Y150.18 E962.07653
G1 X129.91 Y150.21 E962.07707
G1 X130.68 Y151.16 E962.09737
G1 X131.44 Y151.97 E962.11588
G1 X131.46 Y151.99 E962.11635
G1 X132.00 Y152.48 E962.12851
G1 X131.50 Y152.94 E962.13980
G1 X130.71 Y153.77 E962.15886
G1 X129.94 Y154.72 E962.17921
G1 X129.29 Y155.65 E962.19816
G1 X129.14 Y155.82 E962.20182
G1 X130.17 Y156.65 E962.22374
G1 X130.19 Y156.67 E962.22423
G1 X131.17 Y157.34 E962.24410
G1 X131.19 Y157.37 E962.24462
G1 X132.17 Y157.93 E962.26335
G1 X132.83 Y158.25 E962.27555
G1 X132.47 Y158.85 E962.28713
G1 X131.95 Y159.86 E962.30596
G1 X131.48 Y160.98 E962.32627
G1 X131.11 Y162.07 E962.34535
G1 X131.04 Y162.27 E962.34891
G1 X132.26 Y162.78 E962.37084
G1 X133.39 Y163.16 E962.39075
G1 X133.42 Y163.17 E962.39131
G1 X134.52 Y163.44 E962.41011
G1 X135.23 Y163.56 E962.42208
G1 X135.07 Y164.22 E962.43334
G1 X134.86 Y165.33 E962.45210
G1 X134.85 Y165.36 E962.45260
G1 X134.72 Y166.56 E962.47280
G1 X134.68 Y167.70 E962.49163
G1 X134.64 Y167.92 E962.49541
G1 X135.97 Y168.06 E962.51771
G1 X137.20 Y168.11 E962.53804
G1 X138.33 Y168.06 E962.55696
G1 X139.05 Y167.98 E962.56892
G1 X139.08 Y168.66 E962.58024
G1 X139.08 Y168.68 E962.58067
G1 X139.19 Y169.78 E962.59901
G1 X139.19 Y169.82 E962.59961
G1 X139.40 Y170.98 E962.61931
G1 X139.40 Y171.01 E962.61982
G1 X139.68 Y172.12 E962.63881
G1 X139.72 Y172.33 E962.64229
G1 X141.00 Y172.09 E962.66400
G1 X141.04 Y172.09 E962.66453
G1 X142.19 Y171.79 E962.68434
G1 X142.22 Y171.79 E962.68489
G1 X143.27 Y171.43 E962.70328
G1 X143.30 Y171.42 E962.70382
G1 X143.95 Y171.14 E962.71567
G1 X144.18 Y171.80 E962.72726
G1 X144.60 Y172.85 E962.74604
G1 X145.15 Y173.94 E962.76636
G1 X145.72 Y174.92 E962.78523
G1 X145.81 Y175.13 E962.78906
G1 X146.99 Y174.54 E962.81097
G1 X147.02 Y174.53 E962.81145
G1 X148.04 Y173.92 E962.83125
G1 X148.07 Y173.91 E962.83184
G1 X149.00 Y173.25 E962.85070
G1 X149.55 Y172.79 E962.86266
G1 X149.96 Y173.36 E962.87423
G1 X150.66 Y174.25 E962.89302
G1 X151.49 Y175.15 E962.91335
G1 X152.46 Y176.06 E962.93556
G1 X153.44 Y175.18 E962.95736
G1 X154.25 Y174.31 E962.97731
G1 X154.28 Y174.28 E962.97793
G1 X154.98 Y173.40 E962.99667
G1 X155.39 Y172.80 E963.00864
G1 X155.92 Y173.22 E963.01989
G1 X155.94 Y173.24 E963.02033
G1 X156.86 Y173.89 E963.03904
G1 X157.89 Y174.50 E963.05901
G1 X157.92 Y174.53 E963.05962
G1 X158.93 Y175.03 E963.07848
G1 X159.11 Y175.14 E963.08201
G1 X159.79 Y174.00 E963.10412
G1 X160.34 Y172.91 E963.12446
G1 X160.77 Y171.85 E963.14338
G1 X160.99 Y171.17 E963.15534
G1 X161.64 Y171.43 E963.16693
G1 X162.71 Y171.79 E963.18569
G1 X163.89 Y172.10 E963.20603
G1 X165.01 Y172.31 E963.22507
G1 X165.22 Y172.36 E963.22867
G1 X165.55 Y171.10 E963.25039
G1 X165.56 Y171.07 E963.25093
G1 X165.77 Y169.89 E963.27078
G1 X165.78 Y169.86 E963.27133
G1 X165.88 Y168.74 E963.29011
G1 X165.91 Y168.02 E963.30205
G1 X166.60 Y168.09 E963.31365
G1 X167.72 Y168.14 E963.33227
G1 X167.74 Y168.14 E963.33268
G1 X168.95 Y168.10 E963.35276
G1 X170.28 Y167.96 E963.37495
G1 X170.26 Y166.65 E963.39677
G1 X170.13 Y165.43 E963.41716
G1 X169.92 Y164.31 E963.43607
G1 X169.74 Y163.61 E963.44806
G1 X170.42 Y163.48 E963.45965
G1 X171.52 Y163.21 E963.47842
G1 X172.66 Y162.84 E963.49841
G1 X172.69 Y162.83 E963.49894
G1 X173.73 Y162.40 E963.51775
G1 X173.94 Y162.33 E963.52143
G1 X173.52 Y161.07 E963.54363
G1 X173.06 Y159.96 E963.56354
G1 X173.06 Y159.93 E963.56408
G1 X172.54 Y158.92 E963.58292
G1 X172.17 Y158.31 E963.59487
G1 X172.79 Y157.99 E963.60647
G1 X173.76 Y157.42 E963.62525
G1 X174.77 Y156.73 E963.64559
G1 X175.81 Y155.89 E963.66776
G0 F2400 X175.98 Y155.90
;TYPE:FILL
G1 F600 X177.52 Y157.44 E963.70397
G0 F2400 X177.42 Y157.90
G1 F600 X175.69 Y156.17 E963.74468
G0 F2400 X175.37 Y156.42
G1 F600 X177.31 Y158.36 E963.79031
G0 F2400 X177.21 Y158.83
G1 F600 X175.06 Y156.68 E963.84090
G0 F2400 X174.74 Y156.92
G1 F600 X177.08 Y159.26 E963.89602
G0 F2400 X176.96 Y159.70
G1 F600 X174.40 Y157.15 E963.95607
G0 F2400 X174.07 Y157.38
G1 F600 X176.83 Y160.14 E964.02099
G0 F2400 X176.69 Y160.57
G1 F600 X173.73 Y157.60 E964.09074
G0 F2400 X173.37 Y157.81
G1 F600 X176.54 Y160.99 E964.16539
G0 F2400 X176.39 Y161.40
G1 F600 X173.01 Y158.02 E964.24491
G0 F2400 X172.65 Y158.22
G1 F600 X176.24 Y161.82 E964.32955
G0 F2400 X176.07 Y162.22
G1 F600 X172.58 Y158.72 E964.41168
G0 F2400 X173.19 Y159.90
G1 F600 X175.91 Y162.61 E964.47545
G0 F2400 X175.74 Y163.01
G1 F600 X173.59 Y160.86 E964.52599
G0 F2400 X173.89 Y161.73
G1 F600 X175.56 Y163.40 E964.56531
G0 F2400 X175.37 Y163.77
G1 F600 X174.04 Y162.45 E964.59647
G0 F2400 X173.62 Y162.59
G1 F600 X175.18 Y164.15 E964.63305
G0 F2400 X174.99 Y164.52
G1 F600 X173.23 Y162.76 E964.67451
G0 F2400 X172.83 Y162.93
G1 F600 X174.79 Y164.89 E964.72071
G0 F2400 X174.58 Y165.25
G1 F600 X172.40 Y163.07 E964.77195
G0 F2400 X171.98 Y163.21
G1 F600 X174.37 Y165.60 E964.82827
G0 F2400 X174.16 Y165.96
G1 F600 X171.55 Y163.35 E964.88967
G0 F2400 X171.10 Y163.46
G1 F600 X173.94 Y166.31 E964.95662
G0 F2400 X173.72 Y166.64
G1 F600 X170.64 Y163.57 E965.02887
G0 F2400 X170.18 Y163.67
G1 F600 X173.49 Y166.98 E965.10671
G0 F2400 X173.26 Y167.32
G1 F600 X170.00 Y164.06 E965.18342
G0 F2400 X170.15 Y164.77
G1 F600 X173.02 Y167.65 E965.25102
G0 F2400 X172.77 Y167.96
G1 F600 X170.27 Y165.46 E965.30989
G0 F2400 X170.34 Y166.09
G1 F600 X172.52 Y168.28 E965.36133
G0 F2400 X172.28 Y168.60
G1 F600 X170.40 Y166.72 E965.40554
G0 F2400 X170.41 Y167.29
G1 F600 X172.02 Y168.91 E965.44353
G0 F2400 X171.76 Y169.21
G1 F600 X170.41 Y167.87 E965.47508
G0 F2400 X170.10 Y168.12
G1 F600 X171.49 Y169.51 E965.50784
G0 F2400 X171.23 Y169.81
G1 F600 X169.59 Y168.17 E965.54641
G0 F2400 X169.07 Y168.23
G1 F600 X170.95 Y170.10 E965.59058
G0 F2400 X170.67 Y170.39
G1 F600 X168.54 Y168.25 E965.64076
G0 F2400 X167.99 Y168.27
G1 F600 X170.39 Y170.67 E965.69721
G0 F2400 X170.10 Y170.95
G1 F600 X167.41 Y168.26 E965.76051
G0 F2400 X166.82 Y168.24
G1 F600 X169.81 Y171.23 E965.83083
G0 F2400 X169.51 Y171.49
G1 F600 X166.21 Y168.19 E965.90851
G0 F2400 X166.03 Y168.57
G1 F600 X169.21 Y171.76 E965.98332
G0 F2400 X168.91 Y172.02
G1 F600 X165.99 Y169.10 E966.05200
G0 F2400 X165.94 Y169.62
G1 F600 X168.60 Y172.28 E966.11456
G0 F2400 X168.28 Y172.52
G1 F600 X165.87 Y170.11 E966.17131
G0 F2400 X165.78 Y170.59
G1 F600 X167.96 Y172.77 E966.22254
G0 F2400 X167.65 Y173.02
G1 F600 X165.70 Y171.07 E966.26828
G0 F2400 X165.58 Y171.52
G1 F600 X167.32 Y173.26 E966.30911
G0 F2400 X166.98 Y173.49
G1 F600 X165.47 Y171.97 E966.34472
G0 F2400 X165.35 Y172.42
G1 F600 X166.64 Y173.71 E966.37508
G0 F2400 X166.31 Y173.94
G1 F600 X164.77 Y172.40 E966.41132
G0 F2400 X164.07 Y172.28
G1 F600 X165.96 Y174.16 E966.45564
G0 F2400 X165.60 Y174.37
G1 F600 X163.33 Y172.10 E966.50903
G0 F2400 X162.56 Y171.89
G1 F600 X165.25 Y174.58 E966.57231
G0 F2400 X164.89 Y174.79
G1 F600 X161.69 Y171.59 E966.64754
G0 F2400 X161.03 Y171.50
G1 F600 X164.52 Y174.99 E966.72967
G0 F2400 X164.15 Y175.18
G1 F600 X160.89 Y171.92 E966.80629
G0 F2400 X160.73 Y172.32
G1 F600 X163.77 Y175.37 E966.87797
G0 F2400 X163.40 Y175.56
G1 F600 X160.56 Y172.72 E966.94468
G0 F2400 X160.39 Y173.12
G1 F600 X163.00 Y175.73 E967.00622
G0 F2400 X162.61 Y175.90
G1 F600 X160.20 Y173.49 E967.06294
G0 F2400 X160.01 Y173.87
G1 F600 X162.22 Y176.07 E967.11478
G0 F2400 X161.82 Y176.24
G1 F600 X159.81 Y174.24 E967.16196
G0 F2400 X159.60 Y174.59
G1 F600 X161.40 Y176.39 E967.20432
G0 F2400 X160.99 Y176.54
G1 F600 X159.39 Y174.95 E967.24183
G0 F2400 X159.18 Y175.30
G1 F600 X160.57 Y176.69 E967.27455
G0 F2400 X160.14 Y176.83
G1 F600 X158.07 Y174.76 E967.32323
G0 F2400 X158.00 Y174.90
G0 X156.59 Y174.06
G0 X156.68 Y173.93
G1 F600 X159.70 Y176.96 E967.39435
G0 F2400 X159.26 Y177.08
G1 F600 X155.32 Y173.14 E967.48703
G0 F2400 X155.09 Y173.48
G1 F600 X158.83 Y177.21 E967.57482
G0 F2400 X158.36 Y177.31
G1 F600 X154.84 Y173.79 E967.65759
G0 F2400 X154.59 Y174.11
G1 F600 X157.90 Y177.42 E967.73537
G0 F2400 X157.44 Y177.52
G1 F600 X154.34 Y174.42 E967.80829
G0 F2400 X154.06 Y174.71
G1 F600 X156.96 Y177.61 E967.87634
G0 F2400 X156.47 Y177.68
G1 F600 X153.79 Y175.01 E967.93931
G0 F2400 X153.52 Y175.30
G1 F600 X155.98 Y177.76 E967.99722
G0 F2400 X155.48 Y177.83
G1 F600 X153.22 Y175.56 E968.05042
G0 F2400 X152.92 Y175.83
G1 F600 X154.97 Y177.88 E968.09847
G0 F2400 X154.45 Y177.92
G1 F600 X152.62 Y176.10 E968.14138
G0 F2400 X152.73 Y176.22
G0 X152.82 Y177.84
G0 X152.82 Y178.00
G1 F600 X148.56 Y173.73 E968.24171
G0 F2400 X148.23 Y173.97
G1 F600 X152.26 Y178.00 E968.33657
G0 F2400 X151.68 Y177.98
G1 F600 X147.88 Y174.18 E968.42600
G0 F2400 X147.52 Y174.39
G1 F600 X151.09 Y177.96 E968.51001
G0 F2400 X150.48 Y177.92
G1 F600 X147.17 Y174.60 E968.58797
G0 F2400 X146.79 Y174.79
G1 F600 X149.86 Y177.86 E968.66007
G0 F2400 X149.23 Y177.80
G1 F600 X146.42 Y174.98 E968.72620
G0 F2400 X146.04 Y175.17
G1 F600 X148.56 Y177.69 E968.78537
G0 F2400 X147.88 Y177.58
G1 F600 X142.23 Y171.93 E968.91834
G0 F2400 X142.66 Y171.79
G1 F600 X145.23 Y174.37 E968.97898
G0 F2400 X144.61 Y173.18
G1 F600 X143.07 Y171.64 E969.01506
G0 F2400 X143.49 Y171.49
G1 F600 X144.19 Y172.19 E969.03142
G0 F2400 X144.04 Y172.25
G0 X141.82 Y172.20
G0 X141.78 Y172.04
G1 F600 X147.17 Y177.43 E969.15821
G0 F2400 X146.44 Y177.27
G1 F600 X141.33 Y172.16 E969.27840
G0 F2400 X140.87 Y172.26
G1 F600 X145.67 Y177.06 E969.39138
G0 F2400 X144.87 Y176.83
G1 F600 X140.39 Y172.35 E969.49689
G0 F2400 X139.91 Y172.43
G1 F600 X144.02 Y176.54 E969.59352
G0 F2400 X143.13 Y176.23
G1 F600 X135.01 Y168.10 E969.78464
G0 F2400 X135.64 Y168.17
G1 F600 X139.52 Y172.05 E969.87586
G0 F2400 X139.33 Y171.29
G1 F600 X136.25 Y168.21 E969.94815
G0 F2400 X136.84 Y168.23
G1 F600 X139.19 Y170.58 E970.00336
G0 F2400 X139.06 Y169.89
G1 F600 X137.41 Y168.24 E970.04223
G0 F2400 X137.95 Y168.22
G1 F600 X139.00 Y169.26 E970.06676
G0 F2400 X138.94 Y168.63
G1 F600 X138.49 Y168.18 E970.07739
G0 F2400 X138.50 Y168.34
G0 X135.94 Y168.46
G0 X134.25 Y168.22
G0 X134.38 Y167.63
G0 X134.54 Y167.63
G1 F600 X128.77 Y161.87 E970.21301
G0 F2400 X128.46 Y160.98
G1 F600 X134.56 Y167.09 E970.35655
G0 F2400 X134.58 Y166.54
G1 F600 X128.17 Y160.13 E970.50737
G0 F2400 X127.94 Y159.33
G1 F600 X130.89 Y162.28 E970.57678
G0 F2400 X131.02 Y162.41
G1 F600 X134.63 Y166.03 E970.66183
G0 F2400 X134.69 Y165.52
G1 F600 X131.99 Y162.82 E970.72543
G0 F2400 X132.86 Y163.12
G1 F600 X134.77 Y165.04 E970.77040
G0 F2400 X134.86 Y164.56
G1 F600 X133.68 Y163.38 E970.79825
G0 F2400 X134.43 Y163.56
G1 F600 X134.96 Y164.09 E970.81071
G0 F2400 X134.80 Y164.05
G0 X131.41 Y166.54
G0 X131.27 Y166.63
G1 F600 X138.37 Y173.72 E970.97754
G0 F2400 X138.46 Y173.59
G0 X139.93 Y174.50
G0 X139.85 Y174.64
G1 F600 X130.36 Y165.15 E971.20081
G0 F2400 X129.71 Y163.93
G1 F600 X141.06 Y175.29 E971.46784
G0 F2400 X142.14 Y175.79
G1 F600 X129.20 Y162.86 E971.77205
G0 F2400 X129.35 Y162.80
G0 X130.88 Y161.81
G0 X131.03 Y161.86
G1 F600 X127.73 Y158.56 E971.84980
G0 F2400 X127.57 Y157.83
G1 F600 X131.18 Y161.44 E971.93471
G0 F2400 X131.32 Y161.02
G1 F600 X127.42 Y157.12 E972.02644
G0 F2400 X127.31 Y156.44
G1 F600 X131.48 Y160.61 E972.12450
G0 F2400 X131.65 Y160.22
G1 F600 X127.20 Y155.77 E972.22902
G0 F2400 X127.14 Y155.14
G1 F600 X131.82 Y159.82 E972.33901
G0 F2400 X132.00 Y159.44
G1 F600 X127.08 Y154.52 E972.45483
G0 F2400 X127.03 Y153.91
G1 F600 X128.95 Y155.82 E972.49988
G0 F2400 X129.06 Y155.93
G1 F600 X132.20 Y159.07 E972.57366
G0 F2400 X132.39 Y158.70
G1 F600 X131.26 Y157.56 E972.60029
G0 F2400 X132.52 Y158.26
G1 F600 X132.61 Y158.34 E972.60234
G0 F2400 X132.45 Y158.29
G0 X130.93 Y157.66
G0 X128.66 Y155.86
G0 X129.08 Y155.43
G0 X129.21 Y155.52
G1 F600 X127.02 Y153.32 E972.65396
G0 F2400 X127.00 Y152.74
G1 F600 X129.44 Y155.18 E972.71151
G0 F2400 X129.68 Y154.85
G1 F600 X127.00 Y152.17 E972.77442
G0 F2400 X127.02 Y151.62
G1 F600 X129.92 Y154.52 E972.84260
G0 F2400 X130.17 Y154.21
G1 F600 X127.03 Y151.08 E972.91633
G0 F2400 X127.07 Y150.55
G1 F600 X130.42 Y153.90 E972.99514
G0 F2400 X130.68 Y153.59
G1 F600 X127.12 Y150.03 E973.07889
G0 F2400 X127.18 Y149.52
G1 F600 X130.96 Y153.30 E973.16778
G0 F2400 X131.23 Y153.01
G1 F600 X127.25 Y149.03 E973.26147
G0 F2400 X127.32 Y148.54
G1 F600 X131.52 Y152.73 E973.36009
G0 F2400 X131.41 Y152.61
G0 X130.35 Y151.23
G0 X130.48 Y151.12
G1 F600 X127.39 Y148.04 E973.43260
G0 F2400 X127.48 Y147.56
G1 F600 X129.00 Y149.08 E973.46830
G0 F2400 X129.31 Y148.82
G1 F600 X127.58 Y147.10 E973.50894
G0 F2400 X127.68 Y146.63
G1 F600 X129.62 Y148.57 E973.55453
G0 F2400 X129.94 Y148.32
G1 F600 X127.79 Y146.17 E973.60507
G0 F2400 X127.91 Y145.73
G1 F600 X130.26 Y148.08 E973.66017
G0 F2400 X130.59 Y147.84
G1 F600 X128.04 Y145.29 E973.72018
G0 F2400 X128.17 Y144.86
G1 F600 X130.93 Y147.61 E973.78490
G0 F2400 X131.27 Y147.39
G1 F600 X128.32 Y144.44 E973.85438
G0 F2400 X128.46 Y144.02
G1 F600 X131.63 Y147.19 E973.92885
G0 F2400 X131.99 Y146.98
G1 F600 X128.61 Y143.60 E974.00833
G0 F2400 X128.77 Y143.19
G1 F600 X132.36 Y146.78 E974.09271
G0 F2400 X132.41 Y146.27
G1 F600 X128.94 Y142.79 E974.17444
G0 F2400 X129.10 Y142.40
G1 F600 X131.81 Y145.10 E974.23807
G0 F2400 X131.41 Y144.14
G1 F600 X129.27 Y142.00 E974.28840
G0 F2400 X129.44 Y141.60
G1 F600 X131.11 Y143.27 E974.32767
G0 F2400 X130.94 Y142.53
G1 F600 X129.63 Y141.22 E974.35850
G0 F2400 X129.82 Y140.85
G1 F600 X131.37 Y142.41 E974.39507
G0 F2400 X131.77 Y142.24
G1 F600 X130.01 Y140.47 E974.43652
G0 F2400 X130.21 Y140.11
G1 F600 X132.17 Y142.07 E974.48271
G0 F2400 X132.59 Y141.93
G1 F600 X130.42 Y139.75 E974.53393
G0 F2400 X130.63 Y139.40
G1 F600 X133.02 Y141.79 E974.59021
G0 F2400 X133.45 Y141.65
G1 F600 X130.84 Y139.04 E974.65158
G0 F2400 X131.05 Y138.69
G1 F600 X133.90 Y141.54 E974.71852
G0 F2400 X134.35 Y141.42
G1 F600 X131.28 Y138.35 E974.79072
G0 F2400 X131.51 Y138.02
G1 F600 X134.82 Y141.33 E974.86860
G0 F2400 X135.00 Y140.94
G1 F600 X131.74 Y137.68 E974.94525
G0 F2400 X131.98 Y137.35
G1 F600 X134.85 Y140.22 E975.01279
G0 F2400 X134.73 Y139.54
G1 F600 X132.23 Y137.03 E975.07161
G0 F2400 X132.47 Y136.72
G1 F600 X134.66 Y138.90 E975.12299
G0 F2400 X134.60 Y138.28
G1 F600 X132.72 Y136.40 E975.16715
G0 F2400 X132.98 Y136.09
G1 F600 X134.58 Y137.69 E975.20490
G0 F2400 X134.57 Y137.11
G1 F600 X133.24 Y135.79 E975.23605
G0 F2400 X133.51 Y135.49
G1 F600 X134.90 Y136.88 E975.26884
G0 F2400 X135.41 Y136.82
G1 F600 X133.77 Y135.19 E975.30737
G0 F2400 X134.05 Y134.89
G1 F600 X135.92 Y136.77 E975.35146
G0 F2400 X136.46 Y136.74
G1 F600 X134.33 Y134.61 E975.40161
G0 F2400 X134.61 Y134.33
G1 F600 X137.01 Y136.73 E975.45804
G0 F2400 X137.59 Y136.74
G1 F600 X134.89 Y134.05 E975.52132
G0 F2400 X135.19 Y133.77
G1 F600 X138.18 Y136.76 E975.59165
G0 F2400 X138.79 Y136.81
G1 F600 X135.49 Y133.51 E975.66945
G0 F2400 X135.79 Y133.24
G1 F600 X138.97 Y136.42 E975.74419
G0 F2400 X139.01 Y135.90
G1 F600 X136.09 Y132.98 E975.81283
G0 F2400 X136.40 Y132.72
G1 F600 X139.06 Y135.38 E975.87534
G0 F2400 X139.13 Y134.89
G1 F600 X136.72 Y132.47 E975.93208
G0 F2400 X137.03 Y132.23
G1 F600 X139.21 Y134.41 E975.98333
G0 F2400 X139.30 Y133.92
G1 F600 X137.35 Y131.98 E976.02905
G0 F2400 X137.68 Y131.74
G1 F600 X139.42 Y133.48 E976.06988
G0 F2400 X139.53 Y133.03
G1 F600 X138.02 Y131.51 E976.10553
G0 F2400 X138.36 Y131.28
G1 F600 X139.65 Y132.58 E976.13602
G0 F2400 X140.23 Y132.59
G1 F600 X138.69 Y131.06 E976.17219
G0 F2400 X139.04 Y130.84
G1 F600 X140.92 Y132.72 E976.21640
G0 F2400 X141.66 Y132.89
G1 F600 X139.40 Y130.63 E976.26967
G0 F2400 X139.75 Y130.42
G1 F600 X142.44 Y133.10 E976.33286
G0 F2400 X143.30 Y133.40
G1 F600 X140.11 Y130.21 E976.40800
G0 F2400 X140.48 Y130.01
G1 F600 X143.97 Y133.50 E976.49008
G0 F2400 X144.11 Y133.08
G1 F600 X140.85 Y129.82 E976.56664
G0 F2400 X141.22 Y129.63
G1 F600 X144.27 Y132.67 E976.63827
G0 F2400 X144.44 Y132.27
G1 F600 X141.61 Y129.45 E976.70465
G0 F2400 X142.00 Y129.28
G1 F600 X144.61 Y131.88 E976.76594
G0 F2400 X144.80 Y131.50
G1 F600 X142.39 Y129.10 E976.82250
G0 F2400 X142.78 Y128.93
G1 F600 X144.99 Y131.13 E976.87424
G0 F2400 X145.19 Y130.76
G1 F600 X143.20 Y128.77 E976.92102
G0 F2400 X143.61 Y128.62
G1 F600 X145.40 Y130.41 E976.96312
G0 F2400 X145.61 Y130.05
G1 F600 X144.02 Y128.46 E977.00051
G0 F2400 X144.43 Y128.31
G1 F600 X145.82 Y129.69 E977.03316
G0 F2400 X146.93 Y130.24
G1 F600 X144.86 Y128.17 E977.08183
G0 F2400 X145.29 Y128.04
G1 F600 X148.32 Y131.07 E977.15304
G0 F2400 X148.42 Y130.94
G0 X149.54 Y131.77
G0 X149.68 Y131.86
G1 F600 X145.73 Y127.91 E977.24574
G0 F2400 X146.17 Y127.79
G1 F600 X149.90 Y131.52 E977.33351
G0 F2400 X150.15 Y131.20
G1 F600 X146.63 Y127.68 E977.41628
G0 F2400 X147.10 Y127.58
G1 F600 X150.40 Y130.89 E977.49404
G0 F2400 X150.66 Y130.58
G1 F600 X147.57 Y127.49 E977.56671
G0 F2400 X148.05 Y127.41
G1 F600 X150.93 Y130.28 E977.63441
G0 F2400 X151.20 Y129.99
G1 F600 X148.53 Y127.32 E977.69717
G0 F2400 X149.02 Y127.24
G1 F600 X151.48 Y129.70 E977.75500
G0 F2400 X151.77 Y129.43
G1 F600 X149.52 Y127.17 E977.80808
G0 F2400 X150.03 Y127.12
G1 F600 X152.07 Y129.16 E977.85595
G0 F2400 X152.36 Y128.89
G1 F600 X150.55 Y127.07 E977.89859
G0 F2400 X151.08 Y127.04
G1 F600 X155.78 Y131.74 E978.00926
G0 F2400 X156.11 Y131.50
G1 F600 X151.63 Y127.02 E978.11467
G0 F2400 X152.18 Y127.00
G1 F600 X156.44 Y131.27 E978.21497
G0 F2400 X156.77 Y131.03
G1 F600 X152.74 Y127.00 E978.30987
G0 F2400 X153.32 Y127.02
G1 F600 X157.12 Y130.82 E978.39933
G0 F2400 X157.48 Y130.61
G1 F600 X153.91 Y127.03 E978.48334
G0 F2400 X154.52 Y127.08
G1 F600 X157.83 Y130.40 E978.56128
G0 F2400 X158.21 Y130.21
G1 F600 X155.14 Y127.14 E978.63341
G0 F2400 X155.77 Y127.20
G1 F600 X158.59 Y130.02 E978.69963
G0 F2400 X158.97 Y129.83
G1 F600 X156.44 Y127.31 E978.75895
G0 F2400 X157.12 Y127.42
G1 F600 X162.77 Y133.07 E978.89190
G0 F2400 X162.34 Y133.21
G1 F600 X159.76 Y130.63 E978.95255
G0 F2400 X160.39 Y131.82
G1 F600 X161.92 Y133.36 E978.98866
G0 F2400 X161.51 Y133.50
G1 F600 X160.81 Y132.81 E979.00491
G0 F2400 X160.97 Y132.75
G0 X163.18 Y132.80
G0 X163.22 Y132.96
G1 F600 X157.83 Y127.56 E979.13169
G0 F2400 X158.56 Y127.73
G1 F600 X163.67 Y132.84 E979.25187
G0 F2400 X164.13 Y132.74
G1 F600 X159.33 Y127.93 E979.36488
G0 F2400 X160.13 Y128.17
G1 F600 X164.61 Y132.65 E979.47018
G0 F2400 X165.09 Y132.56
G1 F600 X161.00 Y128.47 E979.56648
G0 F2400 X161.90 Y128.81
G1 F600 X169.99 Y136.90 E979.75670
G0 F2400 X169.36 Y136.83
G1 F600 X165.48 Y132.95 E979.84793
G0 F2400 X165.67 Y133.71
G1 F600 X168.75 Y136.78 E979.92020
G0 F2400 X168.16 Y136.76
G1 F600 X165.81 Y134.42 E979.97534
G0 F2400 X165.94 Y135.11
G1 F600 X167.59 Y136.76 E980.01412
G0 F2400 X167.04 Y136.78
G1 F600 X166.00 Y135.74 E980.03857
G0 F2400 X166.06 Y136.36
G1 F600 X166.51 Y136.81 E980.04915
G0 F2400 X166.49 Y136.66
G0 X169.06 Y136.54
G0 X170.78 Y136.79
G0 X170.62 Y137.37
G0 X170.46 Y137.37
G1 F600 X176.19 Y143.10 E980.18397
G0 F2400 X176.53 Y144.00
G1 F600 X170.44 Y137.91 E980.32722
G0 F2400 X170.42 Y138.46
G1 F600 X176.83 Y144.87 E980.47808
G0 F2400 X177.06 Y145.67
G1 F600 X174.11 Y142.72 E980.54754
G0 F2400 X173.97 Y142.58
G1 F600 X170.36 Y138.97 E980.63242
G0 F2400 X170.31 Y139.48
G1 F600 X173.01 Y142.18 E980.69599
G0 F2400 X172.14 Y141.87
G1 F600 X170.23 Y139.96 E980.74089
G0 F2400 X170.14 Y140.44
G1 F600 X171.32 Y141.62 E980.76868
G0 F2400 X170.57 Y141.44
G1 F600 X170.04 Y140.91 E980.78112
G0 F2400 X170.19 Y140.95
G0 X173.59 Y138.45
G0 X173.72 Y138.37
G1 F600 X166.63 Y131.27 E980.94789
G0 F2400 X166.54 Y131.41
G0 X165.07 Y130.50
G0 X165.15 Y130.36
G1 F600 X174.64 Y139.85 E981.17115
G0 F2400 X175.29 Y141.06
G1 F600 X163.93 Y129.71 E981.43820
G0 F2400 X162.87 Y129.21
G1 F600 X175.78 Y142.12 E981.74171
G0 F2400 X175.63 Y142.18
G0 X174.12 Y143.19
G0 X173.96 Y143.13
G1 F600 X177.27 Y146.44 E981.81946
G0 F2400 X177.43 Y147.17
G1 F600 X173.82 Y143.56 E981.90441
G0 F2400 X173.68 Y143.98
G1 F600 X177.56 Y147.86 E981.99569
G0 F2400 X177.68 Y148.55
G1 F600 X173.52 Y144.39 E982.09352
G0 F2400 X173.35 Y144.78
G1 F600 X177.80 Y149.23 E982.19805
G0 F2400 X177.86 Y149.86
G1 F600 X173.19 Y145.19 E982.30794
G0 F2400 X173.00 Y145.56
G1 F600 X177.92 Y150.48 E982.42368
G0 F2400 X177.94 Y151.07
G1 F600 X176.05 Y149.18 E982.46827
G0 F2400 X175.91 Y149.04
G1 F600 X172.80 Y145.93 E982.54137
G0 F2400 X172.61 Y146.30
G1 F600 X173.74 Y147.43 E982.56795
G0 F2400 X172.48 Y146.74
G1 F600 X172.39 Y146.65 E982.56993
G0 F2400 X172.55 Y146.71
G0 X175.92 Y149.57
G0 X175.79 Y149.48
G1 F600 X177.97 Y151.67 E982.62132
G0 F2400 X178.00 Y152.26
G1 F600 X175.56 Y149.82 E982.67878
G0 F2400 X175.32 Y150.15
G1 F600 X178.00 Y152.82 E982.74164
G0 F2400 X177.98 Y153.37
G1 F600 X175.08 Y150.48 E982.80977
G0 F2400 X174.83 Y150.79
G1 F600 X177.96 Y153.92 E982.88348
G0 F2400 X177.93 Y154.45
G1 F600 X174.58 Y151.10 E982.96227
G0 F2400 X174.32 Y151.41
G1 F600 X177.88 Y154.97 E983.04599
G0 F2400 X177.83 Y155.48
G1 F600 X174.04 Y151.70 E983.13506
G0 F2400 X173.76 Y151.99
G1 F600 X177.76 Y155.98 E983.22906
G0 F2400 X177.69 Y156.47
G1 F600 X173.48 Y152.27 E983.32791
G0 F2400 X173.59 Y152.39
G0 X174.65 Y153.77
G0 X174.52 Y153.87
G1 F600 X177.61 Y156.96 E983.40050
G0 F2400 X177.45 Y156.94
G0 X176.35 Y149.14
G0 X173.01 Y146.71
G0 X174.40 Y142.53
G0 X171.99 Y136.30
G0 X172.11 Y136.19
G1 F600 X168.82 Y132.90 E983.47802
G0 F2400 X168.71 Y133.01
G0 X170.78 Y136.79
G0 X174.40 Y142.53
G0 X176.35 Y149.14
G0 X176.28 Y155.96
G0 X174.38 Y162.56
G0 X170.63 Y168.27
G0 X165.47 Y172.78
G0 X159.23 Y175.61
G0 X152.46 Y176.53
G0 X149.31 Y173.38
G0 X149.21 Y173.25
G1 F600 X153.92 Y177.96 E983.58877
G0 F2400 X153.37 Y177.98
G1 F600 X148.89 Y173.50 E983.69421
G0 F2400 X148.98 Y173.63
G0 X145.64 Y175.59
G0 X139.44 Y172.72
G0 X136.28 Y171.97
G0 X136.17 Y172.09
G1 F600 X132.88 Y168.81 E983.77154
G0 F2400 X133.53 Y168.24
G1 F2400 E982.57154
G0 X159.35 Y152.48
;TYPE:WALL-OUTER
G1 F2400 E983.77154
G1 F600 X159.86 Y151.85 E983.78494
G1 X160.74 Y151.17 E983.80340
G1 X161.53 Y150.79 E983.81800
G1 X162.16 Y150.63 E983.82881
G1 X162.71 Y150.62 E983.83799
G1 X162.99 Y150.05 E983.84860
G1 X162.66 Y149.62 E983.85758
G1 X162.39 Y149.03 E983.86837
G1 X162.20 Y148.19 E983.88284
G1 X162.19 Y147.07 E983.90133
G1 X162.37 Y146.27 E983.91504
G1 X163.19 Y146.28 E983.92867
G1 X164.26 Y146.54 E983.94708
G1 X165.06 Y146.92 E983.96171
G1 X165.56 Y147.32 E983.97250
G1 X165.91 Y147.74 E983.98153
G1 X166.53 Y147.60 E983.99206
G1 X166.66 Y147.08 E984.00106
G1 X166.95 Y146.50 E984.01181
G1 X167.50 Y145.81 E984.02649
G1 X168.36 Y145.12 E984.04479
G1 X169.10 Y144.75 E984.05855
G1 X169.60 Y145.40 E984.07214
G1 X170.06 Y146.39 E984.09041
G1 X170.26 Y147.25 E984.10503
G1 X170.27 Y147.90 E984.11579
G1 X170.16 Y148.44 E984.12502
G1 X170.65 Y148.84 E984.13555
G1 X171.14 Y148.61 E984.14450
G1 X171.78 Y148.48 E984.15537
G1 X172.66 Y148.48 E984.16997
G1 X173.74 Y148.72 E984.18843
G1 X174.48 Y149.07 E984.20198
G1 X174.29 Y149.85 E984.21536
G1 X173.79 Y150.86 E984.23411
G1 X173.25 Y151.55 E984.24865
G1 X172.74 Y151.96 E984.25951
G1 X172.25 Y152.20 E984.26850
G1 X172.25 Y152.83 E984.27901
G1 X172.75 Y153.09 E984.28828
G1 X173.23 Y153.48 E984.29867
G1 X173.78 Y154.18 E984.31339
G1 X174.27 Y155.18 E984.33193
G1 X174.46 Y155.97 E984.34547
G1 X173.73 Y156.31 E984.35892
G1 X172.65 Y156.55 E984.37730
G1 X171.75 Y156.55 E984.39223
G1 X171.12 Y156.41 E984.40293
G1 X170.63 Y156.18 E984.41197
G1 X170.13 Y156.58 E984.42249
G1 X170.24 Y157.11 E984.43149
G1 X170.23 Y157.75 E984.44227
G1 X170.03 Y158.61 E984.45686
G1 X169.55 Y159.62 E984.47540
G1 X169.05 Y160.26 E984.48899
G1 X168.32 Y159.89 E984.50264
G1 X167.46 Y159.19 E984.52106
G1 X166.91 Y158.50 E984.53567
G1 X166.63 Y157.93 E984.54631
G1 X166.50 Y157.39 E984.55550
G1 X165.88 Y157.25 E984.56601
G1 X165.53 Y157.67 E984.57501
G1 X165.02 Y158.06 E984.58580
G1 X164.23 Y158.44 E984.60045
G1 X163.15 Y158.69 E984.61875
G1 X162.33 Y158.70 E984.63244
G1 X162.16 Y157.90 E984.64608
G1 X162.17 Y156.79 E984.66453
G1 X162.36 Y155.95 E984.67892
G1 X162.64 Y155.35 E984.68993
G1 X162.97 Y154.92 E984.69893
G1 X162.70 Y154.35 E984.70948
G1 X162.17 Y154.34 E984.71830
G1 X161.53 Y154.18 E984.72928
G1 X160.75 Y153.80 E984.74376
G1 X159.87 Y153.11 E984.76238
G1 X159.35 Y152.48 E984.77595
G0 F2400 X159.54 Y152.47
;TYPE:FILL
G1 F600 X160.50 Y153.43 E984.79869
G0 F2400 X161.72 Y154.09
G1 F600 X159.79 Y152.16 E984.84408
G0 F2400 X160.07 Y151.87
G1 F600 X162.40 Y154.20 E984.89895
G0 F2400 X163.14 Y154.93
G1 F600 X165.59 Y157.38 E984.95656
G0 F2400 X165.87 Y157.10
G1 F600 X160.39 Y151.62 E985.08551
G0 F2400 X160.71 Y151.37
G1 F600 X169.19 Y159.85 E985.28499
G0 F2400 X169.44 Y159.54
G1 F600 X161.07 Y151.17 E985.48183
G0 F2400 X161.45 Y150.98
G1 F600 X169.62 Y159.15 E985.67400
G0 F2400 X169.80 Y158.77
G1 F600 X161.88 Y150.85 E985.86036
G0 F2400 X162.37 Y150.77
G1 F600 X169.95 Y158.35 E986.03866
G0 F2400 X170.05 Y157.89
G1 F600 X162.84 Y150.68 E986.20832
G0 F2400 X163.03 Y150.30
G1 F600 X170.09 Y157.37 E986.37460
G0 F2400 X170.02 Y156.72
G1 F600 X162.72 Y149.43 E986.54613
G0 F2400 X162.42 Y148.56
G1 F600 X170.20 Y156.34 E986.72900
G0 F2400 X170.52 Y156.09
G1 F600 X162.34 Y147.91 E986.92141
G0 F2400 X162.33 Y147.34
G1 F600 X171.30 Y156.31 E987.13224
G0 F2400 X171.97 Y156.41
G1 F600 X162.39 Y146.83 E987.35752
G0 F2400 X162.53 Y146.41
G1 F600 X172.53 Y156.41 E987.59266
G0 F2400 X173.01 Y156.32
G1 F600 X163.11 Y146.42 E987.82561
G0 F2400 X163.83 Y146.58
G1 F600 X173.47 Y156.22 E988.05235
G0 F2400 X173.90 Y156.08
G1 F600 X164.75 Y146.93 E988.26755
G0 F2400 X164.68 Y147.07
G0 X165.77 Y148.15
G0 X166.23 Y147.97
G0 X166.20 Y147.82
G1 F600 X174.28 Y155.90 E988.45761
G0 F2400 X174.10 Y155.15
G1 F600 X166.65 Y147.70 E988.63291
G0 F2400 X166.76 Y147.24
G1 F600 X172.11 Y152.60 E988.75885
G0 F2400 X172.17 Y152.09
G1 F600 X166.93 Y146.85 E988.88206
G0 F2400 X167.13 Y146.49
G1 F600 X172.54 Y151.90 E989.00933
G0 F2400 X172.88 Y151.66
G1 F600 X167.39 Y146.17 E989.13850
G0 F2400 X167.65 Y145.87
G1 F600 X170.05 Y148.27 E989.19494
G0 F2400 X170.13 Y147.78
G1 F600 X167.96 Y145.62 E989.24586
G0 F2400 X168.28 Y145.37
G1 F600 X170.10 Y147.19 E989.28881
G0 F2400 X169.94 Y146.46
G1 F600 X168.62 Y145.15 E989.31972
G0 F2400 X169.00 Y144.96
G1 F600 X169.36 Y145.32 E989.32828
G0 F2400 X169.24 Y145.42
G0 X169.75 Y148.59
G0 X170.60 Y149.27
G0 X171.19 Y148.92
G0 X171.12 Y148.78
G1 F600 X173.43 Y151.09 E989.38268
G0 F2400 X173.68 Y150.77
G1 F600 X171.57 Y148.66 E989.43222
G0 F2400 X172.09 Y148.62
G1 F600 X173.87 Y150.39 E989.47394
G0 F2400 X174.05 Y150.01
G1 F600 X172.67 Y148.63 E989.50651
G0 F2400 X173.40 Y148.79
G1 F600 X174.21 Y149.60 E989.52554
G0 F2400 X174.05 Y149.56
G0 X173.06 Y151.30
G0 X173.18 Y151.40
G1 F600 X170.73 Y148.95 E989.58318
G0 F2400 X170.80 Y149.10
G0 X171.88 Y153.05
G0 X172.84 Y153.55
G0 X172.95 Y153.43
G1 F600 X173.26 Y153.75 E989.59058
G0 F2400 X173.14 Y153.84
G0 X169.72 Y156.43
G0 X168.76 Y159.78
G0 X168.69 Y159.92
G1 F600 X166.87 Y158.10 E989.63338
G0 F2400 X167.01 Y158.03
G0 X166.80 Y157.08
G0 X165.74 Y156.84
G0 X165.21 Y157.54
G0 X165.30 Y157.67
G1 F600 X162.89 Y155.25 E989.69011
G0 F2400 X162.68 Y155.60
G1 F600 X164.98 Y157.91 E989.74441
G0 F2400 X164.61 Y158.10
G1 F600 X162.50 Y155.99 E989.79412
G0 F2400 X162.39 Y156.45
G1 F600 X164.22 Y158.28 E989.83728
G0 F2400 X163.78 Y158.40
G1 F600 X162.31 Y156.93 E989.87180
G0 F2400 X162.30 Y157.49
G1 F600 X163.32 Y158.51 E989.89567
G0 F2400 X162.80 Y158.56
G1 F600 X162.34 Y158.10 E989.90635
G0 F2400 X163.13 Y157.67
G1 F2400 E988.70635
G0 X159.37 Y159.48
;TYPE:WALL-OUTER
G1 F2400 E989.90635
G1 F600 X159.83 Y160.47 E989.92460
G1 X160.03 Y161.33 E989.93926
G1 X160.04 Y161.98 E989.95006
G1 X159.93 Y162.52 E989.95922
G1 X160.42 Y162.92 E989.96981
G1 X160.92 Y162.69 E989.97887
G1 X161.54 Y162.56 E989.98952
G1 X162.43 Y162.56 E990.00422
G1 X163.51 Y162.80 E990.02266
G1 X164.25 Y163.15 E990.03621
G1 X164.06 Y163.93 E990.04960
G1 X163.56 Y164.94 E990.06834
G1 X163.02 Y165.63 E990.08289
G1 X162.51 Y166.04 E990.09375
G1 X162.02 Y166.28 E990.10275
G1 X162.02 Y166.91 E990.11328
G1 X162.52 Y167.17 E990.12254
G1 X163.00 Y167.56 E990.13295
G1 X163.55 Y168.26 E990.14770
G1 X164.04 Y169.26 E990.16615
G1 X164.23 Y170.05 E990.17975
G1 X163.50 Y170.39 E990.19312
G1 X162.42 Y170.63 E990.21155
G1 X161.52 Y170.63 E990.22648
G1 X160.89 Y170.49 E990.23721
G1 X160.40 Y170.26 E990.24626
G1 X159.90 Y170.66 E990.25678
G1 X160.01 Y171.19 E990.26577
G1 X160.00 Y171.84 E990.27655
G1 X159.80 Y172.69 E990.29115
G1 X159.32 Y173.70 E990.30967
G1 X158.82 Y174.34 E990.32326
G1 X158.09 Y173.97 E990.33690
G1 X157.23 Y173.27 E990.35532
G1 X156.68 Y172.58 E990.36993
G1 X156.40 Y172.01 E990.38057
G1 X156.27 Y171.47 E990.38972
G1 X155.65 Y171.33 E990.40028
G1 X155.30 Y171.75 E990.40931
G1 X154.79 Y172.14 E990.41997
G1 X154.00 Y172.52 E990.43469
G1 X152.92 Y172.77 E990.45298
G1 X152.10 Y172.78 E990.46665
G1 X151.93 Y171.98 E990.48031
G1 X151.94 Y170.87 E990.49876
G1 X152.13 Y170.03 E990.51315
G1 X152.41 Y169.43 E990.52418
G1 X152.74 Y169.00 E990.53313
G1 X152.47 Y168.43 E990.54365
G1 X151.94 Y168.42 E990.55244
G1 X151.30 Y168.26 E990.56344
G1 X150.52 Y167.88 E990.57793
G1 X149.64 Y167.19 E990.59655
G1 X149.12 Y166.56 E990.61011
G1 X149.63 Y165.93 E990.62351
G1 X150.51 Y165.25 E990.64199
G1 X151.30 Y164.87 E990.65654
G1 X151.93 Y164.72 E990.66731
G1 X152.49 Y164.70 E990.67661
G1 X152.76 Y164.13 E990.68712
G1 X152.43 Y163.71 E990.69606
G1 X152.16 Y163.11 E990.70690
G1 X151.97 Y162.27 E990.72135
G1 X151.96 Y161.15 E990.73984
G1 X152.14 Y160.35 E990.75357
G1 X152.95 Y160.36 E990.76713
G1 X154.03 Y160.62 E990.78566
G1 X154.82 Y161.00 E990.80024
G1 X155.33 Y161.40 E990.81102
G1 X155.68 Y161.82 E990.82005
G1 X156.30 Y161.68 E990.83061
G1 X156.43 Y161.16 E990.83962
G1 X156.72 Y160.58 E990.85036
G1 X157.27 Y159.89 E990.86506
G1 X158.13 Y159.20 E990.88336
G1 X158.87 Y158.83 E990.89710
G1 X159.37 Y159.48 E990.91069
G0 F2400 X159.18 Y159.46
;TYPE:FILL
G1 F600 X158.76 Y159.04 E990.92061
G0 F2400 X158.38 Y159.23
G1 F600 X159.71 Y160.56 E990.95187
G0 F2400 X159.88 Y161.29
G1 F600 X158.04 Y159.45 E990.99520
G0 F2400 X157.72 Y159.70
G1 F600 X159.90 Y161.88 E991.04638
G0 F2400 X159.82 Y162.36
G1 F600 X157.41 Y159.96 E991.10299
G0 F2400 X157.15 Y160.26
G1 F600 X162.64 Y165.75 E991.23214
G0 F2400 X162.95 Y165.49
G1 F600 X160.49 Y163.04 E991.28982
G0 F2400 X160.88 Y162.86
G1 F600 X163.20 Y165.18 E991.34429
G0 F2400 X163.45 Y164.86
G1 F600 X161.33 Y162.75 E991.39405
G0 F2400 X161.85 Y162.70
G1 F600 X163.63 Y164.48 E991.43603
G0 F2400 X163.82 Y164.10
G1 F600 X162.42 Y162.70 E991.46896
G0 F2400 X163.15 Y162.87
G1 F600 X163.97 Y163.69 E991.48834
G0 F2400 X163.82 Y163.65
G0 X162.24 Y165.84
G0 X162.31 Y165.98
G1 F600 X156.90 Y160.57 E991.61553
G0 F2400 X156.69 Y160.94
G1 F600 X161.93 Y166.17 E991.73862
G0 F2400 X161.88 Y166.69
G1 F600 X156.53 Y161.34 E991.86461
G0 F2400 X156.42 Y161.79
G1 F600 X163.88 Y169.26 E992.04025
G0 F2400 X164.04 Y169.98
G1 F600 X155.96 Y161.90 E992.23035
G0 F2400 X155.99 Y162.06
G0 X155.54 Y162.23
G0 X154.41 Y161.13
G0 X154.49 Y160.99
G1 F600 X163.66 Y170.16 E992.44601
G0 F2400 X163.23 Y170.30
G1 F600 X153.59 Y160.66 E992.67289
G0 F2400 X152.86 Y160.50
G1 F600 X162.77 Y170.41 E992.90588
G0 F2400 X162.28 Y170.49
G1 F600 X152.29 Y160.49 E993.14103
G0 F2400 X152.16 Y160.92
G1 F600 X161.72 Y170.49 E993.36601
G0 F2400 X161.05 Y170.38
G1 F600 X152.10 Y161.44 E993.57640
G0 F2400 X152.11 Y162.00
G1 F600 X160.28 Y170.18 E993.76857
G0 F2400 X159.96 Y170.43
G1 F600 X152.20 Y162.66 E993.95115
G0 F2400 X152.51 Y163.54
G1 F600 X159.79 Y170.82 E994.12245
G0 F2400 X159.87 Y171.46
G1 F600 X152.79 Y164.39 E994.28886
G0 F2400 X152.61 Y164.77
G1 F600 X159.82 Y171.98 E994.45852
G0 F2400 X159.72 Y172.44
G1 F600 X152.12 Y164.85 E994.63710
G0 F2400 X151.63 Y164.93
G1 F600 X159.56 Y172.86 E994.82360
G0 F2400 X159.38 Y173.24
G1 F600 X151.21 Y165.07 E995.01589
G0 F2400 X150.83 Y165.25
G1 F600 X159.20 Y173.63 E995.21285
G0 F2400 X158.95 Y173.94
G1 F600 X156.39 Y171.38 E995.27315
G0 F2400 X156.36 Y171.35
G1 F600 X150.47 Y165.46 E995.41175
G0 F2400 X150.15 Y165.71
G1 F600 X155.63 Y171.18 E995.54054
G0 F2400 X155.35 Y171.47
G1 F600 X152.90 Y169.02 E995.59811
G0 F2400 X152.65 Y169.34
G1 F600 X155.06 Y171.75 E995.65481
G0 F2400 X154.75 Y172.00
G1 F600 X152.44 Y169.69 E995.70903
G0 F2400 X152.26 Y170.08
G1 F600 X154.37 Y172.19 E995.75856
G0 F2400 X153.99 Y172.37
G1 F600 X152.16 Y170.54 E995.80153
G0 F2400 X152.08 Y171.03
G1 F600 X153.53 Y172.49 E995.83577
G0 F2400 X153.07 Y172.59
G1 F600 X152.07 Y171.59 E995.85937
G0 F2400 X152.12 Y172.20
G1 F600 X152.55 Y172.64 E995.86961
G0 F2400 X152.55 Y172.48
G0 X155.51 Y170.92
G0 X156.57 Y171.16
G0 X156.80 Y172.14
G0 X156.66 Y172.21
G1 F600 X158.43 Y173.99 E995.91133
G0 F2400 X158.50 Y173.84
G0 X159.50 Y170.51
G0 X160.35 Y169.83
G0 X162.96 Y168.00
G0 X163.09 Y167.90
G1 F600 X162.63 Y167.44 E995.92210
G0 F2400 X162.53 Y167.57
G0 X152.16 Y168.12
G0 X152.16 Y168.28
G1 F600 X149.83 Y165.96 E995.97680
G0 F2400 X149.56 Y166.25
G1 F600 X151.47 Y168.16 E996.02184
G0 F2400 X150.20 Y167.46
G1 F600 X149.30 Y166.56 E996.04296
G0 F2400 X150.42 Y166.53
G1 F2400 E994.84296
G0 X149.11 Y160.76
;TYPE:WALL-OUTER
G1 F2400 E996.04296
G1 F600 X148.99 Y160.49 E996.04780
G1 X148.73 Y160.07 E996.05601
G1 X148.61 Y159.56 E996.06468
G1 X148.42 Y159.04 E996.07387
G1 X148.41 Y159.02 E996.07427
G1 X148.39 Y158.59 E996.08136
G1 X148.31 Y158.13 E996.08924
G1 X148.36 Y157.80 E996.09479
G1 X148.37 Y157.42 E996.10103
G1 X148.43 Y157.25 E996.10412
G1 X148.50 Y156.90 E996.11000
G1 X148.12 Y156.52 E996.11890
G1 X147.59 Y156.66 E996.12797
G1 X147.26 Y156.67 E996.13351
G1 X146.90 Y156.72 E996.13965
G1 X146.47 Y156.65 E996.14672
G1 X146.00 Y156.62 E996.15460
G1 X145.51 Y156.44 E996.16328
G1 X144.95 Y156.31 E996.17286
G1 X144.57 Y156.08 E996.18029
G1 X144.26 Y155.94 E996.18590
G1 X144.37 Y155.66 E996.19075
G1 X144.48 Y155.19 E996.19892
G1 X144.75 Y154.74 E996.20760
G1 X145.00 Y154.22 E996.21718
G1 X145.28 Y153.90 E996.22430
G1 X145.56 Y153.52 E996.23218
G1 X145.82 Y153.32 E996.23772
G1 X146.09 Y153.06 E996.24394
G1 X146.55 Y152.79 E996.25272
G1 X146.57 Y152.53 E996.25722
G1 X146.55 Y152.24 E996.26200
G1 X146.09 Y151.98 E996.27079
G1 X145.85 Y151.74 E996.27641
G1 X145.56 Y151.52 E996.28255
G1 X145.31 Y151.17 E996.28969
G1 X144.99 Y150.82 E996.29759
G1 X144.77 Y150.35 E996.30620
G1 X144.48 Y149.88 E996.31541
G1 X144.47 Y149.86 E996.31574
G1 X144.36 Y149.42 E996.32322
G1 X144.24 Y149.11 E996.32882
G1 X144.51 Y148.99 E996.33366
G1 X144.93 Y148.73 E996.34187
G1 X145.44 Y148.61 E996.35054
G1 X145.96 Y148.42 E996.35973
G1 X145.98 Y148.41 E996.36013
G1 X146.41 Y148.39 E996.36722
G1 X146.87 Y148.31 E996.37509
G1 X147.20 Y148.36 E996.38065
G1 X147.58 Y148.37 E996.38689
G1 X147.75 Y148.43 E996.38998
G1 X148.10 Y148.50 E996.39586
G1 X148.48 Y148.12 E996.40476
G1 X148.34 Y147.59 E996.41382
G1 X148.33 Y147.26 E996.41936
G1 X148.28 Y146.90 E996.42550
G1 X148.35 Y146.47 E996.43258
G1 X148.38 Y146.00 E996.44046
G1 X148.56 Y145.51 E996.44914
G1 X148.69 Y144.95 E996.45872
G1 X148.92 Y144.57 E996.46615
G1 X149.06 Y144.26 E996.47176
G1 X149.34 Y144.37 E996.47661
G1 X149.81 Y144.48 E996.48478
G1 X150.26 Y144.75 E996.49346
G1 X150.78 Y145.00 E996.50304
G1 X151.10 Y145.28 E996.51015
G1 X151.48 Y145.56 E996.51804
G1 X151.68 Y145.82 E996.52358
G1 X151.94 Y146.09 E996.52980
G1 X152.21 Y146.55 E996.53858
G1 X152.47 Y146.57 E996.54307
G1 X152.76 Y146.55 E996.54785
G1 X153.02 Y146.09 E996.55665
G1 X153.26 Y145.85 E996.56227
G1 X153.48 Y145.56 E996.56841
G1 X153.83 Y145.31 E996.57554
G1 X154.18 Y144.99 E996.58345
G1 X154.65 Y144.77 E996.59206
G1 X155.12 Y144.48 E996.60127
G1 X155.14 Y144.47 E996.60160
G1 X155.58 Y144.36 E996.60908
G1 X155.89 Y144.24 E996.61468
G1 X156.01 Y144.51 E996.61952
G1 X156.27 Y144.93 E996.62773
G1 X156.39 Y145.44 E996.63640
G1 X156.58 Y145.96 E996.64559
G1 X156.59 Y145.98 E996.64599
G1 X156.61 Y146.41 E996.65308
G1 X156.69 Y146.87 E996.66095
G1 X156.64 Y147.20 E996.66651
G1 X156.63 Y147.58 E996.67275
G1 X156.57 Y147.75 E996.67584
G1 X156.50 Y148.10 E996.68172
G1 X156.88 Y148.48 E996.69062
G1 X157.41 Y148.34 E996.69968
G1 X157.74 Y148.33 E996.70522
G1 X158.10 Y148.28 E996.71136
G1 X158.53 Y148.35 E996.71844
G1 X159.00 Y148.38 E996.72632
G1 X159.49 Y148.56 E996.73499
G1 X160.05 Y148.69 E996.74457
G1 X160.43 Y148.92 E996.75200
G1 X160.74 Y149.06 E996.75762
G1 X160.63 Y149.34 E996.76247
G1 X160.52 Y149.81 E996.77064
G1 X160.25 Y150.26 E996.77932
G1 X160.00 Y150.78 E996.78890
G1 X159.72 Y151.10 E996.79601
G1 X159.44 Y151.48 E996.80389
G1 X159.18 Y151.68 E996.80944
G1 X158.91 Y151.94 E996.81566
G1 X158.45 Y152.21 E996.82444
G1 X158.43 Y152.47 E996.82893
G1 X158.45 Y152.76 E996.83371
G1 X158.91 Y153.02 E996.84251
G1 X159.15 Y153.26 E996.84813
G1 X159.44 Y153.48 E996.85426
G1 X159.69 Y153.83 E996.86140
G1 X160.01 Y154.18 E996.86930
G1 X160.23 Y154.65 E996.87791
G1 X160.52 Y155.12 E996.88713
G1 X160.53 Y155.14 E996.88746
G1 X160.64 Y155.58 E996.89494
G1 X160.76 Y155.89 E996.90054
G1 X160.49 Y156.01 E996.90538
G1 X160.07 Y156.27 E996.91359
G1 X159.56 Y156.39 E996.92226
G1 X159.04 Y156.58 E996.93145
G1 X159.02 Y156.59 E996.93184
G1 X158.59 Y156.61 E996.93894
G1 X158.13 Y156.69 E996.94681
G1 X157.80 Y156.64 E996.95237
G1 X157.42 Y156.63 E996.95861
G1 X157.25 Y156.57 E996.96170
G1 X156.90 Y156.50 E996.96758
G1 X156.52 Y156.88 E996.97648
G1 X156.66 Y157.41 E996.98554
G1 X156.67 Y157.74 E996.99108
G1 X156.72 Y158.10 E996.99722
G1 X156.65 Y158.53 E997.00430
G1 X156.62 Y159.00 E997.01218
G1 X156.44 Y159.49 E997.02085
G1 X156.31 Y160.05 E997.03043
G1 X156.08 Y160.43 E997.03786
G1 X155.94 Y160.74 E997.04347
G1 X155.66 Y160.63 E997.04833
G1 X155.19 Y160.52 E997.05649
G1 X154.74 Y160.25 E997.06518
G1 X154.22 Y160.00 E997.07476
G1 X153.90 Y159.72 E997.08187
G1 X153.52 Y159.44 E997.08975
G1 X153.32 Y159.18 E997.09530
G1 X153.06 Y158.91 E997.10152
G1 X152.79 Y158.45 E997.11029
G1 X152.53 Y158.43 E997.11479
G1 X152.24 Y158.45 E997.11957
G1 X151.98 Y158.91 E997.12837
G1 X151.74 Y159.15 E997.13399
G1 X151.52 Y159.44 E997.14012
G1 X151.17 Y159.69 E997.14726
G1 X150.82 Y160.01 E997.15516
G1 X150.35 Y160.23 E997.16377
G1 X149.88 Y160.52 E997.17299
G1 X149.86 Y160.53 E997.17332
G1 X149.42 Y160.64 E997.18080
G1 X149.11 Y160.76 E997.18639
G0 F2400 X149.30 Y160.45
G0 X150.19 Y156.19
G0 X150.45 Y156.05
G1 F600 X154.54 Y156.05 E997.25443
G1 X156.54 Y152.61 E997.32060
G1 X156.60 Y152.50 E997.32269
G1 X154.55 Y148.95 E997.39074
G1 X150.46 Y148.95 E997.45888
G1 X148.40 Y152.50 E997.52701
G1 X150.39 Y155.94 E997.59304
G1 X150.45 Y156.05 E997.59517
G0 F2400 X150.81 Y156.19
;TYPE:FILL
G1 F600 X154.69 Y160.06 E997.68633
G0 F2400 X155.69 Y160.50
G1 F600 X151.38 Y156.19 E997.78763
G0 F2400 X151.94 Y156.19
G1 F600 X156.02 Y160.26 E997.88341
G0 F2400 X156.20 Y159.88
G1 F600 X152.51 Y156.19 E997.97027
G0 F2400 X153.08 Y156.19
G1 F600 X156.31 Y159.43 E998.04643
G0 F2400 X156.47 Y159.01
G1 F600 X153.64 Y156.19 E998.11286
G0 F2400 X154.21 Y156.19
G1 F600 X156.51 Y158.49 E998.16702
G0 F2400 X156.56 Y157.97
G1 F600 X154.68 Y156.09 E998.21131
G0 F2400 X154.88 Y155.73
G1 F600 X156.50 Y157.35 E998.24936
G0 F2400 X156.46 Y156.74
G1 F600 X155.09 Y155.37 E998.28152
G0 F2400 X155.30 Y155.02
G1 F600 X156.74 Y156.46 E998.31544
G0 F2400 X157.29 Y156.44
G1 F600 X155.51 Y154.66 E998.35731
G0 F2400 X155.71 Y154.30
G1 F600 X157.93 Y156.52 E998.40949
G0 F2400 X158.47 Y156.49
G1 F600 X155.92 Y153.94 E998.46938
G0 F2400 X156.13 Y153.59
G1 F600 X158.99 Y156.45 E998.53671
G0 F2400 X159.41 Y156.30
G1 F600 X156.34 Y153.23 E998.60889
G0 F2400 X156.55 Y152.87
G1 F600 X159.85 Y156.18 E998.68664
G0 F2400 X160.24 Y156.00
G1 F600 X156.75 Y152.51 E998.76874
G0 F2400 X156.89 Y152.59
G0 X156.15 Y151.12
G0 X156.01 Y151.20
G1 F600 X160.55 Y155.74 E998.87553
G0 F2400 X160.12 Y154.75
G1 F600 X155.24 Y149.86 E998.99039
G0 F2400 X154.19 Y148.81
G1 F600 X150.31 Y144.93 E999.08162
G0 F2400 X149.31 Y144.50
G1 F600 X153.62 Y148.81 E999.18300
G0 F2400 X153.06 Y148.81
G1 F600 X148.98 Y144.74 E999.27881
G0 F2400 X148.79 Y145.12
G1 F600 X152.49 Y148.81 E999.36570
G0 F2400 X151.92 Y148.81
G1 F600 X148.68 Y145.57 E999.44190
G0 F2400 X148.53 Y145.99
G1 F600 X151.36 Y148.81 E999.50833
G0 F2400 X150.79 Y148.81
G1 F600 X148.49 Y146.51 E999.56251
G0 F2400 X148.44 Y147.03
G1 F600 X150.32 Y148.91 E999.60670
G0 F2400 X150.11 Y149.26
G1 F600 X148.50 Y147.65 E999.64466
G0 F2400 X148.54 Y148.26
G1 F600 X149.91 Y149.62 E999.67677
G0 F2400 X149.70 Y149.98
G1 F600 X148.26 Y148.54 E999.71063
G0 F2400 X147.71 Y148.56
G1 F600 X149.49 Y150.34 E999.75246
G0 F2400 X149.28 Y150.70
G1 F600 X147.07 Y148.48 E999.80459
G0 F2400 X146.53 Y148.51
G1 F600 X149.07 Y151.05 E999.86443
G0 F2400 X148.87 Y151.41
G1 F600 X146.01 Y148.55 E999.93173
G0 F2400 X145.59 Y148.70
G1 F600 X148.66 Y151.77 E1000.00388
G0 F2400 X148.45 Y152.13
G1 F600 X145.15 Y148.82 E1000.08161
G0 F2400 X144.76 Y149.00
G1 F600 X148.25 Y152.49 E1000.16367
G0 F2400 X148.11 Y152.41
G0 X148.85 Y153.88
G0 X148.99 Y153.80
G1 F600 X144.45 Y149.26 E1000.27058
G0 F2400 X144.88 Y150.25
G1 F600 X149.76 Y155.14 E1000.38554
G0 F2400 X149.62 Y155.22
G0 X148.13 Y156.21
G0 X148.16 Y156.36
G1 F600 X145.56 Y153.76 E1000.44678
G0 F2400 X145.84 Y153.48
G1 F600 X151.54 Y159.18 E1000.58092
G0 F2400 X151.26 Y159.46
G1 F600 X148.65 Y156.85 E1000.64219
G0 F2400 X148.55 Y157.32
G1 F600 X150.94 Y159.71 E1000.69847
G0 F2400 X150.62 Y159.95
G1 F600 X148.50 Y157.83 E1000.74833
G0 F2400 X148.50 Y158.40
G1 F600 X150.23 Y160.13 E1000.78913
G0 F2400 X149.88 Y160.35
G1 F600 X148.56 Y159.03 E1000.82010
G0 F2400 X148.82 Y159.85
G1 F600 X149.45 Y160.48 E1000.83491
G1 F2400 E999.63491
G0 X151.81 Y158.88
G1 F2400 E1000.83491
G1 F600 X146.14 Y153.21 E1000.96828
G0 F2400 X146.49 Y152.99
G1 F600 X152.03 Y158.53 E1001.09858
G0 F2400 X152.36 Y158.30
G1 F600 X146.70 Y152.64 E1001.23162
G0 F2400 X146.86 Y152.65
G0 X146.92 Y153.02
G0 X145.43 Y154.19
G0 X145.31 Y154.08
G1 F600 X147.71 Y156.48 E1001.28813
G0 F2400 X147.20 Y156.53
G1 F600 X145.07 Y154.40 E1001.33826
G0 F2400 X144.89 Y154.79
G1 F600 X146.63 Y156.53 E1001.37923
G0 F2400 X146.01 Y156.47
G1 F600 X144.68 Y155.14 E1001.41058
G0 F2400 X144.53 Y155.56
G1 F600 X145.19 Y156.22 E1001.42599
G0 F2400 X145.22 Y156.07
G0 X150.24 Y148.58
G0 X152.65 Y146.86
G0 X152.64 Y146.70
G1 F600 X158.30 Y152.36 E1001.55904
G0 F2400 X158.51 Y152.01
G1 F600 X152.97 Y146.47 E1001.68935
G0 F2400 X153.19 Y146.12
G1 F600 X158.86 Y151.79 E1001.82272
G0 F2400 X159.16 Y151.52
G1 F600 X153.45 Y145.82 E1001.95685
G0 F2400 X153.74 Y145.54
G1 F600 X156.35 Y148.15 E1002.01811
G0 F2400 X156.45 Y147.68
G1 F600 X154.06 Y145.29 E1002.07439
G0 F2400 X154.38 Y145.05
G1 F600 X156.50 Y147.17 E1002.12426
G0 F2400 X156.50 Y146.60
G1 F600 X154.76 Y144.87 E1002.16508
G0 F2400 X155.12 Y144.65
G1 F600 X156.43 Y145.97 E1002.19605
G0 F2400 X156.17 Y145.14
G1 F600 X155.54 Y144.51 E1002.21085
G0 F2400 X155.58 Y144.67
G0 X156.09 Y148.22
G0 X156.87 Y148.79
G0 X156.84 Y148.63
G1 F600 X159.44 Y151.24 E1002.27211
G0 F2400 X159.69 Y150.92
G1 F600 X157.28 Y148.52 E1002.32860
G0 F2400 X157.80 Y148.47
G1 F600 X159.93 Y150.60 E1002.37873
G0 F2400 X160.11 Y150.21
G1 F600 X158.37 Y148.47 E1002.41971
G0 F2400 X158.99 Y148.53
G1 F600 X160.32 Y149.86 E1002.45106
G0 F2400 X160.47 Y149.43
G1 F600 X159.81 Y148.78 E1002.46647
G0 F2400 X159.50 Y149.55
G1 F2400 E1001.26647
G0 X147.69 Y157.77
;TYPE:WALL-OUTER
G1 F2400 E1002.46647
G1 F600 X147.51 Y158.55 E1002.47986
G1 X147.01 Y159.57 E1002.49861
G1 X146.46 Y160.25 E1002.51319
G1 X145.96 Y160.66 E1002.52396
G1 X145.47 Y160.90 E1002.53301
G1 X145.47 Y161.53 E1002.54352
G1 X145.97 Y161.79 E1002.55278
G1 X146.45 Y162.19 E1002.56323
G1 X147.00 Y162.88 E1002.57789
G1 X147.49 Y163.88 E1002.59637
G1 X147.68 Y164.68 E1002.61000
G1 X146.95 Y165.01 E1002.62334
G1 X145.87 Y165.25 E1002.64179
G1 X144.97 Y165.25 E1002.65671
G1 X144.34 Y165.11 E1002.66746
G1 X143.84 Y164.88 E1002.67648
G1 X143.35 Y165.28 E1002.68703
G1 X143.46 Y165.81 E1002.69605
G1 X143.45 Y166.46 E1002.70679
G1 X143.25 Y167.31 E1002.72141
G1 X142.77 Y168.32 E1002.73992
G1 X142.27 Y168.96 E1002.75352
G1 X141.53 Y168.59 E1002.76716
G1 X140.68 Y167.89 E1002.78560
G1 X140.13 Y167.21 E1002.80019
G1 X139.85 Y166.63 E1002.81084
G1 X139.72 Y166.10 E1002.81998
G1 X139.10 Y165.95 E1002.83057
G1 X138.75 Y166.37 E1002.83951
G1 X138.24 Y166.77 E1002.85032
G1 X137.44 Y167.15 E1002.86498
G1 X136.37 Y167.39 E1002.88328
G1 X135.55 Y167.40 E1002.89697
G1 X135.38 Y166.60 E1002.91062
G1 X135.39 Y165.49 E1002.92906
G1 X135.58 Y164.65 E1002.94345
G1 X135.86 Y164.05 E1002.95447
G1 X136.19 Y163.62 E1002.96348
G1 X135.92 Y163.05 E1002.97403
G1 X135.39 Y163.04 E1002.98286
G1 X134.75 Y162.89 E1002.99384
G1 X133.96 Y162.50 E1003.00831
G1 X133.09 Y161.81 E1003.02692
G1 X132.57 Y161.18 E1003.04050
G1 X133.08 Y160.56 E1003.05390
G1 X133.96 Y159.87 E1003.07236
G1 X134.75 Y159.49 E1003.08695
G1 X135.37 Y159.34 E1003.09767
G1 X135.93 Y159.33 E1003.10699
G1 X136.21 Y158.75 E1003.11752
G1 X135.88 Y158.32 E1003.12652
G1 X135.61 Y157.74 E1003.13726
G1 X135.42 Y156.89 E1003.15179
G1 X135.41 Y155.78 E1003.17027
G1 X135.58 Y154.97 E1003.18400
G1 X136.40 Y154.98 E1003.19764
G1 X137.48 Y155.24 E1003.21605
G1 X138.27 Y155.62 E1003.23069
G1 X138.78 Y156.03 E1003.24153
G1 X139.13 Y156.44 E1003.25048
G1 X139.75 Y156.30 E1003.26102
G1 X139.88 Y155.78 E1003.27001
G1 X140.16 Y155.20 E1003.28074
G1 X140.72 Y154.51 E1003.29544
G1 X141.58 Y153.82 E1003.31374
G1 X142.32 Y153.45 E1003.32747
G1 X142.82 Y154.10 E1003.34107
G1 X143.28 Y155.09 E1003.35932
G1 X143.48 Y155.95 E1003.37396
G1 X143.49 Y156.60 E1003.38472
G1 X143.38 Y157.14 E1003.39393
G1 X143.87 Y157.54 E1003.40447
G1 X144.36 Y157.32 E1003.41342
G1 X145.00 Y157.18 E1003.42428
G1 X145.88 Y157.18 E1003.43888
G1 X146.96 Y157.43 E1003.45734
G1 X147.69 Y157.77 E1003.47087
G0 F2400 X147.50 Y157.97
;TYPE:FILL
G1 F600 X147.25 Y157.72 E1003.47677
G0 F2400 X147.39 Y158.43
G1 F600 X146.42 Y157.45 E1003.49977
G0 F2400 X145.72 Y157.32
G1 F600 X147.22 Y158.82 E1003.53498
G0 F2400 X147.03 Y159.20
G1 F600 X145.16 Y157.32 E1003.57918
G0 F2400 X144.66 Y157.39
G1 F600 X146.83 Y159.56 E1003.63022
G0 F2400 X146.58 Y159.88
G1 F600 X144.23 Y157.53 E1003.68547
G0 F2400 X143.81 Y157.67
G1 F600 X146.32 Y160.18 E1003.74453
G0 F2400 X146.01 Y160.44
G1 F600 X140.53 Y154.96 E1003.87332
G0 F2400 X140.79 Y154.65
G1 F600 X143.24 Y157.10 E1003.93102
G0 F2400 X143.34 Y156.63
G1 F600 X141.09 Y154.39 E1003.98381
G0 F2400 X141.41 Y154.13
G1 F600 X143.34 Y156.07 E1004.02929
G0 F2400 X143.20 Y155.36
G1 F600 X141.74 Y153.90 E1004.06370
G0 F2400 X142.11 Y153.71
G1 F600 X142.80 Y154.40 E1004.07989
G0 F2400 X142.66 Y154.47
G0 X140.42 Y155.36
G0 X140.28 Y155.27
G1 F600 X145.66 Y160.65 E1004.20637
G0 F2400 X145.33 Y160.89
G1 F600 X140.09 Y155.65 E1004.32957
G0 F2400 X139.95 Y156.07
G1 F600 X145.33 Y161.46 E1004.45624
G0 F2400 X145.67 Y161.79
G1 F600 X146.93 Y163.05 E1004.48578
G0 F2400 X147.39 Y164.08
G1 F600 X139.75 Y156.44 E1004.66539
G0 F2400 X139.29 Y156.55
G1 F600 X147.39 Y164.65 E1004.85594
G0 F2400 X147.01 Y164.82
G1 F600 X137.66 Y155.48 E1005.07563
G0 F2400 X136.85 Y155.23
G1 F600 X146.56 Y164.95 E1005.30420
G0 F2400 X146.10 Y165.05
G1 F600 X136.17 Y155.12 E1005.53789
G0 F2400 X135.68 Y155.19
G1 F600 X145.59 Y165.11 E1005.77112
G0 F2400 X145.03 Y165.11
G1 F600 X135.58 Y155.66 E1005.99342
G0 F2400 X135.55 Y156.20
G1 F600 X144.29 Y164.94 E1006.19892
G0 F2400 X143.65 Y164.86
G1 F600 X135.56 Y156.77 E1006.38925
G0 F2400 X135.69 Y157.47
G1 F600 X143.33 Y165.11 E1006.56903
G0 F2400 X143.28 Y165.62
G1 F600 X136.29 Y158.63 E1006.73334
G0 F2400 X136.19 Y159.10
G1 F600 X143.31 Y166.22 E1006.90079
G0 F2400 X143.24 Y166.72
G1 F600 X135.99 Y159.47 E1007.07142
G0 F2400 X135.43 Y159.47
G1 F600 X143.14 Y167.18 E1007.25259
G0 F2400 X142.97 Y167.58
G1 F600 X134.97 Y159.58 E1007.44071
G0 F2400 X134.56 Y159.73
G1 F600 X142.79 Y167.96 E1007.63418
G0 F2400 X142.59 Y168.32
G1 F600 X134.18 Y159.92 E1007.83190
G0 F2400 X133.84 Y160.14
G1 F600 X139.63 Y165.93 E1007.96807
G0 F2400 X139.88 Y166.19
G1 F600 X142.34 Y168.64 E1008.02584
G0 F2400 X141.58 Y168.45
G1 F600 X140.24 Y167.11 E1008.05738
G0 F2400 X140.38 Y167.04
G0 X140.02 Y165.79
G0 X138.79 Y165.69
G0 X138.87 Y165.76
G0 X138.99 Y165.86
G1 F600 X133.52 Y160.39 E1008.18603
G0 F2400 X133.20 Y160.64
G1 F600 X135.46 Y162.90 E1008.23920
G0 F2400 X134.71 Y162.71
G1 F600 X132.94 Y160.94 E1008.28079
G0 F2400 X133.07 Y161.05
G0 X136.15 Y162.68
G0 X136.62 Y163.67
G0 X136.41 Y163.82
G0 X136.29 Y163.72
G1 F600 X138.74 Y166.17 E1008.33832
G0 F2400 X138.44 Y166.44
G1 F600 X136.04 Y164.04 E1008.39462
G0 F2400 X135.84 Y164.41
G1 F600 X138.11 Y166.67 E1008.44782
G0 F2400 X137.72 Y166.85
G1 F600 X135.68 Y164.82 E1008.49575
G0 F2400 X135.58 Y165.28
G1 F600 X137.33 Y167.03 E1008.53686
G0 F2400 X136.87 Y167.13
G1 F600 X135.52 Y165.79 E1008.56850
G0 F2400 X135.52 Y166.35
G1 F600 X136.41 Y167.24 E1008.58946
G0 F2400 X135.86 Y167.26
G1 F600 X135.60 Y167.00 E1008.59555
G0 F2400 X136.34 Y166.37
G1 F2400 E1007.39555
G0 X142.27 Y151.56
;TYPE:WALL-OUTER
G1 F2400 E1008.59555
G1 F600 X141.53 Y151.19 E1008.60919
G1 X140.68 Y150.49 E1008.62763
G1 X140.13 Y149.80 E1008.64222
G1 X139.85 Y149.23 E1008.65287
G1 X139.71 Y148.69 E1008.66202
G1 X139.10 Y148.55 E1008.67256
G1 X138.75 Y148.97 E1008.68156
G1 X138.24 Y149.36 E1008.69232
G1 X137.44 Y149.74 E1008.70698
G1 X136.37 Y149.99 E1008.72530
G1 X135.55 Y150.00 E1008.73899
G1 X135.38 Y149.20 E1008.75258
G1 X135.39 Y148.09 E1008.77107
G1 X135.58 Y147.25 E1008.78549
G1 X135.86 Y146.64 E1008.79652
G1 X136.19 Y146.22 E1008.80548
G1 X135.92 Y145.65 E1008.81602
G1 X135.39 Y145.64 E1008.82483
G1 X134.75 Y145.48 E1008.83581
G1 X133.96 Y145.10 E1008.85030
G1 X133.09 Y144.41 E1008.86890
G1 X132.57 Y143.77 E1008.88249
G1 X133.08 Y143.15 E1008.89588
G1 X133.96 Y142.47 E1008.91435
G1 X134.75 Y142.08 E1008.92894
G1 X135.37 Y141.93 E1008.93968
G1 X135.93 Y141.92 E1008.94896
G1 X136.21 Y141.35 E1008.95951
G1 X135.88 Y140.92 E1008.96854
G1 X135.60 Y140.33 E1008.97933
G1 X135.41 Y139.48 E1008.99379
G1 X135.41 Y138.37 E1009.01229
G1 X135.58 Y137.56 E1009.02600
G1 X136.40 Y137.58 E1009.03964
G1 X137.48 Y137.84 E1009.05804
G1 X138.27 Y138.22 E1009.07268
G1 X138.78 Y138.62 E1009.08347
G1 X139.12 Y139.04 E1009.09245
G1 X139.75 Y138.90 E1009.10305
G1 X139.88 Y138.37 E1009.11201
G1 X140.16 Y137.79 E1009.12276
G1 X140.72 Y137.11 E1009.13746
G1 X141.58 Y136.42 E1009.15576
G1 X142.32 Y136.05 E1009.16949
G1 X142.82 Y136.70 E1009.18309
G1 X143.28 Y137.69 E1009.20134
G1 X143.48 Y138.55 E1009.21599
G1 X143.49 Y139.20 E1009.22678
G1 X143.37 Y139.74 E1009.23598
G1 X143.87 Y140.14 E1009.24654
G1 X144.36 Y139.91 E1009.25556
G1 X145.00 Y139.77 E1009.26636
G1 X145.87 Y139.78 E1009.28095
G1 X146.96 Y140.02 E1009.29940
G1 X147.69 Y140.37 E1009.31295
G1 X147.51 Y141.15 E1009.32634
G1 X147.01 Y142.16 E1009.34510
G1 X146.46 Y142.85 E1009.35967
G1 X145.96 Y143.25 E1009.37043
G1 X145.47 Y143.50 E1009.37948
G1 X145.47 Y144.13 E1009.38999
G1 X145.96 Y144.38 E1009.39919
G1 X146.45 Y144.78 E1009.40971
G1 X147.00 Y145.47 E1009.42438
G1 X147.49 Y146.47 E1009.44286
G1 X147.68 Y147.27 E1009.45648
G1 X146.94 Y147.61 E1009.46989
G1 X145.87 Y147.85 E1009.48826
G1 X144.97 Y147.85 E1009.50320
G1 X144.34 Y147.71 E1009.51390
G1 X143.84 Y147.48 E1009.52295
G1 X143.35 Y147.88 E1009.53346
G1 X143.46 Y148.41 E1009.54244
G1 X143.45 Y149.05 E1009.55322
G1 X143.25 Y149.91 E1009.56782
G1 X142.77 Y150.91 E1009.58632
G1 X142.27 Y151.56 E1009.59992
G0 F2400 X142.40 Y151.16
;TYPE:FILL
G1 F600 X139.84 Y148.60 E1009.66013
G0 F2400 X139.80 Y148.57
G1 F600 X133.91 Y142.68 E1009.79862
G0 F2400 X133.59 Y142.93
G1 F600 X139.06 Y148.40 E1009.92720
G0 F2400 X138.79 Y148.69
G1 F600 X136.34 Y146.24 E1009.98480
G0 F2400 X136.10 Y146.56
G1 F600 X138.51 Y148.97 E1010.04148
G0 F2400 X138.19 Y149.22
G1 F600 X135.89 Y146.92 E1010.09565
G0 F2400 X135.71 Y147.31
G1 F600 X137.81 Y149.41 E1010.14505
G0 F2400 X137.43 Y149.59
G1 F600 X135.60 Y147.77 E1010.18794
G0 F2400 X135.53 Y148.25
G1 F600 X136.98 Y149.70 E1010.22205
G0 F2400 X136.52 Y149.81
G1 F600 X135.52 Y148.81 E1010.24553
G0 F2400 X135.57 Y149.43
G1 F600 X136.00 Y149.85 E1010.25562
G0 F2400 X135.99 Y149.69
G0 X138.96 Y148.14
G0 X140.02 Y148.38
G0 X140.25 Y149.38
G0 X140.11 Y149.44
G1 F600 X141.86 Y151.19 E1010.29679
G0 F2400 X142.65 Y150.85
G1 F600 X134.27 Y142.47 E1010.49379
G0 F2400 X134.65 Y142.29
G1 F600 X142.83 Y150.47 E1010.68616
G0 F2400 X143.01 Y150.08
G1 F600 X135.08 Y142.15 E1010.87276
G0 F2400 X135.56 Y142.07
G1 F600 X143.16 Y149.67 E1011.05145
G0 F2400 X143.27 Y149.21
G1 F600 X136.05 Y141.99 E1011.22118
G0 F2400 X136.24 Y141.61
G1 F600 X143.31 Y148.69 E1011.38765
G0 F2400 X143.25 Y148.05
G1 F600 X135.96 Y140.77 E1011.55895
G0 F2400 X135.65 Y139.89
G1 F600 X143.41 Y147.65 E1011.74142
G0 F2400 X143.72 Y147.40
G1 F600 X135.55 Y139.23 E1011.93354
G0 F2400 X135.55 Y138.66
G1 F600 X144.49 Y147.60 E1012.14368
G0 F2400 X145.16 Y147.71
G1 F600 X135.60 Y138.15 E1012.36854
G0 F2400 X135.73 Y137.71
G1 F600 X145.73 Y147.71 E1012.60371
G0 F2400 X146.21 Y147.62
G1 F600 X136.30 Y137.72 E1012.83677
G0 F2400 X137.02 Y137.87
G1 F600 X146.67 Y147.52 E1013.06382
G0 F2400 X147.10 Y147.38
G1 F600 X137.92 Y138.20 E1013.27968
G0 F2400 X137.85 Y138.35
G0 X138.98 Y139.45
G0 X139.44 Y139.28
G0 X139.40 Y139.12
G1 F600 X147.49 Y147.20 E1013.46985
G0 F2400 X147.34 Y146.49
G1 F600 X139.86 Y139.01 E1013.64570
G0 F2400 X139.97 Y138.56
G1 F600 X145.33 Y143.92 E1013.77175
G0 F2400 X145.37 Y143.39
G1 F600 X140.14 Y138.16 E1013.89481
G0 F2400 X140.34 Y137.80
G1 F600 X145.75 Y143.20 E1014.02196
G0 F2400 X146.08 Y142.97
G1 F600 X140.59 Y137.48 E1014.15109
G0 F2400 X140.85 Y137.18
G1 F600 X143.26 Y139.59 E1014.20774
G0 F2400 X143.35 Y139.10
G1 F600 X141.17 Y136.92 E1014.25899
G0 F2400 X141.48 Y136.67
G1 F600 X143.33 Y138.52 E1014.30244
G0 F2400 X143.16 Y137.78
G1 F600 X141.82 Y136.45 E1014.33380
G0 F2400 X142.20 Y136.26
G1 F600 X142.65 Y136.71 E1014.34436
G0 F2400 X142.52 Y136.81
G0 X142.96 Y139.88
G0 X143.82 Y140.57
G0 X144.39 Y140.23
G0 X144.32 Y140.08
G1 F600 X146.64 Y142.40 E1014.39886
G0 F2400 X146.39 Y142.71
G1 F600 X143.94 Y140.26 E1014.45659
G0 F2400 X144.77 Y139.97
G1 F600 X146.89 Y142.08 E1014.50641
G0 F2400 X147.08 Y141.71
G1 F600 X145.29 Y139.91 E1014.54850
G0 F2400 X145.86 Y139.92
G1 F600 X147.27 Y141.33 E1014.58162
G0 F2400 X147.42 Y140.91
G1 F600 X146.59 Y140.08 E1014.60116
G0 F2400 X146.55 Y140.24
G0 X145.10 Y143.27
G0 X145.10 Y144.35
G0 X145.95 Y144.76
G0 X146.05 Y144.64
G1 F600 X146.56 Y145.15 E1014.61304
G0 F2400 X146.43 Y145.24
G0 X135.60 Y145.34
G0 X135.60 Y145.50
G1 F600 X133.28 Y143.18 E1014.66766
G0 F2400 X133.00 Y143.47
G1 F600 X134.91 Y145.38 E1014.71258
G0 F2400 X133.62 Y144.65
G1 F600 X132.78 Y143.81 E1014.73223
G0 F2400 X133.87 Y143.81
G1 F2400 E1013.53223
G0 X149.12 Y138.40
;TYPE:WALL-OUTER
G1 F2400 E1014.73223
G1 F600 X149.63 Y137.77 E1014.74560
G1 X150.51 Y137.09 E1014.76408
