;-- START GCODE --
;Sliced for Type A Machines Series 1
;Sliced at: Sun 12-04-2015 18:56:15
;Basic settings: Layer height: 0.1 Walls: 0.4 Fill: 8
;Print Speed: 50 Support: 0
;Retraction Speed: 40 Retraction Distance: 1.2
;Print time: #P_TIME#
;Filament used: #F_AMNT#m #F_WGHT#g
;Filament cost: #F_COST#
M106 S255	 ;start with the fan on
G21        ;metric values
G90        ;absolute positioning
M106 S255    ;start with the fan on
G28     ;move to endstops
G29		;allows for auto-levelling
G1 X150 Y5  Z15.0 F12000 ;center and move the platform down 15mm
M109 S220 ;Heat To temp
G92 E0                  ;zero the extruded length
G1 F200 E30              ;extrude 30mm of feed stock
G92 E0                  ;zero the extruded length again
G1 X175 Y25  Z0 F12000 ;remove bugger
G1 X220 F12000 ;remove bugger
G1 X150 Y150  Z15 F12000 ;recenter and begin
G1 F12000

;Layer count: 400
;LAYER:-2
;RAFT
G0 F12000 X136.35 Y135.84 Z0.30
;TYPE:SUPPORT
G1 F2100 X138.66 Y133.78 E0.27008
G1 X140.85 Y132.30 E0.50107
G1 X141.17 Y132.09 E0.53468
G1 X143.56 Y130.89 E0.76821
G1 X143.90 Y130.71 E0.80164
G1 X146.57 Y129.79 E1.04765
G1 X146.98 Y129.67 E1.08503
G1 X149.90 Y129.07 E1.34560
G1 X153.11 Y128.85 E1.62668
G1 X155.98 Y129.04 E1.87729
G1 X156.36 Y129.07 E1.91085
G1 X159.35 Y129.69 E2.17730
G1 X162.27 Y130.69 E2.44724
G1 X165.04 Y132.08 E2.71787
G1 X167.53 Y133.76 E2.97997
G1 X169.83 Y135.77 E3.24687
G1 X171.81 Y138.02 E3.50799
G1 X173.51 Y140.53 E3.77276
G1 X174.88 Y143.26 E4.03983
G1 X175.91 Y146.19 E4.31098
G1 X176.54 Y149.29 E4.58727
G1 X176.74 Y152.11 E4.83343
G1 X176.76 Y152.46 E4.86469
G1 X176.57 Y155.37 E5.11933
G1 X176.54 Y155.73 E5.15070
G1 X175.92 Y158.75 E5.41944
G1 X174.91 Y161.68 E5.69080
G1 X173.53 Y164.43 E5.95881
G1 X171.84 Y166.92 E6.22171
G1 X169.85 Y169.19 E6.48545
G1 X167.58 Y171.19 E6.74940
G1 X165.32 Y172.72 E6.98753
G1 X165.04 Y172.91 E7.01763
G1 X162.34 Y174.27 E7.28154
G1 X159.40 Y175.29 E7.55313
G1 X156.33 Y175.92 E7.82615
G1 X153.61 Y176.10 E8.06479
G1 X153.24 Y176.15 E8.09697
G1 X149.94 Y175.92 E8.38609
G1 X146.98 Y175.32 E8.64990
G1 X146.63 Y175.22 E8.68137
G1 X143.92 Y174.28 E8.93224
G1 X141.20 Y172.91 E9.19779
G1 X138.68 Y171.22 E9.46261
G1 X136.41 Y169.22 E9.72640
G1 X134.41 Y166.95 E9.99121
G1 X132.71 Y164.43 E10.25671
G1 X131.34 Y161.71 E10.52241
G1 X130.32 Y158.79 E10.79229
G1 X130.06 Y157.53 E10.90458
G1 X125.37 Y157.53 E11.31458
G1 X130.46 Y143.50 E12.61784
G1 X131.08 Y144.02 E12.68916
G1 X131.15 Y143.83 E12.70644
G1 X131.34 Y143.29 E12.75675
G1 X132.48 Y141.00 E12.98005
G1 X132.70 Y140.56 E13.02300
G1 X134.19 Y138.37 E13.25443
G1 X134.47 Y137.97 E13.29680
G1 X136.35 Y135.84 E13.54517
G0 F12000 X143.59 Y142.91
G1 F2100 X142.43 Y144.23 E13.69807
G1 X141.45 Y145.68 E13.85106
G1 X140.75 Y147.06 E13.98655
G1 X144.40 Y147.06 E14.30505
G1 X140.61 Y157.53 E15.27696
G1 X140.59 Y157.53 E15.27880
G1 X140.66 Y157.75 E15.29920
G1 X141.44 Y159.31 E15.45117
G1 X142.41 Y160.74 E15.60191
G1 X143.56 Y162.05 E15.75421
G1 X144.85 Y163.18 E15.90434
G1 X146.29 Y164.16 E16.05625
G1 X147.85 Y164.94 E16.20829
G1 X149.52 Y165.52 E16.36278
G1 X151.27 Y165.88 E16.51894
G1 X153.12 Y166.01 E16.68091
G1 X154.95 Y165.88 E16.84068
G1 X156.69 Y165.53 E16.99624
G1 X158.38 Y164.95 E17.15158
G1 X159.93 Y164.17 E17.30367
G1 X161.37 Y163.19 E17.45516
G1 X162.66 Y162.06 E17.60542
G1 X163.82 Y160.75 E17.75802
G1 X164.79 Y159.31 E17.90908
G1 X165.56 Y157.76 E18.06041
G1 X166.15 Y156.09 E18.21565
G1 X166.51 Y154.33 E18.37169
G1 X166.63 Y152.49 E18.53269
G1 X166.51 Y150.65 E18.69387
G1 X166.15 Y148.91 E18.84902
G1 X165.57 Y147.24 E19.00334
G1 X164.79 Y145.67 E19.15647
G1 X163.82 Y144.24 E19.30738
G1 X162.67 Y142.94 E19.45913
G1 X161.38 Y141.80 E19.60921
G1 X159.93 Y140.82 E19.76194
G1 X158.40 Y140.05 E19.91133
G1 X156.71 Y139.46 E20.06742
G1 X154.96 Y139.10 E20.22392
G1 X153.12 Y138.98 E20.38501
G1 X151.31 Y139.10 E20.54313
G1 X149.52 Y139.46 E20.70274
G1 X147.86 Y140.04 E20.85582
G1 X146.30 Y140.82 E21.00861
G1 X144.86 Y141.79 E21.15959
G1 X143.59 Y142.91 E21.30775
G0 F12000 X143.50 Y143.18
G1 F2100 X143.50 Y130.80 E22.38836
G0 F12000 X144.50 Y130.40
G1 F2100 X144.50 Y142.25 E23.42365
G0 F12000 X145.50 Y141.49
G1 F2100 X145.50 Y130.05 E24.42272
G0 F12000 X146.50 Y129.70
G1 F2100 X146.50 Y140.84 E25.39533
G0 F12000 X147.50 Y140.34
G1 F2100 X147.50 Y129.45 E26.34593
G0 F12000 X148.50 Y129.25
G1 F2100 X148.50 Y139.93 E27.27847
G0 F12000 X149.50 Y139.58
G1 F2100 X149.50 Y129.04 E28.19852
G0 F12000 X150.50 Y128.92
G1 F2100 X150.50 Y139.37 E29.11089
G0 F12000 X151.50 Y139.19
G1 F2100 X151.50 Y128.85 E30.01374
G0 F12000 X152.50 Y128.79
G1 F2100 X152.50 Y139.13 E30.91668
G0 F12000 X153.50 Y139.11
G1 F2100 X153.50 Y128.77 E31.81944
G0 F12000 X154.50 Y128.84
G1 F2100 X154.50 Y139.18 E32.72229
G0 F12000 X155.50 Y139.32
G1 F2100 X155.50 Y128.90 E33.63186
G0 F12000 X156.50 Y129.00
G1 F2100 X156.50 Y139.53 E34.55130
G0 F12000 X157.50 Y139.85
G1 F2100 X157.50 Y129.20 E35.48113
G0 F12000 X158.50 Y129.40
G1 F2100 X158.50 Y140.22 E36.42545
G0 F12000 X159.50 Y140.72
G1 F2100 X159.50 Y129.63 E37.39422
G0 F12000 X160.50 Y129.97
G1 F2100 X160.50 Y141.33 E38.38621
G0 F12000 X161.50 Y142.05
G1 F2100 X161.50 Y130.32 E39.41033
G0 F12000 X162.50 Y130.69
G1 F2100 X162.50 Y142.93 E40.47854
G0 F12000 X163.50 Y144.04
G1 F2100 X163.50 Y131.19 E41.60028
G0 F12000 X164.50 Y131.69
G1 F2100 X164.50 Y145.44 E42.80058
G0 F12000 X165.50 Y147.35
G1 F2100 X165.50 Y132.26 E44.11823
G0 F12000 X166.50 Y132.94
G1 F2100 X166.50 Y152.12 E45.79341
G0 F12000 X166.50 Y152.87
G1 F2100 X166.50 Y172.05 E47.46850
G0 F12000 X165.50 Y172.73
G1 F2100 X165.50 Y157.63 E48.78685
G0 F12000 X164.50 Y159.55
G1 F2100 X164.50 Y173.30 E49.98742
G0 F12000 X163.50 Y173.80
G1 F2100 X163.50 Y160.95 E51.10959
G0 F12000 X162.50 Y162.06
G1 F2100 X162.50 Y174.30 E52.17841
G0 F12000 X161.50 Y174.67
G1 F2100 X161.50 Y162.94 E53.20253
G0 F12000 X160.50 Y163.66
G1 F2100 X160.50 Y175.02 E54.19478
G0 F12000 X159.50 Y175.37
G1 F2100 X159.50 Y164.26 E55.16434
G0 F12000 X158.50 Y164.77
G1 F2100 X158.50 Y175.58 E56.10875
G0 F12000 X157.50 Y175.79
G1 F2100 X157.50 Y165.14 E57.03840
G0 F12000 X156.50 Y165.46
G1 F2100 X156.50 Y175.99 E57.95766
G0 F12000 X155.50 Y176.08
G1 F2100 X155.50 Y165.66 E58.86706
G0 F12000 X154.50 Y165.81
G1 F2100 X154.50 Y176.15 E59.76983
G0 F12000 X153.50 Y176.22
G1 F2100 X153.50 Y165.88 E60.67320
G0 F12000 X152.50 Y165.86
G1 F2100 X152.50 Y176.20 E61.57596
G0 F12000 X151.50 Y176.13
G1 F2100 X151.50 Y165.79 E62.47881
G0 F12000 X150.50 Y165.62
G1 F2100 X150.50 Y176.07 E63.39109
G0 F12000 X149.50 Y175.94
G1 F2100 X149.50 Y165.41 E64.31106
G0 F12000 X148.50 Y165.06
G1 F2100 X148.50 Y175.74 E65.24359
G0 F12000 X147.50 Y175.53
G1 F2100 X147.50 Y164.65 E66.19403
G0 F12000 X146.50 Y164.15
G1 F2100 X146.50 Y175.29 E67.16663
G0 F12000 X145.50 Y174.94
G1 F2100 X145.50 Y163.50 E68.16561
G0 F12000 X144.50 Y162.74
G1 F2100 X144.50 Y174.59 E69.20065
G0 F12000 X143.50 Y174.19
G1 F2100 X143.50 Y161.82 E70.28029
G0 F12000 X142.50 Y160.68
G1 F2100 X142.50 Y173.68 E71.41547
G0 F12000 X141.50 Y173.18
G1 F2100 X141.50 Y159.19 E72.63752
G0 F12000 X141.50 Y155.38
G1 F2100 X141.50 Y146.96 E73.37265
G0 F12000 X142.50 Y146.96
G1 F2100 X142.50 Y152.61 E73.86655
G0 F12000 X143.50 Y149.85
G1 F2100 X143.50 Y146.96 E74.11931
G0 F12000 X141.50 Y145.80
G1 F2100 X141.50 Y131.80 E75.34153
G0 F12000 X142.50 Y131.30
G1 F2100 X142.50 Y144.31 E76.47732
G0 F12000 X134.50 Y137.78
G1 F2100 X134.50 Y167.21 E79.04723
G0 F12000 X135.50 Y168.34
G1 F2100 X135.50 Y136.64 E81.81532
G0 F12000 X136.50 Y135.56
G1 F2100 X136.50 Y169.44 E84.77314
G0 F12000 X137.50 Y170.32
G1 F2100 X137.50 Y134.67 E87.88505
G0 F12000 X138.50 Y133.79
G1 F2100 X138.50 Y171.19 E91.15106
G0 F12000 X139.50 Y171.89
G1 F2100 X139.50 Y133.09 E94.53896
G0 F12000 X140.50 Y132.41
G1 F2100 X140.50 Y172.57 E98.04489
G0 F12000 X133.50 Y165.79
G1 F2100 X133.50 Y139.19 E100.36711
G0 F12000 X132.50 Y140.73
G1 F2100 X132.50 Y164.25 E102.42067
G0 F12000 X131.50 Y162.26
G1 F2100 X131.50 Y142.73 E104.12623
G0 F12000 X130.50 Y143.40
G1 F2100 X130.50 Y159.62 E105.54228
G0 F12000 X129.50 Y157.63
G1 F2100 X129.50 Y145.82 E106.57347
G0 F12000 X128.50 Y148.58
G1 F2100 X128.50 Y157.63 E107.36378
G0 F12000 X127.50 Y157.63
G1 F2100 X127.50 Y151.34 E107.91330
G0 F12000 X126.50 Y154.10
G1 F2100 X126.50 Y157.63 E108.22193
G0 F12000 X125.50 Y157.63
G1 F2100 X125.50 Y156.86 E108.28968
G0 F12000 X167.50 Y171.37
G1 F2100 X167.50 Y133.61 E111.58678
G0 F12000 X168.50 Y134.47
G1 F2100 X168.50 Y170.52 E114.73466
G0 F12000 X169.50 Y169.64
G1 F2100 X169.50 Y135.34 E117.72897
G0 F12000 X170.50 Y136.38
G1 F2100 X170.50 Y168.61 E120.54343
G0 F12000 X171.50 Y167.47
G1 F2100 X171.50 Y137.51 E123.15926
G0 F12000 X172.50 Y138.85
G1 F2100 X172.50 Y166.14 E125.54128
G0 F12000 X173.50 Y164.66
G1 F2100 X173.50 Y140.33 E127.66548
G0 F12000 X174.50 Y142.26
G1 F2100 X174.50 Y162.73 E129.45215
G0 F12000 X175.50 Y160.29
G1 F2100 X175.50 Y144.70 E130.81266
G0 F12000 X176.50 Y148.55
G1 F2100 X176.50 Y156.44 E131.50109
M106 S255
;LAYER:-1
;RAFT
G0 F12000 X176.44 Y156.36 Z0.50
;TYPE:SUPPORT
G1 F3000 X149.25 Y129.17 E132.14048
G0 F12000 X148.78 Y129.27
G1 F3000 X161.30 Y141.78 E132.43488
G0 F12000 X159.68 Y140.73
G1 F3000 X148.31 Y129.36 E132.70216
G0 F12000 X147.84 Y129.46
G1 F3000 X158.54 Y140.16 E132.95376
G0 F12000 X157.64 Y139.82
G1 F3000 X147.37 Y129.56 E133.19513
G0 F12000 X146.91 Y129.66
G1 F3000 X156.77 Y139.51 E133.42700
G0 F12000 X156.04 Y139.36
G1 F3000 X146.48 Y129.79 E133.65203
G0 F12000 X146.06 Y129.94
G1 F3000 X155.33 Y139.21 E133.87016
G0 F12000 X154.67 Y139.11
G1 F3000 X145.64 Y130.08 E134.08263
G0 F12000 X145.22 Y130.23
G1 F3000 X154.06 Y139.07 E134.29069
G0 F12000 X153.46 Y139.03
G1 F3000 X144.80 Y130.37 E134.49439
G0 F12000 X144.38 Y130.52
G1 F3000 X152.88 Y139.03 E134.69447
G0 F12000 X152.35 Y139.06
G1 F3000 X143.96 Y130.66 E134.89198
G0 F12000 X143.57 Y130.84
G1 F3000 X151.82 Y139.10 E135.08605
G0 F12000 X151.30 Y139.13
G1 F3000 X143.20 Y131.03 E135.27653
G0 F12000 X142.82 Y131.22
G1 F3000 X150.82 Y139.23 E135.46479
G0 F12000 X150.35 Y139.32
G1 F3000 X142.44 Y131.41 E135.65084
G0 F12000 X142.07 Y131.60
G1 F3000 X149.88 Y139.42 E135.83465
G0 F12000 X149.43 Y139.53
G1 F3000 X141.69 Y131.79 E136.01653
G0 F12000 X141.31 Y131.98
G1 F3000 X149.00 Y139.67 E136.19738
G0 F12000 X148.59 Y139.82
G1 F3000 X140.96 Y132.19 E136.37671
G0 F12000 X140.62 Y132.42
G1 F3000 X148.17 Y139.96 E136.55412
G0 F12000 X147.76 Y140.12
G1 F3000 X140.29 Y132.65 E136.72990
G0 F12000 X139.95 Y132.88
G1 F3000 X147.38 Y140.31 E136.90474
G0 F12000 X147.01 Y140.50
G1 F3000 X139.61 Y133.10 E137.07867
G0 F12000 X139.27 Y133.33
G1 F3000 X146.63 Y140.69 E137.25167
G0 F12000 X146.26 Y140.88
G1 F3000 X138.94 Y133.56 E137.42389
G0 F12000 X138.60 Y133.79
G1 F3000 X145.92 Y141.11 E137.59601
G0 F12000 X145.58 Y141.34
G1 F3000 X138.30 Y134.06 E137.76724
G0 F12000 X138.00 Y134.33
G1 F3000 X145.25 Y141.57 E137.93756
G0 F12000 X144.91 Y141.80
G1 F3000 X137.70 Y134.59 E138.10701
G0 F12000 X137.40 Y134.86
G1 F3000 X144.60 Y142.06 E138.27636
G0 F12000 X144.30 Y142.32
G1 F3000 X137.10 Y135.12 E138.44567
G0 F12000 X136.81 Y135.39
G1 F3000 X144.00 Y142.59 E138.61495
G0 F12000 X143.70 Y142.85
G1 F3000 X136.50 Y135.66 E138.78420
G0 F12000 X136.22 Y135.94
G1 F3000 X143.43 Y143.14 E138.95370
G0 F12000 X143.16 Y143.44
G1 F3000 X135.95 Y136.24 E139.12321
G0 F12000 X135.69 Y136.54
G1 F3000 X142.90 Y143.74 E139.29272
G0 F12000 X142.63 Y144.04
G1 F3000 X135.42 Y136.84 E139.46219
G0 F12000 X135.16 Y137.14
G1 F3000 X142.38 Y144.36 E139.63195
G0 F12000 X142.15 Y144.69
G1 F3000 X134.89 Y137.44 E139.80256
G0 F12000 X134.63 Y137.74
G1 F3000 X141.92 Y145.03 E139.97403
G0 F12000 X141.69 Y145.37
G1 F3000 X134.38 Y138.05 E140.14610
G0 F12000 X134.15 Y138.39
G1 F3000 X141.46 Y145.71 E140.31821
G0 F12000 X141.27 Y146.08
G1 F3000 X133.92 Y138.72 E140.49126
G0 F12000 X133.69 Y139.06
G1 F3000 X141.09 Y146.46 E140.66527
G0 F12000 X140.90 Y146.84
G1 F3000 X133.46 Y139.40 E140.84022
G0 F12000 X133.23 Y139.73
G1 F3000 X143.40 Y149.91 E141.07943
G0 F12000 X143.55 Y149.49
G1 F3000 X141.09 Y147.03 E141.13724
G0 F12000 X141.66 Y147.03
G1 F3000 X143.70 Y149.07 E141.18529
G0 F12000 X143.85 Y148.66
G1 F3000 X142.22 Y147.03 E141.22357
G0 F12000 X142.79 Y147.03
G1 F3000 X144.00 Y148.24 E141.25208
G0 F12000 X144.15 Y147.83
G1 F3000 X143.35 Y147.03 E141.27082
G0 F12000 X143.92 Y147.03
G1 F3000 X144.30 Y147.41 E141.27981
G0 F12000 X143.25 Y150.32
G1 F3000 X133.00 Y140.07 E141.52086
G0 F12000 X132.77 Y140.41
G1 F3000 X143.10 Y150.74 E141.76376
G0 F12000 X142.95 Y151.15
G1 F3000 X132.56 Y140.77 E142.00797
G0 F12000 X132.38 Y141.14
G1 F3000 X142.80 Y151.57 E142.25308
G0 F12000 X142.65 Y151.98
G1 F3000 X132.19 Y141.52 E142.49910
G0 F12000 X132.00 Y141.90
G1 F3000 X142.50 Y152.40 E142.74604
G0 F12000 X142.35 Y152.81
G1 F3000 X131.81 Y142.27 E142.99388
G0 F12000 X131.62 Y142.65
G1 F3000 X142.20 Y153.23 E143.24262
G0 F12000 X142.05 Y153.64
G1 F3000 X131.43 Y143.03 E143.49229
G0 F12000 X131.26 Y143.42
G1 F3000 X141.90 Y154.06 E143.74253
G0 F12000 X141.75 Y154.47
G1 F3000 X131.11 Y143.84 E143.99264
G0 F12000 X130.36 Y143.66
G1 F3000 X141.60 Y154.89 E144.25683
G0 F12000 X141.44 Y155.30
G1 F3000 X130.21 Y144.07 E144.52102
G0 F12000 X130.06 Y144.49
G1 F3000 X141.29 Y155.72 E144.78520
G0 F12000 X141.14 Y156.13
G1 F3000 X129.91 Y144.90 E145.04937
G0 F12000 X129.76 Y145.32
G1 F3000 X140.99 Y156.55 E145.31355
G0 F12000 X140.84 Y156.97
G1 F3000 X129.61 Y145.73 E145.57774
G0 F12000 X129.46 Y146.15
G1 F3000 X140.69 Y157.38 E145.84193
G0 F12000 X140.90 Y158.15
G1 F3000 X129.31 Y146.56 E146.11446
G0 F12000 X129.16 Y146.98
G1 F3000 X141.47 Y159.28 E146.40390
G0 F12000 X143.16 Y161.54
G1 F3000 X129.01 Y147.39 E146.73674
G0 F12000 X128.86 Y147.81
G1 F3000 X156.88 Y175.84 E147.39589
G0 F12000 X157.35 Y175.74
G1 F3000 X144.07 Y162.45 E147.70840
G0 F12000 X146.32 Y164.14
G1 F3000 X157.82 Y175.64 E147.97896
G0 F12000 X158.29 Y175.55
G1 F3000 X147.46 Y164.71 E148.23382
G0 F12000 X148.42 Y165.11
G1 F3000 X158.76 Y175.45 E148.47706
G0 F12000 X159.23 Y175.36
G1 F3000 X149.29 Y165.41 E148.71095
G0 F12000 X150.04 Y165.60
G1 F3000 X159.67 Y175.23 E148.93738
G0 F12000 X160.09 Y175.08
G1 F3000 X150.75 Y165.75 E149.15695
G0 F12000 X151.44 Y165.86
G1 F3000 X160.51 Y174.94 E149.37031
G0 F12000 X160.93 Y174.79
G1 F3000 X152.04 Y165.90 E149.57927
G0 F12000 X152.65 Y165.94
G1 F3000 X161.35 Y174.64 E149.78383
G0 F12000 X161.77 Y174.50
G1 F3000 X153.24 Y165.97 E149.98440
G0 F12000 X153.77 Y165.93
G1 F3000 X162.19 Y174.35 E150.18237
G0 F12000 X162.58 Y174.18
G1 F3000 X154.30 Y165.90 E150.37709
G0 F12000 X154.83 Y165.86
G1 F3000 X162.96 Y173.99 E150.56822
G0 F12000 X163.33 Y173.80
G1 F3000 X155.31 Y165.78 E150.75683
G0 F12000 X155.78 Y165.68
G1 F3000 X163.71 Y173.61 E150.94324
G0 F12000 X164.09 Y173.42
G1 F3000 X156.25 Y165.59 E151.12745
G0 F12000 X156.72 Y165.49
G1 F3000 X164.46 Y173.23 E151.30955
G0 F12000 X164.84 Y173.04
G1 F3000 X157.14 Y165.34 E151.49063
G0 F12000 X157.56 Y165.20
G1 F3000 X165.20 Y172.84 E151.67030
G0 F12000 X165.54 Y172.61
G1 F3000 X157.98 Y165.05 E151.84802
G0 F12000 X158.40 Y164.90
G1 F3000 X165.88 Y172.38 E152.02390
G0 F12000 X166.21 Y172.15
G1 F3000 X158.77 Y164.71 E152.19887
G0 F12000 X159.15 Y164.52
G1 F3000 X166.55 Y171.92 E152.37290
G0 F12000 X166.89 Y171.70
G1 F3000 X159.53 Y164.34 E152.54601
G0 F12000 X159.90 Y164.15
G1 F3000 X167.22 Y171.47 E152.71819
G0 F12000 X167.56 Y171.24
G1 F3000 X160.24 Y163.92 E152.89034
G0 F12000 X160.58 Y163.69
G1 F3000 X167.87 Y170.98 E153.06173
G0 F12000 X168.17 Y170.71
G1 F3000 X160.92 Y163.46 E153.23226
G0 F12000 X161.25 Y163.24
G1 F3000 X168.47 Y170.45 E153.40189
G0 F12000 X168.77 Y170.18
G1 F3000 X161.57 Y162.98 E153.57129
G0 F12000 X161.87 Y162.72
G1 F3000 X169.07 Y169.92 E153.74068
G0 F12000 X169.37 Y169.65
G1 F3000 X162.17 Y162.45 E153.91008
G0 F12000 X162.47 Y162.19
G1 F3000 X169.67 Y169.39 E154.07946
G0 F12000 X169.96 Y169.11
G1 F3000 X162.75 Y161.91 E154.24894
G0 F12000 X163.02 Y161.60
G1 F3000 X170.22 Y168.81 E154.41841
G0 F12000 X170.49 Y168.51
G1 F3000 X163.28 Y161.30 E154.58786
G0 F12000 X163.55 Y161.00
G1 F3000 X170.75 Y168.21 E154.75731
G0 F12000 X171.02 Y167.91
G1 F3000 X163.81 Y160.70 E154.92682
G0 F12000 X164.04 Y160.36
G1 F3000 X171.28 Y167.61 E155.09719
G0 F12000 X171.55 Y167.30
G1 F3000 X164.27 Y160.02 E155.26840
G0 F12000 X164.50 Y159.69
G1 F3000 X171.81 Y167.00 E155.44047
G0 F12000 X172.05 Y166.67
G1 F3000 X164.72 Y159.35 E155.61272
G0 F12000 X164.92 Y158.98
G1 F3000 X172.28 Y166.34 E155.78576
G0 F12000 X172.50 Y166.00
G1 F3000 X165.11 Y158.60 E155.95969
G0 F12000 X165.30 Y158.23
G1 F3000 X172.73 Y165.66 E156.13454
G0 F12000 X172.96 Y165.32
G1 F3000 X165.49 Y157.85 E156.31029
G0 F12000 X165.64 Y157.44
G1 F3000 X173.19 Y164.99 E156.48772
G0 F12000 X173.42 Y164.65
G1 F3000 X165.79 Y157.02 E156.66709
G0 F12000 X165.94 Y156.60
G1 F3000 X173.63 Y164.29 E156.84800
G0 F12000 X173.82 Y163.92
G1 F3000 X166.08 Y156.18 E157.02995
G0 F12000 X166.19 Y155.72
G1 F3000 X174.01 Y163.54 E157.21377
G0 F12000 X174.19 Y163.16
G1 F3000 X166.29 Y155.25 E157.39977
G0 F12000 X166.38 Y154.79
G1 F3000 X174.38 Y162.79 E157.58797
G0 F12000 X174.57 Y162.41
G1 F3000 X166.48 Y154.31 E157.77840
G0 F12000 X166.51 Y153.78
G1 F3000 X174.76 Y162.03 E157.97243
G0 F12000 X174.95 Y161.65
G1 F3000 X166.55 Y153.25 E158.16997
G0 F12000 X166.58 Y152.72
G1 F3000 X175.09 Y161.23 E158.37009
G0 F12000 X175.24 Y160.81
G1 F3000 X166.57 Y152.15 E158.57383
G0 F12000 X166.53 Y151.54
G1 F3000 X175.38 Y160.39 E158.78192
G0 F12000 X175.53 Y159.97
G1 F3000 X166.49 Y150.94 E158.99439
G0 F12000 X166.40 Y150.28
G1 F3000 X175.67 Y159.55 E159.21252
G0 F12000 X175.82 Y159.13
G1 F3000 X166.25 Y149.56 E159.43751
G0 F12000 X166.09 Y148.84
G1 F3000 X175.96 Y158.71 E159.66952
G0 F12000 X176.06 Y158.24
G1 F3000 X165.79 Y147.97 E159.91089
G0 F12000 X165.45 Y147.06
G1 F3000 X176.15 Y157.77 E160.16260
G0 F12000 X176.25 Y157.30
G1 F3000 X164.88 Y145.93 E160.42992
G0 F12000 X163.83 Y144.31
G1 F3000 X176.34 Y156.83 E160.72423
G0 F12000 X176.53 Y155.89
G1 F3000 X149.72 Y129.07 E161.35482
G0 F12000 X150.23 Y129.01
G1 F3000 X176.59 Y155.38 E161.97480
G0 F12000 X176.63 Y154.85
G1 F3000 X150.76 Y128.98 E162.58317
G0 F12000 X151.29 Y128.94
G1 F3000 X176.66 Y154.32 E163.17996
G0 F12000 X176.70 Y153.79
G1 F3000 X151.82 Y128.91 E163.76515
G0 F12000 X152.35 Y128.87
G1 F3000 X176.74 Y153.26 E164.33875
G0 F12000 X176.77 Y152.73
G1 F3000 X152.88 Y128.84 E164.90074
G0 F12000 X153.45 Y128.84
G1 F3000 X176.77 Y152.16 E165.44919
G0 F12000 X176.73 Y151.56
G1 F3000 X154.06 Y128.88 E165.98240
G0 F12000 X154.67 Y128.93
G1 F3000 X176.69 Y150.95 E166.50035
G0 F12000 X176.65 Y150.34
G1 F3000 X155.27 Y128.97 E167.00302
G0 F12000 X155.88 Y129.01
G1 F3000 X176.60 Y149.74 E167.49042
G0 F12000 X176.54 Y149.10
G1 F3000 X156.51 Y129.07 E167.96140
G0 F12000 X157.22 Y129.22
G1 F3000 X176.39 Y148.39 E168.41220
G0 F12000 X176.24 Y147.68
G1 F3000 X157.93 Y129.37 E168.84284
G0 F12000 X158.64 Y129.51
G1 F3000 X176.10 Y146.97 E169.25334
G0 F12000 X175.95 Y146.25
G1 F3000 X159.35 Y129.66 E169.64368
G0 F12000 X160.22 Y129.95
G1 F3000 X175.66 Y145.40 E170.00693
G0 F12000 X175.36 Y144.53
G1 F3000 X161.08 Y130.25 E170.34275
G0 F12000 X161.94 Y130.55
G1 F3000 X175.06 Y143.66 E170.65114
G0 F12000 X174.61 Y142.65
G1 F3000 X162.97 Y131.01 E170.92492
G0 F12000 X164.10 Y131.57
G1 F3000 X174.03 Y141.51 E171.15862
G0 F12000 X173.38 Y140.29
G1 F3000 X165.32 Y132.23 E171.34824
G0 F12000 X167.06 Y133.40
G1 F3000 X172.19 Y138.53 E171.46884
G0 F12000 X156.41 Y175.93
G1 F3000 X128.71 Y148.22 E172.12047
G0 F12000 X128.56 Y148.64
G1 F3000 X155.90 Y175.98 E172.76343
G0 F12000 X155.37 Y176.01
G1 F3000 X128.41 Y149.05 E173.39745
G0 F12000 X128.26 Y149.47
G1 F3000 X154.84 Y176.05 E174.02256
G0 F12000 X154.31 Y176.09
G1 F3000 X128.10 Y149.88 E174.63876
G0 F12000 X127.95 Y150.30
G1 F3000 X153.78 Y176.12 E175.24605
G0 F12000 X153.26 Y176.17
G1 F3000 X127.80 Y150.71 E175.84480
G0 F12000 X127.65 Y151.13
G1 F3000 X152.66 Y176.14 E176.43291
G0 F12000 X152.05 Y176.09
G1 F3000 X127.50 Y151.54 E177.01028
G0 F12000 X127.35 Y151.96
G1 F3000 X151.45 Y176.05 E177.57694
G0 F12000 X150.84 Y176.01
G1 F3000 X127.20 Y152.38 E178.13287
G0 F12000 X127.05 Y152.79
G1 F3000 X150.23 Y175.97 E178.67807
G0 F12000 X149.57 Y175.88
G1 F3000 X126.90 Y153.21 E179.21132
G0 F12000 X126.75 Y153.62
G1 F3000 X148.87 Y175.74 E179.73141
G0 F12000 X148.16 Y175.59
G1 F3000 X126.60 Y154.04 E180.23833
G0 F12000 X126.45 Y154.45
G1 F3000 X129.56 Y157.56 E180.31139
G0 F12000 X128.99 Y157.56
G1 F3000 X126.30 Y154.87 E180.37471
G0 F12000 X126.15 Y155.28
G1 F3000 X128.43 Y157.56 E180.42823
G0 F12000 X127.86 Y157.56
G1 F3000 X126.00 Y155.70 E180.47199
G0 F12000 X125.85 Y156.11
G1 F3000 X127.29 Y157.56 E180.50600
G0 F12000 X126.73 Y157.56
G1 F3000 X125.70 Y156.53 E180.53023
G0 F12000 X125.55 Y156.94
G1 F3000 X126.16 Y157.56 E180.54470
G0 F12000 X125.60 Y157.56
G1 F3000 X125.40 Y157.36 E180.54940
G0 F12000 X130.16 Y158.17
G1 F3000 X147.44 Y175.45 E180.95582
G0 F12000 X146.71 Y175.27
G1 F3000 X130.33 Y158.90 E181.34101
G0 F12000 X130.63 Y159.76
G1 F3000 X145.85 Y174.98 E181.69888
G0 F12000 X144.98 Y174.68
G1 F3000 X130.93 Y160.63 E182.02924
G0 F12000 X131.24 Y161.50
G1 F3000 X144.11 Y174.38 E182.33208
G0 F12000 X143.04 Y173.87
G1 F3000 X131.74 Y162.57 E182.59793
G0 F12000 X132.31 Y163.70
G1 F3000 X141.91 Y173.30 E182.82371
G0 F12000 X140.55 Y172.51
G1 F3000 X133.09 Y165.05 E182.99925
G0 F12000 X134.27 Y166.79
G1 F3000 X138.81 Y171.34 E183.10614
;LAYER:-1
;RAFT
G0 F12000 X138.55 Y171.18 Z0.70
;TYPE:SUPPORT
G1 F2100 X167.69 Y171.18 E184.07528
G0 F12000 X168.09 Y170.82
G1 F2100 X138.14 Y170.82 E185.07162
G0 F12000 X137.73 Y170.46
G1 F2100 X168.50 Y170.46 E186.09516
G0 F12000 X168.91 Y170.10
G1 F2100 X137.32 Y170.10 E187.14588
G0 F12000 X136.91 Y169.74
G1 F2100 X169.32 Y169.74 E188.22385
G0 F12000 X169.73 Y169.38
G1 F2100 X136.50 Y169.38 E189.32901
G0 F12000 X136.15 Y169.02
G1 F2100 X170.08 Y169.02 E190.45743
G0 F12000 X170.40 Y168.66
G1 F2100 X135.84 Y168.66 E191.60693
G0 F12000 X135.52 Y168.30
G1 F2100 X170.71 Y168.30 E192.77756
G0 F12000 X171.03 Y167.94
G1 F2100 X135.20 Y167.94 E193.96923
G0 F12000 X134.88 Y167.58
G1 F2100 X171.35 Y167.58 E195.18200
G0 F12000 X171.66 Y167.22
G1 F2100 X134.57 Y167.22 E196.41582
G0 F12000 X134.27 Y166.86
G1 F2100 X171.96 Y166.86 E197.66919
G0 F12000 X172.20 Y166.50
G1 F2100 X134.03 Y166.50 E198.93873
G0 F12000 X133.79 Y166.14
G1 F2100 X172.44 Y166.14 E200.22443
G0 F12000 X172.69 Y165.78
G1 F2100 X155.16 Y165.78 E200.80738
G0 F12000 X156.83 Y165.42
G1 F2100 X172.93 Y165.42 E201.34301
G0 F12000 X173.17 Y165.06
G1 F2100 X157.87 Y165.06 E201.85219
G0 F12000 X158.73 Y164.70
G1 F2100 X173.42 Y164.70 E202.34058
G0 F12000 X173.64 Y164.34
G1 F2100 X159.45 Y164.34 E202.81251
G0 F12000 X160.10 Y163.98
G1 F2100 X173.82 Y163.98 E203.26883
G0 F12000 X174.00 Y163.62
G1 F2100 X160.63 Y163.62 E203.71346
G0 F12000 X161.17 Y163.26
G1 F2100 X174.18 Y163.26 E204.14634
G0 F12000 X174.36 Y162.90
G1 F2100 X161.62 Y162.90 E204.57027
G0 F12000 X162.02 Y162.54
G1 F2100 X174.54 Y162.54 E204.98665
G0 F12000 X174.72 Y162.18
G1 F2100 X162.43 Y162.18 E205.39542
G0 F12000 X162.79 Y161.82
G1 F2100 X174.90 Y161.82 E205.79823
G0 F12000 X175.04 Y161.46
G1 F2100 X163.11 Y161.46 E206.19523
G0 F12000 X163.43 Y161.10
G1 F2100 X175.17 Y161.10 E206.58580
G0 F12000 X175.29 Y160.74
G1 F2100 X163.75 Y160.74 E206.96996
G0 F12000 X163.99 Y160.38
G1 F2100 X175.42 Y160.38 E207.34995
G0 F12000 X175.54 Y160.02
G1 F2100 X164.24 Y160.02 E207.72606
G0 F12000 X164.48 Y159.66
G1 F2100 X175.67 Y159.66 E208.09824
G0 F12000 X175.79 Y159.30
G1 F2100 X164.72 Y159.30 E208.46646
G0 F12000 X164.91 Y158.94
G1 F2100 X175.92 Y158.94 E208.83269
G0 F12000 X176.02 Y158.58
G1 F2100 X165.09 Y158.58 E209.19622
G0 F12000 X165.27 Y158.22
G1 F2100 X176.09 Y158.22 E209.55616
G0 F12000 X176.16 Y157.86
G1 F2100 X165.45 Y157.86 E209.91255
G0 F12000 X165.59 Y157.50
G1 F2100 X176.24 Y157.50 E210.26660
G0 F12000 X176.31 Y157.14
G1 F2100 X165.72 Y157.14 E210.61893
G0 F12000 X165.84 Y156.78
G1 F2100 X176.38 Y156.78 E210.96952
G0 F12000 X176.46 Y156.42
G1 F2100 X165.97 Y156.42 E211.31839
G0 F12000 X166.09 Y156.06
G1 F2100 X176.53 Y156.06 E211.66552
G0 F12000 X176.60 Y155.70
G1 F2100 X166.17 Y155.70 E212.01249
G0 F12000 X166.24 Y155.34
G1 F2100 X176.62 Y155.34 E212.35783
G0 F12000 X176.65 Y154.98
G1 F2100 X166.31 Y154.98 E212.70158
G0 F12000 X166.39 Y154.62
G1 F2100 X176.67 Y154.62 E213.04369
G0 F12000 X176.70 Y154.26
G1 F2100 X166.45 Y154.26 E213.38447
G0 F12000 X166.48 Y153.90
G1 F2100 X176.72 Y153.90 E213.72526
G0 F12000 X176.75 Y153.54
G1 F2100 X166.50 Y153.54 E214.06607
G0 F12000 X166.53 Y153.18
G1 F2100 X176.77 Y153.18 E214.40692
G0 F12000 X176.80 Y152.82
G1 F2100 X166.55 Y152.82 E214.74781
G0 F12000 X166.57 Y152.46
G1 F2100 X176.82 Y152.46 E215.08892
G0 F12000 X176.80 Y152.10
G1 F2100 X166.54 Y152.10 E215.43004
G0 F12000 X166.52 Y151.74
G1 F2100 X176.77 Y151.74 E215.77112
G0 F12000 X176.75 Y151.38
G1 F2100 X166.50 Y151.38 E216.11217
G0 F12000 X166.47 Y151.02
G1 F2100 X176.72 Y151.02 E216.45322
G0 F12000 X176.70 Y150.66
G1 F2100 X166.45 Y150.66 E216.79423
G0 F12000 X166.37 Y150.30
G1 F2100 X176.68 Y150.30 E217.13688
G0 F12000 X176.65 Y149.94
G1 F2100 X166.30 Y149.94 E217.48112
G0 F12000 X166.23 Y149.58
G1 F2100 X176.63 Y149.58 E217.82703
G0 F12000 X176.59 Y149.22
G1 F2100 X166.15 Y149.22 E218.17423
G0 F12000 X166.07 Y148.86
G1 F2100 X176.52 Y148.86 E218.52177
G0 F12000 X176.44 Y148.50
G1 F2100 X165.94 Y148.50 E218.87100
G0 F12000 X165.82 Y148.14
G1 F2100 X176.37 Y148.14 E219.22193
G0 F12000 X176.30 Y147.78
G1 F2100 X165.69 Y147.78 E219.57458
G0 F12000 X165.57 Y147.42
G1 F2100 X176.22 Y147.42 E219.92890
G0 F12000 X176.15 Y147.06
G1 F2100 X165.41 Y147.06 E220.28598
G0 F12000 X165.23 Y146.70
G1 F2100 X176.07 Y146.70 E220.64659
G0 F12000 X176.00 Y146.34
G1 F2100 X165.05 Y146.34 E221.01072
G0 F12000 X164.87 Y145.98
G1 F2100 X175.90 Y145.98 E221.37748
G0 F12000 X175.77 Y145.62
G1 F2100 X164.68 Y145.62 E221.74654
G0 F12000 X164.43 Y145.26
G1 F2100 X175.65 Y145.26 E222.11951
G0 F12000 X175.52 Y144.90
G1 F2100 X164.19 Y144.90 E222.49639
G0 F12000 X163.95 Y144.54
G1 F2100 X175.40 Y144.54 E222.87715
G0 F12000 X175.27 Y144.18
G1 F2100 X163.68 Y144.18 E223.26250
G0 F12000 X163.37 Y143.82
G1 F2100 X175.14 Y143.82 E223.65420
G0 F12000 X175.02 Y143.46
G1 F2100 X163.05 Y143.46 E224.05226
G0 F12000 X162.73 Y143.10
G1 F2100 X174.87 Y143.10 E224.45597
G0 F12000 X174.69 Y142.74
G1 F2100 X162.35 Y142.74 E224.86624
G0 F12000 X161.95 Y142.38
G1 F2100 X174.51 Y142.38 E225.28408
G0 F12000 X174.33 Y142.02
G1 F2100 X161.54 Y142.02 E225.70948
G0 F12000 X161.06 Y141.66
G1 F2100 X174.15 Y141.66 E226.14466
G0 F12000 X173.97 Y141.30
G1 F2100 X160.53 Y141.30 E226.59151
G0 F12000 X160.00 Y140.94
G1 F2100 X173.78 Y140.94 E227.05003
G0 F12000 X173.60 Y140.58
G1 F2100 X159.31 Y140.58 E227.52522
G0 F12000 X158.60 Y140.22
G1 F2100 X173.37 Y140.22 E228.01660
G0 F12000 X173.13 Y139.86
G1 F2100 X157.66 Y139.86 E228.53094
G0 F12000 X156.59 Y139.50
G1 F2100 X172.88 Y139.50 E229.07295
G0 F12000 X172.64 Y139.14
G1 F2100 X154.59 Y139.14 E229.67329
G0 F12000 X151.64 Y139.14
G1 F2100 X133.59 Y139.14 E230.27370
G0 F12000 X133.35 Y139.50
G1 F2100 X149.64 Y139.50 E230.81564
G0 F12000 X148.56 Y139.86
G1 F2100 X133.11 Y139.86 E231.32971
G0 F12000 X132.86 Y140.22
G1 F2100 X147.64 Y140.22 E231.82110
G0 F12000 X146.92 Y140.58
G1 F2100 X132.63 Y140.58 E232.29645
G0 F12000 X132.45 Y140.94
G1 F2100 X146.23 Y140.94 E232.75501
G0 F12000 X145.70 Y141.30
G1 F2100 X132.27 Y141.30 E233.20183
G0 F12000 X132.09 Y141.66
G1 F2100 X145.17 Y141.66 E233.63693
G0 F12000 X144.70 Y142.02
G1 F2100 X131.91 Y142.02 E234.06236
G0 F12000 X131.72 Y142.38
G1 F2100 X144.29 Y142.38 E234.48021
G0 F12000 X143.88 Y142.74
G1 F2100 X131.54 Y142.74 E234.89044
G0 F12000 X131.36 Y143.10
G1 F2100 X143.51 Y143.10 E235.29429
G0 F12000 X143.19 Y143.46
G1 F2100 X131.21 Y143.46 E235.69254
G0 F12000 X131.09 Y143.82
G1 F2100 X142.87 Y143.82 E236.08441
G0 F12000 X142.55 Y144.18
G1 F2100 X130.14 Y144.18 E236.49707
G0 F12000 X130.27 Y143.82
G1 F2100 X130.72 Y143.64 E236.51907
G1 X130.40 Y143.46 E236.53117
G0 F12000 X130.01 Y144.54
G1 F2100 X142.29 Y144.54 E236.93950
G0 F12000 X142.04 Y144.90
G1 F2100 X129.88 Y144.90 E237.34404
G0 F12000 X129.75 Y145.26
G1 F2100 X141.80 Y145.26 E237.74483
G0 F12000 X141.56 Y145.62
G1 F2100 X129.62 Y145.62 E238.14182
G0 F12000 X129.49 Y145.98
G1 F2100 X141.36 Y145.98 E238.53662
G0 F12000 X141.18 Y146.34
G1 F2100 X129.36 Y146.34 E238.92975
G0 F12000 X129.23 Y146.70
G1 F2100 X141.00 Y146.70 E239.32123
G0 F12000 X144.20 Y147.78
G1 F2100 X128.84 Y147.78 E239.83223
G0 F12000 X128.97 Y147.42
G1 F2100 X144.33 Y147.42 E240.34324
G0 F12000 X144.46 Y147.06
G1 F2100 X129.10 Y147.06 E240.85422
G0 F12000 X128.71 Y148.14
G1 F2100 X144.07 Y148.14 E241.36523
G0 F12000 X143.94 Y148.50
G1 F2100 X128.58 Y148.50 E241.87624
G0 F12000 X128.45 Y148.86
G1 F2100 X143.81 Y148.86 E242.38728
G0 F12000 X143.68 Y149.22
G1 F2100 X128.32 Y149.22 E242.89829
G0 F12000 X128.19 Y149.58
G1 F2100 X143.55 Y149.58 E243.40933
G0 F12000 X143.42 Y149.94
G1 F2100 X128.06 Y149.94 E243.92037
G0 F12000 X127.92 Y150.30
G1 F2100 X143.29 Y150.30 E244.43141
G0 F12000 X143.16 Y150.66
G1 F2100 X127.79 Y150.66 E244.94245
G0 F12000 X127.66 Y151.02
G1 F2100 X143.03 Y151.02 E245.45350
G0 F12000 X142.90 Y151.38
G1 F2100 X127.53 Y151.38 E245.96454
G0 F12000 X127.40 Y151.74
G1 F2100 X142.77 Y151.74 E246.47561
G0 F12000 X142.64 Y152.10
G1 F2100 X127.27 Y152.10 E246.98666
G0 F12000 X127.14 Y152.46
G1 F2100 X142.51 Y152.46 E247.49770
G0 F12000 X142.38 Y152.82
G1 F2100 X127.01 Y152.82 E248.00877
G0 F12000 X126.88 Y153.18
G1 F2100 X142.25 Y153.18 E248.51982
G0 F12000 X142.12 Y153.54
G1 F2100 X126.75 Y153.54 E249.03089
G0 F12000 X126.62 Y153.90
G1 F2100 X141.99 Y153.90 E249.54197
G0 F12000 X141.85 Y154.26
G1 F2100 X126.49 Y154.26 E250.05304
G0 F12000 X126.36 Y154.62
G1 F2100 X141.72 Y154.62 E250.56412
G0 F12000 X141.59 Y154.98
G1 F2100 X126.23 Y154.98 E251.07519
G0 F12000 X126.10 Y155.34
G1 F2100 X141.46 Y155.34 E251.58627
G0 F12000 X141.33 Y155.70
G1 F2100 X125.97 Y155.70 E252.09738
G0 F12000 X125.84 Y156.06
G1 F2100 X141.20 Y156.06 E252.60845
G0 F12000 X141.07 Y156.42
G1 F2100 X125.71 Y156.42 E253.11956
G0 F12000 X125.58 Y156.78
G1 F2100 X140.94 Y156.78 E253.63067
G0 F12000 X140.81 Y157.14
G1 F2100 X125.44 Y157.14 E254.14178
G0 F12000 X125.31 Y157.50
G1 F2100 X140.68 Y157.50 E254.65288
G0 F12000 X140.79 Y157.86
G1 F2100 X130.07 Y157.86 E255.00930
G0 F12000 X130.14 Y158.22
G1 F2100 X140.97 Y158.22 E255.36924
G0 F12000 X141.15 Y158.58
G1 F2100 X130.22 Y158.58 E255.73277
G0 F12000 X130.31 Y158.94
G1 F2100 X141.33 Y158.94 E256.09917
G0 F12000 X141.51 Y159.30
G1 F2100 X130.44 Y159.30 E256.46756
G0 F12000 X130.56 Y159.66
G1 F2100 X141.75 Y159.66 E256.83984
G0 F12000 X142.00 Y160.02
G1 F2100 X130.69 Y160.02 E257.21604
G0 F12000 X130.81 Y160.38
G1 F2100 X142.24 Y160.38 E257.59614
G0 F12000 X142.49 Y160.74
G1 F2100 X130.94 Y160.74 E257.98043
G0 F12000 X131.06 Y161.10
G1 F2100 X142.81 Y161.10 E258.37107
G0 F12000 X143.13 Y161.46
G1 F2100 X131.19 Y161.46 E258.76806
G0 F12000 X131.33 Y161.82
G1 F2100 X143.44 Y161.82 E259.17097
G0 F12000 X143.80 Y162.18
G1 F2100 X131.51 Y162.18 E259.57987
G0 F12000 X131.69 Y162.54
G1 F2100 X144.21 Y162.54 E259.99636
G0 F12000 X144.62 Y162.90
G1 F2100 X131.87 Y162.90 E260.42039
G0 F12000 X132.05 Y163.26
G1 F2100 X145.07 Y163.26 E260.85344
G0 F12000 X145.60 Y163.62
G1 F2100 X132.23 Y163.62 E261.29819
G0 F12000 X132.41 Y163.98
G1 F2100 X146.14 Y163.98 E261.75462
G0 F12000 X146.79 Y164.34
G1 F2100 X132.59 Y164.34 E262.22672
G0 F12000 X132.82 Y164.70
G1 F2100 X147.50 Y164.70 E262.71521
G0 F12000 X148.37 Y165.06
G1 F2100 X133.06 Y165.06 E263.22459
G0 F12000 X133.30 Y165.42
G1 F2100 X149.41 Y165.42 E263.76027
G0 F12000 X151.07 Y165.78
G1 F2100 X133.54 Y165.78 E264.34319
G0 F12000 X139.05 Y171.54
G1 F2100 X167.18 Y171.54 E265.27853
G0 F12000 X166.64 Y171.90
G1 F2100 X139.59 Y171.90 E266.17839
G0 F12000 X140.12 Y172.26
G1 F2100 X166.11 Y172.26 E267.04278
G0 F12000 X165.58 Y172.62
G1 F2100 X140.65 Y172.62 E267.87173
G0 F12000 X141.19 Y172.98
G1 F2100 X165.04 Y172.98 E268.66475
G0 F12000 X164.32 Y173.34
G1 F2100 X141.91 Y173.34 E269.40994
G0 F12000 X142.63 Y173.70
G1 F2100 X163.60 Y173.70 E270.10737
G0 F12000 X162.88 Y174.06
G1 F2100 X143.35 Y174.06 E270.75701
G0 F12000 X144.15 Y174.42
G1 F2100 X162.08 Y174.42 E271.35353
G0 F12000 X161.05 Y174.78
G1 F2100 X145.18 Y174.78 E271.88134
G0 F12000 X146.22 Y175.14
G1 F2100 X160.02 Y175.14 E272.34042
G0 F12000 X158.68 Y175.50
G1 F2100 X147.55 Y175.50 E272.71068
G0 F12000 X149.32 Y175.86
G1 F2100 X156.92 Y175.86 E272.96349
G0 F12000 X172.40 Y138.78
G1 F2100 X133.84 Y138.78 E274.24603
G0 F12000 X134.08 Y138.42
G1 F2100 X172.15 Y138.42 E275.51238
G0 F12000 X171.91 Y138.06
G1 F2100 X134.33 Y138.06 E276.76219
G0 F12000 X134.63 Y137.70
G1 F2100 X171.61 Y137.70 E277.99215
G0 F12000 X171.29 Y137.34
G1 F2100 X134.94 Y137.34 E279.20103
G0 F12000 X135.26 Y136.98
G1 F2100 X170.97 Y136.98 E280.38881
G0 F12000 X170.66 Y136.62
G1 F2100 X135.58 Y136.62 E281.55551
G0 F12000 X135.90 Y136.26
G1 F2100 X170.34 Y136.26 E282.70112
G0 F12000 X170.02 Y135.90
G1 F2100 X136.21 Y135.90 E283.82565
G0 F12000 X136.59 Y135.54
G1 F2100 X169.66 Y135.54 E284.92536
G0 F12000 X169.25 Y135.18
G1 F2100 X137.00 Y135.18 E285.99797
G0 F12000 X137.40 Y134.82
G1 F2100 X168.84 Y134.82 E287.04340
G0 F12000 X168.43 Y134.46
G1 F2100 X137.81 Y134.46 E288.06169
G0 F12000 X138.21 Y134.10
G1 F2100 X168.01 Y134.10 E289.05288
G0 F12000 X167.60 Y133.74
G1 F2100 X138.62 Y133.74 E290.01692
G0 F12000 X139.15 Y133.38
G1 F2100 X167.08 Y133.38 E290.94591
G0 F12000 X166.55 Y133.02
G1 F2100 X139.68 Y133.02 E291.83941
G0 F12000 X140.22 Y132.66
G1 F2100 X166.01 Y132.66 E292.69746
G0 F12000 X165.48 Y132.30
G1 F2100 X140.75 Y132.30 E293.52001
G0 F12000 X141.33 Y131.94
G1 F2100 X164.90 Y131.94 E294.30402
G0 F12000 X164.18 Y131.58
G1 F2100 X142.05 Y131.58 E295.04023
G0 F12000 X142.76 Y131.22
G1 F2100 X163.46 Y131.22 E295.72865
G0 F12000 X162.74 Y130.86
G1 F2100 X143.48 Y130.86 E296.36931
G0 F12000 X144.34 Y130.50
G1 F2100 X161.90 Y130.50 E296.95339
G0 F12000 X160.85 Y130.14
G1 F2100 X145.37 Y130.14 E297.46832
G0 F12000 X146.41 Y129.78
G1 F2100 X159.81 Y129.78 E297.91408
G0 F12000 X158.36 Y129.42
G1 F2100 X147.88 Y129.42 E298.26254
G0 F12000 X149.64 Y129.06
G1 F2100 X156.59 Y129.06 E298.49390
;LAYER:-1
;RAFT
G0 F12000 X156.42 Y129.03 Z0.90
;TYPE:SUPPORT
G1 F2100 X156.42 Y139.46 E298.84110
G0 F12000 X156.06 Y139.39
G1 F2100 X156.06 Y128.99 E299.18711
G0 F12000 X155.70 Y128.96
G1 F2100 X155.70 Y139.32 E299.53152
G0 F12000 X155.34 Y139.24
G1 F2100 X155.34 Y128.94 E299.87426
G0 F12000 X154.98 Y128.91
G1 F2100 X154.98 Y139.17 E300.21534
G0 F12000 X154.62 Y139.14
G1 F2100 X154.62 Y128.89 E300.55626
G0 F12000 X154.26 Y128.87
G1 F2100 X154.26 Y139.12 E300.89718
G0 F12000 X153.90 Y139.09
G1 F2100 X153.90 Y128.84 E301.23809
G0 F12000 X153.54 Y128.82
G1 F2100 X153.54 Y139.07 E301.57901
G0 F12000 X153.18 Y139.04
G1 F2100 X153.18 Y128.79 E301.91993
G0 F12000 X152.82 Y128.81
G1 F2100 X152.82 Y139.06 E302.26091
G0 F12000 X152.46 Y139.09
G1 F2100 X152.46 Y128.83 E302.60189
G0 F12000 X152.10 Y128.86
G1 F2100 X152.10 Y139.11 E302.94288
G0 F12000 X151.74 Y139.13
G1 F2100 X151.74 Y128.88 E303.28383
G0 F12000 X151.38 Y128.91
G1 F2100 X151.38 Y139.16 E303.62477
G0 F12000 X151.02 Y139.22
G1 F2100 X151.02 Y128.93 E303.96705
G0 F12000 X150.66 Y128.96
G1 F2100 X150.66 Y139.29 E304.31093
G0 F12000 X150.30 Y139.37
G1 F2100 X150.30 Y128.98 E304.65640
G0 F12000 X149.94 Y129.00
G1 F2100 X149.94 Y139.44 E305.00351
G0 F12000 X149.58 Y139.51
G1 F2100 X149.58 Y129.07 E305.35078
G0 F12000 X149.22 Y129.15
G1 F2100 X149.22 Y139.63 E305.69954
G0 F12000 X148.86 Y139.76
G1 F2100 X148.86 Y129.22 E306.05000
G0 F12000 X148.50 Y129.29
G1 F2100 X148.50 Y139.88 E306.40220
G0 F12000 X148.14 Y140.01
G1 F2100 X148.14 Y129.37 E306.75608
G0 F12000 X147.78 Y129.44
G1 F2100 X147.78 Y140.15 E307.11223
G0 F12000 X147.42 Y140.33
G1 F2100 X147.42 Y129.51 E307.47191
G0 F12000 X147.06 Y129.59
G1 F2100 X147.06 Y140.51 E307.83518
G0 F12000 X146.70 Y140.69
G1 F2100 X146.70 Y129.69 E308.20117
G0 F12000 X146.34 Y129.80
G1 F2100 X146.34 Y140.87 E308.56923
G0 F12000 X145.98 Y141.11
G1 F2100 X145.98 Y129.93 E308.94117
G0 F12000 X145.62 Y130.05
G1 F2100 X145.62 Y141.35 E309.31705
G0 F12000 X145.26 Y141.60
G1 F2100 X145.26 Y130.18 E309.69684
G0 F12000 X144.90 Y130.30
G1 F2100 X144.90 Y141.84 E310.08057
G0 F12000 X144.54 Y142.16
G1 F2100 X144.54 Y130.43 E310.47067
G0 F12000 X144.18 Y130.55
G1 F2100 X144.18 Y142.47 E310.86717
G0 F12000 X143.82 Y142.79
G1 F2100 X143.82 Y130.69 E311.26975
G0 F12000 X143.46 Y130.87
G1 F2100 X143.46 Y143.15 E311.67828
G0 F12000 X143.10 Y143.56
G1 F2100 X143.10 Y131.05 E312.09433
G0 F12000 X142.74 Y131.23
G1 F2100 X142.74 Y143.97 E312.51790
G0 F12000 X142.38 Y144.41
G1 F2100 X142.38 Y131.41 E312.95012
G0 F12000 X142.02 Y131.59
G1 F2100 X142.02 Y144.94 E313.39397
G0 F12000 X141.66 Y145.47
G1 F2100 X141.66 Y131.77 E313.84947
G0 F12000 X141.30 Y131.95
G1 F2100 X141.30 Y146.10 E314.32000
G0 F12000 X140.94 Y146.82
G1 F2100 X140.94 Y132.17 E314.80723
G0 F12000 X140.58 Y132.41
G1 F2100 X140.58 Y172.57 E316.14279
G0 F12000 X140.22 Y172.33
G1 F2100 X140.22 Y132.66 E317.46222
G0 F12000 X139.86 Y132.90
G1 F2100 X139.86 Y172.08 E318.76545
G0 F12000 X139.50 Y171.84
G1 F2100 X139.50 Y133.14 E320.05252
G0 F12000 X139.14 Y133.39
G1 F2100 X139.14 Y171.60 E321.32342
G0 F12000 X138.78 Y171.35
G1 F2100 X138.78 Y133.63 E322.57816
G0 F12000 X138.42 Y133.92
G1 F2100 X138.42 Y171.06 E323.81374
G0 F12000 X138.06 Y170.75
G1 F2100 X138.06 Y134.24 E325.02820
G0 F12000 X137.70 Y134.56
G1 F2100 X137.70 Y170.43 E326.22148
G0 F12000 X137.34 Y170.12
G1 F2100 X137.34 Y134.87 E327.39363
G0 F12000 X136.98 Y135.19
G1 F2100 X136.98 Y169.80 E328.54463
G0 F12000 X136.62 Y169.48
G1 F2100 X136.62 Y135.51 E329.67448
G0 F12000 X136.26 Y135.84
G1 F2100 X136.26 Y169.14 E330.78191
G0 F12000 X135.90 Y168.73
G1 F2100 X135.90 Y136.25 E331.86216
G0 F12000 X135.54 Y136.66
G1 F2100 X135.54 Y168.32 E332.91521
G0 F12000 X135.18 Y167.91
G1 F2100 X135.18 Y137.07 E333.94109
G0 F12000 X134.82 Y137.48
G1 F2100 X134.82 Y167.51 E334.93979
G0 F12000 X134.46 Y167.10
G1 F2100 X134.46 Y137.89 E335.91132
G0 F12000 X134.10 Y138.38
G1 F2100 X134.10 Y166.60 E336.84975
G0 F12000 X133.74 Y166.07
G1 F2100 X133.74 Y138.92 E337.75273
G0 F12000 X133.38 Y139.45
G1 F2100 X133.38 Y165.53 E338.62022
G0 F12000 X133.02 Y165.00
G1 F2100 X133.02 Y139.98 E339.45226
G0 F12000 X132.66 Y140.52
G1 F2100 X132.66 Y164.47 E340.24881
G0 F12000 X132.30 Y163.75
G1 F2100 X132.30 Y141.23 E340.99789
G0 F12000 X131.94 Y141.95
G1 F2100 X131.94 Y163.03 E341.69921
G0 F12000 X131.58 Y162.32
G1 F2100 X131.58 Y142.67 E342.35281
G0 F12000 X131.22 Y143.44
G1 F2100 X131.22 Y161.54 E342.95502
G0 F12000 X130.86 Y160.51
G1 F2100 X130.86 Y143.76 E343.51222
G0 F12000 X130.50 Y143.45
G1 F2100 X130.50 Y159.48 E344.04518
G0 F12000 X130.14 Y158.19
G1 F2100 X130.14 Y144.19 E344.51103
G0 F12000 X129.78 Y145.18
G1 F2100 X129.78 Y157.59 E344.92372
G0 F12000 X129.42 Y157.59
G1 F2100 X129.42 Y146.17 E345.30335
G0 F12000 X129.06 Y147.17
G1 F2100 X129.06 Y157.59 E345.64995
G0 F12000 X128.70 Y157.59
G1 F2100 X128.70 Y148.16 E345.96353
G0 F12000 X128.34 Y149.15
G1 F2100 X128.34 Y157.59 E346.24408
G0 F12000 X127.98 Y157.59
G1 F2100 X127.98 Y150.15 E346.49157
G0 F12000 X127.62 Y151.14
G1 F2100 X127.62 Y157.59 E346.70603
G0 F12000 X127.26 Y157.59
G1 F2100 X127.26 Y152.13 E346.88746
G0 F12000 X126.90 Y153.13
G1 F2100 X126.90 Y157.59 E347.03587
G0 F12000 X126.54 Y157.59
G1 F2100 X126.54 Y154.12 E347.15125
G0 F12000 X126.18 Y155.11
G1 F2100 X126.18 Y157.59 E347.23357
G0 F12000 X125.82 Y157.59
G1 F2100 X125.82 Y156.11 E347.28286
G0 F12000 X125.46 Y157.10
G1 F2100 X125.46 Y157.59 E347.29912
G0 F12000 X140.94 Y158.17
G1 F2100 X140.94 Y172.81 E347.78615
G0 F12000 X141.30 Y173.03
G1 F2100 X141.30 Y158.89 E348.25662
G0 F12000 X141.66 Y159.52
G1 F2100 X141.66 Y173.21 E348.71205
G0 F12000 X142.02 Y173.39
G1 F2100 X142.02 Y160.05 E349.15574
G0 F12000 X142.38 Y160.59
G1 F2100 X142.38 Y173.57 E349.58765
G0 F12000 X142.74 Y173.75
G1 F2100 X142.74 Y161.02 E350.01109
G0 F12000 X143.10 Y161.43
G1 F2100 X143.10 Y173.93 E350.42691
G0 F12000 X143.46 Y174.11
G1 F2100 X143.46 Y161.84 E350.83514
G0 F12000 X143.82 Y162.19
G1 F2100 X143.82 Y174.29 E351.23759
G0 F12000 X144.18 Y174.43
G1 F2100 X144.18 Y162.51 E351.63398
G0 F12000 X144.54 Y162.83
G1 F2100 X144.54 Y174.56 E352.02403
G0 F12000 X144.90 Y174.68
G1 F2100 X144.90 Y163.14 E352.40775
G0 F12000 X145.26 Y163.39
G1 F2100 X145.26 Y174.81 E352.78754
G0 F12000 X145.62 Y174.93
G1 F2100 X145.62 Y163.63 E353.16338
G0 F12000 X145.98 Y163.87
G1 F2100 X145.98 Y175.06 E353.53533
G0 F12000 X146.34 Y175.18
G1 F2100 X146.34 Y164.12 E353.90342
G0 F12000 X146.70 Y164.30
G1 F2100 X146.70 Y175.30 E354.26948
G0 F12000 X147.06 Y175.40
G1 F2100 X147.06 Y164.48 E354.63272
G0 F12000 X147.42 Y164.66
G1 F2100 X147.42 Y175.47 E354.99239
G0 F12000 X147.78 Y175.54
G1 F2100 X147.78 Y164.84 E355.34848
G0 F12000 X148.14 Y164.98
G1 F2100 X148.14 Y175.62 E355.70236
G0 F12000 X148.50 Y175.69
G1 F2100 X148.50 Y165.10 E356.05455
G0 F12000 X148.86 Y165.23
G1 F2100 X148.86 Y175.76 E356.40498
G0 F12000 X149.22 Y175.84
G1 F2100 X149.22 Y165.35 E356.75368
G0 F12000 X149.58 Y165.47
G1 F2100 X149.58 Y175.91 E357.10085
G0 F12000 X149.94 Y175.98
G1 F2100 X149.94 Y165.55 E357.44795
G0 F12000 X150.30 Y165.62
G1 F2100 X150.30 Y176.01 E357.79339
G0 F12000 X150.66 Y176.03
G1 F2100 X150.66 Y165.69 E358.13720
G0 F12000 X151.02 Y165.77
G1 F2100 X151.02 Y176.06 E358.47935
G0 F12000 X151.38 Y176.08
G1 F2100 X151.38 Y165.83 E358.82030
G0 F12000 X151.74 Y165.85
G1 F2100 X151.74 Y176.10 E359.16125
G0 F12000 X152.10 Y176.13
G1 F2100 X152.10 Y165.88 E359.50220
G0 F12000 X152.46 Y165.90
G1 F2100 X152.46 Y176.15 E359.84315
G0 F12000 X152.82 Y176.18
G1 F2100 X152.82 Y165.93 E360.18410
G0 F12000 X153.18 Y165.94
G1 F2100 X153.18 Y176.20 E360.52532
G0 F12000 X153.54 Y176.17
G1 F2100 X153.54 Y165.92 E360.86640
G0 F12000 X153.90 Y165.89
G1 F2100 X153.90 Y176.14 E361.20735
G0 F12000 X154.26 Y176.12
G1 F2100 X154.26 Y165.87 E361.54826
G0 F12000 X154.62 Y165.84
G1 F2100 X154.62 Y176.09 E361.88918
G0 F12000 X154.98 Y176.07
G1 F2100 X154.98 Y165.81 E362.23026
G0 F12000 X155.34 Y165.74
G1 F2100 X155.34 Y176.05 E362.57298
G0 F12000 X155.70 Y176.02
G1 F2100 X155.70 Y165.67 E362.91728
G0 F12000 X156.06 Y165.60
G1 F2100 X156.06 Y176.00 E363.26322
G0 F12000 X156.42 Y175.96
G1 F2100 X156.42 Y165.52 E363.61043
G0 F12000 X156.78 Y165.44
G1 F2100 X156.78 Y175.89 E363.95809
G0 F12000 X157.14 Y175.81
G1 F2100 X157.14 Y165.31 E364.30749
G0 F12000 X157.50 Y165.19
G1 F2100 X157.50 Y175.74 E364.65859
G0 F12000 X157.86 Y175.67
G1 F2100 X157.86 Y165.06 E365.01141
G0 F12000 X158.22 Y164.94
G1 F2100 X158.22 Y175.59 E365.36593
G0 F12000 X158.58 Y175.52
G1 F2100 X158.58 Y164.78 E365.72334
G0 F12000 X158.94 Y164.59
G1 F2100 X158.94 Y175.45 E366.08428
G0 F12000 X159.30 Y175.37
G1 F2100 X159.30 Y164.41 E366.44881
G0 F12000 X159.66 Y164.23
G1 F2100 X159.66 Y175.26 E366.81574
G0 F12000 X160.02 Y175.14
G1 F2100 X160.02 Y164.03 E367.18516
G0 F12000 X160.38 Y163.79
G1 F2100 X160.38 Y175.01 E367.55847
G0 F12000 X160.74 Y174.89
G1 F2100 X160.74 Y163.55 E367.93567
G0 F12000 X161.10 Y163.30
G1 F2100 X161.10 Y174.76 E368.31680
G0 F12000 X161.46 Y174.64
G1 F2100 X161.46 Y163.03 E368.70269
G0 F12000 X161.82 Y162.72
G1 F2100 X161.82 Y174.51 E369.09492
G0 F12000 X162.18 Y174.38
G1 F2100 X162.18 Y162.40 E369.49355
G0 F12000 X162.54 Y162.08
G1 F2100 X162.54 Y174.23 E369.89759
G0 F12000 X162.90 Y174.05
G1 F2100 X162.90 Y161.69 E370.30855
G0 F12000 X163.26 Y161.29
G1 F2100 X163.26 Y173.87 E370.72706
G0 F12000 X163.62 Y173.69
G1 F2100 X163.62 Y160.88 E371.15316
G0 F12000 X163.98 Y160.40
G1 F2100 X163.98 Y173.51 E371.58923
G0 F12000 X164.34 Y173.33
G1 F2100 X164.34 Y159.86 E372.03708
G0 F12000 X164.70 Y159.33
G1 F2100 X164.70 Y173.15 E372.49664
G0 F12000 X165.06 Y172.97
G1 F2100 X165.06 Y158.63 E372.97345
G0 F12000 X165.42 Y157.91
G1 F2100 X165.42 Y172.73 E373.46607
G0 F12000 X165.78 Y172.48
G1 F2100 X165.78 Y156.96 E373.98240
G0 F12000 X166.14 Y155.83
G1 F2100 X166.14 Y172.24 E374.52823
G0 F12000 X166.50 Y172.00
G1 F2100 X166.50 Y153.54 E375.14205
G0 F12000 X166.50 Y151.44
G1 F2100 X166.50 Y132.99 E375.75590
G0 F12000 X166.86 Y133.23
G1 F2100 X166.86 Y171.75 E377.03718
G0 F12000 X167.22 Y171.51
G1 F2100 X167.22 Y133.47 E378.30226
G0 F12000 X167.58 Y133.72
G1 F2100 X167.58 Y171.27 E379.55111
G0 F12000 X167.94 Y170.96
G1 F2100 X167.94 Y134.03 E380.77914
G0 F12000 X168.30 Y134.35
G1 F2100 X168.30 Y170.64 E381.98612
G0 F12000 X168.66 Y170.32
G1 F2100 X168.66 Y134.67 E383.17204
G0 F12000 X169.02 Y134.98
G1 F2100 X169.02 Y170.00 E384.33688
G0 F12000 X169.38 Y169.69
G1 F2100 X169.38 Y135.30 E385.48066
G0 F12000 X169.74 Y135.61
G1 F2100 X169.74 Y169.37 E386.60336
G0 F12000 X170.10 Y169.00
G1 F2100 X170.10 Y135.99 E387.70131
G0 F12000 X170.46 Y136.40
G1 F2100 X170.46 Y168.59 E388.77202
G0 F12000 X170.82 Y168.18
G1 F2100 X170.82 Y136.81 E389.81549
G0 F12000 X171.18 Y137.22
G1 F2100 X171.18 Y167.77 E390.83172
G0 F12000 X171.54 Y167.36
G1 F2100 X171.54 Y137.62 E391.82071
G0 F12000 X171.90 Y138.05
G1 F2100 X171.90 Y166.95 E392.78186
G0 F12000 X172.26 Y166.41
G1 F2100 X172.26 Y138.58 E393.70762
G0 F12000 X172.62 Y139.11
G1 F2100 X172.62 Y165.88 E394.59800
G0 F12000 X172.98 Y165.35
G1 F2100 X172.98 Y139.64 E395.45298
G0 F12000 X173.34 Y140.17
G1 F2100 X173.34 Y164.81 E396.27258
G0 F12000 X173.70 Y164.22
G1 F2100 X173.70 Y140.78 E397.05236
G0 F12000 X174.06 Y141.49
G1 F2100 X174.06 Y163.50 E397.78448
G0 F12000 X174.42 Y162.78
G1 F2100 X174.42 Y142.21 E398.46894
G0 F12000 X174.78 Y142.92
G1 F2100 X174.78 Y162.07 E399.10574
G0 F12000 X175.14 Y161.19
G1 F2100 X175.14 Y143.81 E399.68370
G0 F12000 X175.50 Y144.84
G1 F2100 X175.50 Y160.15 E400.19285
G0 F12000 X175.86 Y159.11
G1 F2100 X175.86 Y145.87 E400.63318
G0 F12000 X176.22 Y147.41
G1 F2100 X176.22 Y157.59 E400.97167
G0 F12000 X176.58 Y155.82
G1 F2100 X176.58 Y149.16 E401.19315
G0 F12000 X166.14 Y149.16
G1 F2100 X166.14 Y132.74 E401.73898
G0 F12000 X165.78 Y132.50
G1 F2100 X165.78 Y148.02 E402.25528
G0 F12000 X165.42 Y147.07
G1 F2100 X165.42 Y132.26 E402.74796
G0 F12000 X165.06 Y132.02
G1 F2100 X165.06 Y146.35 E403.22471
G0 F12000 X164.70 Y145.65
G1 F2100 X164.70 Y131.84 E403.68417
G0 F12000 X164.34 Y131.66
G1 F2100 X164.34 Y145.12 E404.13188
G0 F12000 X163.98 Y144.59
G1 F2100 X163.98 Y131.48 E404.56785
G0 F12000 X163.62 Y131.30
G1 F2100 X163.62 Y144.10 E404.99378
G0 F12000 X163.26 Y143.70
G1 F2100 X163.26 Y131.12 E405.41210
G0 F12000 X162.90 Y130.94
G1 F2100 X162.90 Y143.29 E405.82279
G0 F12000 X162.54 Y142.90
G1 F2100 X162.54 Y130.76 E406.22660
G0 F12000 X162.18 Y130.60
G1 F2100 X162.18 Y142.58 E406.62526
G0 F12000 X161.82 Y142.27
G1 F2100 X161.82 Y130.47 E407.01750
G0 F12000 X161.46 Y130.35
G1 F2100 X161.46 Y141.95 E407.40338
G0 F12000 X161.10 Y141.68
G1 F2100 X161.10 Y130.22 E407.78451
G0 F12000 X160.74 Y130.10
G1 F2100 X160.74 Y141.44 E408.16165
G0 F12000 X160.38 Y141.20
G1 F2100 X160.38 Y129.98 E408.53482
G0 F12000 X160.02 Y129.85
G1 F2100 X160.02 Y140.95 E408.90401
G0 F12000 X159.66 Y140.75
G1 F2100 X159.66 Y129.73 E409.27064
G0 F12000 X159.30 Y129.61
G1 F2100 X159.30 Y140.57 E409.63510
G0 F12000 X158.94 Y140.39
G1 F2100 X158.94 Y129.54 E409.99597
G0 F12000 X158.58 Y129.47
G1 F2100 X158.58 Y140.21 E410.35329
G0 F12000 X158.22 Y140.05
G1 F2100 X158.22 Y129.39 E410.70781
G0 F12000 X157.86 Y129.32
G1 F2100 X157.86 Y139.93 E411.06063
G0 F12000 X157.50 Y139.80
G1 F2100 X157.50 Y129.25 E411.41169
G0 F12000 X157.14 Y129.17
G1 F2100 X157.14 Y139.68 E411.76102
G0 F12000 X156.78 Y139.55
G1 F2100 X156.78 Y129.10 E412.10863
G0 F12000 X144.18 Y147.00
G1 F2100 X144.18 Y147.84 E412.13656
G0 F12000 X143.82 Y147.00
G1 F2100 X143.82 Y148.84 E412.19756
G0 F12000 X143.46 Y149.83
G1 F2100 X143.46 Y147.00 E412.29162
G0 F12000 X143.10 Y147.00
G1 F2100 X143.10 Y150.82 E412.41874
G0 F12000 X142.74 Y151.82
G1 F2100 X142.74 Y147.00 E412.57892
G0 F12000 X142.38 Y147.00
G1 F2100 X142.38 Y152.81 E412.77220
G0 F12000 X142.02 Y153.81
G1 F2100 X142.02 Y147.00 E412.99853
G0 F12000 X141.66 Y147.00
G1 F2100 X141.66 Y154.80 E413.25793
G0 F12000 X141.30 Y155.79
G1 F2100 X141.30 Y147.00 E413.55039
G0 F12000 X140.94 Y147.00
G1 F2100 X140.94 Y156.79 E413.87590
;LAYER:0
G1 F2400 E412.67590
G0 F12000 X136.96 Y152.33 Z1.22
;TYPE:WALL-OUTER
G1 F2400 E413.87590
G1 F540 X134.77 Y152.33 E413.91236
G1 X134.78 Y152.27 E413.91341
G1 X136.98 Y152.26 E413.95014
G1 X136.96 Y152.33 E413.95128
G1 F2400 E412.75128
G0 F12000 X134.30 Y152.27
G1 F2400 E413.95128
G1 F540 X134.29 Y152.33 E413.95233
G1 X132.78 Y152.33 E413.97744
G1 X132.81 Y152.27 E413.97855
G1 X134.30 Y152.27 E414.00336
;LAYER:1
G0 F12000 X134.33 Y152.33 Z1.10
;TYPE:WALL-OUTER
G1 F540 X132.78 Y152.33 E414.02904
G1 X133.24 Y151.08 E414.05120
G1 X133.55 Y151.34 E414.05800
G1 X134.39 Y151.34 E414.07203
G1 X134.33 Y152.33 E414.08853
G0 F12000 X134.77 Y152.33
G1 F540 X134.84 Y151.34 E414.10504
G1 X137.32 Y151.34 E414.14629
G1 X136.96 Y152.33 E414.16382
G1 X134.77 Y152.33 E414.20024
G0 F12000 X134.92 Y152.16
;TYPE:FILL
G1 F540 X135.61 Y151.48 E414.21634
G0 F12000 X136.17 Y151.48
G1 F540 X135.46 Y152.19 E414.23306
G0 F12000 X136.03 Y152.19
G1 F540 X136.74 Y151.48 E414.24978
G0 F12000 X137.01 Y151.77
G1 F540 X136.59 Y152.19 E414.25964
G0 F12000 X136.59 Y152.03
G0 X135.04 Y151.64
G0 X135.04 Y151.48
G1 F540 X134.59 Y151.64 E414.26144
G1 X133.76 Y152.19 E414.27798
G0 F12000 X133.20 Y152.19
G1 F540 X133.91 Y151.48 E414.29470
G0 F12000 X133.41 Y151.41
G1 F540 X133.18 Y151.64 E414.30018
;LAYER:2
G0 F12000 X132.78 Y152.33 Z1.20
;TYPE:WALL-OUTER
G1 F600 X133.67 Y149.88 E414.34345
G1 X134.30 Y150.41 E414.35710
G1 X134.46 Y150.41 E414.35973
G1 X134.35 Y152.05 E414.38698
G1 X134.31 Y152.04 E414.38753
G1 X134.29 Y152.33 E414.39228
G1 X132.78 Y152.33 E414.41740
G1 F2400 E413.21740
G0 F12000 X134.29 Y152.33
G1 F2400 E414.41740
G1 F600 X134.31 Y152.04 E414.42213
G1 X134.35 Y152.05 E414.42268
G1 X134.33 Y152.33 E414.42738
G1 X134.29 Y152.33 E414.42795
G0 F12000 X134.77 Y152.33
G1 F600 X134.90 Y150.41 E414.45991
G1 X137.65 Y150.41 E414.50571
G1 X136.96 Y152.33 E414.53964
G1 X134.77 Y152.33 E414.57606
G0 F12000 X134.18 Y152.00
;TYPE:FILL
G1 F600 X133.35 Y151.17 E414.59549
G0 F12000 X133.50 Y150.75
G1 F600 X134.24 Y151.50 E414.61293
G0 F12000 X134.28 Y150.97
G1 F600 X133.65 Y150.34 E414.62767
G0 F12000 X133.20 Y151.59
G1 F600 X133.80 Y152.19 E414.64183
G0 F12000 X133.24 Y152.19
G1 F600 X133.05 Y152.00 E414.64624
G1 F2400 E413.44624
G0 F12000 X134.96 Y151.64
G1 F2400 E414.64624
G1 F600 X135.50 Y152.19 E414.65904
G0 F12000 X136.07 Y152.19
G1 F600 X134.99 Y151.11 E414.68430
G0 F12000 X135.03 Y150.58
G1 F600 X136.63 Y152.19 E414.72203
G0 F12000 X136.95 Y151.94
G1 F600 X135.56 Y150.55 E414.75477
G0 F12000 X136.12 Y150.55
G1 F600 X137.10 Y151.53 E414.77772
G0 F12000 X137.25 Y151.11
G1 F600 X136.97 Y150.55 E414.79087
G1 X137.40 Y150.69 E414.79839
G0 F12000 X136.59 Y151.41
;LAYER:3
G0 X136.96 Y152.33 Z1.30
;TYPE:WALL-OUTER
G1 F780 X132.78 Y152.33 E414.86785
G1 X134.10 Y148.69 E414.93223
G1 X134.97 Y149.42 E414.95111
G1 X135.05 Y149.48 E414.95278
G1 X137.99 Y149.48 E415.00171
G1 X136.96 Y152.33 E415.05204
G0 F12000 X136.59 Y152.19
;TYPE:FILL
G1 F780 X137.01 Y151.77 E415.06191
G0 F12000 X137.33 Y150.88
G1 F780 X136.03 Y152.19 E415.09263
G0 F12000 X135.46 Y152.19
G1 F780 X137.65 Y150.00 E415.14416
G0 F12000 X137.46 Y149.62
G1 F780 X134.90 Y152.19 E415.20451
G0 F12000 X134.33 Y152.19
G1 F780 X136.90 Y149.62 E415.26485
G0 F12000 X136.33 Y149.62
G1 F780 X133.76 Y152.19 E415.32520
G0 F12000 X133.20 Y152.19
G1 F780 X135.76 Y149.62 E415.38555
G0 F12000 X135.20 Y149.62
G1 F780 X133.18 Y151.64 E415.43301
G0 F12000 X133.50 Y150.75
G1 F780 X134.80 Y149.46 E415.46354
G0 F12000 X134.49 Y149.20
G1 F780 X133.82 Y149.87 E415.47927
G0 F12000 X134.49 Y150.32
;LAYER:4
G0 X135.61 Y148.79 Z1.40
G0 X135.80 Y148.56
;TYPE:WALL-OUTER
G1 F1080 X138.32 Y148.56 E415.52130
G1 X136.96 Y152.33 E415.58802
G1 X132.78 Y152.33 E415.65748
G1 X134.53 Y147.50 E415.74296
G1 X134.99 Y147.88 E415.75280
G1 X135.80 Y148.56 E415.77040
G0 F12000 X135.97 Y148.70
;TYPE:FILL
G1 F1080 X137.55 Y150.28 E415.80766
G0 F12000 X137.70 Y149.87
G1 F1080 X136.53 Y148.70 E415.83515
G0 F12000 X137.10 Y148.70
G1 F1080 X137.85 Y149.45 E415.85287
G0 F12000 X138.00 Y149.03
G1 F1080 X137.66 Y148.70 E415.86082
G0 F12000 X137.66 Y148.86
G0 X137.25 Y150.64
G0 X137.40 Y150.70
G1 F1080 X134.55 Y147.85 E415.92780
G0 F12000 X134.40 Y148.26
G1 F1080 X137.25 Y151.11 E415.99477
G0 F12000 X137.10 Y151.53
G1 F1080 X134.25 Y148.68 E416.06175
G0 F12000 X134.10 Y149.09
G1 F1080 X136.95 Y151.94 E416.12873
G0 F12000 X136.63 Y152.19
G1 F1080 X133.95 Y149.51 E416.19174
G0 F12000 X133.80 Y149.93
G1 F1080 X136.07 Y152.19 E416.24497
G0 F12000 X135.50 Y152.19
G1 F1080 X133.65 Y150.34 E416.28843
G0 F12000 X133.50 Y150.75
G1 F1080 X134.94 Y152.19 E416.32215
G0 F12000 X134.37 Y152.19
G1 F1080 X133.35 Y151.17 E416.34609
G0 F12000 X133.20 Y151.59
G1 F1080 X133.80 Y152.19 E416.36025
G0 F12000 X133.24 Y152.19
G1 F1080 X133.05 Y152.00 E416.36466
G0 F12000 X133.86 Y151.33
;LAYER:5
G0 X132.78 Y152.33 Z1.50
;TYPE:WALL-OUTER
G1 F1320 X134.97 Y146.30 E416.47125
G1 X135.31 Y146.59 E416.47882
G1 X136.55 Y147.63 E416.50558
G1 X138.66 Y147.63 E416.54072
G1 X136.96 Y152.33 E416.62383
G1 X132.78 Y152.33 E416.69329
G0 F12000 X133.20 Y152.19
;TYPE:FILL
G1 F1320 X137.62 Y147.77 E416.79725
G0 F12000 X137.05 Y147.77
G1 F1320 X133.18 Y151.64 E416.88831
G0 F12000 X133.76 Y152.19
G1 F1320 X138.19 Y147.77 E416.99226
G0 F12000 X138.29 Y148.22
G1 F1320 X134.33 Y152.19 E417.08546
G0 F12000 X134.90 Y152.19
G1 F1320 X137.97 Y149.11 E417.15785
G0 F12000 X137.65 Y150.00
G1 F1320 X135.46 Y152.19 E417.20941
G0 F12000 X136.03 Y152.19
G1 F1320 X137.33 Y150.88 E417.24012
G0 F12000 X137.01 Y151.77
G1 F1320 X136.59 Y152.19 E417.25002
G0 F12000 X136.59 Y152.03
G0 X133.65 Y150.81
G0 X133.50 Y150.75
G1 F1320 X136.49 Y147.76 E417.32032
G0 F12000 X136.18 Y147.51
G1 F1320 X133.82 Y149.87 E417.37583
G0 F12000 X134.15 Y148.98
G1 F1320 X135.88 Y147.25 E417.41656
G0 F12000 X135.57 Y146.99
G1 F1320 X134.47 Y148.09 E417.44252
G0 F12000 X134.79 Y147.21
G1 F1320 X135.26 Y146.73 E417.45369
G0 F12000 X135.53 Y147.69
;LAYER:6
G0 X137.10 Y146.93 Z1.60
G0 X137.30 Y146.70
;TYPE:WALL-OUTER
G1 F1620 X139.00 Y146.70 E417.48193
G1 X136.96 Y152.33 E417.58145
G1 X132.78 Y152.33 E417.65091
G1 X135.40 Y145.11 E417.77863
G1 X135.76 Y145.41 E417.78645
G1 X137.30 Y146.70 E417.81986
G0 F12000 X137.51 Y146.84
;TYPE:FILL
G1 F1620 X138.45 Y147.79 E417.84210
G0 F12000 X138.30 Y148.20
G1 F1620 X135.46 Y145.36 E417.90906
G0 F12000 X135.31 Y145.77
G1 F1620 X138.15 Y148.62 E417.97602
G0 F12000 X138.00 Y149.03
G1 F1620 X135.16 Y146.19 E418.04300
G0 F12000 X135.00 Y146.60
G1 F1620 X137.85 Y149.45 E418.10996
G0 F12000 X137.70 Y149.86
G1 F1620 X134.85 Y147.02 E418.17691
G0 F12000 X134.70 Y147.43
G1 F1620 X137.55 Y150.28 E418.24389
G0 F12000 X137.40 Y150.69
G1 F1620 X134.55 Y147.85 E418.31086
G0 F12000 X134.40 Y148.26
G1 F1620 X137.25 Y151.11 E418.37784
G0 F12000 X137.10 Y151.53
G1 F1620 X134.25 Y148.68 E418.44485
G0 F12000 X134.10 Y149.09
G1 F1620 X136.95 Y151.94 E418.51183
G0 F12000 X136.63 Y152.19
G1 F1620 X133.95 Y149.51 E418.57485
G0 F12000 X133.80 Y149.92
G1 F1620 X136.07 Y152.19 E418.62809
G0 F12000 X135.50 Y152.19
G1 F1620 X133.65 Y150.34 E418.67155
G0 F12000 X133.50 Y150.75
G1 F1620 X134.94 Y152.19 E418.70527
G0 F12000 X134.37 Y152.19
G1 F1620 X133.35 Y151.17 E418.72921
G0 F12000 X133.20 Y151.59
G1 F1620 X133.80 Y152.19 E418.74337
G0 F12000 X133.24 Y152.19
G1 F1620 X133.05 Y152.00 E418.74778
G0 F12000 X133.20 Y152.06
G0 X138.07 Y147.00
G0 X138.07 Y146.84
G1 F1620 X138.68 Y147.16 E418.76023
G1 X138.64 Y146.84 E418.76563
G0 F12000 X137.69 Y147.36
;LAYER:7
G0 X137.85 Y146.00 Z1.70
G0 X138.05 Y145.78
;TYPE:WALL-OUTER
G1 F1860 X139.33 Y145.77 E418.78698
G1 X136.96 Y152.33 E418.90289
G1 X132.78 Y152.33 E418.97235
G1 X135.83 Y143.91 E419.12116
G1 X136.25 Y144.27 E419.13031
G1 X138.05 Y145.78 E419.16928
G0 F12000 X137.88 Y145.81
;TYPE:FILL
G1 F1860 X133.82 Y149.87 E419.26459
G0 F12000 X133.50 Y150.75
G1 F1860 X138.34 Y145.91 E419.37842
G0 F12000 X138.91 Y145.91
G1 F1860 X133.18 Y151.64 E419.51311
G0 F12000 X133.20 Y152.19
G1 F1860 X138.94 Y146.45 E419.64801
G0 F12000 X138.62 Y147.34
G1 F1860 X133.76 Y152.19 E419.76207
G0 F12000 X134.33 Y152.19
G1 F1860 X138.29 Y148.22 E419.85530
G0 F12000 X137.97 Y149.11
G1 F1860 X134.90 Y152.19 E419.92769
G0 F12000 X135.46 Y152.19
G1 F1860 X137.66 Y150.00 E419.97927
G0 F12000 X137.33 Y150.88
G1 F1860 X136.03 Y152.19 E420.00999
G0 F12000 X136.59 Y152.19
G1 F1860 X137.01 Y151.77 E420.01989
G0 F12000 X136.86 Y151.71
G0 X134.29 Y149.03
G0 X134.15 Y148.98
G1 F1860 X137.57 Y145.56 E420.10042
G0 F12000 X137.26 Y145.30
G1 F1860 X134.47 Y148.09 E420.16616
G0 F12000 X134.79 Y147.21
G1 F1860 X136.95 Y145.04 E420.21712
G0 F12000 X136.65 Y144.78
G1 F1860 X135.11 Y146.32 E420.25330
G0 F12000 X135.43 Y145.43
G1 F1860 X136.34 Y144.52 E420.27470
G0 F12000 X136.03 Y144.26
G1 F1860 X135.75 Y144.55 E420.28131
G0 F12000 X136.07 Y145.42
;LAYER:8
G0 X136.95 Y143.70 Z1.80
G0 X137.15 Y143.47
;TYPE:WALL-OUTER
G1 F2100 X138.80 Y144.85 E420.31705
G1 X139.67 Y144.85 E420.33152
G1 X136.96 Y152.33 E420.46383
G1 X132.78 Y152.33 E420.53329
G1 X136.26 Y142.72 E420.70321
G1 X136.89 Y143.25 E420.71692
G1 X137.15 Y143.47 E420.72247
G0 F12000 X137.16 Y143.66
;TYPE:FILL
G1 F2100 X139.21 Y145.71 E420.77065
G0 F12000 X139.35 Y145.29
G1 F2100 X139.05 Y144.99 E420.77789
G0 F12000 X139.06 Y146.13
G1 F2100 X136.21 Y143.28 E420.84485
G0 F12000 X136.06 Y143.69
G1 F2100 X138.90 Y146.54 E420.91180
G0 F12000 X138.75 Y146.96
G1 F2100 X135.91 Y144.11 E420.97875
G0 F12000 X135.76 Y144.53
G1 F2100 X138.60 Y147.37 E421.04571
G0 F12000 X138.45 Y147.79
G1 F2100 X135.61 Y144.94 E421.11269
G0 F12000 X135.46 Y145.36
G1 F2100 X138.30 Y148.20 E421.17965
G0 F12000 X138.15 Y148.62
G1 F2100 X135.31 Y145.77 E421.24661
G0 F12000 X135.16 Y146.19
G1 F2100 X138.00 Y149.03 E421.31357
G0 F12000 X137.85 Y149.45
G1 F2100 X135.00 Y146.60 E421.38054
G0 F12000 X134.85 Y147.02
G1 F2100 X137.70 Y149.87 E421.44752
G0 F12000 X137.55 Y150.28
G1 F2100 X134.71 Y147.43 E421.51448
G0 F12000 X134.55 Y147.85
G1 F2100 X137.40 Y150.70 E421.58146
G0 F12000 X137.25 Y151.11
G1 F2100 X134.40 Y148.26 E421.64844
G0 F12000 X134.25 Y148.68
G1 F2100 X137.10 Y151.53 E421.71542
G0 F12000 X136.95 Y151.94
G1 F2100 X134.10 Y149.09 E421.78240
G0 F12000 X133.95 Y149.51
G1 F2100 X136.63 Y152.19 E421.84542
G0 F12000 X136.07 Y152.19
G1 F2100 X133.80 Y149.93 E421.89865
G0 F12000 X133.65 Y150.34
G1 F2100 X135.50 Y152.19 E421.94211
G0 F12000 X134.94 Y152.19
G1 F2100 X133.50 Y150.75 E421.97583
G0 F12000 X133.35 Y151.17
G1 F2100 X134.37 Y152.19 E421.99977
G0 F12000 X133.80 Y152.19
G1 F2100 X133.20 Y151.59 E422.01393
G0 F12000 X133.05 Y152.00
G1 F2100 X133.24 Y152.19 E422.01834
G0 F12000 X134.10 Y151.64
;LAYER:9
G0 X132.78 Y152.33 Z1.90
;TYPE:WALL-OUTER
G1 F2400 X136.69 Y141.53 E422.20937
G1 X137.57 Y142.26 E422.22828
G1 X137.78 Y142.45 E422.23309
G1 X137.81 Y142.46 E422.23354
G1 X139.54 Y143.92 E422.27126
G1 X140.00 Y143.92 E422.27884
G1 X136.96 Y152.33 E422.42756
G1 X132.78 Y152.33 E422.49702
G0 F12000 X133.20 Y152.19
;TYPE:FILL
G1 F2400 X138.94 Y146.45 E422.63192
G0 F12000 X138.62 Y147.34
G1 F2400 X133.76 Y152.19 E422.74601
G0 F12000 X134.33 Y152.19
G1 F2400 X138.29 Y148.22 E422.83925
G0 F12000 X137.97 Y149.11
G1 F2400 X134.90 Y152.19 E422.91166
G0 F12000 X135.46 Y152.19
G1 F2400 X137.66 Y150.00 E422.96324
G0 F12000 X137.33 Y150.88
G1 F2400 X136.03 Y152.19 E422.99396
G0 F12000 X136.59 Y152.19
G1 F2400 X137.01 Y151.77 E423.00387
G0 F12000 X136.87 Y151.71
G0 X133.65 Y150.81
G0 X133.50 Y150.75
G1 F2400 X139.58 Y144.68 E423.14669
G0 F12000 X139.63 Y144.06
G1 F2400 X133.82 Y149.87 E423.28330
G0 F12000 X134.15 Y148.98
G1 F2400 X139.26 Y143.86 E423.40362
G0 F12000 X138.95 Y143.60
G1 F2400 X134.47 Y148.09 E423.50916
G0 F12000 X134.79 Y147.21
G1 F2400 X138.65 Y143.35 E423.59992
G0 F12000 X138.34 Y143.09
G1 F2400 X135.11 Y146.32 E423.67588
G0 F12000 X135.43 Y145.43
G1 F2400 X138.03 Y142.83 E423.73705
G0 F12000 X137.72 Y142.57
G1 F2400 X135.75 Y144.55 E423.78342
G0 F12000 X136.07 Y143.66
G1 F2400 X137.42 Y142.31 E423.81504
G0 F12000 X137.11 Y142.06
G1 F2400 X136.39 Y142.77 E423.83185
G0 F12000 X136.71 Y141.88
G1 F2400 X136.80 Y141.80 E423.83389
G1 F2400 E422.63389
G0 F12000 X139.26 Y145.57
G1 F2400 E423.83389
G1 X133.18 Y151.64 E423.97674
G0 F12000 X133.99 Y151.33
;LAYER:10
G1 F2400 E422.77674
G0 F12000 X132.78 Y152.33 Z2.00
;TYPE:WALL-OUTER
G1 F2400 E423.97674
G1 F2520 X137.13 Y140.34 E424.18887
G1 X138.40 Y141.40 E424.21647
G1 X138.47 Y141.46 E424.21794
G1 X140.29 Y142.99 E424.25766
G1 X140.34 Y142.99 E424.25834
G1 X136.96 Y152.33 E424.42343
G1 X132.78 Y152.33 E424.49289
G0 F12000 X133.58 Y151.40
;TYPE:FILL
G1 F2520 X133.35 Y151.17 E424.49823
G0 F12000 X133.50 Y150.75
G1 F2520 X134.14 Y151.40 E424.51334
G0 F12000 X134.32 Y151.57
G1 F2520 X134.61 Y152.14 E424.52577
G1 X134.28 Y152.10 E424.53120
G0 F12000 X134.88 Y151.57
G1 F2520 X133.65 Y150.34 E424.56015
G0 F12000 X133.80 Y149.92
G1 F2520 X135.28 Y151.40 E424.59479
G0 F12000 X135.84 Y151.40
G1 F2520 X133.95 Y149.51 E424.63920
G0 F12000 X134.10 Y149.09
G1 F2520 X136.41 Y151.40 E424.69338
G0 F12000 X136.97 Y151.40
G1 F2520 X134.25 Y148.68 E424.75733
G0 F12000 X134.40 Y148.26
G1 F2520 X137.25 Y151.11 E424.82432
G0 F12000 X137.40 Y150.70
G1 F2520 X134.55 Y147.85 E424.89132
G0 F12000 X134.70 Y147.43
G1 F2520 X137.55 Y150.28 E424.95831
G0 F12000 X137.70 Y149.87
G1 F2520 X134.85 Y147.02 E425.02529
G0 F12000 X135.00 Y146.60
G1 F2520 X137.85 Y149.45 E425.09227
G0 F12000 X138.00 Y149.03
G1 F2520 X135.16 Y146.19 E425.15925
G0 F12000 X135.31 Y145.77
G1 F2520 X138.15 Y148.62 E425.22620
G0 F12000 X138.30 Y148.20
G1 F2520 X135.46 Y145.35 E425.29318
G0 F12000 X135.61 Y144.94
G1 F2520 X138.45 Y147.79 E425.36017
G0 F12000 X138.60 Y147.37
G1 F2520 X135.76 Y144.53 E425.42713
G0 F12000 X135.91 Y144.11
G1 F2520 X138.75 Y146.96 E425.49410
G0 F12000 X138.90 Y146.54
G1 F2520 X136.06 Y143.69 E425.56106
G0 F12000 X136.21 Y143.28
G1 F2520 X139.06 Y146.13 E425.62802
G0 F12000 X139.21 Y145.71
G1 F2520 X136.36 Y142.86 E425.69497
G0 F12000 X136.51 Y142.45
G1 F2520 X139.35 Y145.29 E425.76192
G0 F12000 X139.50 Y144.88
G1 F2520 X136.66 Y142.03 E425.82885
G0 F12000 X136.81 Y141.62
G1 F2520 X139.66 Y144.46 E425.89581
G0 F12000 X139.81 Y144.05
G1 F2520 X136.96 Y141.20 E425.96274
G0 F12000 X137.11 Y140.79
G1 F2520 X139.96 Y143.63 E426.02968
G0 F12000 X140.11 Y143.22
G1 F2520 X138.86 Y141.97 E426.05898
G0 F12000 X138.31 Y142.63
;LAYER:11
G0 X138.98 Y140.86 Z2.10
G0 X139.16 Y140.62
;TYPE:WALL-OUTER
G1 F2640 X140.81 Y142.00 E426.09474
G1 X140.66 Y142.09 E426.09763
G1 X136.96 Y152.33 E426.27867
G1 X132.78 Y152.33 E426.34814
G1 X137.46 Y139.41 E426.57672
G1 X137.61 Y139.32 E426.57958
G1 X138.87 Y140.38 E426.60693
G1 X139.16 Y140.62 E426.61328
G0 F12000 X139.04 Y140.69
;TYPE:FILL
G1 F2640 X136.07 Y143.66 E426.68306
G0 F12000 X136.39 Y142.77
G1 F2640 X138.73 Y140.44 E426.73802
G0 F12000 X138.42 Y140.18
G1 F2640 X136.71 Y141.89 E426.77821
G0 F12000 X137.03 Y141.00
G1 F2640 X138.11 Y139.92 E426.80361
G0 F12000 X137.81 Y139.66
G1 F2640 X137.35 Y140.11 E426.81422
G0 F12000 X137.51 Y140.17
G0 X139.24 Y141.07
G0 X139.34 Y140.95
G1 F2640 X135.75 Y144.55 E426.89877
G0 F12000 X135.43 Y145.43
G1 F2640 X139.65 Y141.21 E426.99811
G0 F12000 X139.96 Y141.47
G1 F2640 X135.11 Y146.32 E427.11222
G0 F12000 X134.79 Y147.21
G1 F2640 X140.27 Y141.73 E427.24110
G0 F12000 X140.54 Y142.02
G1 F2640 X134.47 Y148.09 E427.38386
G0 F12000 X134.15 Y148.98
G1 F2640 X140.22 Y142.91 E427.52664
G0 F12000 X139.90 Y143.79
G1 F2640 X133.82 Y149.87 E427.66944
G0 F12000 X134.01 Y150.25
G1 F2640 X139.57 Y144.68 E427.80032
G0 F12000 X139.25 Y145.57
G1 F2640 X134.35 Y150.47 E427.91563
G0 F12000 X134.35 Y151.03
G1 F2640 X138.94 Y146.45 E428.02335
G0 F12000 X138.62 Y147.34
G1 F2640 X135.48 Y150.47 E428.09701
G0 F12000 X136.05 Y150.47
G1 F2640 X138.29 Y148.22 E428.14983
G0 F12000 X137.97 Y149.11
G1 F2640 X136.62 Y150.47 E428.18181
G0 F12000 X137.18 Y150.47
G1 F2640 X137.66 Y150.00 E428.19298
G0 F12000 X137.50 Y149.94
G0 X134.92 Y151.03
G1 F2640 X134.31 Y151.64 E428.20718
G0 F12000 X134.33 Y152.19
G1 F2640 X134.88 Y151.64 E428.22002
;LAYER:12
G0 F12000 X136.81 Y152.03 Z2.20
G0 X136.96 Y152.33
;TYPE:WALL-OUTER
G1 F2640 X132.78 Y152.33 E428.28949
G1 X137.46 Y139.41 E428.51807
G1 X138.68 Y138.70 E428.54144
G1 X138.74 Y139.06 E428.54747
G1 X139.72 Y139.88 E428.56868
G1 X141.66 Y141.51 E428.61089
G1 X140.66 Y142.09 E428.63017
G1 X136.96 Y152.33 E428.81121
G0 F12000 X136.81 Y152.03
G0 X136.81 Y149.54
;TYPE:FILL
G1 F2640 X134.70 Y147.43 E428.86084
G0 F12000 X134.55 Y147.85
G1 F2640 X136.25 Y149.54 E428.90070
G0 F12000 X135.68 Y149.54
G1 F2640 X134.40 Y148.26 E428.93078
G0 F12000 X134.25 Y148.68
G1 F2640 X135.12 Y149.54 E428.95110
G0 F12000 X137.38 Y149.54
G1 F2640 X134.85 Y147.02 E429.01049
G0 F12000 X135.00 Y146.60
G1 F2640 X137.85 Y149.45 E429.07749
G0 F12000 X138.00 Y149.03
G1 F2640 X135.16 Y146.19 E429.14447
G0 F12000 X135.31 Y145.77
G1 F2640 X138.15 Y148.62 E429.21143
G0 F12000 X138.30 Y148.20
G1 F2640 X135.46 Y145.35 E429.27841
G0 F12000 X135.61 Y144.94
G1 F2640 X138.45 Y147.79 E429.34539
G0 F12000 X138.60 Y147.37
G1 F2640 X135.76 Y144.53 E429.41236
G0 F12000 X135.91 Y144.11
G1 F2640 X138.75 Y146.96 E429.47933
G0 F12000 X138.90 Y146.54
G1 F2640 X136.06 Y143.69 E429.54628
G0 F12000 X136.21 Y143.28
G1 F2640 X139.06 Y146.13 E429.61324
G0 F12000 X139.21 Y145.71
G1 F2640 X136.36 Y142.86 E429.68020
G0 F12000 X136.51 Y142.45
G1 F2640 X139.35 Y145.29 E429.74713
G0 F12000 X139.50 Y144.88
G1 F2640 X136.66 Y142.03 E429.81407
G0 F12000 X136.81 Y141.62
G1 F2640 X139.66 Y144.46 E429.88101
G0 F12000 X139.81 Y144.05
G1 F2640 X136.96 Y141.20 E429.94793
G0 F12000 X137.11 Y140.79
G1 F2640 X139.96 Y143.63 E430.01487
G0 F12000 X140.11 Y143.22
G1 F2640 X137.26 Y140.37 E430.08179
G0 F12000 X137.41 Y139.96
G1 F2640 X140.26 Y142.80 E430.14871
G0 F12000 X140.41 Y142.39
G1 F2640 X137.56 Y139.54 E430.21562
G0 F12000 X137.90 Y139.31
G1 F2640 X140.57 Y141.98 E430.27839
G0 F12000 X140.93 Y141.77
G1 F2640 X138.26 Y139.10 E430.34115
G0 F12000 X138.34 Y139.25
G0 X139.96 Y140.47
G0 X140.06 Y140.35
G1 F2640 X141.28 Y141.57 E430.36979
G0 F12000 X140.21 Y141.59
;LAYER:13
G0 X140.66 Y142.09 Z2.30
;TYPE:WALL-OUTER
G1 F2700 X136.96 Y152.33 E430.55084
G1 X132.78 Y152.33 E430.62030
G1 X137.46 Y139.41 E430.84888
G1 X139.78 Y138.06 E430.89336
G1 X139.91 Y138.83 E430.90627
G1 X140.09 Y138.98 E430.91024
G1 X140.44 Y139.28 E430.91780
G1 X142.52 Y141.01 E430.96282
G1 X140.66 Y142.09 E430.99851
G0 F12000 X140.59 Y141.97
;TYPE:FILL
G1 F2700 X141.89 Y140.67 E431.02916
G0 F12000 X141.58 Y140.41
G1 F2700 X134.79 Y147.21 E431.18897
G0 F12000 X134.78 Y147.78
G1 F2700 X140.54 Y142.02 E431.32439
G0 F12000 X140.22 Y142.91
G1 F2700 X135.09 Y148.04 E431.44504
G0 F12000 X135.39 Y148.30
G1 F2700 X139.90 Y143.79 E431.55092
G0 F12000 X139.58 Y144.68
G1 F2700 X135.70 Y148.55 E431.64203
G0 F12000 X136.21 Y148.62
G1 F2700 X139.26 Y145.57 E431.71376
G0 F12000 X138.94 Y146.45
G1 F2700 X136.77 Y148.62 E431.76466
G0 F12000 X137.34 Y148.62
G1 F2700 X138.62 Y147.34 E431.79474
G0 F12000 X138.29 Y148.22
G1 F2700 X137.90 Y148.62 E431.80397
G0 F12000 X135.26 Y146.38
G0 X135.11 Y146.32
G1 F2700 X141.27 Y140.15 E431.94900
G0 F12000 X140.97 Y139.90
G1 F2700 X135.43 Y145.43 E432.07922
G0 F12000 X135.75 Y144.55
G1 F2700 X140.66 Y139.64 E432.19466
G0 F12000 X140.35 Y139.38
G1 F2700 X136.07 Y143.66 E432.29533
G0 F12000 X136.39 Y142.77
G1 F2700 X140.04 Y139.12 E432.38120
G0 F12000 X139.77 Y138.83
G1 F2700 X136.71 Y141.89 E432.45305
G0 F12000 X137.03 Y141.00
G1 F2700 X139.68 Y138.35 E432.51537
G0 F12000 X138.51 Y138.96
G1 F2700 X137.35 Y140.11 E432.54251
G0 F12000 X137.50 Y140.17
G0 X141.86 Y141.05
G0 X141.94 Y141.19
G1 F2700 X142.20 Y140.93 E432.54866
G0 F12000 X141.12 Y140.67
;LAYER:14
G0 X140.66 Y142.09 Z2.40
;TYPE:WALL-OUTER
G1 F2700 X136.96 Y152.33 E432.72970
G1 X132.78 Y152.33 E432.79917
G1 X137.46 Y139.41 E433.02775
G1 X140.88 Y137.43 E433.09335
G1 X141.01 Y138.17 E433.10590
G1 X141.08 Y138.60 E433.11316
G1 X143.37 Y140.52 E433.16281
G1 X140.66 Y142.09 E433.21490
G0 F12000 X140.57 Y141.98
;TYPE:FILL
G1 F2700 X137.90 Y139.31 E433.27767
G0 F12000 X137.56 Y139.54
G1 F2700 X140.41 Y142.39 E433.34458
G0 F12000 X140.26 Y142.80
G1 F2700 X137.41 Y139.96 E433.41151
G0 F12000 X137.26 Y140.37
G1 F2700 X140.11 Y143.22 E433.47843
G0 F12000 X139.96 Y143.63
G1 F2700 X137.11 Y140.79 E433.54536
G0 F12000 X136.96 Y141.20
G1 F2700 X139.81 Y144.05 E433.61229
G0 F12000 X139.66 Y144.46
G1 F2700 X136.81 Y141.62 E433.67924
G0 F12000 X136.66 Y142.03
G1 F2700 X139.50 Y144.88 E433.74618
G0 F12000 X139.35 Y145.29
G1 F2700 X136.51 Y142.45 E433.81313
G0 F12000 X136.36 Y142.86
G1 F2700 X139.21 Y145.71 E433.88009
G0 F12000 X139.06 Y146.13
G1 F2700 X136.21 Y143.28 E433.94707
G0 F12000 X136.06 Y143.69
G1 F2700 X138.91 Y146.54 E434.01405
G0 F12000 X138.75 Y146.96
G1 F2700 X135.91 Y144.11 E434.08102
G0 F12000 X135.76 Y144.52
G1 F2700 X138.60 Y147.37 E434.14801
G0 F12000 X138.35 Y147.69
G1 F2700 X135.61 Y144.94 E434.21265
G0 F12000 X135.46 Y145.35
G1 F2700 X137.79 Y147.69 E434.26751
G0 F12000 X137.22 Y147.69
G1 F2700 X135.31 Y145.77 E434.31262
G0 F12000 X135.15 Y146.19
G1 F2700 X136.66 Y147.69 E434.34796
G0 F12000 X140.34 Y141.83
G0 X140.85 Y141.64
G0 X140.93 Y141.77
G1 F2700 X138.26 Y139.11 E434.41072
G0 F12000 X138.62 Y138.90
G1 F2700 X141.28 Y141.57 E434.47349
G0 F12000 X141.64 Y141.36
G1 F2700 X138.97 Y138.69 E434.53623
G0 F12000 X139.33 Y138.48
G1 F2700 X142.00 Y141.15 E434.59898
G0 F12000 X142.36 Y140.94
G1 F2700 X139.69 Y138.28 E434.66170
G0 F12000 X140.05 Y138.07
G1 F2700 X142.72 Y140.74 E434.72442
G0 F12000 X143.07 Y140.53
G1 F2700 X142.59 Y140.05 E434.73565
G0 F12000 X142.49 Y140.17
G0 X140.87 Y139.12
G0 X140.74 Y138.38
G0 X140.90 Y138.35
G1 F2700 X140.41 Y137.86 E434.74718
G0 F12000 X140.09 Y138.74
;LAYER:15
G0 X142.06 Y138.60 Z2.50
G0 X142.25 Y138.37
;TYPE:WALL-OUTER
G1 F2760 X144.22 Y140.02 E434.78994
G1 X140.66 Y142.09 E434.85843
G1 X136.96 Y152.33 E435.03947
G1 X132.78 Y152.33 E435.10894
G1 X137.46 Y139.41 E435.33752
G1 X141.97 Y136.79 E435.42423
G1 X142.05 Y137.23 E435.43166
G1 X142.04 Y137.23 E435.43186
G1 X142.07 Y137.35 E435.43383
G1 X142.25 Y138.37 E435.45114
G0 F12000 X142.28 Y138.58
;TYPE:FILL
G1 F2760 X135.55 Y145.31 E435.60953
G0 F12000 X135.86 Y145.57
G1 F2760 X142.59 Y138.84 E435.76791
G0 F12000 X142.90 Y139.09
G1 F2760 X136.16 Y145.83 E435.92632
G0 F12000 X136.47 Y146.09
G1 F2760 X140.54 Y142.02 E436.02195
G0 F12000 X140.59 Y141.97
G1 F2760 X143.21 Y139.35 E436.08354
G0 F12000 X143.51 Y139.61
G1 F2760 X141.94 Y141.19 E436.12070
G0 F12000 X141.85 Y141.05
G0 X143.20 Y140.27
G0 X143.28 Y140.41
G1 F2760 X143.82 Y139.87 E436.13338
G0 F12000 X143.72 Y139.99
G0 X141.90 Y138.58
G0 X141.93 Y138.24
G0 X142.08 Y138.22
G1 F2760 X135.75 Y144.55 E436.28230
G0 F12000 X136.07 Y143.66
G1 F2760 X142.00 Y137.74 E436.42165
G0 F12000 X141.90 Y137.26
G1 F2760 X136.39 Y142.77 E436.55122
G0 F12000 X136.71 Y141.89
G1 F2760 X141.20 Y137.40 E436.65673
G0 F12000 X141.28 Y137.54
G0 X139.94 Y138.32
G0 X139.85 Y138.18
G1 F2760 X137.03 Y141.00 E436.72306
G0 F12000 X137.35 Y140.11
G1 F2760 X138.51 Y138.96 E436.75020
G0 F12000 X138.59 Y139.10
G0 X140.07 Y142.85
G0 X140.22 Y142.91
G1 F2760 X136.78 Y146.35 E436.83105
G0 F12000 X137.09 Y146.60
G1 F2760 X139.90 Y143.79 E436.89714
G0 F12000 X139.58 Y144.68
G1 F2760 X137.50 Y146.76 E436.94608
G0 F12000 X138.06 Y146.76
G1 F2760 X139.26 Y145.57 E436.97417
G0 F12000 X138.94 Y146.45
G1 F2760 X138.63 Y146.76 E436.98142
;LAYER:16
G0 F12000 X140.38 Y141.99 Z2.60
G0 X140.66 Y142.09
;TYPE:WALL-OUTER
G1 F2760 X136.96 Y152.33 E437.16246
G1 X132.78 Y152.33 E437.23192
G1 X137.46 Y139.41 E437.46050
G1 X143.07 Y136.15 E437.56832
G1 X143.22 Y136.98 E437.58226
G1 X143.23 Y137.07 E437.58385
G1 X143.42 Y138.14 E437.60189
G1 X145.08 Y139.53 E437.63777
G1 X140.66 Y142.09 E437.72267
G0 F12000 X140.57 Y141.98
;TYPE:FILL
G1 F2760 X137.90 Y139.31 E437.78544
G0 F12000 X137.56 Y139.54
G1 F2760 X140.41 Y142.39 E437.85235
G0 F12000 X140.26 Y142.80
G1 F2760 X137.41 Y139.96 E437.91926
G0 F12000 X137.26 Y140.37
G1 F2760 X140.11 Y143.22 E437.98618
G0 F12000 X139.96 Y143.63
G1 F2760 X137.11 Y140.79 E438.05312
G0 F12000 X136.96 Y141.20
G1 F2760 X139.81 Y144.05 E438.12004
G0 F12000 X139.66 Y144.46
G1 F2760 X136.81 Y141.62 E438.18698
G0 F12000 X136.66 Y142.03
G1 F2760 X139.50 Y144.88 E438.25393
G0 F12000 X139.35 Y145.29
G1 F2760 X136.51 Y142.45 E438.32088
G0 F12000 X136.36 Y142.86
G1 F2760 X139.21 Y145.71 E438.38783
G0 F12000 X138.96 Y146.03
G1 F2760 X138.64 Y145.71 E438.39533
G0 F12000 X138.76 Y145.83
G1 F2760 X136.21 Y143.28 E438.45542
G0 F12000 X136.06 Y143.69
G1 F2760 X138.20 Y145.83 E438.50574
G0 F12000 X140.34 Y141.83
G0 X140.85 Y141.64
G0 X140.93 Y141.77
G1 F2760 X138.26 Y139.11 E438.56850
G0 F12000 X138.62 Y138.90
G1 F2760 X141.28 Y141.57 E438.63127
G0 F12000 X141.64 Y141.36
G1 F2760 X138.97 Y138.69 E438.69401
G0 F12000 X139.33 Y138.48
G1 F2760 X142.00 Y141.15 E438.75677
G0 F12000 X142.36 Y140.94
G1 F2760 X139.69 Y138.28 E438.81951
G0 F12000 X140.05 Y138.07
G1 F2760 X142.72 Y140.74 E438.88226
G0 F12000 X143.07 Y140.53
G1 F2760 X140.41 Y137.86 E438.94499
G0 F12000 X140.76 Y137.65
G1 F2760 X143.43 Y140.32 E439.00771
G0 F12000 X143.79 Y140.11
G1 F2760 X141.12 Y137.45 E439.07044
G0 F12000 X141.48 Y137.24
G1 F2760 X144.15 Y139.91 E439.13317
G0 F12000 X144.50 Y139.70
G1 F2760 X141.84 Y137.03 E439.19588
G0 F12000 X142.20 Y136.82
G1 F2760 X143.23 Y137.85 E439.22015
G0 F12000 X143.11 Y137.17
G1 F2760 X142.73 Y136.51 E439.23316
G1 X142.99 Y136.48 E439.23738
G0 F12000 X142.67 Y137.54
;LAYER:17
G0 X144.40 Y138.14 Z2.70
G0 X144.59 Y137.91
;TYPE:WALL-OUTER
G1 F2880 X145.93 Y139.03 E439.26639
G1 X140.66 Y142.09 E439.36769
G1 X136.96 Y152.33 E439.54873
G1 X132.78 Y152.33 E439.61819
G1 X137.46 Y139.41 E439.84677
G1 X144.17 Y135.52 E439.97571
G1 X144.24 Y135.90 E439.98223
G1 X144.59 Y137.91 E440.01617
G0 F12000 X144.52 Y138.04
;TYPE:FILL
G1 F2880 X140.59 Y141.97 E440.10874
G0 F12000 X140.54 Y142.02
G1 F2880 X138.16 Y144.40 E440.16459
G0 F12000 X138.47 Y144.65
G1 F2880 X140.22 Y142.91 E440.20567
G0 F12000 X139.90 Y143.79
G1 F2880 X138.78 Y144.91 E440.23184
G0 F12000 X139.35 Y144.91
G1 F2880 X139.58 Y144.68 E440.23716
G0 F12000 X138.96 Y146.03
G1 F2880 X136.21 Y143.28 E440.30191
G0 F12000 X136.62 Y143.10
G1 F2880 X143.89 Y135.84 E440.47281
G0 F12000 X144.14 Y136.16
G1 F2880 X136.93 Y143.36 E440.64234
G0 F12000 X137.24 Y143.62
G1 F2880 X144.22 Y136.64 E440.80668
G0 F12000 X144.31 Y137.12
G1 F2880 X137.54 Y143.88 E440.96576
G0 F12000 X137.85 Y144.14
G1 F2880 X144.39 Y137.60 E441.11958
G0 F12000 X144.83 Y138.29
G1 F2880 X141.94 Y141.19 E441.18771
G0 F12000 X141.85 Y141.05
G0 X143.20 Y140.27
G0 X143.28 Y140.41
G1 F2880 X145.14 Y138.55 E441.23136
G0 F12000 X145.45 Y138.81
G1 F2880 X144.63 Y139.62 E441.25050
G0 F12000 X144.55 Y139.49
G0 X142.63 Y136.76
G0 X142.55 Y136.62
G1 F2880 X136.39 Y142.77 E441.39528
G0 F12000 X136.71 Y141.89
G1 F2880 X141.20 Y137.40 E441.50085
G0 F12000 X141.28 Y137.54
G0 X139.94 Y138.32
G0 X139.85 Y138.18
G1 F2880 X137.03 Y141.00 E441.56722
G0 F12000 X137.35 Y140.11
G1 F2880 X138.51 Y138.96 E441.59436
G0 F12000 X138.94 Y139.71
;LAYER:18
G0 X137.68 Y139.62 Z2.80
G0 X137.46 Y139.41
;TYPE:WALL-OUTER
G1 F2940 X145.27 Y134.88 E441.74441
G1 X145.35 Y135.35 E441.75230
G1 X145.32 Y135.36 E441.75286
G1 X145.38 Y135.52 E441.75567
G1 X145.44 Y135.85 E441.76125
G1 X145.76 Y137.69 E441.79228
G1 X146.78 Y138.54 E441.81437
G1 X140.66 Y142.09 E441.93205
G1 X136.96 Y152.33 E442.11309
G1 X132.78 Y152.33 E442.18256
G1 X137.46 Y139.41 E442.41114
G0 F12000 X137.56 Y139.54
;TYPE:FILL
G1 F2940 X140.41 Y142.39 E442.47805
G0 F12000 X140.57 Y141.98
G1 F2940 X137.90 Y139.31 E442.54082
G0 F12000 X138.26 Y139.10
G1 F2940 X140.93 Y141.77 E442.60359
G0 F12000 X141.28 Y141.57
G1 F2940 X138.62 Y138.90 E442.66636
G0 F12000 X138.97 Y138.69
G1 F2940 X141.64 Y141.36 E442.72912
G0 F12000 X142.00 Y141.15
G1 F2940 X139.33 Y138.48 E442.79186
G0 F12000 X139.69 Y138.28
G1 F2940 X142.36 Y140.94 E442.85464
G0 F12000 X142.72 Y140.74
G1 F2940 X140.05 Y138.07 E442.91738
G0 F12000 X140.41 Y137.86
G1 F2940 X143.07 Y140.53 E442.98013
G0 F12000 X143.43 Y140.32
G1 F2940 X140.76 Y137.65 E443.04285
G0 F12000 X141.12 Y137.44
G1 F2940 X143.79 Y140.11 E443.10558
G0 F12000 X144.15 Y139.90
G1 F2940 X141.48 Y137.24 E443.16830
G0 F12000 X141.84 Y137.03
G1 F2940 X144.50 Y139.70 E443.23103
G0 F12000 X144.86 Y139.49
G1 F2940 X142.20 Y136.82 E443.29375
G0 F12000 X142.55 Y136.62
G1 F2940 X145.22 Y139.28 E443.35646
G0 F12000 X145.58 Y139.07
G1 F2940 X142.91 Y136.41 E443.41917
G0 F12000 X143.27 Y136.20
G1 F2940 X145.94 Y138.87 E443.48185
G0 F12000 X146.29 Y138.66
G1 F2940 X143.63 Y135.99 E443.54454
G0 F12000 X143.99 Y135.78
G1 F2940 X145.56 Y137.36 E443.58158
G0 F12000 X145.44 Y136.67
G1 F2940 X144.34 Y135.58 E443.60736
G0 F12000 X144.70 Y135.37
G1 F2940 X145.32 Y135.99 E443.62184
G0 F12000 X145.17 Y135.27
G1 F2940 X145.06 Y135.16 E443.62438
G1 F2400 E442.42438
G0 F12000 X140.26 Y142.80
G1 F2400 E443.62438
G1 F2940 X137.41 Y139.96 E443.69129
G0 F12000 X137.26 Y140.37
G1 F2940 X140.11 Y143.22 E443.75822
G0 F12000 X139.96 Y143.63
G1 F2940 X137.11 Y140.79 E443.82513
G0 F12000 X136.96 Y141.20
G1 F2940 X139.74 Y143.98 E443.89041
G0 F12000 X138.96 Y146.03
G1 F2940 X136.21 Y143.28 E443.95521
G0 F12000 X136.36 Y143.33
G0 X137.33 Y142.14
G1 F2940 X136.81 Y141.62 E443.96752
G0 F12000 X137.62 Y141.91
;LAYER:19
G0 X137.68 Y139.62 Z2.90
G0 X137.46 Y139.41
;TYPE:WALL-OUTER
G1 F3000 X146.37 Y134.24 E444.13868
G1 X146.51 Y135.07 E444.15261
G1 X146.56 Y135.35 E444.15745
G1 X146.93 Y137.46 E444.19295
G1 X147.63 Y138.04 E444.20815
G1 X140.66 Y142.09 E444.34223
G1 X136.96 Y152.33 E444.52327
G1 X132.78 Y152.33 E444.59274
G1 X137.46 Y139.41 E444.82132
G0 F12000 X137.35 Y140.11
;TYPE:FILL
G1 F3000 X138.51 Y138.96 E444.84850
G0 F12000 X138.59 Y139.10
G0 X139.94 Y138.32
G0 X139.86 Y138.18
G1 F3000 X137.40 Y140.64 E444.90639
G0 F12000 X137.70 Y140.90
G1 F3000 X141.20 Y137.40 E444.98873
G0 F12000 X141.28 Y137.54
G0 X142.63 Y136.76
G0 X142.55 Y136.62
G1 F3000 X138.01 Y141.16 E445.09549
G0 F12000 X138.32 Y141.41
G1 F3000 X143.90 Y135.84 E445.22669
G0 F12000 X143.98 Y135.97
G0 X145.32 Y135.19
G0 X145.24 Y135.05
G1 F3000 X138.63 Y141.67 E445.38229
G0 F12000 X138.93 Y141.93
G1 F3000 X146.28 Y134.58 E445.55513
G0 F12000 X146.37 Y135.06
G1 F3000 X139.24 Y142.19 E445.72273
G0 F12000 X139.55 Y142.44
G1 F3000 X146.45 Y135.54 E445.88510
G0 F12000 X146.54 Y136.02
G1 F3000 X140.59 Y141.97 E446.02504
G0 F12000 X140.54 Y142.02
G1 F3000 X139.86 Y142.70 E446.04105
G0 F12000 X140.34 Y141.83
G0 X141.86 Y141.05
G0 X141.94 Y141.19
G1 F3000 X146.62 Y136.50 E446.15126
G0 F12000 X146.71 Y136.98
G1 F3000 X143.28 Y140.41 E446.23176
G0 F12000 X143.20 Y140.27
G0 X144.55 Y139.49
G0 X144.63 Y139.62
G1 F3000 X146.79 Y137.46 E446.28254
G0 F12000 X147.07 Y137.75
G1 F3000 X145.98 Y138.84 E446.30814
G0 F12000 X145.90 Y138.70
G0 X140.34 Y141.83
G0 X138.90 Y146.07
G0 X139.06 Y146.13
G1 F3000 X136.21 Y143.28 E446.37510
G0 F12000 X137.02 Y143.57
;LAYER:20
G0 X140.38 Y141.99 Z3.00
G0 X140.66 Y142.09
;TYPE:WALL-OUTER
G1 F3000 X136.96 Y152.33 E446.55614
G1 X132.78 Y152.33 E446.62560
G1 X137.46 Y139.41 E446.85418
G1 X147.47 Y133.61 E447.04644
G1 X147.63 Y134.54 E447.06215
G1 X148.10 Y137.23 E447.10759
G1 X148.49 Y137.55 E447.11589
G1 X140.66 Y142.09 E447.26636
G0 F12000 X140.47 Y141.80
;TYPE:FILL
G1 F3000 X147.73 Y135.92 E447.42166
G0 F12000 X147.65 Y135.47
G1 F3000 X140.16 Y141.53 E447.58193
G0 F12000 X139.85 Y141.27
G1 F3000 X147.57 Y135.02 E447.74721
G0 F12000 X147.49 Y134.57
G1 F3000 X139.54 Y141.01 E447.91745
G0 F12000 X139.22 Y140.75
G1 F3000 X147.41 Y134.12 E448.09268
G0 F12000 X146.57 Y134.28
G1 F3000 X138.91 Y140.49 E448.25662
G0 F12000 X138.60 Y140.23
G1 F3000 X144.34 Y135.58 E448.37936
G0 F12000 X144.42 Y135.72
G0 X142.18 Y137.02
G0 X142.10 Y136.88
G1 F3000 X138.29 Y139.96 E448.46094
G0 F12000 X137.97 Y139.70
G1 F3000 X139.86 Y138.17 E448.50132
G0 F12000 X139.94 Y138.31
G0 X141.58 Y141.21
G0 X141.66 Y141.35
G1 F3000 X147.81 Y136.37 E448.63279
G0 F12000 X147.89 Y136.82
G1 F3000 X143.91 Y140.04 E448.71789
G0 F12000 X143.83 Y139.90
G0 X146.08 Y138.60
G0 X146.16 Y138.74
G1 F3000 X147.97 Y137.27 E448.75660
G0 F12000 X147.81 Y137.30
G0 X140.34 Y141.83
G0 X138.90 Y146.07
G0 X139.06 Y146.13
G1 F3000 X136.21 Y143.28 E448.82356
G0 F12000 X137.02 Y143.57
;LAYER:21
G0 X140.38 Y141.99 Z3.10
G0 X140.66 Y142.09
;TYPE:WALL-OUTER
G1 F3000 X136.96 Y152.33 E449.00460
G1 X132.78 Y152.33 E449.07406
G1 X137.46 Y139.41 E449.30264
G1 X148.56 Y132.97 E449.51603
G1 X148.79 Y134.23 E449.53730
G1 X149.27 Y137.00 E449.58406
G1 X149.34 Y137.05 E449.58548
G1 X140.66 Y142.09 E449.75233
G0 F12000 X141.34 Y141.31
;TYPE:FILL
G1 F3000 X148.92 Y135.80 E449.90818
G0 F12000 X149.00 Y136.24
G1 F3000 X143.19 Y140.46 E450.02759
G0 F12000 X143.11 Y140.32
G0 X141.02 Y141.05
G1 F3000 X148.84 Y135.37 E450.18835
G0 F12000 X148.76 Y134.93
G1 F3000 X140.71 Y140.78 E450.35403
G0 F12000 X140.39 Y140.52
G1 F3000 X148.69 Y134.49 E450.52462
G0 F12000 X148.61 Y134.05
G1 F3000 X140.07 Y140.25 E450.70010
G0 F12000 X139.76 Y139.99
G1 F3000 X148.53 Y133.61 E450.88051
G0 F12000 X148.32 Y133.27
G1 F3000 X139.44 Y139.72 E451.06313
G0 F12000 X139.12 Y139.46
G1 F3000 X144.96 Y135.22 E451.18300
G0 F12000 X145.04 Y135.36
G0 X146.50 Y138.36
G0 X146.57 Y138.50
G1 F3000 X149.07 Y136.68 E451.23437
G0 F12000 X148.92 Y136.71
G0 X141.67 Y137.31
G0 X141.59 Y137.17
G1 F3000 X138.81 Y139.19 E451.29150
G0 F12000 X136.36 Y143.33
G0 X136.21 Y143.28
G1 F3000 X139.06 Y146.13 E451.35845
G0 F12000 X138.25 Y145.83
;LAYER:22
G0 X140.38 Y141.99 Z3.20
G0 X140.66 Y142.09
;TYPE:WALL-OUTER
G1 F3000 X136.96 Y152.33 E451.53950
G1 X132.78 Y152.33 E451.60896
G1 X137.46 Y139.41 E451.83754
G1 X149.54 Y132.40 E452.06967
G1 X149.60 Y132.41 E452.07072
G1 X149.87 Y133.96 E452.09684
G1 X149.89 Y134.09 E452.09892
G1 X150.33 Y136.53 E452.14017
G1 X150.26 Y136.52 E452.14122
G1 X140.66 Y142.09 E452.32586
G0 F12000 X140.38 Y141.99
G0 X142.28 Y140.81
G0 X142.36 Y140.94
;TYPE:FILL
G1 F3000 X139.77 Y138.35 E452.38683
G0 F12000 X140.05 Y138.07
G1 F3000 X142.72 Y140.74 E452.44958
G0 F12000 X143.07 Y140.53
G1 F3000 X140.41 Y137.86 E452.51233
G0 F12000 X140.76 Y137.65
G1 F3000 X143.43 Y140.32 E452.57508
G0 F12000 X143.79 Y140.11
G1 F3000 X141.12 Y137.44 E452.63783
G0 F12000 X141.48 Y137.24
G1 F3000 X144.15 Y139.91 E452.70056
G0 F12000 X144.50 Y139.70
G1 F3000 X141.84 Y137.03 E452.76329
G0 F12000 X142.20 Y136.82
G1 F3000 X144.86 Y139.49 E452.82601
G0 F12000 X145.22 Y139.28
G1 F3000 X142.55 Y136.62 E452.88872
G0 F12000 X142.91 Y136.41
G1 F3000 X145.58 Y139.07 E452.95144
G0 F12000 X145.94 Y138.87
G1 F3000 X143.27 Y136.20 E453.01411
G0 F12000 X143.63 Y135.99
G1 F3000 X146.29 Y138.66 E453.07680
G0 F12000 X146.65 Y138.45
G1 F3000 X143.99 Y135.78 E453.13950
G0 F12000 X144.34 Y135.58
G1 F3000 X147.01 Y138.24 E453.20218
G0 F12000 X147.37 Y138.03
G1 F3000 X144.70 Y135.37 E453.26487
G0 F12000 X145.06 Y135.16
G1 F3000 X147.73 Y137.83 E453.32754
G0 F12000 X148.08 Y137.62
G1 F3000 X145.42 Y134.95 E453.39022
G0 F12000 X145.78 Y134.75
G1 F3000 X148.44 Y137.41 E453.45290
G0 F12000 X148.80 Y137.20
G1 F3000 X146.13 Y134.54 E453.51556
G0 F12000 X146.49 Y134.33
G1 F3000 X149.16 Y137.00 E453.57822
G0 F12000 X149.51 Y136.79
G1 F3000 X146.85 Y134.12 E453.64086
G0 F12000 X147.21 Y133.92
G1 F3000 X149.87 Y136.58 E453.70350
G0 F12000 X150.14 Y136.28
G1 F3000 X147.57 Y133.71 E453.76396
G0 F12000 X147.93 Y133.50
G1 F3000 X150.02 Y135.59 E453.81314
G0 F12000 X149.90 Y134.91
G1 F3000 X148.28 Y133.29 E453.85108
G0 F12000 X148.64 Y133.09
G1 F3000 X149.78 Y134.22 E453.87773
G0 F12000 X149.65 Y133.53
G1 F3000 X149.00 Y132.88 E453.89312
G0 F12000 X149.36 Y132.67
G1 F3000 X149.53 Y132.85 E453.89726
G0 F12000 X149.38 Y132.87
G0 X140.34 Y141.83
G0 X138.90 Y146.07
G0 X139.05 Y146.12
G1 F3000 X136.21 Y143.28 E453.96419
G0 F12000 X137.02 Y143.57
;LAYER:23
G0 X140.38 Y141.99 Z3.30
G0 X140.66 Y142.09
;TYPE:WALL-OUTER
G1 F3000 X136.96 Y152.33 E454.14523
G1 X132.78 Y152.33 E454.21469
G1 X137.46 Y139.41 E454.44327
G1 X149.54 Y132.40 E454.67541
G1 X150.79 Y132.62 E454.69646
G1 X150.63 Y132.90 E454.70173
G1 X150.81 Y133.91 E454.71880
G1 X151.30 Y136.70 E454.76593
G1 X150.26 Y136.52 E454.78339
G1 X140.66 Y142.09 E454.96803
G0 F12000 X140.38 Y141.99
G0 X142.60 Y139.95
;TYPE:FILL
G1 F3000 X149.94 Y132.62 E455.14060
G0 F12000 X150.42 Y132.70
G1 F3000 X142.91 Y140.21 E455.31726
G0 F12000 X143.28 Y140.41
G1 F3000 X150.53 Y133.16 E455.48771
G0 F12000 X150.62 Y133.64
G1 F3000 X144.63 Y139.62 E455.62842
G0 F12000 X144.55 Y139.49
G0 X145.90 Y138.70
G0 X145.98 Y138.84
G1 F3000 X150.70 Y134.12 E455.73942
G0 F12000 X150.78 Y134.60
G1 F3000 X147.33 Y138.06 E455.82068
G0 F12000 X147.25 Y137.92
G0 X148.60 Y137.14
G0 X148.68 Y137.27
G1 F3000 X150.87 Y135.08 E455.87218
G0 F12000 X150.95 Y135.56
G1 F3000 X150.03 Y136.49 E455.89396
G0 F12000 X150.64 Y136.44
G1 F3000 X151.04 Y136.04 E455.90326
G0 F12000 X150.88 Y136.07
G0 X149.36 Y132.85
G0 X149.28 Y132.72
G1 F3000 X142.30 Y139.70 E456.06744
G0 F12000 X141.99 Y139.44
G1 F3000 X147.93 Y133.50 E456.20720
G0 F12000 X148.01 Y133.63
G0 X146.67 Y134.42
G0 X146.59 Y134.28
G1 F3000 X141.68 Y139.18 E456.32256
G0 F12000 X141.37 Y138.92
G1 F3000 X145.24 Y135.06 E456.41348
G0 F12000 X145.32 Y135.20
G0 X143.97 Y135.98
G0 X143.89 Y135.84
G1 F3000 X141.07 Y138.66 E456.47997
G0 F12000 X140.95 Y138.21
G1 F3000 X142.55 Y136.62 E456.51742
G0 F12000 X142.63 Y136.76
G0 X141.28 Y137.54
G0 X141.20 Y137.40
G1 F3000 X140.87 Y137.73 E456.52520
G0 F12000 X136.36 Y143.33
G0 X136.21 Y143.28
G1 F3000 X139.05 Y146.12 E456.59213
G0 F12000 X138.25 Y145.83
;LAYER:24
G0 X140.38 Y141.99 Z3.40
G0 X140.66 Y142.09
;TYPE:WALL-OUTER
G1 F3000 X136.96 Y152.33 E456.77317
G1 X132.78 Y152.33 E456.84263
G1 X137.46 Y139.41 E457.07121
G1 X149.54 Y132.40 E457.30335
G1 X152.04 Y132.84 E457.34550
G1 X151.67 Y133.47 E457.35766
G1 X151.80 Y134.21 E457.37017
G1 X152.27 Y136.87 E457.41497
G1 X150.26 Y136.52 E457.44882
G1 X140.66 Y142.09 E457.63346
G0 F12000 X140.38 Y141.99
G0 X143.09 Y139.16
;TYPE:FILL
G1 F3000 X151.78 Y134.92 E457.79421
G0 F12000 X151.71 Y134.51
G1 F3000 X142.76 Y138.87 E457.95983
G0 F12000 X142.42 Y138.59
G1 F3000 X151.64 Y134.10 E458.13031
G0 F12000 X151.56 Y133.69
G1 F3000 X142.17 Y138.27 E458.30407
G0 F12000 X142.10 Y137.86
G1 F3000 X151.67 Y133.19 E458.48112
G0 F12000 X151.41 Y132.87
G1 F3000 X142.03 Y137.45 E458.65472
G0 F12000 X141.96 Y137.04
G1 F3000 X150.74 Y132.75 E458.81725
G0 F12000 X150.07 Y132.64
G1 F3000 X145.94 Y134.65 E458.89370
G0 F12000 X146.02 Y134.79
G0 X148.10 Y137.43
G0 X148.18 Y137.57
G1 F3000 X143.76 Y139.72 E458.97531
G0 F12000 X143.43 Y139.44
G1 F3000 X151.85 Y135.33 E459.13118
G0 F12000 X151.93 Y135.74
G1 F3000 X150.53 Y136.42 E459.15710
G0 F12000 X151.20 Y136.54
G1 F3000 X152.00 Y136.15 E459.17192
G0 F12000 X152.07 Y136.56
G1 F3000 X151.87 Y136.66 E459.17567
G0 F12000 X151.90 Y136.50
G0 X150.19 Y136.11
G0 X140.34 Y141.83
G0 X138.90 Y146.07
G0 X139.05 Y146.12
G1 F3000 X136.21 Y143.28 E459.24260
G0 F12000 X137.02 Y143.57
;LAYER:25
G0 X140.38 Y141.99 Z3.50
G0 X140.66 Y142.09
;TYPE:WALL-OUTER
G1 F3000 X136.96 Y152.33 E459.42364
G1 X132.78 Y152.33 E459.49311
G1 X137.46 Y139.41 E459.72168
G1 X149.54 Y132.40 E459.95382
G1 X153.29 Y133.06 E460.01709
G1 X152.91 Y133.70 E460.02949
G1 X152.84 Y133.82 E460.03181
G1 X152.84 Y133.84 E460.03208
G1 X152.71 Y134.05 E460.03618
G1 X153.24 Y137.04 E460.08661
G1 X150.26 Y136.52 E460.13686
G1 X140.66 Y142.09 E460.32150
G0 F12000 X140.38 Y141.99
G0 X138.90 Y146.07
G0 X139.05 Y146.12
;TYPE:FILL
G1 F3000 X136.21 Y143.28 E460.38843
G0 F12000 X136.36 Y143.33
G0 X143.36 Y138.15
G1 F3000 X152.63 Y134.41 E460.55468
G0 F12000 X152.70 Y134.81
G1 F3000 X143.70 Y138.45 E460.71623
G0 F12000 X144.04 Y138.74
G1 F3000 X152.78 Y135.21 E460.87283
G0 F12000 X152.85 Y135.62
G1 F3000 X150.76 Y136.46 E460.91029
G0 F12000 X151.50 Y136.59
G1 F3000 X152.92 Y136.02 E460.93563
G0 F12000 X152.99 Y136.42
G1 F3000 X152.25 Y136.72 E460.94887
G0 F12000 X152.28 Y136.56
G0 X152.44 Y133.92
G0 X152.58 Y134.00
G1 F3000 X143.29 Y137.75 E461.11542
G0 F12000 X143.22 Y137.35
G1 F3000 X152.91 Y133.44 E461.28913
G0 F12000 X152.68 Y133.09
G1 F3000 X143.15 Y136.95 E461.46012
G0 F12000 X143.08 Y136.54
G1 F3000 X151.94 Y132.96 E461.61901
G0 F12000 X151.19 Y132.83
G1 F3000 X144.20 Y135.66 E461.74449
G0 F12000 X144.28 Y135.80
G0 X146.73 Y134.38
G0 X146.65 Y134.24
G1 F3000 X150.45 Y132.70 E461.81254
G0 F12000 X149.70 Y132.57
G1 F3000 X149.11 Y132.81 E461.82317
G0 F12000 X149.19 Y132.95
G0 X148.45 Y137.22
G0 X148.53 Y137.36
G1 F3000 X144.39 Y139.03 E461.89733
G0 F12000 X144.74 Y139.32
G1 F3000 X146.09 Y138.78 E461.92148
G0 F12000 X145.66 Y138.04
;LAYER:26
G0 X150.31 Y136.22 Z3.60
G0 X150.26 Y136.52
;TYPE:WALL-OUTER
G1 F3000 X140.66 Y142.09 E462.10612
G1 X136.96 Y152.33 E462.28716
G1 X132.78 Y152.33 E462.35662
G1 X137.46 Y139.41 E462.58520
G1 X149.54 Y132.40 E462.81733
G1 X154.54 Y133.28 E462.90171
G1 X154.25 Y133.78 E462.91133
G1 X154.06 Y134.10 E462.91751
G1 X153.76 Y134.63 E462.92764
G1 X154.21 Y137.21 E462.97117
G1 X150.26 Y136.52 E463.03782
G0 F12000 X150.23 Y136.37
;TYPE:FILL
G1 F3000 X147.57 Y133.71 E463.10047
G0 F12000 X147.21 Y133.91
G1 F3000 X149.87 Y136.58 E463.16315
G0 F12000 X149.52 Y136.79
G1 F3000 X146.85 Y134.12 E463.22582
G0 F12000 X146.49 Y134.33
G1 F3000 X149.16 Y137.00 E463.28848
G0 F12000 X148.80 Y137.20
G1 F3000 X146.13 Y134.54 E463.35117
G0 F12000 X145.78 Y134.75
G1 F3000 X148.44 Y137.41 E463.41384
G0 F12000 X148.08 Y137.62
G1 F3000 X145.42 Y134.95 E463.47654
G0 F12000 X145.06 Y135.16
G1 F3000 X147.73 Y137.83 E463.53924
G0 F12000 X147.37 Y138.03
G1 F3000 X144.70 Y135.37 E463.60196
G0 F12000 X144.34 Y135.58
G1 F3000 X147.01 Y138.24 E463.66467
G0 F12000 X146.65 Y138.45
G1 F3000 X144.19 Y135.99 E463.72252
G0 F12000 X144.31 Y136.68
G1 F3000 X146.29 Y138.66 E463.76911
G0 F12000 X145.94 Y138.87
G1 F3000 X144.43 Y137.36 E463.80444
G0 F12000 X144.58 Y137.51
G1 F3000 X143.35 Y136.28 E463.83351
G0 F12000 X148.01 Y133.64
G0 X147.93 Y133.50
G1 F3000 X150.91 Y136.49 E463.90376
G0 F12000 X151.60 Y136.61
G1 F3000 X148.28 Y133.29 E463.98168
G0 F12000 X148.64 Y133.09
G1 F3000 X152.28 Y136.73 E464.06732
G0 F12000 X152.97 Y136.84
G1 F3000 X149.00 Y132.88 E464.16061
G0 F12000 X149.36 Y132.67
G1 F3000 X153.65 Y136.96 E464.26161
G0 F12000 X153.99 Y136.73
G1 F3000 X149.85 Y132.60 E464.35878
G0 F12000 X150.54 Y132.72
G1 F3000 X153.87 Y136.04 E464.43697
G0 F12000 X153.74 Y135.36
G1 F3000 X151.22 Y132.84 E464.49621
G0 F12000 X151.91 Y132.96
G1 F3000 X153.62 Y134.67 E464.53647
G0 F12000 X153.79 Y134.28
G1 F3000 X152.60 Y133.08 E464.56463
G0 F12000 X153.28 Y133.20
G1 F3000 X154.00 Y133.92 E464.58151
G0 F12000 X154.21 Y133.56
G1 F3000 X153.97 Y133.32 E464.58723
G0 F12000 X153.94 Y133.48
G0 X140.34 Y141.83
G0 X138.90 Y146.07
G0 X139.06 Y146.13
G1 F3000 X136.21 Y143.28 E464.65418
G0 F12000 X137.02 Y143.57
;LAYER:27
G0 X140.38 Y141.99 Z3.70
G0 X140.66 Y142.09
;TYPE:WALL-OUTER
G1 F3000 X136.96 Y152.33 E464.83523
G1 X132.78 Y152.33 E464.90469
G1 X137.46 Y139.41 E465.13327
G1 X149.54 Y132.40 E465.36540
G1 X155.79 Y133.50 E465.47089
G1 X155.53 Y133.93 E465.47929
G1 X155.35 Y134.24 E465.48524
G1 X154.80 Y135.20 E465.50372
G1 X155.18 Y137.37 E465.54037
G1 X150.26 Y136.52 E465.62340
G1 X140.66 Y142.09 E465.80804
G0 F12000 X140.38 Y141.99
G0 X138.90 Y146.07
G0 X139.05 Y146.12
;TYPE:FILL
G1 F3000 X136.21 Y143.28 E465.87497
G0 F12000 X136.36 Y143.33
G0 X143.34 Y136.26
G1 F3000 X145.94 Y138.87 E465.93615
G0 F12000 X146.47 Y138.35
G1 F3000 X151.87 Y132.95 E466.06320
G0 F12000 X152.35 Y133.04
G1 F3000 X147.33 Y138.06 E466.18130
G0 F12000 X146.16 Y138.10
G1 F3000 X151.39 Y132.87 E466.30428
G0 F12000 X150.91 Y132.78
G1 F3000 X145.85 Y137.84 E466.42318
G0 F12000 X145.66 Y137.46
G1 F3000 X150.43 Y132.70 E466.53520
G0 F12000 X149.94 Y132.62
G1 F3000 X145.58 Y136.98 E466.63790
G0 F12000 X145.49 Y136.50
G1 F3000 X149.28 Y132.72 E466.72694
G0 F12000 X149.36 Y132.85
G0 X148.01 Y133.63
G0 X147.93 Y133.50
G1 F3000 X145.41 Y136.02 E466.78633
G0 F12000 X145.32 Y135.54
G1 F3000 X146.59 Y134.28 E466.81605
G0 F12000 X146.67 Y134.42
G0 X148.60 Y137.14
G0 X148.68 Y137.27
G1 F3000 X152.83 Y133.12 E466.91373
G0 F12000 X153.31 Y133.21
G1 F3000 X150.03 Y136.49 E466.99101
G0 F12000 X150.64 Y136.44
G1 F3000 X153.79 Y133.29 E467.06513
G0 F12000 X154.28 Y133.37
G1 F3000 X151.12 Y136.53 E467.13926
G0 F12000 X151.61 Y136.61
G1 F3000 X154.76 Y133.46 E467.21336
G0 F12000 X155.24 Y133.54
G1 F3000 X152.09 Y136.69 E467.28746
G0 F12000 X152.57 Y136.78
G1 F3000 X155.30 Y134.04 E467.35170
G0 F12000 X154.66 Y135.25
G1 F3000 X153.05 Y136.86 E467.38961
G0 F12000 X153.53 Y136.94
G1 F3000 X154.75 Y135.73 E467.41820
G0 F12000 X154.83 Y136.21
G1 F3000 X154.02 Y137.03 E467.43744
G0 F12000 X154.50 Y137.11
G1 F3000 X154.92 Y136.69 E467.44735
G0 F12000 X154.19 Y136.19
;LAYER:28
G0 X155.58 Y135.63 Z3.80
G0 X155.84 Y135.78
;TYPE:WALL-OUTER
G1 F3000 X156.16 Y137.54 E467.47712
G1 X150.26 Y136.52 E467.57657
G1 X140.66 Y142.09 E467.76121
G1 X136.96 Y152.33 E467.94225
G1 X132.78 Y152.33 E468.01171
G1 X137.46 Y139.41 E468.24029
G1 X149.54 Y132.40 E468.47242
G1 X157.04 Y133.71 E468.59902
G1 X156.75 Y134.22 E468.60872
G1 X155.84 Y135.78 E468.63874
G0 F12000 X155.75 Y135.66
;TYPE:FILL
G1 F3000 X153.28 Y133.20 E468.69673
G0 F12000 X152.60 Y133.08
G1 F3000 X155.79 Y136.27 E468.77176
G0 F12000 X155.91 Y136.96
G1 F3000 X151.91 Y132.96 E468.86579
G0 F12000 X151.22 Y132.84
G1 F3000 X155.71 Y137.32 E468.97122
G0 F12000 X155.02 Y137.20
G1 F3000 X150.54 Y132.72 E469.07668
G0 F12000 X149.85 Y132.60
G1 F3000 X154.34 Y137.08 E469.18213
G0 F12000 X153.65 Y136.97
G1 F3000 X149.36 Y132.67 E469.28314
G0 F12000 X149.00 Y132.88
G1 F3000 X152.97 Y136.84 E469.37644
G0 F12000 X152.28 Y136.73
G1 F3000 X148.64 Y133.09 E469.46207
G0 F12000 X148.28 Y133.29
G1 F3000 X151.60 Y136.61 E469.54000
G0 F12000 X150.91 Y136.49
G1 F3000 X147.93 Y133.50 E469.61025
G0 F12000 X147.57 Y133.71
G1 F3000 X150.23 Y136.37 E469.67290
G0 F12000 X149.87 Y136.58
G1 F3000 X147.21 Y133.92 E469.73557
G0 F12000 X146.85 Y134.12
G1 F3000 X149.52 Y136.79 E469.79825
G0 F12000 X149.16 Y137.00
G1 F3000 X146.49 Y134.33 E469.86092
G0 F12000 X146.41 Y134.81
G1 F3000 X148.80 Y137.20 E469.91726
G0 F12000 X148.44 Y137.41
G1 F3000 X146.53 Y135.50 E469.96233
G0 F12000 X146.65 Y136.18
G1 F3000 X148.08 Y137.62 E469.99613
G0 F12000 X147.73 Y137.83
G1 F3000 X146.77 Y136.87 E470.01866
G0 F12000 X145.86 Y138.73
G0 X145.94 Y138.87
G1 F3000 X143.33 Y136.26 E470.08004
G0 F12000 X136.36 Y143.33
G0 X136.21 Y143.28
G1 F3000 X139.05 Y146.12 E470.14698
G0 F12000 X138.90 Y146.07
G0 X140.34 Y141.83
G0 X150.19 Y136.11
G0 X153.94 Y133.48
G0 X153.97 Y133.32
G1 F3000 X155.95 Y135.31 E470.19373
G0 F12000 X156.16 Y134.95
G1 F3000 X154.65 Y133.44 E470.22922
G0 F12000 X155.34 Y133.56
G1 F3000 X156.37 Y134.59 E470.25348
G0 F12000 X156.58 Y134.23
G1 F3000 X156.37 Y133.74 E470.26649
G1 X156.78 Y133.87 E470.27378
G0 F12000 X155.83 Y134.52
;LAYER:29
G0 X156.63 Y136.21 Z3.90
G0 X156.89 Y136.36
;TYPE:WALL-OUTER
G1 F3000 X157.13 Y137.71 E470.29666
G1 X150.26 Y136.52 E470.41250
G1 X140.66 Y142.09 E470.59714
G1 X136.96 Y152.33 E470.77818
G1 X132.78 Y152.33 E470.84764
G1 X137.46 Y139.41 E471.07622
G1 X149.54 Y132.40 E471.30835
G1 X158.29 Y133.93 E471.45605
G1 X157.98 Y134.46 E471.46621
G1 X156.89 Y136.36 E471.50264
G0 F12000 X156.77 Y136.53
;TYPE:FILL
G1 F3000 X155.94 Y137.37 E471.52221
G0 F12000 X156.42 Y137.45
G1 F3000 X156.86 Y137.01 E471.53241
G0 F12000 X155.46 Y137.28
G1 F3000 X157.19 Y135.55 E471.57310
G0 F12000 X157.05 Y135.47
G0 X157.83 Y134.13
G0 X157.97 Y134.21
G1 F3000 X154.98 Y137.20 E471.64334
G0 F12000 X154.50 Y137.11
G1 F3000 X157.65 Y133.96 E471.71743
G0 F12000 X157.17 Y133.88
G1 F3000 X154.02 Y137.03 E471.79152
G0 F12000 X153.53 Y136.94
G1 F3000 X156.68 Y133.79 E471.86561
G0 F12000 X156.20 Y133.71
G1 F3000 X153.05 Y136.86 E471.93972
G0 F12000 X152.57 Y136.78
G1 F3000 X155.72 Y133.63 E472.01381
G0 F12000 X155.24 Y133.54
G1 F3000 X152.09 Y136.69 E472.08791
G0 F12000 X151.61 Y136.61
G1 F3000 X154.76 Y133.46 E472.16202
G0 F12000 X154.28 Y133.37
G1 F3000 X151.12 Y136.53 E472.23615
G0 F12000 X150.64 Y136.44
G1 F3000 X153.79 Y133.29 E472.31026
G0 F12000 X153.31 Y133.21
G1 F3000 X150.03 Y136.49 E472.38755
G0 F12000 X149.95 Y136.35
G0 X148.60 Y137.14
G0 X148.68 Y137.28
G1 F3000 X152.83 Y133.12 E472.48524
G0 F12000 X152.35 Y133.04
G1 F3000 X148.09 Y137.30 E472.58543
G0 F12000 X147.97 Y136.85
G1 F3000 X151.87 Y132.95 E472.67704
G0 F12000 X151.39 Y132.87
G1 F3000 X147.89 Y136.37 E472.75930
G0 F12000 X147.81 Y135.88
G1 F3000 X150.91 Y132.78 E472.83225
G0 F12000 X150.43 Y132.70
G1 F3000 X147.72 Y135.40 E472.89586
G0 F12000 X147.64 Y134.92
G1 F3000 X149.94 Y132.62 E472.95014
G0 F12000 X149.28 Y132.72
G1 F3000 X147.55 Y134.44 E472.99076
G0 F12000 X147.47 Y133.96
G1 F3000 X147.93 Y133.50 E473.00166
G0 F12000 X148.01 Y133.64
G0 X143.32 Y136.25
G1 F3000 X145.94 Y138.87 E473.06316
G0 F12000 X145.86 Y138.73
G0 X140.34 Y141.83
G0 X138.90 Y146.07
G0 X139.05 Y146.12
G1 F3000 X136.21 Y143.28 E473.13009
G0 F12000 X137.02 Y143.57
;LAYER:30
G0 X140.38 Y141.99 Z4.00
G0 X140.66 Y142.09
;TYPE:WALL-OUTER
G1 F3000 X136.96 Y152.33 E473.31114
G1 X132.78 Y152.33 E473.38060
G1 X137.46 Y139.41 E473.60918
G1 X149.54 Y132.40 E473.84131
G1 X159.54 Y134.15 E474.01013
G1 X159.16 Y134.81 E474.02281
G1 X158.99 Y135.10 E474.02844
G1 X157.93 Y136.94 E474.06362
G1 X158.10 Y137.88 E474.07961
G1 X150.26 Y136.52 E474.21186
G1 X140.66 Y142.09 E474.39649
G0 F12000 X140.38 Y141.99
G0 X138.90 Y146.07
G0 X139.05 Y146.12
;TYPE:FILL
G1 F3000 X136.21 Y143.28 E474.46343
G0 F12000 X136.36 Y143.33
G0 X143.37 Y136.33
G0 X143.31 Y136.24
G1 F3000 X145.94 Y138.87 E474.52507
G0 F12000 X145.86 Y138.73
G0 X149.14 Y136.58
G1 F3000 X149.94 Y136.54 E474.53846
G0 F12000 X149.07 Y136.18
G1 F3000 X158.49 Y135.69 E474.69526
G0 F12000 X158.25 Y136.10
G1 F3000 X150.92 Y136.49 E474.81724
G0 F12000 X150.95 Y136.33
G0 X152.71 Y136.64
G0 X152.69 Y136.80
G1 F3000 X158.01 Y136.52 E474.90585
G0 F12000 X157.79 Y136.93
G1 F3000 X154.45 Y137.10 E474.96134
G0 F12000 X154.48 Y136.95
G0 X156.25 Y137.26
G0 X156.22 Y137.41
G1 F3000 X157.86 Y137.33 E474.98862
G0 F12000 X157.70 Y137.35
G0 X157.52 Y136.86
G0 X158.59 Y135.20
G0 X158.72 Y135.28
G1 F3000 X149.00 Y135.79 E475.15057
G0 F12000 X148.93 Y135.39
G1 F3000 X158.96 Y134.87 E475.31768
G0 F12000 X159.20 Y134.45
G1 F3000 X148.86 Y134.99 E475.48990
G0 F12000 X148.79 Y134.60
G1 F3000 X158.40 Y134.09 E475.64995
G0 F12000 X158.37 Y134.25
G0 X156.61 Y133.94
G0 X156.64 Y133.78
G1 F3000 X148.72 Y134.20 E475.78181
G0 F12000 X148.65 Y133.80
G1 F3000 X154.88 Y133.48 E475.88548
G0 F12000 X154.85 Y133.63
G0 X153.09 Y133.33
G0 X153.11 Y133.17
G1 F3000 X148.58 Y133.41 E475.96095
G0 F12000 X148.80 Y132.99
G1 F3000 X151.35 Y132.86 E476.00344
G0 F12000 X151.20 Y133.71
;LAYER:31
G0 X149.57 Y132.71 Z4.10
G0 X149.54 Y132.40
;TYPE:WALL-OUTER
G1 F3000 X160.79 Y134.37 E476.19336
G1 X160.30 Y135.22 E476.20963
G1 X160.23 Y135.34 E476.21201
G1 X160.11 Y135.47 E476.21491
G1 X160.14 Y135.49 E476.21545
G1 X158.97 Y137.51 E476.25423
G1 X159.07 Y138.05 E476.26332
G1 X150.26 Y136.52 E476.41195
G1 X140.66 Y142.09 E476.59659
G1 X136.96 Y152.33 E476.77763
G1 X132.78 Y152.33 E476.84710
G1 X137.46 Y139.41 E477.07568
G1 X149.54 Y132.40 E477.30781
G0 F12000 X149.94 Y132.62
;TYPE:FILL
G1 F3000 X149.63 Y132.93 E477.31519
G0 F12000 X149.72 Y133.41
G1 F3000 X150.43 Y132.70 E477.33190
G0 F12000 X150.91 Y132.78
G1 F3000 X149.80 Y133.89 E477.35795
G0 F12000 X149.88 Y134.37
G1 F3000 X151.39 Y132.87 E477.39332
G0 F12000 X151.87 Y132.95
G1 F3000 X149.97 Y134.85 E477.43803
G0 F12000 X150.05 Y135.33
G1 F3000 X152.35 Y133.04 E477.49208
G0 F12000 X152.83 Y133.12
G1 F3000 X150.14 Y135.81 E477.55546
G0 F12000 X150.22 Y136.30
G1 F3000 X153.31 Y133.20 E477.62817
G0 F12000 X153.80 Y133.29
G1 F3000 X150.64 Y136.44 E477.70231
G0 F12000 X151.12 Y136.53
G1 F3000 X154.28 Y133.37 E477.77644
