;-- START GCODE --
;Sliced for Type A Machines Series 1
;Sliced at: Mon 29-06-2015 12:21:27
;Basic settings: Layer height: 0.1 Walls: 0.8 Fill: 9
;Print Speed: 130 Support: 0
;Retraction Speed: 40 Retraction Distance: 0.5
;Print time: #P_TIME#
;Filament used: #F_AMNT#m #F_WGHT#g
;Filament cost: #F_COST#
M106 S255	 ;start with the fan on
G21        ;metric values
G90        ;absolute positioning
M106 S255    ;start with the fan on
G28     ;move to endstops
G29		;allows for auto-levelling
G1 X150 Y5  Z15.0 F12000 ;center and move the platform down 15mm
M109 S220 ;Heat To temp
G92 E0                  ;zero the extruded length
G1 F200 E30              ;extrude 30mm of feed stock
G92 E0                  ;zero the extruded length again
G1 X175 Y25  Z0 F12000 ;remove bugger
G1 X220 F12000 ;remove bugger
G1 X150 Y150  Z15 F12000 ;recenter and begin
G1 F12000

;Layer count: 110
;LAYER:0
M106 S255
G0 F12000 X150.42 Y150.42 Z0.30
;TYPE:SKIRT
G1 F2700 X150.22 Y150.63 E0.01369
G1 X150.06 Y150.86 E0.02690
G1 X149.90 Y151.11 E0.04075
G1 X149.78 Y151.38 E0.05497
G1 X149.69 Y151.64 E0.06770
G1 X149.61 Y151.93 E0.08205
G1 X149.57 Y152.20 E0.09487
G1 X149.56 Y152.50 E0.10885
G1 X149.57 Y152.79 E0.12282
G1 X149.61 Y153.06 E0.13564
G1 X149.69 Y153.36 E0.14999
G1 X149.78 Y153.61 E0.16272
G1 X149.90 Y153.88 E0.17694
G1 X150.06 Y154.13 E0.19079
G1 X150.22 Y154.36 E0.20400
G1 X150.42 Y154.57 E0.21769
G1 X150.63 Y154.77 E0.23138
G1 X150.86 Y154.94 E0.24459
G1 X151.11 Y155.09 E0.25845
G1 X151.38 Y155.22 E0.27266
G1 X151.64 Y155.31 E0.28539
G1 X151.93 Y155.38 E0.29974
G1 X152.20 Y155.42 E0.31256
G1 X152.51 Y155.44 E0.32701
G1 X152.78 Y155.42 E0.34004
G1 X153.06 Y155.38 E0.35334
G1 X153.36 Y155.31 E0.36769
G1 X153.61 Y155.22 E0.38042
G1 X153.88 Y155.09 E0.39463
G1 X154.13 Y154.94 E0.40849
G1 X154.36 Y154.77 E0.42170
G1 X154.57 Y154.57 E0.43539
G1 X154.77 Y154.36 E0.44908
G1 X154.94 Y154.13 E0.46229
G1 X155.09 Y153.88 E0.47614
G1 X155.22 Y153.61 E0.49036
G1 X155.31 Y153.36 E0.50309
G1 X155.38 Y153.06 E0.51744
G1 X155.42 Y152.78 E0.53074
G1 X155.44 Y152.51 E0.54377
G1 X155.42 Y152.20 E0.55822
G1 X155.38 Y151.93 E0.57104
G1 X155.31 Y151.64 E0.58539
G1 X155.22 Y151.38 E0.59812
G1 X155.09 Y151.11 E0.61233
G1 X154.94 Y150.86 E0.62619
G1 X154.77 Y150.63 E0.63940
G1 X154.57 Y150.42 E0.65309
G1 X154.36 Y150.22 E0.66678
G1 X154.13 Y150.06 E0.67999
G1 X153.88 Y149.90 E0.69384
G1 X153.61 Y149.78 E0.70806
G1 X153.36 Y149.69 E0.72079
G1 X153.06 Y149.61 E0.73514
G1 X152.79 Y149.57 E0.74796
G1 X152.50 Y149.56 E0.76193
G1 X152.20 Y149.57 E0.77591
G1 X151.93 Y149.61 E0.78873
G1 X151.64 Y149.69 E0.80308
G1 X151.38 Y149.78 E0.81581
G1 X151.11 Y149.90 E0.83002
G1 X150.86 Y150.06 E0.84388
G1 X150.63 Y150.22 E0.85709
G1 X150.42 Y150.42 E0.87078
G0 F12000 X150.13 Y150.13
G1 F2700 X149.91 Y150.38 E0.88647
G1 X149.72 Y150.64 E0.90164
G1 X149.55 Y150.92 E0.91722
G1 X149.41 Y151.22 E0.93273
G1 X149.30 Y151.53 E0.94806
G1 X149.22 Y151.84 E0.96351
G1 X149.17 Y152.17 E0.97920
G1 X149.16 Y152.50 E0.99450
G1 X149.17 Y152.82 E1.00970
G1 X149.22 Y153.15 E1.02538
G1 X149.30 Y153.47 E1.04084
G1 X149.41 Y153.77 E1.05617
G1 X149.55 Y154.07 E1.07167
G1 X149.72 Y154.35 E1.08726
G1 X149.91 Y154.61 E1.10242
G1 X150.13 Y154.86 E1.11812
G1 X150.38 Y155.08 E1.13381
G1 X150.64 Y155.27 E1.14898
G1 X150.92 Y155.44 E1.16456
G1 X151.22 Y155.58 E1.18006
G1 X151.53 Y155.69 E1.19540
G1 X151.84 Y155.77 E1.21085
G1 X152.17 Y155.82 E1.22654
G1 X152.50 Y155.84 E1.24183
G1 X152.82 Y155.82 E1.25704
G1 X153.15 Y155.77 E1.27272
G1 X153.47 Y155.69 E1.28817
G1 X153.77 Y155.58 E1.30351
G1 X154.07 Y155.44 E1.31901
G1 X154.35 Y155.27 E1.33460
G1 X154.61 Y155.08 E1.34976
G1 X154.86 Y154.86 E1.36545
G1 X155.08 Y154.61 E1.38115
G1 X155.27 Y154.35 E1.39631
G1 X155.44 Y154.07 E1.41190
G1 X155.58 Y153.77 E1.42740
G1 X155.69 Y153.47 E1.44274
G1 X155.77 Y153.15 E1.45819
G1 X155.82 Y152.82 E1.47387
G1 X155.84 Y152.50 E1.48908
G1 X155.82 Y152.17 E1.50437
G1 X155.77 Y151.84 E1.52006
G1 X155.69 Y151.53 E1.53551
G1 X155.58 Y151.22 E1.55085
G1 X155.44 Y150.92 E1.56635
G1 X155.27 Y150.64 E1.58193
G1 X155.08 Y150.38 E1.59710
G1 X154.86 Y150.13 E1.61279
G1 X154.61 Y149.91 E1.62848
G1 X154.35 Y149.72 E1.64365
G1 X154.07 Y149.55 E1.65923
G1 X153.77 Y149.41 E1.67474
G1 X153.47 Y149.30 E1.69007
G1 X153.15 Y149.22 E1.70552
G1 X152.82 Y149.17 E1.72121
G1 X152.50 Y149.16 E1.73641
G1 X152.17 Y149.17 E1.75171
G1 X151.84 Y149.22 E1.76740
G1 X151.53 Y149.30 E1.78285
G1 X151.22 Y149.41 E1.79818
G1 X150.92 Y149.55 E1.81369
G1 X150.64 Y149.72 E1.82927
G1 X150.38 Y149.91 E1.84444
G1 X150.13 Y150.13 E1.86013
G0 F12000 X149.85 Y149.85
G1 F2700 X149.61 Y150.12 E1.87736
G1 X149.38 Y150.42 E1.89481
G1 X149.20 Y150.73 E1.91211
G1 X149.04 Y151.07 E1.92956
G1 X148.92 Y151.41 E1.94647
G1 X148.83 Y151.77 E1.96422
G1 X148.77 Y152.12 E1.98115
G1 X148.75 Y152.50 E1.99866
G1 X148.77 Y152.87 E2.01618
G1 X148.83 Y153.22 E2.03311
G1 X148.92 Y153.59 E2.05086
G1 X149.04 Y153.93 E2.06777
G1 X149.20 Y154.26 E2.08522
G1 X149.38 Y154.57 E2.10234
G1 X149.60 Y154.87 E2.11991
G1 X149.85 Y155.14 E2.13717
G1 X150.12 Y155.39 E2.15442
G1 X150.42 Y155.61 E2.17182
G1 X150.73 Y155.79 E2.18912
G1 X151.07 Y155.95 E2.20656
G1 X151.41 Y156.07 E2.22347
G1 X151.77 Y156.17 E2.24122
G1 X152.13 Y156.22 E2.25862
G1 X152.50 Y156.24 E2.27567
G1 X152.86 Y156.22 E2.29271
G1 X153.22 Y156.17 E2.31011
G1 X153.59 Y156.07 E2.32786
G1 X153.93 Y155.95 E2.34478
G1 X154.26 Y155.79 E2.36222
G1 X154.57 Y155.61 E2.37952
G1 X154.87 Y155.39 E2.39691
G1 X155.14 Y155.14 E2.41417
G1 X155.39 Y154.87 E2.43143
G1 X155.61 Y154.57 E2.44899
G1 X155.79 Y154.26 E2.46612
G1 X155.95 Y153.93 E2.48357
G1 X156.07 Y153.59 E2.50048
G1 X156.17 Y153.22 E2.51823
G1 X156.22 Y152.86 E2.53563
G1 X156.24 Y152.50 E2.55267
G1 X156.22 Y152.13 E2.56972
G1 X156.17 Y151.77 E2.58712
G1 X156.07 Y151.41 E2.60487
G1 X155.95 Y151.07 E2.62178
G1 X155.79 Y150.73 E2.63923
G1 X155.61 Y150.42 E2.65653
G1 X155.39 Y150.12 E2.67398
G1 X155.14 Y149.85 E2.69121
G1 X154.87 Y149.60 E2.70844
G1 X154.57 Y149.38 E2.72583
G1 X154.26 Y149.20 E2.74313
G1 X153.93 Y149.04 E2.76057
G1 X153.59 Y148.92 E2.77749
G1 X153.22 Y148.83 E2.79524
G1 X152.87 Y148.77 E2.81217
G1 X152.50 Y148.75 E2.82968
G1 X152.12 Y148.77 E2.84720
G1 X151.77 Y148.83 E2.86412
G1 X151.41 Y148.92 E2.88187
G1 X151.07 Y149.04 E2.89879
G1 X150.73 Y149.20 E2.91623
G1 X150.42 Y149.38 E2.93353
G1 X150.12 Y149.60 E2.95092
G1 X149.85 Y149.85 E2.96815
G0 F12000 X149.57 Y149.57
G1 F2700 X149.29 Y149.87 E2.98741
G1 X149.05 Y150.20 E3.00676
G1 X148.85 Y150.54 E3.02533
G1 X148.67 Y150.91 E3.04499
G1 X148.53 Y151.29 E3.06393
G1 X148.43 Y151.70 E3.08352
G1 X148.37 Y152.09 E3.10216
G1 X148.35 Y152.50 E3.12147
G1 X148.37 Y152.91 E3.14078
G1 X148.43 Y153.30 E3.15942
G1 X148.53 Y153.70 E3.17902
G1 X148.67 Y154.08 E3.19796
G1 X148.85 Y154.45 E3.21762
G1 X149.05 Y154.79 E3.23619
G1 X149.29 Y155.12 E3.25553
G1 X149.57 Y155.42 E3.27480
G1 X149.87 Y155.70 E3.29406
G1 X150.20 Y155.94 E3.31341
G1 X150.54 Y156.15 E3.33197
G1 X150.91 Y156.32 E3.35163
G1 X151.29 Y156.46 E3.37058
G1 X151.70 Y156.56 E3.39017
G1 X152.09 Y156.62 E3.40881
G1 X152.50 Y156.64 E3.42812
G1 X152.91 Y156.62 E3.44743
G1 X153.30 Y156.56 E3.46607
G1 X153.70 Y156.46 E3.48566
G1 X154.08 Y156.32 E3.50461
G1 X154.45 Y156.15 E3.52427
G1 X154.79 Y155.94 E3.54284
G1 X155.12 Y155.70 E3.56218
G1 X155.42 Y155.42 E3.58144
G1 X155.70 Y155.12 E3.60071
G1 X155.94 Y154.79 E3.62005
G1 X156.15 Y154.45 E3.63862
G1 X156.32 Y154.08 E3.65828
G1 X156.46 Y153.70 E3.67723
G1 X156.56 Y153.30 E3.69682
G1 X156.62 Y152.91 E3.71546
G1 X156.64 Y152.50 E3.73477
G1 X156.62 Y152.09 E3.75408
G1 X156.56 Y151.70 E3.77272
G1 X156.46 Y151.29 E3.79231
G1 X156.32 Y150.91 E3.81125
G1 X156.15 Y150.54 E3.83091
G1 X155.94 Y150.20 E3.84948
G1 X155.70 Y149.87 E3.86883
G1 X155.42 Y149.57 E3.88809
G1 X155.12 Y149.29 E3.90736
G1 X154.79 Y149.05 E3.92670
G1 X154.45 Y148.85 E3.94527
G1 X154.08 Y148.67 E3.96493
G1 X153.70 Y148.53 E3.98387
G1 X153.30 Y148.43 E4.00346
G1 X152.91 Y148.37 E4.02210
G1 X152.50 Y148.35 E4.04141
G1 X152.09 Y148.37 E4.06073
G1 X151.70 Y148.43 E4.07937
G1 X151.29 Y148.53 E4.09896
G1 X150.91 Y148.67 E4.11790
G1 X150.54 Y148.85 E4.13756
G1 X150.20 Y149.05 E4.15613
G1 X149.87 Y149.29 E4.17547
G1 X149.57 Y149.57 E4.19474
G0 F12000 X149.28 Y149.28
G1 F2700 X148.99 Y149.61 E4.21564
G1 X148.72 Y149.97 E4.23678
G1 X148.49 Y150.36 E4.25788
G1 X148.30 Y150.76 E4.27902
G1 X148.15 Y151.17 E4.29952
G1 X148.04 Y151.61 E4.32090
G1 X147.98 Y152.05 E4.34183
G1 X147.96 Y152.50 E4.36293
G1 X147.98 Y152.94 E4.38394
G1 X148.04 Y153.38 E4.40487
G1 X148.15 Y153.82 E4.42626
G1 X148.30 Y154.23 E4.44675
G1 X148.49 Y154.63 E4.46789
G1 X148.72 Y155.02 E4.48900
G1 X148.99 Y155.38 E4.51013
G1 X149.28 Y155.71 E4.53103
G1 X149.61 Y156.00 E4.55193
G1 X149.97 Y156.27 E4.57307
G1 X150.36 Y156.50 E4.59418
G1 X150.76 Y156.69 E4.61531
G1 X151.17 Y156.84 E4.63581
G1 X151.61 Y156.95 E4.65720
G1 X152.06 Y157.02 E4.67860
G1 X152.50 Y157.04 E4.69923
G1 X152.93 Y157.02 E4.71977
G1 X153.38 Y156.95 E4.74117
G1 X153.82 Y156.84 E4.76256
G1 X154.23 Y156.69 E4.78306
G1 X154.63 Y156.50 E4.80419
G1 X155.02 Y156.27 E4.82530
G1 X155.38 Y156.00 E4.84644
G1 X155.71 Y155.71 E4.86734
G1 X156.00 Y155.38 E4.88824
G1 X156.27 Y155.02 E4.90937
G1 X156.50 Y154.63 E4.93048
G1 X156.69 Y154.23 E4.95162
G1 X156.84 Y153.82 E4.97211
G1 X156.95 Y153.38 E4.99350
G1 X157.02 Y152.93 E5.01490
G1 X157.04 Y152.50 E5.03544
G1 X157.02 Y152.06 E5.05608
G1 X156.95 Y151.61 E5.07748
G1 X156.84 Y151.17 E5.09886
G1 X156.69 Y150.76 E5.11936
G1 X156.50 Y150.36 E5.14050
G1 X156.27 Y149.97 E5.16160
G1 X156.00 Y149.61 E5.18274
G1 X155.71 Y149.28 E5.20364
G1 X155.38 Y148.99 E5.22454
G1 X155.02 Y148.72 E5.24568
G1 X154.63 Y148.49 E5.26679
G1 X154.23 Y148.30 E5.28792
G1 X153.82 Y148.15 E5.30842
G1 X153.38 Y148.04 E5.32980
G1 X152.94 Y147.98 E5.35073
G1 X152.50 Y147.96 E5.37174
G1 X152.05 Y147.98 E5.39284
G1 X151.61 Y148.04 E5.41377
G1 X151.17 Y148.15 E5.43516
G1 X150.76 Y148.30 E5.45565
G1 X150.36 Y148.49 E5.47679
G1 X149.97 Y148.72 E5.49790
G1 X149.61 Y148.99 E5.51903
G1 X149.28 Y149.28 E5.53993
G0 F12000 X149.00 Y149.00
G1 F2700 X148.67 Y149.37 E5.56320
G1 X148.39 Y149.75 E5.58552
G1 X148.14 Y150.16 E5.60832
G1 X147.93 Y150.61 E5.63165
G1 X147.77 Y151.06 E5.65418
G1 X147.65 Y151.54 E5.67742
G1 X147.58 Y152.01 E5.70007
G1 X147.55 Y152.50 E5.72292
G1 X147.58 Y152.98 E5.74576
G1 X147.65 Y153.46 E5.76841
G1 X147.77 Y153.93 E5.79165
G1 X147.93 Y154.38 E5.81418
G1 X148.14 Y154.83 E5.83751
G1 X148.39 Y155.25 E5.86031
G1 X148.67 Y155.62 E5.88263
G1 X149.00 Y155.99 E5.90590
G1 X149.37 Y156.32 E5.92916
G1 X149.75 Y156.60 E5.95148
G1 X150.16 Y156.85 E5.97428
G1 X150.61 Y157.06 E5.99761
G1 X151.06 Y157.22 E6.02014
G1 X151.54 Y157.34 E6.04338
G1 X152.01 Y157.41 E6.06603
G1 X152.50 Y157.44 E6.08893
G1 X152.98 Y157.41 E6.11173
G1 X153.46 Y157.34 E6.13437
G1 X153.93 Y157.22 E6.15761
G1 X154.38 Y157.06 E6.18015
G1 X154.83 Y156.85 E6.20348
G1 X155.25 Y156.60 E6.22628
G1 X155.62 Y156.32 E6.24859
G1 X155.99 Y155.99 E6.27186
G1 X156.32 Y155.62 E6.29513
G1 X156.60 Y155.25 E6.31744
G1 X156.85 Y154.83 E6.34024
G1 X157.06 Y154.38 E6.36357
G1 X157.22 Y153.93 E6.38611
G1 X157.34 Y153.46 E6.40935
G1 X157.41 Y152.98 E6.43199
G1 X157.44 Y152.50 E6.45480
G1 X157.41 Y152.01 E6.47770
G1 X157.34 Y151.54 E6.50034
G1 X157.22 Y151.06 E6.52358
G1 X157.06 Y150.61 E6.54612
G1 X156.85 Y150.16 E6.56945
G1 X156.60 Y149.75 E6.59224
G1 X156.32 Y149.37 E6.61456
G1 X155.99 Y149.00 E6.63783
G1 X155.62 Y148.67 E6.66109
G1 X155.25 Y148.39 E6.68341
G1 X154.83 Y148.14 E6.70621
G1 X154.38 Y147.93 E6.72954
G1 X153.93 Y147.77 E6.75207
G1 X153.46 Y147.65 E6.77532
G1 X152.98 Y147.58 E6.79796
G1 X152.50 Y147.55 E6.82081
G1 X152.01 Y147.58 E6.84366
G1 X151.54 Y147.65 E6.86630
G1 X151.06 Y147.77 E6.88954
G1 X150.61 Y147.93 E6.91208
G1 X150.16 Y148.14 E6.93541
G1 X149.75 Y148.39 E6.95820
G1 X149.37 Y148.67 E6.98052
G1 X149.00 Y149.00 E7.00379
G0 F12000 X148.72 Y148.72
G1 F2700 X148.36 Y149.11 E7.02866
G1 X148.06 Y149.52 E7.05279
G1 X147.78 Y149.98 E7.07809
G1 X147.56 Y150.46 E7.10296
G1 X147.38 Y150.95 E7.12751
G1 X147.25 Y151.45 E7.15216
G1 X147.18 Y151.96 E7.17648
G1 X147.15 Y152.50 E7.20164
G1 X147.18 Y153.03 E7.22671
G1 X147.25 Y153.54 E7.25102
G1 X147.38 Y154.04 E7.27567
G1 X147.56 Y154.53 E7.30022
G1 X147.78 Y155.01 E7.32509
G1 X148.06 Y155.47 E7.35039
G1 X148.36 Y155.88 E7.37453
G1 X148.72 Y156.27 E7.39940
G1 X149.11 Y156.63 E7.42427
G1 X149.52 Y156.93 E7.44841
G1 X149.98 Y157.21 E7.47370
G1 X150.46 Y157.43 E7.49858
G1 X150.95 Y157.61 E7.52313
G1 X151.45 Y157.74 E7.54778
G1 X151.97 Y157.81 E7.57256
G1 X152.50 Y157.84 E7.59721
G1 X153.02 Y157.81 E7.62190
G1 X153.54 Y157.74 E7.64665
G1 X154.04 Y157.61 E7.67129
G1 X154.53 Y157.43 E7.69585
G1 X155.01 Y157.21 E7.72072
G1 X155.47 Y156.93 E7.74601
G1 X155.88 Y156.63 E7.77015
G1 X156.27 Y156.27 E7.79502
G1 X156.63 Y155.88 E7.81989
G1 X156.93 Y155.47 E7.84403
G1 X157.21 Y155.01 E7.86933
G1 X157.43 Y154.53 E7.89420
G1 X157.61 Y154.04 E7.91875
G1 X157.74 Y153.54 E7.94340
G1 X157.81 Y153.02 E7.96814
G1 X157.84 Y152.50 E7.99283
G1 X157.81 Y151.97 E8.01748
G1 X157.74 Y151.45 E8.04227
G1 X157.61 Y150.95 E8.06692
G1 X157.43 Y150.46 E8.09147
G1 X157.21 Y149.98 E8.11634
G1 X156.93 Y149.52 E8.14164
G1 X156.63 Y149.11 E8.16577
G1 X156.27 Y148.72 E8.19064
G1 X155.88 Y148.36 E8.21552
G1 X155.47 Y148.06 E8.23965
G1 X155.01 Y147.78 E8.26495
G1 X154.53 Y147.56 E8.28982
G1 X154.04 Y147.38 E8.31437
G1 X153.54 Y147.25 E8.33902
G1 X153.03 Y147.18 E8.36334
G1 X152.50 Y147.15 E8.38840
G1 X151.96 Y147.18 E8.41357
G1 X151.45 Y147.25 E8.43788
G1 X150.95 Y147.38 E8.46253
G1 X150.46 Y147.56 E8.48708
G1 X149.98 Y147.78 E8.51195
G1 X149.52 Y148.06 E8.53725
G1 X149.11 Y148.36 E8.56138
G1 X148.72 Y148.72 E8.58626
G0 F12000 X148.44 Y148.44
G1 F2700 X148.05 Y148.86 E8.61314
G1 X147.72 Y149.30 E8.63918
G1 X147.43 Y149.79 E8.66628
G1 X147.19 Y150.29 E8.69241
G1 X147.00 Y150.84 E8.71946
G1 X146.86 Y151.37 E8.74546
G1 X146.78 Y151.94 E8.77240
G1 X146.75 Y152.50 E8.79893
G1 X146.78 Y153.06 E8.82537
G1 X146.86 Y153.62 E8.85231
G1 X147.00 Y154.16 E8.87832
G1 X147.19 Y154.70 E8.90536
G1 X147.43 Y155.20 E8.93149
G1 X147.72 Y155.69 E8.95859
G1 X148.05 Y156.13 E8.98464
G1 X148.44 Y156.56 E9.01151
G1 X148.86 Y156.94 E9.03839
G1 X149.30 Y157.27 E9.06444
G1 X149.79 Y157.56 E9.09153
G1 X150.29 Y157.80 E9.11767
G1 X150.84 Y157.99 E9.14471
G1 X151.37 Y158.13 E9.17072
G1 X151.94 Y158.21 E9.19770
G1 X152.50 Y158.24 E9.22415
G1 X153.06 Y158.21 E9.25063
G1 X153.62 Y158.13 E9.27757
G1 X154.16 Y157.99 E9.30358
G1 X154.70 Y157.80 E9.33062
G1 X155.20 Y157.56 E9.35676
G1 X155.69 Y157.27 E9.38385
G1 X156.13 Y156.94 E9.40990
G1 X156.56 Y156.56 E9.43678
G1 X156.94 Y156.13 E9.46365
G1 X157.27 Y155.69 E9.48970
G1 X157.56 Y155.20 E9.51680
G1 X157.80 Y154.70 E9.54293
G1 X157.99 Y154.16 E9.56997
G1 X158.13 Y153.62 E9.59598
G1 X158.21 Y153.06 E9.62292
G1 X158.24 Y152.50 E9.64941
G1 X158.21 Y151.94 E9.67585
G1 X158.13 Y151.37 E9.70283
G1 X157.99 Y150.84 E9.72884
G1 X157.80 Y150.29 E9.75588
G1 X157.56 Y149.79 E9.78202
G1 X157.27 Y149.30 E9.80911
G1 X156.94 Y148.86 E9.83516
G1 X156.56 Y148.44 E9.86204
G1 X156.13 Y148.05 E9.88892
G1 X155.69 Y147.72 E9.91497
G1 X155.20 Y147.43 E9.94206
G1 X154.70 Y147.19 E9.96819
G1 X154.16 Y147.00 E9.99524
G1 X153.62 Y146.86 E10.02124
G1 X153.06 Y146.78 E10.04818
G1 X152.50 Y146.75 E10.07462
G1 X151.94 Y146.78 E10.10115
G1 X151.37 Y146.86 E10.12809
G1 X150.84 Y147.00 E10.15410
G1 X150.29 Y147.19 E10.18114
G1 X149.79 Y147.43 E10.20728
G1 X149.30 Y147.72 E10.23437
G1 X148.86 Y148.05 E10.26042
G1 X148.44 Y148.44 E10.28730
G0 F12000 X148.15 Y148.15
G1 F2700 X147.75 Y148.59 E10.31550
G1 X147.38 Y149.09 E10.34459
G1 X147.08 Y149.59 E10.37213
G1 X146.82 Y150.15 E10.40134
G1 X146.62 Y150.71 E10.42954
G1 X146.47 Y151.29 E10.45779
G1 X146.38 Y151.89 E10.48610
G1 X146.35 Y152.50 E10.51476
G1 X146.38 Y153.10 E10.54342
G1 X146.47 Y153.70 E10.57173
G1 X146.62 Y154.28 E10.59998
G1 X146.82 Y154.84 E10.62817
G1 X147.08 Y155.40 E10.65739
G1 X147.38 Y155.90 E10.68493
G1 X147.75 Y156.40 E10.71401
G1 X148.15 Y156.84 E10.74222
G1 X148.59 Y157.24 E10.77043
G1 X149.09 Y157.61 E10.79952
G1 X149.59 Y157.91 E10.82706
G1 X150.15 Y158.18 E10.85627
G1 X150.71 Y158.38 E10.88446
G1 X151.29 Y158.52 E10.91271
G1 X151.90 Y158.61 E10.94150
G1 X152.50 Y158.64 E10.96974
G1 X153.09 Y158.61 E10.99788
G1 X153.70 Y158.52 E11.02667
G1 X154.28 Y158.38 E11.05492
G1 X154.84 Y158.18 E11.08311
G1 X155.40 Y157.91 E11.11233
G1 X155.90 Y157.61 E11.13986
G1 X156.40 Y157.24 E11.16895
G1 X156.84 Y156.84 E11.19716
G1 X157.24 Y156.40 E11.22537
G1 X157.61 Y155.90 E11.25446
G1 X157.91 Y155.40 E11.28199
G1 X158.18 Y154.84 E11.31121
G1 X158.38 Y154.28 E11.33940
G1 X158.52 Y153.70 E11.36765
G1 X158.61 Y153.09 E11.39644
G1 X158.64 Y152.50 E11.42458
G1 X158.61 Y151.90 E11.45282
G1 X158.52 Y151.29 E11.48161
G1 X158.38 Y150.71 E11.50986
G1 X158.18 Y150.15 E11.53805
G1 X157.91 Y149.59 E11.56726
G1 X157.61 Y149.09 E11.59480
G1 X157.24 Y148.59 E11.62389
G1 X156.84 Y148.15 E11.65210
G1 X156.40 Y147.75 E11.68031
G1 X155.90 Y147.38 E11.70939
G1 X155.40 Y147.08 E11.73693
G1 X154.84 Y146.82 E11.76615
G1 X154.28 Y146.62 E11.79434
G1 X153.70 Y146.47 E11.82259
G1 X153.10 Y146.38 E11.85091
G1 X152.50 Y146.35 E11.87956
G1 X151.89 Y146.38 E11.90822
G1 X151.29 Y146.47 E11.93654
G1 X150.71 Y146.62 E11.96479
G1 X150.15 Y146.82 E11.99298
G1 X149.59 Y147.08 E12.02219
G1 X149.09 Y147.38 E12.04973
G1 X148.59 Y147.75 E12.07882
G1 X148.15 Y148.15 E12.10703
G0 F12000 X147.87 Y147.87
G1 F2700 X147.44 Y148.35 E12.13751
G1 X147.05 Y148.86 E12.16774
G1 X146.72 Y149.41 E12.19778
G1 X146.45 Y149.99 E12.22807
G1 X146.23 Y150.60 E12.25874
G1 X146.08 Y151.22 E12.28882
G1 X145.98 Y151.85 E12.31881
G1 X145.95 Y152.50 E12.34936
G1 X145.98 Y153.14 E12.37976
G1 X146.08 Y153.77 E12.40980
G1 X146.23 Y154.39 E12.43988
G1 X146.45 Y155.00 E12.47055
G1 X146.72 Y155.58 E12.50084
G1 X147.05 Y156.13 E12.53088
G1 X147.44 Y156.64 E12.56111
G1 X147.87 Y157.12 E12.59160
G1 X148.35 Y157.56 E12.62208
G1 X148.86 Y157.94 E12.65231
G1 X149.41 Y158.27 E12.68235
G1 X149.99 Y158.54 E12.71264
G1 X150.60 Y158.76 E12.74331
G1 X151.22 Y158.91 E12.77339
G1 X151.85 Y159.01 E12.80338
G1 X152.50 Y159.04 E12.83393
G1 X153.14 Y159.01 E12.86434
G1 X153.77 Y158.91 E12.89437
G1 X154.39 Y158.76 E12.92445
G1 X155.00 Y158.54 E12.95512
G1 X155.58 Y158.27 E12.98542
G1 X156.13 Y157.94 E13.01545
G1 X156.64 Y157.56 E13.04569
G1 X157.12 Y157.12 E13.07617
G1 X157.56 Y156.64 E13.10665
G1 X157.94 Y156.13 E13.13689
G1 X158.27 Y155.58 E13.16692
G1 X158.54 Y155.00 E13.19722
G1 X158.76 Y154.39 E13.22789
G1 X158.91 Y153.77 E13.25797
G1 X159.01 Y153.14 E13.28800
G1 X159.04 Y152.50 E13.31841
G1 X159.01 Y151.85 E13.34896
G1 X158.91 Y151.22 E13.37895
G1 X158.76 Y150.60 E13.40903
G1 X158.54 Y149.99 E13.43970
G1 X158.27 Y149.41 E13.46999
G1 X157.94 Y148.86 E13.50003
G1 X157.56 Y148.35 E13.53026
G1 X157.12 Y147.87 E13.56074
G1 X156.64 Y147.44 E13.59123
G1 X156.13 Y147.05 E13.62146
G1 X155.58 Y146.72 E13.65150
G1 X155.00 Y146.45 E13.68179
G1 X154.39 Y146.23 E13.71246
G1 X153.77 Y146.08 E13.74254
G1 X153.14 Y145.98 E13.77258
G1 X152.50 Y145.95 E13.80298
G1 X151.85 Y145.98 E13.83353
G1 X151.22 Y146.08 E13.86352
G1 X150.60 Y146.23 E13.89360
G1 X149.99 Y146.45 E13.92427
G1 X149.41 Y146.72 E13.95456
G1 X148.86 Y147.05 E13.98459
G1 X148.35 Y147.44 E14.01483
G1 X147.87 Y147.87 E14.04531
G0 F12000 X147.59 Y147.59
G1 F2700 X147.13 Y148.09 E14.07713
G1 X146.72 Y148.64 E14.10996
G1 X146.37 Y149.22 E14.14177
G1 X146.08 Y149.84 E14.17381
G1 X145.85 Y150.48 E14.20616
G1 X145.69 Y151.13 E14.23786
G1 X145.59 Y151.81 E14.27013
G1 X145.55 Y152.50 E14.30247
G1 X145.59 Y153.18 E14.33472
G1 X145.69 Y153.86 E14.36700
G1 X145.85 Y154.51 E14.39869
G1 X146.08 Y155.16 E14.43104
G1 X146.37 Y155.77 E14.46309
G1 X146.72 Y156.35 E14.49489
G1 X147.13 Y156.91 E14.52772
G1 X147.59 Y157.41 E14.55954
G1 X148.09 Y157.86 E14.59136
G1 X148.64 Y158.28 E14.62419
G1 X149.22 Y158.62 E14.65600
G1 X149.84 Y158.91 E14.68804
G1 X150.48 Y159.14 E14.72039
G1 X151.13 Y159.31 E14.75208
G1 X151.82 Y159.41 E14.78483
G1 X152.50 Y159.44 E14.81666
G1 X153.17 Y159.41 E14.84848
G1 X153.86 Y159.31 E14.88124
G1 X154.51 Y159.14 E14.91293
G1 X155.16 Y158.91 E14.94528
G1 X155.77 Y158.62 E14.97732
G1 X156.35 Y158.28 E15.00913
G1 X156.91 Y157.86 E15.04196
G1 X157.41 Y157.41 E15.07378
G1 X157.86 Y156.91 E15.10559
G1 X158.28 Y156.35 E15.13842
G1 X158.62 Y155.77 E15.17023
G1 X158.91 Y155.16 E15.20227
G1 X159.14 Y154.51 E15.23463
G1 X159.31 Y153.86 E15.26632
G1 X159.41 Y153.17 E15.29907
G1 X159.44 Y152.50 E15.33090
G1 X159.41 Y151.82 E15.36272
G1 X159.31 Y151.13 E15.39547
G1 X159.14 Y150.48 E15.42716
G1 X158.91 Y149.84 E15.45952
G1 X158.62 Y149.22 E15.49156
G1 X158.28 Y148.64 E15.52337
G1 X157.86 Y148.09 E15.55620
G1 X157.41 Y147.59 E15.58801
G1 X156.91 Y147.13 E15.61983
G1 X156.35 Y146.72 E15.65266
G1 X155.77 Y146.37 E15.68447
G1 X155.16 Y146.08 E15.71651
G1 X154.51 Y145.85 E15.74886
G1 X153.86 Y145.69 E15.78056
G1 X153.18 Y145.59 E15.81283
G1 X152.50 Y145.55 E15.84508
G1 X151.81 Y145.59 E15.87742
G1 X151.13 Y145.69 E15.90970
G1 X150.48 Y145.85 E15.94139
G1 X149.84 Y146.08 E15.97374
G1 X149.22 Y146.37 E16.00579
G1 X148.64 Y146.72 E16.03759
G1 X148.09 Y147.13 E16.07042
G1 X147.59 Y147.59 E16.10224
G0 F12000 X147.30 Y147.30
G1 F2700 X146.82 Y147.83 E16.13596
G1 X146.39 Y148.42 E16.17031
G1 X146.02 Y149.03 E16.20417
G1 X145.71 Y149.69 E16.23818
G1 X145.46 Y150.37 E16.27256
G1 X145.29 Y151.06 E16.30609
G1 X145.19 Y151.77 E16.34009
G1 X145.15 Y152.50 E16.37417
G1 X145.19 Y153.22 E16.40826
G1 X145.29 Y153.93 E16.44225
G1 X145.46 Y154.62 E16.47579
G1 X145.71 Y155.31 E16.51017
G1 X146.02 Y155.96 E16.54417
G1 X146.39 Y156.57 E16.57804
G1 X146.82 Y157.16 E16.61239
G1 X147.30 Y157.69 E16.64611
G1 X147.83 Y158.17 E16.67983
G1 X148.42 Y158.60 E16.71417
G1 X149.03 Y158.97 E16.74804
G1 X149.69 Y159.28 E16.78204
G1 X150.37 Y159.53 E16.81642
G1 X151.06 Y159.70 E16.84996
G1 X151.77 Y159.81 E16.88395
G1 X152.50 Y159.84 E16.91809
G1 X153.22 Y159.81 E16.95213
G1 X153.93 Y159.70 E16.98612
G1 X154.62 Y159.53 E17.01966
G1 X155.31 Y159.28 E17.05404
G1 X155.96 Y158.97 E17.08804
G1 X156.57 Y158.60 E17.12191
G1 X157.16 Y158.17 E17.15625
G1 X157.69 Y157.69 E17.18997
G1 X158.17 Y157.16 E17.22369
G1 X158.60 Y156.57 E17.25804
G1 X158.97 Y155.96 E17.29191
G1 X159.28 Y155.31 E17.32591
G1 X159.53 Y154.62 E17.36029
G1 X159.70 Y153.93 E17.39383
G1 X159.81 Y153.22 E17.42782
G1 X159.84 Y152.50 E17.46186
G1 X159.81 Y151.77 E17.49600
G1 X159.70 Y151.06 E17.52999
G1 X159.53 Y150.37 E17.56353
G1 X159.28 Y149.69 E17.59791
G1 X158.97 Y149.03 E17.63191
G1 X158.60 Y148.42 E17.66577
G1 X158.17 Y147.83 E17.70012
G1 X157.69 Y147.30 E17.73384
G1 X157.16 Y146.82 E17.76756
G1 X156.57 Y146.39 E17.80191
G1 X155.96 Y146.02 E17.83577
G1 X155.31 Y145.71 E17.86978
G1 X154.62 Y145.46 E17.90416
G1 X153.93 Y145.29 E17.93770
G1 X153.22 Y145.19 E17.97169
G1 X152.50 Y145.15 E18.00578
G1 X151.77 Y145.19 E18.03986
G1 X151.06 Y145.29 E18.07386
G1 X150.37 Y145.46 E18.10739
G1 X149.69 Y145.71 E18.14177
G1 X149.03 Y146.02 E18.17578
G1 X148.42 Y146.39 E18.20964
G1 X147.83 Y146.82 E18.24399
G1 X147.30 Y147.30 E18.27771
G0 F12000 X147.02 Y147.02
G1 F2700 X146.51 Y147.57 E18.31310
G1 X146.05 Y148.20 E18.34970
G1 X145.66 Y148.85 E18.38536
G1 X145.34 Y149.53 E18.42109
G1 X145.08 Y150.25 E18.45707
G1 X144.90 Y150.99 E18.49284
G1 X144.79 Y151.74 E18.52864
G1 X144.75 Y152.50 E18.56453
G1 X144.79 Y153.25 E18.60031
G1 X144.90 Y154.01 E18.63611
G1 X145.08 Y154.74 E18.67189
G1 X145.34 Y155.46 E18.70787
G1 X145.66 Y156.15 E18.74360
G1 X146.05 Y156.79 E18.77926
G1 X146.51 Y157.42 E18.81586
G1 X147.02 Y157.97 E18.85125
G1 X147.57 Y158.48 E18.88664
G1 X148.20 Y158.94 E18.92324
G1 X148.85 Y159.33 E18.95890
G1 X149.53 Y159.65 E18.99463
G1 X150.25 Y159.91 E19.03061
G1 X150.99 Y160.09 E19.06639
G1 X151.74 Y160.21 E19.10219
G1 X152.50 Y160.24 E19.13807
G1 X153.25 Y160.21 E19.17386
G1 X154.01 Y160.09 E19.20966
G1 X154.74 Y159.91 E19.24544
G1 X155.46 Y159.65 E19.28141
G1 X156.15 Y159.33 E19.31715
G1 X156.79 Y158.94 E19.35281
G1 X157.42 Y158.48 E19.38941
G1 X157.97 Y157.97 E19.42480
G1 X158.48 Y157.42 E19.46019
G1 X158.94 Y156.79 E19.49679
G1 X159.33 Y156.15 E19.53245
G1 X159.65 Y155.46 E19.56818
G1 X159.91 Y154.74 E19.60416
G1 X160.09 Y154.01 E19.63993
G1 X160.21 Y153.25 E19.67573
G1 X160.24 Y152.50 E19.71152
G1 X160.21 Y151.74 E19.74741
G1 X160.09 Y150.99 E19.78321
G1 X159.91 Y150.25 E19.81898
G1 X159.65 Y149.53 E19.85496
G1 X159.33 Y148.85 E19.89070
G1 X158.94 Y148.20 E19.92635
G1 X158.48 Y147.57 E19.96296
G1 X157.97 Y147.02 E19.99834
G1 X157.42 Y146.51 E20.03373
G1 X156.79 Y146.05 E20.07034
G1 X156.15 Y145.66 E20.10599
G1 X155.46 Y145.34 E20.14173
G1 X154.74 Y145.08 E20.17771
G1 X154.01 Y144.90 E20.21348
G1 X153.25 Y144.79 E20.24928
G1 X152.50 Y144.75 E20.28507
G1 X151.74 Y144.79 E20.32095
G1 X150.99 Y144.90 E20.35675
G1 X150.25 Y145.08 E20.39253
G1 X149.53 Y145.34 E20.42850
G1 X148.85 Y145.66 E20.46424
G1 X148.20 Y146.05 E20.49990
G1 X147.57 Y146.51 E20.53650
G1 X147.02 Y147.02 E20.57189
G0 F12000 X146.74 Y146.74
G1 F2700 X146.20 Y147.33 E20.60964
G1 X145.73 Y147.96 E20.64693
G1 X145.31 Y148.66 E20.68502
G1 X144.97 Y149.39 E20.72316
G1 X144.70 Y150.13 E20.76027
G1 X144.51 Y150.90 E20.79785
G1 X144.39 Y151.70 E20.83584
G1 X144.35 Y152.50 E20.87352
G1 X144.39 Y153.29 E20.91110
G1 X144.51 Y154.09 E20.94910
G1 X144.70 Y154.86 E20.98668
G1 X144.97 Y155.60 E21.02379
G1 X145.31 Y156.34 E21.06193
G1 X145.73 Y157.03 E21.10002
G1 X146.20 Y157.66 E21.13730
G1 X146.74 Y158.26 E21.17506
G1 X147.33 Y158.79 E21.21282
G1 X147.96 Y159.26 E21.25010
G1 X148.66 Y159.68 E21.28819
G1 X149.39 Y160.03 E21.32633
G1 X150.13 Y160.29 E21.36344
G1 X150.90 Y160.49 E21.40102
G1 X151.70 Y160.60 E21.43902
G1 X152.50 Y160.64 E21.47670
G1 X153.29 Y160.60 E21.51428
G1 X154.09 Y160.49 E21.55228
G1 X154.86 Y160.29 E21.58986
G1 X155.60 Y160.03 E21.62697
G1 X156.34 Y159.68 E21.66511
G1 X157.03 Y159.26 E21.70320
G1 X157.66 Y158.79 E21.74048
G1 X158.26 Y158.26 E21.77824
G1 X158.79 Y157.66 E21.81600
G1 X159.26 Y157.03 E21.85328
G1 X159.68 Y156.34 E21.89137
G1 X160.03 Y155.60 E21.92951
G1 X160.29 Y154.86 E21.96662
G1 X160.49 Y154.09 E22.00420
G1 X160.60 Y153.29 E22.04220
G1 X160.64 Y152.50 E22.07978
G1 X160.60 Y151.70 E22.11746
G1 X160.49 Y150.90 E22.15545
G1 X160.29 Y150.13 E22.19304
G1 X160.03 Y149.39 E22.23015
G1 X159.68 Y148.66 E22.26829
G1 X159.26 Y147.96 E22.30638
G1 X158.79 Y147.33 E22.34366
G1 X158.26 Y146.74 E22.38142
G1 X157.66 Y146.20 E22.41918
G1 X157.03 Y145.73 E22.45646
G1 X156.34 Y145.31 E22.49455
G1 X155.60 Y144.97 E22.53269
G1 X154.86 Y144.70 E22.56980
G1 X154.09 Y144.51 E22.60738
G1 X153.29 Y144.39 E22.64538
G1 X152.50 Y144.35 E22.68296
G1 X151.70 Y144.39 E22.72063
G1 X150.90 Y144.51 E22.75863
G1 X150.13 Y144.70 E22.79621
G1 X149.39 Y144.97 E22.83332
G1 X148.66 Y145.31 E22.87146
G1 X147.96 Y145.73 E22.90955
G1 X147.33 Y146.20 E22.94683
G1 X146.74 Y146.74 E22.98459
G0 F12000 X146.45 Y146.45
G1 F2700 X145.89 Y147.08 E23.02432
G1 X145.39 Y147.75 E23.06400
G1 X144.96 Y148.46 E23.10298
G1 X144.60 Y149.23 E23.14287
G1 X144.32 Y150.02 E23.18246
G1 X144.11 Y150.83 E23.22188
G1 X143.99 Y151.66 E23.26159
G1 X143.95 Y152.50 E23.30101
G1 X143.99 Y153.33 E23.34044
G1 X144.11 Y154.16 E23.38014
G1 X144.32 Y154.97 E23.41957
G1 X144.60 Y155.76 E23.45916
G1 X144.96 Y156.53 E23.49905
G1 X145.39 Y157.24 E23.53803
G1 X145.89 Y157.91 E23.57771
G1 X146.45 Y158.54 E23.61743
G1 X147.08 Y159.10 E23.65716
G1 X147.75 Y159.61 E23.69684
G1 X148.46 Y160.03 E23.73582
G1 X149.23 Y160.39 E23.77571
G1 X150.02 Y160.68 E23.81530
G1 X150.83 Y160.88 E23.85472
G1 X151.66 Y161.00 E23.89443
G1 X152.50 Y161.04 E23.93386
G1 X153.33 Y161.00 E23.97328
G1 X154.16 Y160.88 E24.01299
G1 X154.97 Y160.68 E24.05242
G1 X155.76 Y160.39 E24.09200
G1 X156.53 Y160.03 E24.13189
G1 X157.24 Y159.61 E24.17087
G1 X157.91 Y159.10 E24.21055
G1 X158.54 Y158.54 E24.25028
G1 X159.10 Y157.91 E24.29001
G1 X159.61 Y157.24 E24.32969
G1 X160.03 Y156.53 E24.36867
G1 X160.39 Y155.76 E24.40856
G1 X160.68 Y154.97 E24.44815
G1 X160.88 Y154.16 E24.48757
G1 X161.00 Y153.33 E24.52728
G1 X161.04 Y152.50 E24.56670
G1 X161.00 Y151.66 E24.60613
G1 X160.88 Y150.83 E24.64584
G1 X160.68 Y150.02 E24.68526
G1 X160.39 Y149.23 E24.72485
G1 X160.03 Y148.46 E24.76474
G1 X159.61 Y147.75 E24.80372
G1 X159.10 Y147.08 E24.84340
G1 X158.54 Y146.45 E24.88313
G1 X157.91 Y145.89 E24.92286
G1 X157.24 Y145.39 E24.96253
G1 X156.53 Y144.96 E25.00152
G1 X155.76 Y144.60 E25.04141
G1 X154.97 Y144.32 E25.08099
G1 X154.16 Y144.11 E25.12042
G1 X153.33 Y143.99 E25.16013
G1 X152.50 Y143.95 E25.19955
G1 X151.66 Y143.99 E25.23897
G1 X150.83 Y144.11 E25.27868
G1 X150.02 Y144.32 E25.31810
G1 X149.23 Y144.60 E25.35769
G1 X148.46 Y144.96 E25.39758
G1 X147.75 Y145.39 E25.43656
G1 X147.08 Y145.89 E25.47624
G1 X146.45 Y146.45 E25.51597
G0 F12000 X146.17 Y146.17
G1 F2700 X145.58 Y146.82 E25.55730
G1 X145.06 Y147.53 E25.59876
G1 X144.60 Y148.28 E25.64033
G1 X144.23 Y149.07 E25.68169
G1 X143.93 Y149.90 E25.72287
G1 X143.72 Y150.75 E25.76459
G1 X143.59 Y151.61 E25.80553
G1 X143.55 Y152.50 E25.84727
G1 X143.59 Y153.38 E25.88891
G1 X143.72 Y154.24 E25.92986
G1 X143.93 Y155.10 E25.97157
G1 X144.23 Y155.92 E26.01276
G1 X144.60 Y156.71 E26.05412
G1 X145.06 Y157.47 E26.09568
G1 X145.58 Y158.17 E26.13714
G1 X146.17 Y158.82 E26.17848
G1 X146.82 Y159.41 E26.21981
G1 X147.53 Y159.94 E26.26127
G1 X148.28 Y160.39 E26.30283
G1 X149.07 Y160.76 E26.34420
G1 X149.90 Y161.06 E26.38538
G1 X150.75 Y161.27 E26.42709
G1 X151.61 Y161.40 E26.46804
G1 X152.50 Y161.44 E26.50978
G1 X153.38 Y161.40 E26.55142
G1 X154.24 Y161.27 E26.59237
G1 X155.10 Y161.06 E26.63408
G1 X155.92 Y160.76 E26.67527
G1 X156.71 Y160.39 E26.71663
G1 X157.47 Y159.94 E26.75819
G1 X158.17 Y159.41 E26.79966
G1 X158.82 Y158.82 E26.84099
G1 X159.41 Y158.17 E26.88232
G1 X159.94 Y157.47 E26.92378
G1 X160.39 Y156.71 E26.96534
G1 X160.76 Y155.92 E27.00671
G1 X161.06 Y155.10 E27.04789
G1 X161.27 Y154.24 E27.08961
G1 X161.40 Y153.38 E27.13055
G1 X161.44 Y152.50 E27.17220
G1 X161.40 Y151.61 E27.21394
G1 X161.27 Y150.75 E27.25488
G1 X161.06 Y149.90 E27.29660
G1 X160.76 Y149.07 E27.33778
G1 X160.39 Y148.28 E27.37915
G1 X159.94 Y147.53 E27.42071
G1 X159.41 Y146.82 E27.46217
G1 X158.82 Y146.17 E27.50350
G1 X158.17 Y145.58 E27.54483
G1 X157.47 Y145.06 E27.58629
G1 X156.71 Y144.60 E27.62786
G1 X155.92 Y144.23 E27.66922
G1 X155.10 Y143.93 E27.71040
G1 X154.24 Y143.72 E27.75212
G1 X153.38 Y143.59 E27.79306
G1 X152.50 Y143.55 E27.83471
G1 X151.61 Y143.59 E27.87644
G1 X150.75 Y143.72 E27.91739
G1 X149.90 Y143.93 E27.95910
G1 X149.07 Y144.23 E28.00029
G1 X148.28 Y144.60 E28.04165
G1 X147.53 Y145.06 E28.08321
G1 X146.82 Y145.58 E28.12467
G1 X146.17 Y146.17 E28.16601
G0 F12000 X145.89 Y145.89
G1 F2700 X145.27 Y146.57 E28.20935
G1 X144.72 Y147.31 E28.25276
G1 X144.25 Y148.09 E28.29559
G1 X143.86 Y148.92 E28.33915
G1 X143.55 Y149.78 E28.38233
G1 X143.33 Y150.67 E28.42540
G1 X143.19 Y151.59 E28.46912
G1 X143.15 Y152.50 E28.51213
G1 X143.19 Y153.41 E28.55505
G1 X143.33 Y154.32 E28.59876
G1 X143.55 Y155.21 E28.64174
G1 X143.86 Y156.07 E28.68501
G1 X144.25 Y156.91 E28.72857
G1 X144.72 Y157.69 E28.77140
G1 X145.27 Y158.42 E28.81482
G1 X145.89 Y159.11 E28.85815
G1 X146.57 Y159.72 E28.90149
G1 X147.31 Y160.27 E28.94491
G1 X148.09 Y160.74 E28.98774
G1 X148.92 Y161.13 E29.03130
G1 X149.78 Y161.44 E29.07452
G1 X150.67 Y161.66 E29.11755
G1 X151.59 Y161.80 E29.16127
G1 X152.50 Y161.84 E29.20428
G1 X153.41 Y161.80 E29.24720
G1 X154.32 Y161.66 E29.29091
G1 X155.21 Y161.44 E29.33394
G1 X156.07 Y161.13 E29.37717
G1 X156.91 Y160.74 E29.42073
G1 X157.69 Y160.27 E29.46356
G1 X158.42 Y159.72 E29.50697
G1 X159.11 Y159.11 E29.55031
G1 X159.72 Y158.42 E29.59365
G1 X160.27 Y157.69 E29.63706
G1 X160.74 Y156.91 E29.67989
G1 X161.13 Y156.07 E29.72345
G1 X161.44 Y155.21 E29.76672
G1 X161.66 Y154.32 E29.80970
G1 X161.80 Y153.41 E29.85342
G1 X161.84 Y152.50 E29.89634
G1 X161.80 Y151.59 E29.93935
G1 X161.66 Y150.67 E29.98306
G1 X161.44 Y149.78 E30.02614
G1 X161.13 Y148.92 E30.06932
G1 X160.74 Y148.09 E30.11288
G1 X160.27 Y147.31 E30.15571
G1 X159.72 Y146.57 E30.19912
G1 X159.11 Y145.89 E30.24246
G1 X158.42 Y145.27 E30.28580
G1 X157.69 Y144.72 E30.32921
G1 X156.91 Y144.25 E30.37204
G1 X156.07 Y143.86 E30.41560
G1 X155.21 Y143.55 E30.45883
G1 X154.32 Y143.33 E30.50185
G1 X153.41 Y143.19 E30.54557
G1 X152.50 Y143.15 E30.58849
G1 X151.59 Y143.19 E30.63150
G1 X150.67 Y143.33 E30.67521
G1 X149.78 Y143.55 E30.71824
G1 X148.92 Y143.86 E30.76147
G1 X148.09 Y144.25 E30.80503
G1 X147.31 Y144.72 E30.84786
G1 X146.57 Y145.27 E30.89127
G1 X145.89 Y145.89 E30.93461
G0 F12000 X145.60 Y145.60
G1 F2700 X144.96 Y146.31 E30.97954
G1 X144.39 Y147.08 E31.02478
G1 X143.90 Y147.90 E31.07012
G1 X143.49 Y148.77 E31.11522
G1 X143.17 Y149.66 E31.15997
G1 X142.94 Y150.59 E31.20532
G1 X142.79 Y151.54 E31.25028
G1 X142.75 Y152.50 E31.29556
G1 X142.79 Y153.45 E31.34074
G1 X142.94 Y154.40 E31.38570
G1 X143.17 Y155.33 E31.43104
G1 X143.49 Y156.22 E31.47579
G1 X143.90 Y157.09 E31.52089
G1 X144.39 Y157.91 E31.56624
G1 X144.96 Y158.68 E31.61147
G1 X145.60 Y159.39 E31.65641
G1 X146.31 Y160.03 E31.70135
G1 X147.08 Y160.60 E31.74658
G1 X147.90 Y161.09 E31.79193
G1 X148.77 Y161.50 E31.83703
G1 X149.66 Y161.82 E31.88178
G1 X150.59 Y162.06 E31.92712
G1 X151.54 Y162.20 E31.97208
G1 X152.50 Y162.25 E32.01736
G1 X153.45 Y162.20 E32.06255
G1 X154.40 Y162.06 E32.10750
G1 X155.33 Y161.82 E32.15285
G1 X156.22 Y161.50 E32.19760
G1 X157.09 Y161.09 E32.24270
G1 X157.91 Y160.60 E32.28805
G1 X158.68 Y160.03 E32.33328
G1 X159.39 Y159.39 E32.37822
G1 X160.03 Y158.68 E32.42315
G1 X160.60 Y157.91 E32.46839
G1 X161.09 Y157.09 E32.51373
G1 X161.50 Y156.22 E32.55883
G1 X161.82 Y155.33 E32.60358
G1 X162.06 Y154.40 E32.64893
G1 X162.20 Y153.45 E32.69389
G1 X162.25 Y152.50 E32.73908
G1 X162.20 Y151.54 E32.78436
G1 X162.06 Y150.59 E32.82931
G1 X161.82 Y149.66 E32.87466
G1 X161.50 Y148.77 E32.91941
G1 X161.09 Y147.90 E32.96451
G1 X160.60 Y147.08 E33.00986
G1 X160.03 Y146.31 E33.05509
G1 X159.39 Y145.60 E33.10003
G1 X158.68 Y144.96 E33.14496
G1 X157.91 Y144.39 E33.19020
G1 X157.09 Y143.90 E33.23554
G1 X156.22 Y143.49 E33.28064
G1 X155.33 Y143.17 E33.32539
G1 X154.40 Y142.94 E33.37074
G1 X153.45 Y142.79 E33.41570
G1 X152.50 Y142.75 E33.46088
G1 X151.54 Y142.79 E33.50616
G1 X150.59 Y142.94 E33.55112
G1 X149.66 Y143.17 E33.59646
G1 X148.77 Y143.49 E33.64121
G1 X147.90 Y143.90 E33.68631
G1 X147.08 Y144.39 E33.73166
G1 X146.31 Y144.96 E33.77689
G1 X145.60 Y145.60 E33.82183
G0 F12000 X145.32 Y145.32
G1 F2700 X144.65 Y146.06 E33.86877
G1 X144.06 Y146.86 E33.91593
G1 X143.54 Y147.72 E33.96305
G1 X143.12 Y148.61 E34.00942
G1 X142.78 Y149.55 E34.05666
G1 X142.54 Y150.52 E34.10391
G1 X142.40 Y151.50 E34.15053
G1 X142.35 Y152.50 E34.19760
G1 X142.40 Y153.49 E34.24458
G1 X142.54 Y154.47 E34.29120
G1 X142.78 Y155.44 E34.33845
G1 X143.12 Y156.38 E34.38569
G1 X143.54 Y157.27 E34.43206
G1 X144.06 Y158.13 E34.47918
G1 X144.65 Y158.93 E34.52634
G1 X145.32 Y159.67 E34.57328
G1 X146.06 Y160.34 E34.62022
G1 X146.86 Y160.94 E34.66738
G1 X147.72 Y161.45 E34.71450
G1 X148.61 Y161.87 E34.76087
G1 X149.55 Y162.21 E34.80811
G1 X150.52 Y162.45 E34.85536
G1 X151.50 Y162.60 E34.90193
G1 X152.50 Y162.65 E34.94905
G1 X153.49 Y162.60 E34.99608
G1 X154.47 Y162.45 E35.04266
G1 X155.44 Y162.21 E35.08991
G1 X156.38 Y161.87 E35.13715
G1 X157.27 Y161.45 E35.18351
G1 X158.13 Y160.94 E35.23064
G1 X158.93 Y160.34 E35.27779
G1 X159.67 Y159.67 E35.32474
G1 X160.34 Y158.93 E35.37168
G1 X160.94 Y158.13 E35.41883
G1 X161.45 Y157.27 E35.46596
G1 X161.87 Y156.38 E35.51233
G1 X162.21 Y155.44 E35.55956
G1 X162.45 Y154.47 E35.60681
G1 X162.60 Y153.49 E35.65339
G1 X162.65 Y152.50 E35.70042
G1 X162.60 Y151.50 E35.74754
G1 X162.45 Y150.52 E35.79412
G1 X162.21 Y149.55 E35.84136
G1 X161.87 Y148.61 E35.88860
G1 X161.45 Y147.72 E35.93497
G1 X160.94 Y146.86 E35.98209
G1 X160.34 Y146.06 E36.02925
G1 X159.67 Y145.32 E36.07619
G1 X158.93 Y144.65 E36.12313
G1 X158.13 Y144.06 E36.17029
G1 X157.27 Y143.54 E36.21742
G1 X156.38 Y143.12 E36.26378
G1 X155.44 Y142.78 E36.31102
G1 X154.47 Y142.54 E36.35827
G1 X153.49 Y142.40 E36.40489
G1 X152.50 Y142.35 E36.45187
G1 X151.50 Y142.40 E36.49894
G1 X150.52 Y142.54 E36.54557
G1 X149.55 Y142.78 E36.59281
G1 X148.61 Y143.12 E36.64005
G1 X147.72 Y143.54 E36.68642
G1 X146.86 Y144.06 E36.73354
G1 X146.06 Y144.65 E36.78070
G1 X145.32 Y145.32 E36.82764
G0 F12000 X145.04 Y145.04
G1 F2700 X144.34 Y145.80 E36.87622
G1 X143.73 Y146.63 E36.92516
G1 X143.19 Y147.53 E36.97457
G1 X142.75 Y148.46 E37.02312
G1 X142.40 Y149.43 E37.07132
G1 X142.15 Y150.44 E37.12056
G1 X142.00 Y151.46 E37.16933
G1 X141.95 Y152.50 E37.21824
G1 X142.00 Y153.53 E37.26706
G1 X142.15 Y154.55 E37.31583
G1 X142.40 Y155.56 E37.36488
G1 X142.75 Y156.53 E37.41326
G1 X143.19 Y157.46 E37.46182
G1 X143.73 Y158.36 E37.51123
G1 X144.34 Y159.19 E37.56017
G1 X145.04 Y159.96 E37.60875
G1 X145.80 Y160.65 E37.65732
G1 X146.63 Y161.27 E37.70626
G1 X147.53 Y161.80 E37.75546
G1 X148.46 Y162.24 E37.80423
G1 X149.43 Y162.59 E37.85262
G1 X150.44 Y162.84 E37.90166
G1 X151.46 Y162.99 E37.95043
G1 X152.50 Y163.05 E37.99935
G1 X153.53 Y162.99 E38.04817
G1 X154.55 Y162.84 E38.09694
G1 X155.56 Y162.59 E38.14598
G1 X156.53 Y162.24 E38.19437
G1 X157.46 Y161.80 E38.24314
G1 X158.36 Y161.27 E38.29234
G1 X159.19 Y160.65 E38.34128
G1 X159.96 Y159.96 E38.38986
G1 X160.65 Y159.19 E38.43843
G1 X161.27 Y158.36 E38.48737
G1 X161.80 Y157.46 E38.53678
G1 X162.24 Y156.53 E38.58534
G1 X162.59 Y155.56 E38.63373
G1 X162.84 Y154.55 E38.68277
G1 X162.99 Y153.53 E38.73154
G1 X163.05 Y152.50 E38.78036
G1 X162.99 Y151.46 E38.82928
G1 X162.84 Y150.44 E38.87805
G1 X162.59 Y149.43 E38.92729
G1 X162.24 Y148.46 E38.97548
G1 X161.80 Y147.53 E39.02404
G1 X161.27 Y146.63 E39.07345
G1 X160.65 Y145.80 E39.12239
G1 X159.96 Y145.04 E39.17096
G1 X159.19 Y144.34 E39.21954
G1 X158.36 Y143.73 E39.26848
G1 X157.46 Y143.19 E39.31768
G1 X156.53 Y142.75 E39.36645
G1 X155.56 Y142.40 E39.41484
G1 X154.55 Y142.15 E39.46388
G1 X153.53 Y142.00 E39.51265
G1 X152.50 Y141.95 E39.56147
G1 X151.46 Y142.00 E39.61038
G1 X150.44 Y142.15 E39.65915
G1 X149.43 Y142.40 E39.70820
G1 X148.46 Y142.75 E39.75659
G1 X147.53 Y143.19 E39.80536
G1 X146.63 Y143.73 E39.85455
G1 X145.80 Y144.34 E39.90349
G1 X145.04 Y145.04 E39.95207
G0 F12000 X143.09 Y142.38
G1 F2700 X143.69 Y141.78 E39.99202
G1 X144.09 Y141.58 E40.01317
G1 X144.69 Y140.98 E40.05312
G1 X147.28 Y139.69 E40.18952
G1 X148.57 Y139.26 E40.25385
G1 X149.37 Y139.06 E40.29264
G1 X150.01 Y138.85 E40.32430
G1 X151.35 Y138.62 E40.38846
G1 X154.20 Y138.62 E40.52285
G1 X156.26 Y138.97 E40.62162
G1 X156.26 Y139.02 E40.62427
G1 X156.27 Y139.02 E40.62464
G1 X157.07 Y139.29 E40.66441
G1 X160.46 Y140.98 E40.84300
G1 X163.82 Y144.35 E41.06751
G1 X163.82 Y144.55 E41.07699
G1 X164.22 Y144.95 E41.10363
G1 X164.22 Y145.15 E41.11311
G1 X164.62 Y145.55 E41.13975
G1 X164.62 Y145.75 E41.14923
G1 X164.82 Y145.95 E41.16254
G1 X164.82 Y146.35 E41.18145
G1 X165.02 Y146.55 E41.19475
G1 X165.02 Y146.95 E41.21366
G1 X165.22 Y147.15 E41.22697
G1 X165.22 Y147.35 E41.23644
G1 X165.42 Y147.55 E41.24975
G1 X165.42 Y147.75 E41.25923
G1 X165.62 Y147.95 E41.27253
G1 X165.62 Y148.15 E41.28201
G1 X165.82 Y148.35 E41.29532
G1 X165.82 Y149.35 E41.34252
G1 X166.02 Y149.55 E41.35582
G1 X166.02 Y150.75 E41.41246
G1 X166.22 Y150.95 E41.42577
G1 X166.22 Y154.10 E41.57412
G1 X166.02 Y154.29 E41.58743
G1 X166.02 Y155.30 E41.63463
G1 X165.82 Y155.50 E41.64793
G1 X165.82 Y156.70 E41.70457
G1 X165.62 Y156.90 E41.71788
G1 X165.62 Y157.10 E41.72735
G1 X165.42 Y157.29 E41.74066
G1 X165.42 Y157.50 E41.75014
G1 X165.22 Y157.69 E41.76344
G1 X165.22 Y157.90 E41.77292
G1 X165.02 Y158.09 E41.78622
G1 X165.02 Y158.30 E41.79570
G1 X164.82 Y158.50 E41.80901
G1 X164.82 Y158.70 E41.81849
G1 X164.62 Y158.90 E41.83179
G1 X164.62 Y159.10 E41.84127
G1 X164.42 Y159.29 E41.85457
G1 X164.42 Y159.50 E41.86405
G1 X164.22 Y159.69 E41.87736
G1 X164.22 Y159.90 E41.88684
G1 X163.82 Y160.29 E41.91348
G1 X163.82 Y160.50 E41.92296
G1 X160.66 Y163.66 E42.13413
G1 X159.46 Y164.26 E42.19746
G1 X159.26 Y164.46 E42.21073
G1 X158.85 Y164.66 E42.23189
G1 X158.66 Y164.86 E42.24516
G1 X158.07 Y165.16 E42.27612
G1 X155.53 Y166.00 E42.40232
G1 X153.99 Y166.22 E42.47583
G1 X152.55 Y166.22 E42.54369
G1 X151.30 Y166.01 E42.60354
G1 X149.88 Y165.81 E42.67075
G1 X148.61 Y165.60 E42.73191
G1 X147.97 Y165.39 E42.76342
G1 X147.11 Y165.17 E42.80537
G1 X145.69 Y164.46 E42.88019
G1 X145.09 Y163.86 E42.92014
G1 X144.69 Y163.66 E42.94129
G1 X144.49 Y163.46 E42.95456
G1 X144.09 Y163.26 E42.97572
G1 X143.89 Y163.06 E42.98899
G1 X143.49 Y162.86 E43.01014
G1 X142.89 Y162.26 E43.05009
G1 X142.12 Y161.88 E43.09056
G1 X142.12 Y161.50 E43.10871
G1 X141.32 Y160.70 E43.16203
G1 X141.32 Y160.50 E43.17151
G1 X140.92 Y160.10 E43.19815
G1 X140.92 Y159.90 E43.20763
G1 X140.52 Y159.50 E43.23427
G1 X140.52 Y159.29 E43.24375
G1 X140.32 Y159.10 E43.25706
G1 X140.32 Y158.90 E43.26654
G1 X139.92 Y158.50 E43.29318
G1 X139.92 Y158.09 E43.31209
G1 X139.72 Y157.90 E43.32539
G1 X139.72 Y157.69 E43.33487
G1 X139.52 Y157.50 E43.34818
G1 X139.52 Y157.29 E43.35766
G1 X139.32 Y157.10 E43.37096
G1 X139.32 Y156.69 E43.38987
G1 X139.12 Y156.50 E43.40317
G1 X139.12 Y156.09 E43.42208
G1 X138.92 Y155.90 E43.43539
G1 X138.92 Y154.69 E43.49202
G1 X138.72 Y154.50 E43.50533
G1 X138.72 Y153.50 E43.55253
G1 X138.52 Y153.30 E43.56584
G1 X138.52 Y151.35 E43.65761
G1 X138.72 Y151.15 E43.67091
G1 X138.72 Y150.15 E43.71811
G1 X138.92 Y149.95 E43.73142
G1 X138.92 Y148.75 E43.78806
G1 X139.12 Y148.55 E43.80136
G1 X139.12 Y148.15 E43.82027
G1 X139.32 Y147.95 E43.83357
G1 X139.32 Y147.55 E43.85248
G1 X139.52 Y147.35 E43.86579
G1 X139.52 Y147.15 E43.87527
G1 X139.72 Y146.95 E43.88857
G1 X139.72 Y146.75 E43.89805
G1 X139.92 Y146.55 E43.91136
G1 X139.92 Y146.35 E43.92083
G1 X140.12 Y146.15 E43.93414
G1 X140.12 Y145.95 E43.94362
G1 X140.32 Y145.75 E43.95692
G1 X140.32 Y145.55 E43.96640
G1 X140.52 Y145.35 E43.97971
G1 X140.52 Y145.15 E43.98918
G1 X140.92 Y144.75 E44.01583
G1 X140.92 Y144.55 E44.02531
G1 X141.32 Y144.15 E44.05195
G1 X141.32 Y143.95 E44.06143
G1 X142.69 Y142.58 E44.15256
G1 X143.09 Y142.38 E44.17371
G0 F12000 X142.85 Y142.05
G1 F2700 X143.45 Y141.46 E44.21366
G1 X143.85 Y141.25 E44.23481
G1 X144.45 Y140.66 E44.27476
G1 X147.12 Y139.32 E44.41559
G1 X148.46 Y138.87 E44.48197
G1 X149.26 Y138.67 E44.52108
G1 X149.91 Y138.46 E44.55314
G1 X151.31 Y138.22 E44.62037
G1 X154.23 Y138.22 E44.75788
G1 X156.68 Y138.63 E44.87515
G1 X156.68 Y138.74 E44.88016
G1 X157.22 Y138.92 E44.90719
G1 X160.69 Y140.66 E45.09021
G1 X164.22 Y144.18 E45.32559
G1 X164.22 Y144.38 E45.33507
G1 X164.62 Y144.78 E45.36171
G1 X164.62 Y144.99 E45.37119
G1 X165.02 Y145.38 E45.39783
G1 X165.02 Y145.59 E45.40731
G1 X165.22 Y145.78 E45.42061
G1 X165.22 Y146.19 E45.43952
G1 X165.42 Y146.38 E45.45283
G1 X165.42 Y146.78 E45.47174
G1 X165.62 Y146.98 E45.48504
G1 X165.62 Y147.19 E45.49452
G1 X165.82 Y147.38 E45.50783
G1 X165.82 Y147.59 E45.51731
G1 X166.02 Y147.78 E45.53061
G1 X166.02 Y147.99 E45.54009
G1 X166.22 Y148.18 E45.55339
G1 X166.22 Y149.19 E45.60060
G1 X166.42 Y149.38 E45.61390
G1 X166.42 Y150.59 E45.67054
G1 X166.62 Y150.78 E45.68384
G1 X166.62 Y154.26 E45.84785
G1 X166.42 Y154.46 E45.86116
G1 X166.42 Y155.46 E45.90836
G1 X166.22 Y155.66 E45.92167
G1 X166.22 Y156.86 E45.97830
G1 X166.02 Y157.06 E45.99161
G1 X166.02 Y157.26 E46.00109
G1 X165.82 Y157.46 E46.01439
G1 X165.82 Y157.66 E46.02387
G1 X165.62 Y157.86 E46.03717
G1 X165.62 Y158.06 E46.04665
G1 X165.42 Y158.26 E46.05996
G1 X165.42 Y158.46 E46.06944
G1 X165.22 Y158.66 E46.08274
G1 X165.22 Y158.86 E46.09222
G1 X165.02 Y159.06 E46.10552
G1 X165.02 Y159.26 E46.11500
G1 X164.82 Y159.46 E46.12831
G1 X164.82 Y159.66 E46.13779
G1 X164.62 Y159.86 E46.15109
G1 X164.62 Y160.06 E46.16057
G1 X164.22 Y160.46 E46.18721
G1 X164.22 Y160.66 E46.19669
G1 X160.89 Y163.99 E46.41874
G1 X159.69 Y164.59 E46.48207
G1 X159.49 Y164.79 E46.49534
G1 X159.09 Y164.99 E46.51649
G1 X158.89 Y165.19 E46.52976
G1 X158.22 Y165.53 E46.56515
G1 X155.62 Y166.39 E46.69434
G1 X154.02 Y166.62 E46.77089
G1 X152.51 Y166.62 E46.84167
G1 X151.22 Y166.41 E46.90334
G1 X149.82 Y166.21 E46.97008
G1 X148.51 Y165.99 E47.03295
G1 X147.87 Y165.77 E47.06487
G1 X146.97 Y165.55 E47.10848
G1 X145.45 Y164.79 E47.18845
G1 X144.85 Y164.19 E47.22839
G1 X144.45 Y163.99 E47.24955
G1 X144.25 Y163.79 E47.26282
G1 X143.85 Y163.59 E47.28397
G1 X143.65 Y163.39 E47.29724
G1 X143.25 Y163.19 E47.31839
G1 X142.65 Y162.59 E47.35834
G1 X141.72 Y162.13 E47.40742
G1 X141.72 Y161.66 E47.42939
G1 X140.92 Y160.86 E47.48271
G1 X140.92 Y160.66 E47.49219
G1 X140.52 Y160.26 E47.51883
G1 X140.52 Y160.06 E47.52831
G1 X140.12 Y159.66 E47.55495
G1 X140.12 Y159.46 E47.56443
G1 X139.92 Y159.26 E47.57774
G1 X139.92 Y159.06 E47.58721
G1 X139.52 Y158.66 E47.61386
G1 X139.52 Y158.26 E47.63277
G1 X139.32 Y158.06 E47.64607
G1 X139.32 Y157.86 E47.65555
G1 X139.12 Y157.66 E47.66886
G1 X139.12 Y157.46 E47.67833
G1 X138.92 Y157.26 E47.69164
G1 X138.92 Y156.86 E47.71055
G1 X138.72 Y156.66 E47.72385
G1 X138.72 Y156.26 E47.74276
G1 X138.52 Y156.06 E47.75607
G1 X138.52 Y154.86 E47.81270
G1 X138.32 Y154.66 E47.82601
G1 X138.32 Y153.66 E47.87321
G1 X138.12 Y153.46 E47.88652
G1 X138.12 Y151.18 E47.99394
G1 X138.32 Y150.99 E48.00725
G1 X138.32 Y149.98 E48.05445
G1 X138.52 Y149.78 E48.06775
G1 X138.52 Y148.58 E48.12439
G1 X138.72 Y148.38 E48.13769
G1 X138.72 Y147.98 E48.15660
G1 X138.92 Y147.78 E48.16991
G1 X138.92 Y147.38 E48.18882
G1 X139.12 Y147.19 E48.20212
G1 X139.12 Y146.98 E48.21160
G1 X139.32 Y146.78 E48.22491
G1 X139.32 Y146.58 E48.23439
G1 X139.52 Y146.38 E48.24769
G1 X139.52 Y146.18 E48.25717
G1 X139.72 Y145.99 E48.27047
G1 X139.72 Y145.78 E48.27995
G1 X139.92 Y145.59 E48.29326
G1 X139.92 Y145.38 E48.30274
G1 X140.12 Y145.19 E48.31604
G1 X140.12 Y144.98 E48.32552
G1 X140.52 Y144.59 E48.35216
G1 X140.52 Y144.38 E48.36164
G1 X140.92 Y143.99 E48.38828
G1 X140.92 Y143.78 E48.39776
G1 X142.45 Y142.25 E48.49976
G1 X142.85 Y142.05 E48.52092
G0 F12000 X142.62 Y141.73
G1 F2700 X143.22 Y141.13 E48.56100
G1 X143.62 Y140.93 E48.58202
G1 X144.22 Y140.33 E48.62210
G1 X146.97 Y138.95 E48.76730
G1 X148.35 Y138.49 E48.83577
G1 X149.14 Y138.29 E48.87449
G1 X149.81 Y138.07 E48.90769
G1 X151.28 Y137.82 E48.97797
G1 X154.26 Y137.82 E49.11860
G1 X157.10 Y138.30 E49.25432
G1 X157.09 Y138.46 E49.26183
G1 X157.38 Y138.55 E49.27585
G1 X160.93 Y140.33 E49.46322
G1 X164.62 Y144.02 E49.70951
G1 X164.62 Y144.22 E49.71894
G1 X165.02 Y144.62 E49.74562
G1 X165.02 Y144.82 E49.75505
G1 X165.42 Y145.22 E49.78173
G1 X165.42 Y145.42 E49.79116
G1 X165.62 Y145.62 E49.80450
G1 X165.62 Y146.02 E49.82336
G1 X165.82 Y146.22 E49.83670
G1 X165.82 Y146.62 E49.85556
G1 X166.02 Y146.82 E49.86890
G1 X166.02 Y147.02 E49.87833
G1 X166.22 Y147.22 E49.89167
G1 X166.22 Y147.42 E49.90110
G1 X166.42 Y147.62 E49.91444
G1 X166.42 Y147.82 E49.92387
G1 X166.62 Y148.02 E49.93721
G1 X166.62 Y149.02 E49.98436
G1 X166.82 Y149.22 E49.99770
G1 X166.82 Y150.42 E50.05429
G1 X167.02 Y150.62 E50.06763
G1 X167.02 Y154.43 E50.24720
G1 X166.82 Y154.63 E50.26054
G1 X166.82 Y155.63 E50.30770
G1 X166.62 Y155.83 E50.32103
G1 X166.62 Y157.03 E50.37762
G1 X166.42 Y157.23 E50.39096
G1 X166.42 Y157.43 E50.40039
G1 X166.22 Y157.63 E50.41373
G1 X166.22 Y157.83 E50.42316
G1 X166.02 Y158.03 E50.43650
G1 X166.02 Y158.23 E50.44593
G1 X165.82 Y158.43 E50.45927
G1 X165.82 Y158.63 E50.46870
G1 X165.62 Y158.83 E50.48204
G1 X165.62 Y159.03 E50.49147
G1 X165.42 Y159.23 E50.50481
G1 X165.42 Y159.43 E50.51424
G1 X165.22 Y159.63 E50.52758
G1 X165.22 Y159.83 E50.53701
G1 X165.02 Y160.03 E50.55035
G1 X165.02 Y160.23 E50.55978
G1 X164.62 Y160.63 E50.58645
G1 X164.62 Y160.83 E50.59589
G1 X161.13 Y164.32 E50.82883
G1 X159.93 Y164.92 E50.89204
G1 X159.73 Y165.12 E50.90544
G1 X159.33 Y165.32 E50.92647
G1 X159.13 Y165.52 E50.93987
G1 X158.38 Y165.90 E50.97963
G1 X155.72 Y166.78 E51.11190
G1 X154.04 Y167.02 E51.19150
G1 X152.48 Y167.02 E51.26516
G1 X151.18 Y166.81 E51.32727
G1 X149.76 Y166.60 E51.39491
G1 X148.41 Y166.38 E51.45950
G1 X147.75 Y166.16 E51.49259
G1 X146.83 Y165.93 E51.53713
G1 X145.22 Y165.12 E51.62221
G1 X144.62 Y164.52 E51.66229
G1 X144.22 Y164.32 E51.68331
G1 X144.01 Y164.12 E51.69672
G1 X143.62 Y163.92 E51.71774
G1 X143.41 Y163.72 E51.73115
G1 X143.02 Y163.52 E51.75217
G1 X142.42 Y162.92 E51.79212
G1 X141.32 Y162.37 E51.84980
G1 X141.32 Y161.83 E51.87560
G1 X140.52 Y161.03 E51.92895
G1 X140.52 Y160.83 E51.93838
G1 X140.12 Y160.43 E51.96505
G1 X140.12 Y160.23 E51.97449
G1 X139.72 Y159.83 E52.00116
G1 X139.72 Y159.63 E52.01059
G1 X139.52 Y159.43 E52.02393
G1 X139.52 Y159.23 E52.03336
G1 X139.12 Y158.83 E52.06004
G1 X139.12 Y158.43 E52.07890
G1 X138.92 Y158.23 E52.09224
G1 X138.92 Y158.03 E52.10167
G1 X138.72 Y157.83 E52.11501
G1 X138.72 Y157.63 E52.12444
G1 X138.52 Y157.43 E52.13778
G1 X138.52 Y157.03 E52.15664
G1 X138.32 Y156.83 E52.16998
G1 X138.32 Y156.43 E52.18884
G1 X138.12 Y156.23 E52.20218
G1 X138.12 Y155.03 E52.25877
G1 X137.92 Y154.83 E52.27211
G1 X137.92 Y153.83 E52.31926
G1 X137.72 Y153.63 E52.33260
G1 X137.72 Y151.02 E52.45559
G1 X137.92 Y150.82 E52.46893
G1 X137.92 Y149.82 E52.51608
G1 X138.12 Y149.62 E52.52942
G1 X138.12 Y148.42 E52.58601
G1 X138.32 Y148.22 E52.59935
G1 X138.32 Y147.82 E52.61821
G1 X138.52 Y147.62 E52.63155
G1 X138.52 Y147.22 E52.65041
G1 X138.72 Y147.02 E52.66375
G1 X138.72 Y146.82 E52.67318
G1 X138.92 Y146.62 E52.68652
G1 X138.92 Y146.42 E52.69595
G1 X139.12 Y146.22 E52.70929
G1 X139.12 Y146.02 E52.71872
G1 X139.32 Y145.82 E52.73206
G1 X139.32 Y145.62 E52.74149
G1 X139.52 Y145.42 E52.75483
G1 X139.52 Y145.22 E52.76426
G1 X139.72 Y145.02 E52.77760
G1 X139.72 Y144.82 E52.78703
G1 X140.12 Y144.42 E52.81370
G1 X140.12 Y144.22 E52.82313
G1 X140.52 Y143.82 E52.84981
G1 X140.52 Y143.62 E52.85924
G1 X142.22 Y141.93 E52.97215
G1 X142.62 Y141.73 E52.99317
G0 F12000 X142.38 Y141.40
G1 F2700 X142.98 Y140.80 E53.03326
G1 X143.38 Y140.60 E53.05428
G1 X143.98 Y140.00 E53.09436
G1 X146.82 Y138.58 E53.24399
G1 X148.24 Y138.10 E53.31448
G1 X149.04 Y137.91 E53.35355
G1 X149.72 Y137.68 E53.38721
G1 X151.25 Y137.42 E53.46050
G1 X154.30 Y137.42 E53.60424
G1 X157.52 Y137.96 E53.75846
G1 X157.51 Y138.17 E53.76847
G1 X157.53 Y138.18 E53.76936
G1 X161.17 Y140.00 E53.96117
G1 X165.02 Y143.85 E54.21833
G1 X165.02 Y144.05 E54.22776
G1 X165.42 Y144.45 E54.25444
G1 X165.42 Y144.65 E54.26387
G1 X165.82 Y145.05 E54.29054
G1 X165.82 Y145.25 E54.29998
G1 X166.02 Y145.45 E54.31331
G1 X166.02 Y145.85 E54.33218
G1 X166.22 Y146.05 E54.34551
G1 X166.22 Y146.45 E54.36438
G1 X166.42 Y146.65 E54.37771
G1 X166.42 Y146.85 E54.38715
G1 X166.62 Y147.05 E54.40048
G1 X166.62 Y147.25 E54.40992
G1 X166.82 Y147.45 E54.42325
G1 X166.82 Y147.65 E54.43268
G1 X167.02 Y147.85 E54.44602
G1 X167.02 Y148.85 E54.49318
G1 X167.22 Y149.05 E54.50652
G1 X167.22 Y150.25 E54.56311
G1 X167.42 Y150.45 E54.57644
G1 X167.42 Y154.59 E54.77167
G1 X167.22 Y154.79 E54.78501
G1 X167.22 Y155.79 E54.83217
G1 X167.02 Y155.99 E54.84551
G1 X167.02 Y157.19 E54.90210
G1 X166.82 Y157.39 E54.91543
G1 X166.82 Y157.59 E54.92487
G1 X166.62 Y157.79 E54.93820
G1 X166.62 Y157.99 E54.94763
G1 X166.42 Y158.19 E54.96097
G1 X166.42 Y158.39 E54.97040
G1 X166.22 Y158.59 E54.98374
G1 X166.22 Y158.79 E54.99317
G1 X166.02 Y158.99 E55.00651
G1 X166.02 Y159.19 E55.01594
G1 X165.82 Y159.39 E55.02928
G1 X165.82 Y159.59 E55.03871
G1 X165.62 Y159.79 E55.05205
G1 X165.62 Y159.99 E55.06148
G1 X165.42 Y160.19 E55.07482
G1 X165.42 Y160.39 E55.08425
G1 X165.02 Y160.79 E55.11093
G1 X165.02 Y160.99 E55.12036
G1 X161.37 Y164.65 E55.36418
G1 X160.17 Y165.25 E55.42738
G1 X159.97 Y165.45 E55.44079
G1 X159.57 Y165.65 E55.46181
G1 X159.37 Y165.85 E55.47522
G1 X158.53 Y166.27 E55.51940
G1 X157.14 Y166.73 E55.58840
G1 X155.81 Y167.18 E55.65470
G1 X154.07 Y167.42 E55.73730
G1 X152.45 Y167.42 E55.81388
G1 X151.11 Y167.20 E55.87780
G1 X149.70 Y167.00 E55.94497
G1 X148.31 Y166.77 E56.01128
G1 X147.64 Y166.54 E56.04479
G1 X146.69 Y166.30 E56.09102
G1 X144.98 Y165.45 E56.18122
G1 X144.38 Y164.85 E56.22130
G1 X143.98 Y164.65 E56.24233
G1 X143.78 Y164.45 E56.25573
G1 X143.38 Y164.25 E56.27676
G1 X143.18 Y164.05 E56.29016
G1 X142.78 Y163.85 E56.31119
G1 X142.18 Y163.25 E56.35120
G1 X140.92 Y162.62 E56.41740
G1 X140.92 Y161.99 E56.44706
G1 X140.12 Y161.19 E56.50042
G1 X140.12 Y160.99 E56.50985
G1 X139.72 Y160.59 E56.53652
G1 X139.72 Y160.39 E56.54595
G1 X139.32 Y159.99 E56.57263
G1 X139.32 Y159.79 E56.58206
G1 X139.12 Y159.59 E56.59540
G1 X139.12 Y159.39 E56.60483
G1 X138.72 Y158.99 E56.63151
G1 X138.72 Y158.59 E56.65037
G1 X138.52 Y158.39 E56.66371
G1 X138.52 Y158.19 E56.67314
G1 X138.32 Y157.99 E56.68648
G1 X138.32 Y157.79 E56.69591
G1 X138.12 Y157.59 E56.70925
G1 X138.12 Y157.19 E56.72811
G1 X137.92 Y156.99 E56.74145
G1 X137.92 Y156.59 E56.76031
G1 X137.72 Y156.39 E56.77365
G1 X137.72 Y155.19 E56.83024
G1 X137.52 Y154.99 E56.84357
G1 X137.52 Y153.99 E56.89073
G1 X137.32 Y153.79 E56.90407
G1 X137.32 Y150.85 E57.04271
G1 X137.52 Y150.65 E57.05605
G1 X137.52 Y149.65 E57.10321
G1 X137.72 Y149.45 E57.11654
G1 X137.72 Y148.25 E57.17313
G1 X137.92 Y148.05 E57.18647
G1 X137.92 Y147.65 E57.20533
G1 X138.12 Y147.45 E57.21867
G1 X138.12 Y147.05 E57.23753
G1 X138.32 Y146.85 E57.25087
G1 X138.32 Y146.65 E57.26030
G1 X138.52 Y146.45 E57.27364
G1 X138.52 Y146.25 E57.28307
G1 X138.72 Y146.05 E57.29641
G1 X138.72 Y145.85 E57.30584
G1 X138.92 Y145.65 E57.31918
G1 X138.92 Y145.45 E57.32861
G1 X139.12 Y145.25 E57.34195
G1 X139.12 Y145.05 E57.35138
G1 X139.32 Y144.85 E57.36472
G1 X139.32 Y144.65 E57.37415
G1 X139.72 Y144.25 E57.40083
G1 X139.72 Y144.05 E57.41026
G1 X140.12 Y143.65 E57.43693
G1 X140.12 Y143.45 E57.44637
G1 X141.98 Y141.60 E57.57014
G1 X142.38 Y141.40 E57.59117
G0 F12000 X142.14 Y141.07
G1 F2700 X142.74 Y140.47 E57.63122
G1 X143.14 Y140.27 E57.65226
G1 X143.74 Y139.67 E57.69231
G1 X146.66 Y138.21 E57.84633
G1 X148.12 Y137.72 E57.91892
G1 X148.93 Y137.52 E57.95833
G1 X149.62 Y137.29 E57.99238
G1 X151.22 Y137.02 E58.06873
G1 X154.33 Y137.02 E58.21558
G1 X157.94 Y137.62 E58.38831
G1 X157.93 Y137.93 E58.40266
G1 X161.40 Y139.67 E58.58606
G1 X165.42 Y143.69 E58.85405
G1 X165.42 Y143.89 E58.86348
G1 X165.82 Y144.29 E58.89016
G1 X165.82 Y144.49 E58.89959
G1 X166.22 Y144.89 E58.92627
G1 X166.22 Y145.09 E58.93570
G1 X166.42 Y145.29 E58.94903
G1 X166.42 Y145.69 E58.96790
G1 X166.62 Y145.89 E58.98124
G1 X166.62 Y146.29 E59.00010
G1 X166.82 Y146.49 E59.01344
G1 X166.82 Y146.69 E59.02287
G1 X167.02 Y146.89 E59.03621
G1 X167.02 Y147.09 E59.04564
G1 X167.22 Y147.29 E59.05898
G1 X167.22 Y147.49 E59.06841
G1 X167.42 Y147.69 E59.08174
G1 X167.42 Y148.69 E59.12890
G1 X167.62 Y148.89 E59.14224
G1 X167.62 Y150.09 E59.19883
G1 X167.82 Y150.29 E59.21217
G1 X167.82 Y154.76 E59.42305
G1 X167.62 Y154.96 E59.43639
G1 X167.62 Y155.96 E59.48355
G1 X167.42 Y156.16 E59.49689
G1 X167.42 Y157.36 E59.55347
G1 X167.22 Y157.56 E59.56681
G1 X167.22 Y157.76 E59.57624
G1 X167.02 Y157.96 E59.58958
G1 X167.02 Y158.16 E59.59901
G1 X166.82 Y158.36 E59.61235
G1 X166.82 Y158.56 E59.62178
G1 X166.62 Y158.76 E59.63512
G1 X166.62 Y158.96 E59.64455
G1 X166.42 Y159.16 E59.65789
G1 X166.42 Y159.36 E59.66732
G1 X166.22 Y159.56 E59.68066
G1 X166.22 Y159.76 E59.69009
G1 X166.02 Y159.96 E59.70343
G1 X166.02 Y160.16 E59.71286
G1 X165.82 Y160.36 E59.72620
G1 X165.82 Y160.56 E59.73563
G1 X165.42 Y160.96 E59.76231
G1 X165.42 Y161.16 E59.77174
G1 X161.60 Y164.98 E60.02639
G1 X160.40 Y165.58 E60.08966
G1 X160.20 Y165.78 E60.10300
G1 X159.80 Y165.98 E60.12409
G1 X159.60 Y166.18 E60.13743
G1 X158.68 Y166.64 E60.18599
G1 X157.27 Y167.11 E60.25640
G1 X155.90 Y167.57 E60.32438
G1 X154.10 Y167.82 E60.41003
G1 X152.42 Y167.82 E60.48949
G1 X151.07 Y167.60 E60.55385
G1 X149.64 Y167.39 E60.62196
G1 X148.22 Y167.16 E60.68991
G1 X147.53 Y166.93 E60.72429
G1 X146.55 Y166.68 E60.77175
G1 X144.74 Y165.78 E60.86709
G1 X144.14 Y165.18 E60.90717
G1 X143.74 Y164.98 E60.92822
G1 X143.54 Y164.78 E60.94156
G1 X143.14 Y164.58 E60.96265
G1 X142.94 Y164.38 E60.97598
G1 X142.54 Y164.18 E60.99707
G1 X141.94 Y163.58 E61.03712
G1 X140.52 Y162.87 E61.11186
G1 X140.52 Y162.16 E61.14534
G1 X139.72 Y161.36 E61.19870
G1 X139.72 Y161.16 E61.20813
G1 X139.32 Y160.76 E61.23480
G1 X139.32 Y160.56 E61.24423
G1 X138.92 Y160.16 E61.27091
G1 X138.92 Y159.96 E61.28034
G1 X138.72 Y159.76 E61.29368
G1 X138.72 Y159.56 E61.30311
G1 X138.32 Y159.16 E61.32979
G1 X138.32 Y158.76 E61.34865
G1 X138.12 Y158.56 E61.36199
G1 X138.12 Y158.36 E61.37142
G1 X137.92 Y158.16 E61.38476
G1 X137.92 Y157.96 E61.39419
G1 X137.72 Y157.76 E61.40753
G1 X137.72 Y157.36 E61.42639
G1 X137.52 Y157.16 E61.43973
G1 X137.52 Y156.76 E61.45859
G1 X137.32 Y156.56 E61.47193
G1 X137.32 Y155.36 E61.52852
G1 X137.12 Y155.16 E61.54185
G1 X137.12 Y154.16 E61.58901
G1 X136.92 Y153.96 E61.60235
G1 X136.92 Y150.69 E61.75665
G1 X137.12 Y150.49 E61.76999
G1 X137.12 Y149.49 E61.81714
G1 X137.32 Y149.29 E61.83048
G1 X137.32 Y148.09 E61.88707
G1 X137.52 Y147.89 E61.90041
G1 X137.52 Y147.49 E61.91927
G1 X137.72 Y147.29 E61.93261
G1 X137.72 Y146.89 E61.95147
G1 X137.92 Y146.69 E61.96481
G1 X137.92 Y146.49 E61.97424
G1 X138.12 Y146.29 E61.98758
G1 X138.12 Y146.09 E61.99701
G1 X138.32 Y145.89 E62.01035
G1 X138.32 Y145.69 E62.01978
G1 X138.52 Y145.49 E62.03312
G1 X138.52 Y145.29 E62.04255
G1 X138.72 Y145.09 E62.05589
G1 X138.72 Y144.89 E62.06532
G1 X138.92 Y144.69 E62.07866
G1 X138.92 Y144.49 E62.08809
G1 X139.32 Y144.09 E62.11476
G1 X139.32 Y143.89 E62.12419
G1 X139.72 Y143.49 E62.15087
G1 X139.72 Y143.29 E62.16030
G1 X141.74 Y141.27 E62.29492
G1 X142.14 Y141.07 E62.31596
G0 F12000 X141.90 Y140.74
G1 F2700 X142.50 Y140.14 E62.35601
G1 X142.90 Y139.94 E62.37706
G1 X143.50 Y139.34 E62.41711
G1 X146.51 Y137.84 E62.57553
G1 X148.01 Y137.34 E62.65021
G1 X148.82 Y137.13 E62.68953
G1 X149.52 Y136.90 E62.72438
G1 X151.18 Y136.62 E62.80379
G1 X154.36 Y136.62 E62.95375
G1 X158.36 Y137.29 E63.14493
G1 X158.34 Y137.69 E63.16387
G1 X161.64 Y139.34 E63.33794
G1 X165.82 Y143.52 E63.61684
G1 X165.82 Y143.72 E63.62627
G1 X166.22 Y144.12 E63.65294
G1 X166.22 Y144.32 E63.66238
G1 X166.62 Y144.72 E63.68905
G1 X166.62 Y144.92 E63.69848
G1 X166.82 Y145.12 E63.71182
G1 X166.82 Y145.52 E63.73068
G1 X167.02 Y145.72 E63.74402
G1 X167.02 Y146.12 E63.76289
G1 X167.22 Y146.32 E63.77622
G1 X167.22 Y146.52 E63.78565
G1 X167.42 Y146.72 E63.79899
G1 X167.42 Y146.92 E63.80842
G1 X167.62 Y147.12 E63.82176
G1 X167.62 Y147.32 E63.83119
G1 X167.82 Y147.52 E63.84453
G1 X167.82 Y148.52 E63.89169
G1 X168.02 Y148.72 E63.90503
G1 X168.02 Y149.92 E63.96161
G1 X168.22 Y150.12 E63.97495
G1 X168.22 Y154.92 E64.20140
G1 X168.02 Y155.12 E64.21474
G1 X168.02 Y156.12 E64.26190
G1 X167.82 Y156.32 E64.27523
G1 X167.82 Y157.52 E64.33182
G1 X167.62 Y157.72 E64.34516
G1 X167.62 Y157.92 E64.35459
G1 X167.42 Y158.12 E64.36793
G1 X167.42 Y158.32 E64.37736
G1 X167.22 Y158.52 E64.39070
G1 X167.22 Y158.72 E64.40013
G1 X167.02 Y158.92 E64.41347
G1 X167.02 Y159.12 E64.42290
G1 X166.82 Y159.32 E64.43624
G1 X166.82 Y159.52 E64.44567
G1 X166.62 Y159.72 E64.45901
G1 X166.62 Y159.92 E64.46844
G1 X166.42 Y160.12 E64.48178
G1 X166.42 Y160.32 E64.49121
G1 X166.22 Y160.52 E64.50455
G1 X166.22 Y160.72 E64.51398
G1 X165.82 Y161.12 E64.54065
G1 X165.82 Y161.32 E64.55009
G1 X161.84 Y165.31 E64.81565
G1 X160.64 Y165.91 E64.87891
G1 X160.44 Y166.11 E64.89225
G1 X160.04 Y166.31 E64.91334
G1 X159.84 Y166.51 E64.92668
G1 X158.84 Y167.01 E64.97965
G1 X157.39 Y167.49 E65.05135
G1 X155.99 Y167.96 E65.12108
G1 X154.13 Y168.22 E65.20978
G1 X152.38 Y168.22 E65.29212
G1 X150.99 Y167.99 E65.35862
G1 X149.58 Y167.79 E65.42593
G1 X148.12 Y167.55 E65.49559
G1 X147.42 Y167.31 E65.53063
G1 X146.41 Y167.06 E65.57954
G1 X144.50 Y166.11 E65.68003
G1 X143.90 Y165.51 E65.72007
G1 X143.50 Y165.31 E65.74112
G1 X143.31 Y165.11 E65.75446
G1 X142.91 Y164.91 E65.77555
G1 X142.71 Y164.71 E65.78889
G1 X142.31 Y164.51 E65.80998
G1 X141.70 Y163.91 E65.85002
G1 X140.12 Y163.12 E65.93335
G1 X140.12 Y162.32 E65.97069
G1 X139.32 Y161.52 E66.02408
G1 X139.32 Y161.32 E66.03351
G1 X138.92 Y160.92 E66.06019
G1 X138.92 Y160.72 E66.06962
G1 X138.52 Y160.32 E66.09630
G1 X138.52 Y160.12 E66.10573
G1 X138.32 Y159.92 E66.11906
G1 X138.32 Y159.72 E66.12850
G1 X137.92 Y159.32 E66.15517
G1 X137.92 Y158.92 E66.17403
G1 X137.72 Y158.72 E66.18737
G1 X137.72 Y158.52 E66.19680
G1 X137.52 Y158.32 E66.21014
G1 X137.52 Y158.12 E66.21957
G1 X137.32 Y157.92 E66.23291
G1 X137.32 Y157.52 E66.25177
G1 X137.12 Y157.32 E66.26511
G1 X137.12 Y156.92 E66.28398
G1 X136.92 Y156.72 E66.29731
G1 X136.92 Y155.52 E66.35390
G1 X136.72 Y155.32 E66.36724
G1 X136.72 Y154.32 E66.41440
G1 X136.52 Y154.12 E66.42773
G1 X136.52 Y150.52 E66.59759
G1 X136.72 Y150.32 E66.61093
G1 X136.72 Y149.32 E66.65809
G1 X136.92 Y149.12 E66.67143
G1 X136.92 Y147.92 E66.72802
G1 X137.12 Y147.72 E66.74135
G1 X137.12 Y147.32 E66.76022
G1 X137.32 Y147.12 E66.77355
G1 X137.32 Y146.72 E66.79242
G1 X137.52 Y146.52 E66.80576
G1 X137.52 Y146.32 E66.81519
G1 X137.72 Y146.12 E66.82852
G1 X137.72 Y145.92 E66.83796
G1 X137.92 Y145.72 E66.85129
G1 X137.92 Y145.52 E66.86073
G1 X138.12 Y145.32 E66.87406
G1 X138.12 Y145.12 E66.88350
G1 X138.32 Y144.92 E66.89683
G1 X138.32 Y144.72 E66.90626
G1 X138.52 Y144.52 E66.91960
G1 X138.52 Y144.32 E66.92903
G1 X138.92 Y143.92 E66.95571
G1 X138.92 Y143.72 E66.96514
G1 X139.32 Y143.32 E66.99182
G1 X139.32 Y143.12 E67.00125
G1 X141.50 Y140.94 E67.14677
G1 X141.90 Y140.74 E67.16781
G0 F12000 X141.67 Y140.41
G1 F2700 X142.27 Y139.81 E67.20773
G1 X142.67 Y139.61 E67.22892
G1 X143.27 Y139.01 E67.26884
G1 X146.36 Y137.47 E67.43165
G1 X147.90 Y136.95 E67.50840
G1 X148.70 Y136.75 E67.54748
G1 X149.43 Y136.51 E67.58332
G1 X151.15 Y136.22 E67.66574
G1 X154.40 Y136.22 E67.81886
G1 X158.78 Y136.95 E68.02854
G1 X158.75 Y137.45 E68.05192
G1 X161.88 Y139.01 E68.21663
G1 X166.22 Y143.36 E68.50640
G1 X166.22 Y143.56 E68.51583
G1 X166.62 Y143.96 E68.54251
G1 X166.62 Y144.16 E68.55194
G1 X167.02 Y144.56 E68.57861
G1 X167.02 Y144.76 E68.58804
G1 X167.22 Y144.96 E68.60138
G1 X167.22 Y145.36 E68.62025
G1 X167.42 Y145.56 E68.63358
G1 X167.42 Y145.96 E68.65245
G1 X167.62 Y146.16 E68.66578
G1 X167.62 Y146.36 E68.67522
G1 X167.82 Y146.56 E68.68855
G1 X167.82 Y146.76 E68.69799
G1 X168.02 Y146.96 E68.71132
G1 X168.02 Y147.16 E68.72075
G1 X168.22 Y147.36 E68.73409
G1 X168.22 Y148.36 E68.78125
G1 X168.42 Y148.56 E68.79459
G1 X168.42 Y149.76 E68.85118
G1 X168.62 Y149.96 E68.86451
G1 X168.62 Y155.09 E69.10662
G1 X168.42 Y155.29 E69.11996
G1 X168.42 Y156.29 E69.16711
G1 X168.22 Y156.49 E69.18045
G1 X168.22 Y157.69 E69.23704
G1 X168.02 Y157.89 E69.25038
G1 X168.02 Y158.09 E69.25981
G1 X167.82 Y158.29 E69.27315
G1 X167.82 Y158.49 E69.28258
G1 X167.62 Y158.69 E69.29592
G1 X167.62 Y158.89 E69.30535
G1 X167.42 Y159.09 E69.31869
G1 X167.42 Y159.29 E69.32812
G1 X167.22 Y159.49 E69.34146
G1 X167.22 Y159.69 E69.35089
G1 X167.02 Y159.89 E69.36422
G1 X167.02 Y160.09 E69.37366
G1 X166.82 Y160.29 E69.38699
G1 X166.82 Y160.49 E69.39643
G1 X166.62 Y160.69 E69.40976
G1 X166.62 Y160.89 E69.41920
G1 X166.22 Y161.29 E69.44587
G1 X166.22 Y161.49 E69.45530
G1 X162.08 Y165.63 E69.73173
G1 X160.88 Y166.24 E69.79511
G1 X160.68 Y166.44 E69.80834
G1 X160.28 Y166.64 E69.82950
G1 X160.08 Y166.84 E69.84277
G1 X158.99 Y167.38 E69.90013
G1 X157.52 Y167.87 E69.97322
G1 X156.08 Y168.35 E70.04463
G1 X154.16 Y168.62 E70.13633
G1 X152.35 Y168.62 E70.22159
G1 X150.91 Y168.38 E70.29048
G1 X149.52 Y168.19 E70.35674
G1 X148.03 Y167.94 E70.42812
G1 X147.30 Y167.69 E70.46411
G1 X146.27 Y167.44 E70.51418
G1 X144.27 Y166.44 E70.61977
G1 X143.67 Y165.84 E70.65969
G1 X143.27 Y165.63 E70.68088
G1 X143.07 Y165.44 E70.69415
G1 X142.67 Y165.24 E70.71530
G1 X142.47 Y165.04 E70.72858
G1 X142.07 Y164.84 E70.74973
G1 X141.47 Y164.24 E70.78971
G1 X139.72 Y163.36 E70.88172
G1 X139.72 Y162.49 E70.92298
G1 X138.92 Y161.69 E70.97630
G1 X138.92 Y161.49 E70.98573
G1 X138.52 Y161.09 E71.01241
G1 X138.52 Y160.89 E71.02184
G1 X138.12 Y160.49 E71.04852
G1 X138.12 Y160.29 E71.05795
G1 X137.92 Y160.09 E71.07129
G1 X137.92 Y159.89 E71.08072
G1 X137.52 Y159.49 E71.10739
G1 X137.52 Y159.09 E71.12626
G1 X137.32 Y158.89 E71.13960
G1 X137.32 Y158.69 E71.14903
G1 X137.12 Y158.49 E71.16236
G1 X137.12 Y158.29 E71.17180
G1 X136.92 Y158.09 E71.18513
G1 X136.92 Y157.69 E71.20400
G1 X136.72 Y157.49 E71.21733
G1 X136.72 Y157.09 E71.23620
G1 X136.52 Y156.89 E71.24954
G1 X136.52 Y155.69 E71.30612
G1 X136.32 Y155.49 E71.31946
G1 X136.32 Y154.49 E71.36662
G1 X136.12 Y154.29 E71.37996
G1 X136.12 Y150.36 E71.56547
G1 X136.32 Y150.16 E71.57881
G1 X136.32 Y149.16 E71.62597
G1 X136.52 Y148.96 E71.63931
G1 X136.52 Y147.76 E71.69589
G1 X136.72 Y147.56 E71.70923
G1 X136.72 Y147.16 E71.72810
G1 X136.92 Y146.96 E71.74143
G1 X136.92 Y146.56 E71.76030
G1 X137.12 Y146.36 E71.77363
G1 X137.12 Y146.16 E71.78307
G1 X137.32 Y145.96 E71.79640
G1 X137.32 Y145.76 E71.80584
G1 X137.52 Y145.56 E71.81917
G1 X137.52 Y145.36 E71.82860
G1 X137.72 Y145.16 E71.84194
G1 X137.72 Y144.96 E71.85137
G1 X137.92 Y144.76 E71.86471
G1 X137.92 Y144.56 E71.87414
G1 X138.12 Y144.36 E71.88748
G1 X138.12 Y144.16 E71.89691
G1 X138.52 Y143.76 E71.92359
G1 X138.52 Y143.56 E71.93302
G1 X138.92 Y143.16 E71.95970
G1 X138.92 Y142.96 E71.96913
G1 X141.27 Y140.61 E72.12552
G1 X141.67 Y140.41 E72.14671
G0 F12000 X141.43 Y140.08
G1 F2700 X142.03 Y139.48 E72.18669
G1 X142.43 Y139.28 E72.20782
G1 X143.03 Y138.68 E72.24780
G1 X146.20 Y137.10 E72.41498
G1 X147.79 Y136.57 E72.49383
G1 X148.59 Y136.37 E72.53281
G1 X149.33 Y136.12 E72.56953
G1 X151.12 Y135.82 E72.65497
G1 X154.43 Y135.82 E72.81120
G1 X159.20 Y136.62 E73.03938
G1 X159.17 Y137.21 E73.06730
G1 X162.12 Y138.68 E73.22266
G1 X166.62 Y143.19 E73.52330
G1 X166.62 Y143.39 E73.53273
G1 X167.02 Y143.79 E73.55941
G1 X167.02 Y143.99 E73.56884
G1 X167.42 Y144.39 E73.59551
G1 X167.42 Y144.59 E73.60495
G1 X167.62 Y144.79 E73.61828
G1 X167.62 Y145.19 E73.63715
G1 X167.82 Y145.39 E73.65049
G1 X167.82 Y145.79 E73.66935
G1 X168.02 Y145.99 E73.68269
G1 X168.02 Y146.19 E73.69212
G1 X168.22 Y146.39 E73.70546
G1 X168.22 Y146.59 E73.71489
G1 X168.42 Y146.79 E73.72822
G1 X168.42 Y146.99 E73.73766
G1 X168.62 Y147.19 E73.75099
G1 X168.62 Y148.19 E73.79815
G1 X168.82 Y148.39 E73.81149
G1 X168.82 Y149.59 E73.86808
G1 X169.02 Y149.79 E73.88142
G1 X169.02 Y155.26 E74.13918
G1 X168.82 Y155.46 E74.15251
G1 X168.82 Y156.46 E74.19967
G1 X168.62 Y156.66 E74.21301
G1 X168.62 Y157.86 E74.26960
G1 X168.42 Y158.06 E74.28294
G1 X168.42 Y158.26 E74.29237
G1 X168.22 Y158.46 E74.30570
G1 X168.22 Y158.66 E74.31514
G1 X168.02 Y158.86 E74.32847
G1 X168.02 Y159.06 E74.33791
G1 X167.82 Y159.26 E74.35124
G1 X167.82 Y159.46 E74.36068
G1 X167.62 Y159.66 E74.37401
G1 X167.62 Y159.86 E74.38344
G1 X167.42 Y160.06 E74.39678
G1 X167.42 Y160.26 E74.40621
G1 X167.22 Y160.46 E74.41955
G1 X167.22 Y160.66 E74.42898
G1 X167.02 Y160.86 E74.44232
G1 X167.02 Y161.06 E74.45175
G1 X166.62 Y161.46 E74.47843
G1 X166.62 Y161.66 E74.48786
G1 X162.31 Y165.96 E74.77516
G1 X161.12 Y166.56 E74.83843
G1 X160.91 Y166.76 E74.85177
G1 X160.51 Y166.96 E74.87286
G1 X160.31 Y167.16 E74.88619
G1 X159.14 Y167.75 E74.94792
G1 X157.65 Y168.25 E75.02235
G1 X156.18 Y168.74 E75.09551
G1 X154.19 Y169.02 E75.19026
G1 X152.32 Y169.02 E75.27839
G1 X150.87 Y168.78 E75.34748
G1 X149.46 Y168.58 E75.41488
G1 X147.93 Y168.32 E75.48794
G1 X147.19 Y168.08 E75.52491
G1 X146.13 Y167.81 E75.57610
G1 X144.03 Y166.76 E75.68684
G1 X143.43 Y166.16 E75.72682
G1 X143.03 Y165.96 E75.74795
G1 X142.83 Y165.76 E75.76129
G1 X142.43 Y165.56 E75.78238
G1 X142.23 Y165.36 E75.79572
G1 X141.83 Y165.16 E75.81681
G1 X141.23 Y164.56 E75.85679
G1 X139.32 Y163.61 E75.95741
G1 X139.32 Y162.66 E76.00244
G1 X138.52 Y161.86 E76.05579
G1 X138.52 Y161.66 E76.06522
G1 X138.12 Y161.26 E76.09190
G1 X138.12 Y161.06 E76.10133
G1 X137.72 Y160.66 E76.12801
G1 X137.72 Y160.46 E76.13744
G1 X137.52 Y160.26 E76.15078
G1 X137.52 Y160.06 E76.16021
G1 X137.12 Y159.66 E76.18688
G1 X137.12 Y159.26 E76.20575
G1 X136.92 Y159.06 E76.21909
G1 X136.92 Y158.86 E76.22852
G1 X136.72 Y158.66 E76.24185
G1 X136.72 Y158.46 E76.25129
G1 X136.52 Y158.26 E76.26462
G1 X136.52 Y157.86 E76.28349
G1 X136.32 Y157.66 E76.29682
G1 X136.32 Y157.26 E76.31569
G1 X136.12 Y157.06 E76.32903
G1 X136.12 Y155.86 E76.38561
G1 X135.92 Y155.66 E76.39895
G1 X135.92 Y154.66 E76.44611
G1 X135.72 Y154.46 E76.45945
G1 X135.72 Y150.19 E76.66062
G1 X135.92 Y149.99 E76.67396
G1 X135.92 Y148.99 E76.72111
G1 X136.12 Y148.79 E76.73445
G1 X136.12 Y147.59 E76.79104
G1 X136.32 Y147.39 E76.80438
G1 X136.32 Y146.99 E76.82324
G1 X136.52 Y146.79 E76.83658
G1 X136.52 Y146.39 E76.85544
G1 X136.72 Y146.19 E76.86878
G1 X136.72 Y145.99 E76.87821
G1 X136.92 Y145.79 E76.89155
G1 X136.92 Y145.59 E76.90098
G1 X137.12 Y145.39 E76.91432
G1 X137.12 Y145.19 E76.92375
G1 X137.32 Y144.99 E76.93709
G1 X137.32 Y144.79 E76.94652
G1 X137.52 Y144.59 E76.95986
G1 X137.52 Y144.39 E76.96929
G1 X137.72 Y144.19 E76.98263
G1 X137.72 Y143.99 E76.99206
G1 X138.12 Y143.59 E77.01873
G1 X138.12 Y143.39 E77.02817
G1 X138.52 Y142.99 E77.05484
G1 X138.52 Y142.79 E77.06427
G1 X141.03 Y140.28 E77.23153
G1 X141.43 Y140.08 E77.25266
G0 F12000 X141.19 Y139.75
G1 F2700 X141.79 Y139.15 E77.29268
G1 X142.19 Y138.95 E77.31377
G1 X142.79 Y138.35 E77.35378
G1 X146.05 Y136.73 E77.52541
G1 X147.68 Y136.18 E77.60629
G1 X148.48 Y135.98 E77.64531
G1 X149.23 Y135.73 E77.68274
G1 X151.08 Y135.42 E77.77124
G1 X154.46 Y135.42 E77.93058
G1 X159.62 Y136.28 E78.17726
G1 X159.58 Y136.97 E78.20971
G1 X162.35 Y138.35 E78.35571
G1 X167.02 Y143.03 E78.66722
G1 X167.02 Y143.22 E78.67665
G1 X167.42 Y143.62 E78.70333
G1 X167.42 Y143.82 E78.71276
G1 X167.82 Y144.22 E78.73944
G1 X167.82 Y144.43 E78.74887
G1 X168.02 Y144.62 E78.76221
G1 X168.02 Y145.03 E78.78107
G1 X168.22 Y145.22 E78.79441
G1 X168.22 Y145.62 E78.81327
G1 X168.42 Y145.82 E78.82661
G1 X168.42 Y146.03 E78.83604
G1 X168.62 Y146.22 E78.84938
G1 X168.62 Y146.43 E78.85881
G1 X168.82 Y146.62 E78.87215
G1 X168.82 Y146.82 E78.88158
G1 X169.02 Y147.03 E78.89492
G1 X169.02 Y148.03 E78.94207
G1 X169.22 Y148.22 E78.95541
G1 X169.22 Y149.43 E79.01200
G1 X169.42 Y149.62 E79.02534
G1 X169.42 Y155.42 E79.29866
G1 X169.22 Y155.62 E79.31200
G1 X169.22 Y156.62 E79.35915
G1 X169.02 Y156.82 E79.37249
G1 X169.02 Y158.02 E79.42908
G1 X168.82 Y158.22 E79.44242
G1 X168.82 Y158.42 E79.45185
G1 X168.62 Y158.62 E79.46519
G1 X168.62 Y158.82 E79.47462
G1 X168.42 Y159.02 E79.48796
G1 X168.42 Y159.22 E79.49739
G1 X168.22 Y159.42 E79.51073
G1 X168.22 Y159.62 E79.52016
G1 X168.02 Y159.82 E79.53350
G1 X168.02 Y160.02 E79.54293
G1 X167.82 Y160.22 E79.55627
G1 X167.82 Y160.42 E79.56570
G1 X167.62 Y160.62 E79.57904
G1 X167.62 Y160.82 E79.58847
G1 X167.42 Y161.02 E79.60180
G1 X167.42 Y161.22 E79.61124
G1 X167.02 Y161.62 E79.63791
G1 X167.02 Y161.82 E79.64734
G1 X162.55 Y166.29 E79.94552
G1 X161.35 Y166.89 E80.00885
G1 X161.15 Y167.09 E80.02212
G1 X160.75 Y167.29 E80.04321
G1 X160.55 Y167.49 E80.05654
G1 X159.30 Y168.12 E80.12272
G1 X157.77 Y168.63 E80.19849
G1 X156.27 Y169.13 E80.27329
G1 X154.22 Y169.42 E80.37109
G1 X152.28 Y169.42 E80.46219
G1 X150.79 Y169.18 E80.53333
G1 X149.40 Y168.97 E80.60002
G1 X147.83 Y168.71 E80.67475
G1 X147.07 Y168.46 E80.71237
G1 X145.99 Y168.19 E80.76502
G1 X143.79 Y167.09 E80.88088
G1 X143.19 Y166.49 E80.92093
G1 X142.79 Y166.29 E80.94202
G1 X142.59 Y166.09 E80.95536
G1 X142.19 Y165.89 E80.97645
G1 X141.99 Y165.69 E80.98979
G1 X141.59 Y165.49 E81.01087
G1 X141.00 Y164.89 E81.05076
G1 X138.92 Y163.86 E81.16002
G1 X138.92 Y162.82 E81.20897
G1 X138.12 Y162.02 E81.26232
G1 X138.12 Y161.82 E81.27175
G1 X137.72 Y161.42 E81.29843
G1 X137.72 Y161.22 E81.30786
G1 X137.32 Y160.82 E81.33453
G1 X137.32 Y160.62 E81.34397
G1 X137.12 Y160.42 E81.35730
G1 X137.12 Y160.22 E81.36674
G1 X136.72 Y159.82 E81.39341
G1 X136.72 Y159.42 E81.41227
G1 X136.52 Y159.22 E81.42561
G1 X136.52 Y159.02 E81.43504
G1 X136.32 Y158.82 E81.44838
G1 X136.32 Y158.62 E81.45781
G1 X136.12 Y158.42 E81.47115
G1 X136.12 Y158.02 E81.49001
G1 X135.92 Y157.82 E81.50335
G1 X135.92 Y157.42 E81.52221
G1 X135.72 Y157.22 E81.53555
G1 X135.72 Y156.02 E81.59214
G1 X135.52 Y155.82 E81.60548
G1 X135.52 Y154.82 E81.65264
G1 X135.32 Y154.62 E81.66597
G1 X135.32 Y150.03 E81.88271
G1 X135.52 Y149.82 E81.89605
G1 X135.52 Y148.82 E81.94320
G1 X135.72 Y148.62 E81.95654
G1 X135.72 Y147.43 E82.01313
G1 X135.92 Y147.22 E82.02647
G1 X135.92 Y146.82 E82.04533
G1 X136.12 Y146.62 E82.05867
G1 X136.12 Y146.22 E82.07753
G1 X136.32 Y146.03 E82.09087
G1 X136.32 Y145.82 E82.10030
G1 X136.52 Y145.62 E82.11364
G1 X136.52 Y145.43 E82.12307
G1 X136.72 Y145.22 E82.13641
G1 X136.72 Y145.03 E82.14584
G1 X136.92 Y144.82 E82.15918
G1 X136.92 Y144.62 E82.16861
G1 X137.12 Y144.43 E82.18195
G1 X137.12 Y144.22 E82.19138
G1 X137.32 Y144.03 E82.20472
G1 X137.32 Y143.82 E82.21415
G1 X137.72 Y143.43 E82.24082
G1 X137.72 Y143.22 E82.25026
G1 X138.12 Y142.82 E82.27693
G1 X138.12 Y142.62 E82.28636
G1 X140.79 Y139.95 E82.46449
G1 X141.19 Y139.75 E82.48558
G0 F12000 X140.96 Y139.43
G1 F2700 X141.56 Y138.82 E82.52560
G1 X141.96 Y138.62 E82.54668
G1 X142.56 Y138.03 E82.58670
G1 X145.90 Y136.36 E82.76269
G1 X147.56 Y135.80 E82.84566
G1 X148.36 Y135.60 E82.88440
G1 X149.13 Y135.34 E82.92286
G1 X151.05 Y135.02 E83.01442
G1 X154.50 Y135.02 E83.17687
G1 X160.04 Y135.95 E83.44201
G1 X160.00 Y136.73 E83.47894
G1 X162.59 Y138.03 E83.61560
G1 X167.42 Y142.86 E83.93798
G1 X167.42 Y143.06 E83.94741
G1 X167.82 Y143.46 E83.97409
G1 X167.82 Y143.66 E83.98352
G1 X168.22 Y144.06 E84.01020
G1 X168.22 Y144.26 E84.01963
G1 X168.42 Y144.46 E84.03297
G1 X168.42 Y144.86 E84.05183
G1 X168.62 Y145.06 E84.06517
G1 X168.62 Y145.46 E84.08403
G1 X168.82 Y145.66 E84.09737
G1 X168.82 Y145.86 E84.10680
G1 X169.02 Y146.06 E84.12014
G1 X169.02 Y146.26 E84.12957
G1 X169.22 Y146.46 E84.14291
G1 X169.22 Y146.66 E84.15234
G1 X169.42 Y146.86 E84.16568
G1 X169.42 Y147.86 E84.21283
G1 X169.62 Y148.06 E84.22617
G1 X169.62 Y149.26 E84.28276
G1 X169.82 Y149.46 E84.29610
G1 X169.82 Y155.59 E84.58508
G1 X169.62 Y155.79 E84.59841
G1 X169.62 Y156.79 E84.64557
G1 X169.42 Y156.99 E84.65891
G1 X169.42 Y158.19 E84.71550
G1 X169.22 Y158.39 E84.72884
G1 X169.22 Y158.59 E84.73827
G1 X169.02 Y158.79 E84.75161
G1 X169.02 Y158.99 E84.76104
G1 X168.82 Y159.19 E84.77437
G1 X168.82 Y159.39 E84.78381
G1 X168.62 Y159.59 E84.79714
G1 X168.62 Y159.79 E84.80658
G1 X168.42 Y159.99 E84.81991
G1 X168.42 Y160.19 E84.82935
G1 X168.22 Y160.39 E84.84268
G1 X168.22 Y160.59 E84.85211
G1 X168.02 Y160.79 E84.86545
G1 X168.02 Y160.99 E84.87488
G1 X167.82 Y161.19 E84.88822
G1 X167.82 Y161.39 E84.89765
G1 X167.42 Y161.79 E84.92433
G1 X167.42 Y161.99 E84.93376
G1 X162.79 Y166.62 E85.24280
G1 X161.59 Y167.22 E85.30607
G1 X161.39 Y167.42 E85.31941
G1 X160.99 Y167.62 E85.34050
G1 X160.79 Y167.82 E85.35384
G1 X159.45 Y168.49 E85.42438
G1 X157.90 Y169.01 E85.50149
G1 X156.36 Y169.52 E85.57802
G1 X154.24 Y169.82 E85.67887
G1 X152.25 Y169.82 E85.77285
G1 X150.76 Y169.57 E85.84419
G1 X149.33 Y169.37 E85.91202
G1 X147.74 Y169.10 E85.98847
G1 X146.96 Y168.85 E86.02689
G1 X145.85 Y168.57 E86.08085
G1 X143.56 Y167.42 E86.20184
G1 X142.96 Y166.82 E86.24185
G1 X142.56 Y166.62 E86.26294
G1 X142.36 Y166.42 E86.27628
G1 X141.96 Y166.22 E86.29737
G1 X141.76 Y166.02 E86.31070
G1 X141.36 Y165.82 E86.33179
G1 X140.76 Y165.22 E86.37174
G1 X138.52 Y164.11 E86.48955
G1 X138.52 Y162.99 E86.54231
G1 X137.72 Y162.19 E86.59567
G1 X137.72 Y161.99 E86.60510
G1 X137.32 Y161.59 E86.63177
G1 X137.32 Y161.39 E86.64120
G1 X136.92 Y160.99 E86.66788
G1 X136.92 Y160.79 E86.67731
G1 X136.72 Y160.59 E86.69065
G1 X136.72 Y160.39 E86.70008
G1 X136.32 Y159.99 E86.72676
G1 X136.32 Y159.59 E86.74562
G1 X136.12 Y159.39 E86.75896
G1 X136.12 Y159.19 E86.76839
G1 X135.92 Y158.99 E86.78173
G1 X135.92 Y158.79 E86.79116
G1 X135.72 Y158.59 E86.80450
G1 X135.72 Y158.19 E86.82336
G1 X135.52 Y157.99 E86.83670
G1 X135.52 Y157.59 E86.85556
G1 X135.32 Y157.39 E86.86890
G1 X135.32 Y156.19 E86.92549
G1 X135.12 Y155.99 E86.93883
G1 X135.12 Y154.99 E86.98598
G1 X134.92 Y154.79 E86.99932
G1 X134.92 Y149.86 E87.23171
G1 X135.12 Y149.66 E87.24505
G1 X135.12 Y148.66 E87.29221
G1 X135.32 Y148.46 E87.30554
G1 X135.32 Y147.26 E87.36213
G1 X135.52 Y147.06 E87.37547
G1 X135.52 Y146.66 E87.39433
G1 X135.72 Y146.46 E87.40767
G1 X135.72 Y146.06 E87.42653
G1 X135.92 Y145.86 E87.43987
G1 X135.92 Y145.66 E87.44930
G1 X136.12 Y145.46 E87.46264
G1 X136.12 Y145.26 E87.47207
G1 X136.32 Y145.06 E87.48541
G1 X136.32 Y144.86 E87.49484
G1 X136.52 Y144.66 E87.50818
G1 X136.52 Y144.46 E87.51761
G1 X136.72 Y144.26 E87.53095
G1 X136.72 Y144.06 E87.54038
G1 X136.92 Y143.86 E87.55372
G1 X136.92 Y143.66 E87.56315
G1 X137.32 Y143.26 E87.58983
G1 X137.32 Y143.06 E87.59926
G1 X137.72 Y142.66 E87.62593
G1 X137.72 Y142.46 E87.63536
G1 X140.56 Y139.62 E87.82436
G1 X140.96 Y139.43 E87.84545
G0 F12000 X140.72 Y139.10
G1 F2700 X141.32 Y138.50 E87.88547
G1 X141.72 Y138.30 E87.90656
G1 X142.32 Y137.70 E87.94657
G1 X145.74 Y135.99 E88.12699
G1 X147.45 Y135.41 E88.21201
G1 X148.25 Y135.21 E88.25103
G1 X149.04 Y134.95 E88.29000
G1 X151.02 Y134.62 E88.38456
G1 X154.53 Y134.62 E88.55013
G1 X160.46 Y135.61 E88.83376
G1 X160.41 Y136.49 E88.87524
G1 X162.83 Y137.70 E89.00255
G1 X167.82 Y142.69 E89.33580
G1 X167.82 Y142.89 E89.34523
G1 X168.22 Y143.29 E89.37191
G1 X168.22 Y143.49 E89.38134
G1 X168.62 Y143.89 E89.40802
G1 X168.62 Y144.09 E89.41745
G1 X168.82 Y144.29 E89.43079
G1 X168.82 Y144.69 E89.44965
G1 X169.02 Y144.89 E89.46299
G1 X169.02 Y145.29 E89.48185
G1 X169.22 Y145.49 E89.49519
G1 X169.22 Y145.69 E89.50462
G1 X169.42 Y145.89 E89.51796
G1 X169.42 Y146.09 E89.52739
G1 X169.62 Y146.29 E89.54073
G1 X169.62 Y146.49 E89.55016
G1 X169.82 Y146.69 E89.56350
G1 X169.82 Y147.69 E89.61065
G1 X170.02 Y147.89 E89.62399
G1 X170.02 Y149.09 E89.68058
G1 X170.22 Y149.29 E89.69392
G1 X170.22 Y155.75 E89.99855
G1 X170.02 Y155.95 E90.01189
G1 X170.02 Y156.95 E90.05905
G1 X169.82 Y157.15 E90.07238
G1 X169.82 Y158.35 E90.12897
G1 X169.62 Y158.55 E90.14231
G1 X169.62 Y158.75 E90.15174
G1 X169.42 Y158.95 E90.16508
G1 X169.42 Y159.15 E90.17451
G1 X169.22 Y159.35 E90.18785
G1 X169.22 Y159.55 E90.19728
G1 X169.02 Y159.75 E90.21062
G1 X169.02 Y159.95 E90.22005
G1 X168.82 Y160.15 E90.23339
G1 X168.82 Y160.35 E90.24282
G1 X168.62 Y160.55 E90.25616
G1 X168.62 Y160.75 E90.26559
G1 X168.42 Y160.95 E90.27893
G1 X168.42 Y161.15 E90.28836
G1 X168.22 Y161.35 E90.30170
G1 X168.22 Y161.55 E90.31113
G1 X167.82 Y161.95 E90.33780
G1 X167.82 Y162.15 E90.34724
G1 X163.03 Y166.95 E90.66715
G1 X161.83 Y167.55 E90.73042
G1 X161.63 Y167.75 E90.74375
G1 X161.23 Y167.95 E90.76484
G1 X161.03 Y168.15 E90.77818
G1 X159.60 Y168.86 E90.85315
G1 X158.03 Y169.39 E90.93159
G1 X156.45 Y169.91 E91.00982
G1 X154.27 Y170.22 E91.11367
G1 X152.22 Y170.22 E91.21058
G1 X150.68 Y169.97 E91.28401
G1 X149.27 Y169.77 E91.35108
G1 X147.64 Y169.49 E91.42925
G1 X146.85 Y169.23 E91.46823
G1 X145.71 Y168.94 E91.52370
G1 X143.32 Y167.75 E91.64980
G1 X142.72 Y167.15 E91.68981
G1 X142.32 Y166.95 E91.71094
G1 X142.12 Y166.75 E91.72428
G1 X141.72 Y166.55 E91.74537
G1 X141.52 Y166.35 E91.75871
G1 X141.12 Y166.15 E91.77980
G1 X140.52 Y165.55 E91.81974
G1 X138.12 Y164.35 E91.94615
G1 X138.12 Y163.15 E92.00274
G1 X137.32 Y162.35 E92.05609
G1 X137.32 Y162.15 E92.06553
G1 X136.92 Y161.75 E92.09220
G1 X136.92 Y161.55 E92.10163
G1 X136.52 Y161.15 E92.12831
G1 X136.52 Y160.95 E92.13774
G1 X136.32 Y160.75 E92.15108
G1 X136.32 Y160.55 E92.16051
G1 X135.92 Y160.15 E92.18719
G1 X135.92 Y159.75 E92.20605
G1 X135.72 Y159.55 E92.21939
G1 X135.72 Y159.35 E92.22882
G1 X135.52 Y159.15 E92.24216
G1 X135.52 Y158.95 E92.25159
G1 X135.32 Y158.75 E92.26493
G1 X135.32 Y158.35 E92.28379
G1 X135.12 Y158.15 E92.29713
G1 X135.12 Y157.75 E92.31599
G1 X134.92 Y157.55 E92.32933
G1 X134.92 Y156.35 E92.38592
G1 X134.72 Y156.15 E92.39925
G1 X134.72 Y155.15 E92.44641
G1 X134.52 Y154.95 E92.45975
G1 X134.52 Y149.69 E92.70779
G1 X134.72 Y149.49 E92.72113
G1 X134.72 Y148.49 E92.76829
G1 X134.92 Y148.29 E92.78163
G1 X134.92 Y147.09 E92.83822
G1 X135.12 Y146.89 E92.85155
G1 X135.12 Y146.49 E92.87042
G1 X135.32 Y146.29 E92.88375
G1 X135.32 Y145.89 E92.90262
G1 X135.52 Y145.69 E92.91596
G1 X135.52 Y145.49 E92.92539
G1 X135.72 Y145.29 E92.93872
G1 X135.72 Y145.09 E92.94816
G1 X135.92 Y144.89 E92.96149
G1 X135.92 Y144.69 E92.97093
G1 X136.12 Y144.49 E92.98426
G1 X136.12 Y144.29 E92.99369
G1 X136.32 Y144.09 E93.00703
G1 X136.32 Y143.89 E93.01646
G1 X136.52 Y143.69 E93.02980
G1 X136.52 Y143.49 E93.03923
G1 X136.92 Y143.09 E93.06591
G1 X136.92 Y142.89 E93.07534
G1 X137.32 Y142.49 E93.10202
G1 X137.32 Y142.29 E93.11145
G1 X140.32 Y139.30 E93.31132
G1 X140.72 Y139.10 E93.33241
G0 F12000 X140.48 Y138.77
G1 F2700 X141.08 Y138.17 E93.37249
G1 X141.48 Y137.97 E93.39351
G1 X142.08 Y137.37 E93.43360
G1 X145.59 Y135.62 E93.61838
G1 X147.34 Y135.03 E93.70548
G1 X148.14 Y134.83 E93.74416
G1 X148.94 Y134.56 E93.78422
G1 X150.98 Y134.22 E93.88180
G1 X154.56 Y134.22 E94.05057
G1 X156.96 Y134.62 E94.16531
G1 X156.98 Y134.62 E94.16635
G1 X157.01 Y134.63 E94.16744
G1 X160.88 Y135.28 E94.35269
G1 X160.83 Y136.25 E94.39865
G1 X163.06 Y137.37 E94.51658
G1 X168.22 Y142.53 E94.86074
G1 X168.22 Y142.73 E94.87017
G1 X168.62 Y143.13 E94.89684
G1 X168.62 Y143.33 E94.90628
G1 X169.02 Y143.73 E94.93295
G1 X169.02 Y143.93 E94.94238
G1 X169.22 Y144.13 E94.95572
G1 X169.22 Y144.53 E94.97458
G1 X169.42 Y144.73 E94.98792
G1 X169.42 Y145.13 E95.00678
G1 X169.62 Y145.33 E95.02012
G1 X169.62 Y145.53 E95.02955
G1 X169.82 Y145.73 E95.04289
G1 X169.82 Y145.93 E95.05232
G1 X170.02 Y146.13 E95.06566
G1 X170.02 Y146.33 E95.07509
G1 X170.22 Y146.53 E95.08843
G1 X170.22 Y147.53 E95.13559
G1 X170.42 Y147.73 E95.14893
G1 X170.42 Y148.93 E95.20551
G1 X170.62 Y149.13 E95.21885
G1 X170.62 Y155.92 E95.53905
G1 X170.42 Y156.12 E95.55239
G1 X170.42 Y157.12 E95.59954
G1 X170.22 Y157.32 E95.61288
G1 X170.22 Y158.52 E95.66947
G1 X170.02 Y158.72 E95.68281
G1 X170.02 Y158.92 E95.69224
G1 X169.82 Y159.12 E95.70558
G1 X169.82 Y159.32 E95.71501
G1 X169.62 Y159.52 E95.72835
G1 X169.62 Y159.72 E95.73778
G1 X169.42 Y159.92 E95.75112
G1 X169.42 Y160.12 E95.76055
G1 X169.22 Y160.32 E95.77389
G1 X169.22 Y160.52 E95.78332
G1 X169.02 Y160.72 E95.79666
G1 X169.02 Y160.92 E95.80609
G1 X168.82 Y161.12 E95.81942
G1 X168.82 Y161.32 E95.82886
G1 X168.62 Y161.52 E95.84219
G1 X168.62 Y161.72 E95.85163
G1 X168.22 Y162.12 E95.87830
G1 X168.22 Y162.32 E95.88773
G1 X163.26 Y167.28 E96.21855
G1 X162.06 Y167.88 E96.28175
G1 X161.86 Y168.08 E96.29516
G1 X161.46 Y168.28 E96.31618
G1 X161.26 Y168.48 E96.32959
G1 X159.76 Y169.23 E96.40893
G1 X158.15 Y169.77 E96.48872
G1 X156.54 Y170.30 E96.56868
G1 X154.30 Y170.62 E96.67558
G1 X152.18 Y170.62 E96.77536
G1 X150.64 Y170.37 E96.84928
G1 X149.21 Y170.16 E96.91721
G1 X147.54 Y169.88 E96.99705
G1 X146.74 Y169.61 E97.03711
G1 X145.57 Y169.32 E97.09364
G1 X143.08 Y168.08 E97.22486
G1 X142.48 Y167.48 E97.26491
G1 X142.08 Y167.28 E97.28600
G1 X141.88 Y167.08 E97.29940
G1 X141.48 Y166.88 E97.32043
G1 X141.28 Y166.68 E97.33383
G1 X140.88 Y166.48 E97.35486
G1 X140.28 Y165.88 E97.39480
G1 X137.72 Y164.60 E97.52980
G1 X137.72 Y163.32 E97.59030
G1 X136.92 Y162.52 E97.64365
G1 X136.92 Y162.32 E97.65308
G1 X136.52 Y161.92 E97.67976
G1 X136.52 Y161.72 E97.68919
G1 X136.12 Y161.32 E97.71587
G1 X136.12 Y161.12 E97.72530
G1 X135.92 Y160.92 E97.73864
G1 X135.92 Y160.72 E97.74807
G1 X135.52 Y160.32 E97.77474
G1 X135.52 Y159.92 E97.79361
G1 X135.32 Y159.72 E97.80694
G1 X135.32 Y159.52 E97.81637
G1 X135.12 Y159.32 E97.82971
G1 X135.12 Y159.12 E97.83914
G1 X134.92 Y158.92 E97.85248
G1 X134.92 Y158.52 E97.87135
G1 X134.72 Y158.32 E97.88468
G1 X134.72 Y157.92 E97.90355
G1 X134.52 Y157.72 E97.91688
G1 X134.52 Y156.52 E97.97347
G1 X134.32 Y156.32 E97.98681
G1 X134.32 Y155.32 E98.03397
G1 X134.12 Y155.12 E98.04731
G1 X134.12 Y149.53 E98.31091
G1 X134.32 Y149.33 E98.32425
G1 X134.32 Y148.33 E98.37141
G1 X134.52 Y148.13 E98.38475
G1 X134.52 Y146.93 E98.44133
G1 X134.72 Y146.73 E98.45467
G1 X134.72 Y146.33 E98.47354
G1 X134.92 Y146.13 E98.48687
G1 X134.92 Y145.73 E98.50574
G1 X135.12 Y145.53 E98.51907
G1 X135.12 Y145.33 E98.52851
G1 X135.32 Y145.13 E98.54184
G1 X135.32 Y144.93 E98.55128
G1 X135.52 Y144.73 E98.56461
G1 X135.52 Y144.53 E98.57404
G1 X135.72 Y144.33 E98.58738
G1 X135.72 Y144.13 E98.59681
G1 X135.92 Y143.93 E98.61015
G1 X135.92 Y143.73 E98.61958
G1 X136.12 Y143.53 E98.63292
G1 X136.12 Y143.33 E98.64235
G1 X136.52 Y142.93 E98.66903
G1 X136.52 Y142.73 E98.67846
G1 X136.92 Y142.33 E98.70514
G1 X136.92 Y142.13 E98.71457
G1 X140.08 Y138.97 E98.92534
G1 X140.48 Y138.77 E98.94637
G0 F12000 X140.25 Y138.44
G1 F2700 X140.85 Y137.84 E98.98645
G1 X141.25 Y137.64 E99.00747
G1 X141.85 Y137.04 E99.04756
G1 X145.44 Y135.24 E99.23679
G1 X147.23 Y134.65 E99.32592
G1 X148.03 Y134.45 E99.36490
G1 X148.84 Y134.18 E99.40540
G1 X150.95 Y133.82 E99.50604
G1 X154.59 Y133.82 E99.67793
G1 X157.00 Y134.22 E99.79272
G1 X157.05 Y134.22 E99.79522
G1 X157.10 Y134.24 E99.79786
G1 X161.30 Y134.94 E99.99855
G1 X161.24 Y136.01 E100.04899
G1 X163.30 Y137.04 E100.15766
G1 X168.62 Y142.36 E100.51266
G1 X168.62 Y142.56 E100.52209
G1 X169.02 Y142.96 E100.54876
G1 X169.02 Y143.16 E100.55819
G1 X169.42 Y143.56 E100.58487
G1 X169.42 Y143.76 E100.59430
G1 X169.62 Y143.96 E100.60764
G1 X169.62 Y144.36 E100.62650
G1 X169.82 Y144.56 E100.63984
G1 X169.82 Y144.96 E100.65870
G1 X170.02 Y145.16 E100.67204
G1 X170.02 Y145.36 E100.68147
G1 X170.22 Y145.56 E100.69481
G1 X170.22 Y145.76 E100.70424
G1 X170.42 Y145.96 E100.71758
G1 X170.42 Y146.16 E100.72701
G1 X170.62 Y146.36 E100.74035
G1 X170.62 Y147.36 E100.78751
G1 X170.82 Y147.56 E100.80085
G1 X170.82 Y148.76 E100.85743
G1 X171.02 Y148.96 E100.87077
G1 X171.02 Y156.08 E101.20662
G1 X170.82 Y156.28 E101.21996
G1 X170.82 Y157.28 E101.26712
G1 X170.62 Y157.48 E101.28046
G1 X170.62 Y158.68 E101.33705
G1 X170.42 Y158.88 E101.35038
G1 X170.42 Y159.08 E101.35981
G1 X170.22 Y159.28 E101.37315
G1 X170.22 Y159.48 E101.38258
G1 X170.02 Y159.68 E101.39592
G1 X170.02 Y159.88 E101.40535
G1 X169.82 Y160.08 E101.41869
G1 X169.82 Y160.28 E101.42812
G1 X169.62 Y160.48 E101.44146
G1 X169.62 Y160.68 E101.45089
G1 X169.42 Y160.88 E101.46423
G1 X169.42 Y161.08 E101.47366
G1 X169.22 Y161.28 E101.48700
G1 X169.22 Y161.48 E101.49643
G1 X169.02 Y161.68 E101.50977
G1 X169.02 Y161.88 E101.51920
G1 X168.62 Y162.28 E101.54588
G1 X168.62 Y162.48 E101.55531
G1 X163.50 Y167.61 E101.89696
G1 X162.30 Y168.21 E101.96019
G1 X162.10 Y168.41 E101.97356
G1 X161.70 Y168.61 E101.99461
G1 X161.50 Y168.81 E102.00798
G1 X159.91 Y169.60 E102.09176
G1 X158.28 Y170.15 E102.17289
G1 X156.64 Y170.69 E102.25455
G1 X154.33 Y171.02 E102.36445
G1 X152.15 Y171.02 E102.46715
G1 X150.56 Y170.76 E102.54322
G1 X149.15 Y170.56 E102.61039
G1 X147.44 Y170.27 E102.69190
G1 X146.63 Y170.00 E102.73241
G1 X145.43 Y169.70 E102.79060
G1 X142.85 Y168.41 E102.92692
G1 X142.25 Y167.81 E102.96707
G1 X141.85 Y167.61 E102.98809
G1 X141.65 Y167.41 E103.00146
G1 X141.25 Y167.21 E103.02251
G1 X141.04 Y167.01 E103.03588
G1 X140.65 Y166.81 E103.05693
G1 X140.04 Y166.21 E103.09698
G1 X137.32 Y164.85 E103.24045
G1 X137.32 Y163.48 E103.30477
G1 X136.52 Y162.68 E103.35812
G1 X136.52 Y162.48 E103.36755
G1 X136.12 Y162.08 E103.39423
G1 X136.12 Y161.88 E103.40366
G1 X135.72 Y161.48 E103.43034
G1 X135.72 Y161.28 E103.43977
G1 X135.52 Y161.08 E103.45311
G1 X135.52 Y160.88 E103.46254
G1 X135.12 Y160.48 E103.48921
G1 X135.12 Y160.08 E103.50808
G1 X134.92 Y159.88 E103.52141
G1 X134.92 Y159.68 E103.53085
G1 X134.72 Y159.48 E103.54418
G1 X134.72 Y159.28 E103.55362
G1 X134.52 Y159.08 E103.56695
G1 X134.52 Y158.68 E103.58582
G1 X134.32 Y158.48 E103.59915
G1 X134.32 Y158.08 E103.61802
G1 X134.12 Y157.88 E103.63135
G1 X134.12 Y156.68 E103.68794
G1 X133.92 Y156.48 E103.70128
G1 X133.92 Y155.48 E103.74844
G1 X133.72 Y155.28 E103.76178
G1 X133.72 Y149.36 E104.04104
G1 X133.92 Y149.16 E104.05438
G1 X133.92 Y148.16 E104.10154
G1 X134.12 Y147.96 E104.11487
G1 X134.12 Y146.76 E104.17146
G1 X134.32 Y146.56 E104.18480
G1 X134.32 Y146.16 E104.20366
G1 X134.52 Y145.96 E104.21700
G1 X134.52 Y145.56 E104.23586
G1 X134.72 Y145.36 E104.24920
G1 X134.72 Y145.16 E104.25863
G1 X134.92 Y144.96 E104.27197
G1 X134.92 Y144.76 E104.28140
G1 X135.12 Y144.56 E104.29474
G1 X135.12 Y144.36 E104.30417
G1 X135.32 Y144.16 E104.31751
G1 X135.32 Y143.96 E104.32694
G1 X135.52 Y143.76 E104.34028
G1 X135.52 Y143.56 E104.34971
G1 X135.72 Y143.36 E104.36305
G1 X135.72 Y143.16 E104.37248
G1 X136.12 Y142.76 E104.39916
G1 X136.12 Y142.56 E104.40859
G1 X136.52 Y142.16 E104.43526
G1 X136.52 Y141.96 E104.44469
G1 X139.85 Y138.64 E104.66631
G1 X140.25 Y138.44 E104.68733
G0 F12000 X140.01 Y138.11
G1 F2700 X140.61 Y137.51 E104.72731
G1 X141.01 Y137.31 E104.74844
G1 X141.61 Y136.71 E104.78842
G1 X145.28 Y134.87 E104.98202
G1 X147.12 Y134.26 E105.07326
G1 X147.93 Y134.06 E105.11258
G1 X148.75 Y133.78 E105.15353
G1 X150.92 Y133.42 E105.25718
G1 X154.63 Y133.42 E105.43218
G1 X157.03 Y133.82 E105.54701
G1 X157.11 Y133.82 E105.55097
G1 X157.20 Y133.85 E105.55515
G1 X161.72 Y134.60 E105.77133
G1 X161.65 Y135.77 E105.82631
G1 X163.54 Y136.71 E105.92560
G1 X169.02 Y142.20 E106.29146
G1 X169.02 Y142.40 E106.30089
G1 X169.42 Y142.80 E106.32756
G1 X169.42 Y143.00 E106.33700
G1 X169.82 Y143.40 E106.36367
G1 X169.82 Y143.60 E106.37310
G1 X170.02 Y143.80 E106.38644
G1 X170.02 Y144.20 E106.40530
G1 X170.22 Y144.40 E106.41864
G1 X170.22 Y144.80 E106.43751
G1 X170.42 Y145.00 E106.45084
G1 X170.42 Y145.20 E106.46027
G1 X170.62 Y145.40 E106.47361
G1 X170.62 Y145.60 E106.48304
G1 X170.82 Y145.80 E106.49638
G1 X170.82 Y146.00 E106.50581
G1 X171.02 Y146.20 E106.51915
G1 X171.02 Y147.20 E106.56631
G1 X171.22 Y147.40 E106.57965
G1 X171.22 Y148.60 E106.63623
G1 X171.42 Y148.80 E106.64957
G1 X171.42 Y156.25 E107.00108
G1 X171.22 Y156.45 E107.01442
G1 X171.22 Y157.45 E107.06158
G1 X171.02 Y157.65 E107.07491
G1 X171.02 Y158.85 E107.13150
G1 X170.82 Y159.05 E107.14484
G1 X170.82 Y159.25 E107.15427
G1 X170.62 Y159.45 E107.16761
G1 X170.62 Y159.65 E107.17704
G1 X170.42 Y159.85 E107.19038
G1 X170.42 Y160.05 E107.19981
G1 X170.22 Y160.25 E107.21315
G1 X170.22 Y160.45 E107.22258
G1 X170.02 Y160.65 E107.23592
G1 X170.02 Y160.85 E107.24535
G1 X169.82 Y161.05 E107.25869
G1 X169.82 Y161.25 E107.26812
G1 X169.62 Y161.45 E107.28146
G1 X169.62 Y161.65 E107.29089
G1 X169.42 Y161.85 E107.30423
G1 X169.42 Y162.05 E107.31366
G1 X169.02 Y162.45 E107.34033
G1 X169.02 Y162.65 E107.34977
G1 X163.74 Y167.94 E107.70229
G1 X162.54 Y168.54 E107.76556
G1 X162.34 Y168.74 E107.77890
G1 X161.94 Y168.94 E107.79998
G1 X161.74 Y169.14 E107.81332
G1 X160.06 Y169.97 E107.90148
G1 X158.41 Y170.53 E107.98396
G1 X156.73 Y171.08 E108.06730
G1 X154.36 Y171.42 E108.18029
G1 X152.12 Y171.42 E108.28588
G1 X150.53 Y171.16 E108.36204
G1 X149.09 Y170.95 E108.43044
G1 X147.35 Y170.66 E108.51368
G1 X146.52 Y170.38 E108.55504
G1 X145.29 Y170.08 E108.61444
G1 X142.61 Y168.74 E108.75593
G1 X142.01 Y168.14 E108.79598
G1 X141.61 Y167.94 E108.81711
G1 X141.41 Y167.74 E108.83045
G1 X141.01 Y167.54 E108.85153
G1 X140.81 Y167.34 E108.86487
G1 X140.41 Y167.14 E108.88596
G1 X139.81 Y166.54 E108.92591
G1 X136.92 Y165.10 E109.07807
G1 X136.92 Y163.65 E109.14626
G1 X136.12 Y162.85 E109.19961
G1 X136.12 Y162.65 E109.20904
G1 X135.72 Y162.25 E109.23572
G1 X135.72 Y162.05 E109.24515
G1 X135.32 Y161.65 E109.27182
G1 X135.32 Y161.45 E109.28126
G1 X135.12 Y161.25 E109.29459
G1 X135.12 Y161.05 E109.30402
G1 X134.72 Y160.65 E109.33070
G1 X134.72 Y160.25 E109.34956
G1 X134.52 Y160.05 E109.36290
G1 X134.52 Y159.85 E109.37233
G1 X134.32 Y159.65 E109.38567
G1 X134.32 Y159.45 E109.39510
G1 X134.12 Y159.25 E109.40844
G1 X134.12 Y158.85 E109.42730
G1 X133.92 Y158.65 E109.44064
G1 X133.92 Y158.25 E109.45950
G1 X133.72 Y158.05 E109.47284
G1 X133.72 Y156.85 E109.52943
G1 X133.52 Y156.65 E109.54277
G1 X133.52 Y155.65 E109.58993
G1 X133.32 Y155.45 E109.60326
G1 X133.32 Y149.20 E109.89818
G1 X133.52 Y149.00 E109.91152
G1 X133.52 Y148.00 E109.95868
G1 X133.72 Y147.80 E109.97202
G1 X133.72 Y146.60 E110.02861
G1 X133.92 Y146.40 E110.04194
G1 X133.92 Y146.00 E110.06081
G1 X134.12 Y145.80 E110.07414
G1 X134.12 Y145.40 E110.09301
G1 X134.32 Y145.20 E110.10635
G1 X134.32 Y145.00 E110.11578
G1 X134.52 Y144.80 E110.12911
G1 X134.52 Y144.60 E110.13855
G1 X134.72 Y144.40 E110.15188
G1 X134.72 Y144.20 E110.16132
G1 X134.92 Y144.00 E110.17465
G1 X134.92 Y143.80 E110.18408
G1 X135.12 Y143.60 E110.19742
G1 X135.12 Y143.40 E110.20685
G1 X135.32 Y143.20 E110.22019
G1 X135.32 Y143.00 E110.22962
G1 X135.72 Y142.60 E110.25630
G1 X135.72 Y142.40 E110.26573
G1 X136.12 Y142.00 E110.29241
G1 X136.12 Y141.80 E110.30184
G1 X139.61 Y138.31 E110.53432
G1 X140.01 Y138.11 E110.55545
G0 F12000 X139.77 Y137.78
G1 F2700 X140.37 Y137.18 E110.59543
G1 X140.77 Y136.98 E110.61656
G1 X141.37 Y136.38 E110.65654
G1 X145.13 Y134.50 E110.85455
G1 X147.00 Y133.88 E110.94783
G1 X147.82 Y133.67 E110.98730
G1 X148.65 Y133.40 E111.02884
G1 X150.88 Y133.02 E111.13556
G1 X154.66 Y133.02 E111.31367
G1 X157.06 Y133.42 E111.42845
G1 X157.18 Y133.42 E111.43397
G1 X157.29 Y133.46 E111.43974
G1 X162.14 Y134.27 E111.67137
G1 X162.07 Y135.53 E111.73088
G1 X163.77 Y136.38 E111.82081
G1 X169.42 Y142.03 E112.19757
G1 X169.42 Y142.23 E112.20700
G1 X169.82 Y142.63 E112.23368
G1 X169.82 Y142.83 E112.24311
G1 X170.22 Y143.23 E112.26979
G1 X170.22 Y143.43 E112.27922
G1 X170.42 Y143.63 E112.29256
G1 X170.42 Y144.03 E112.31142
G1 X170.62 Y144.23 E112.32476
G1 X170.62 Y144.63 E112.34362
G1 X170.82 Y144.83 E112.35696
G1 X170.82 Y145.03 E112.36639
G1 X171.02 Y145.23 E112.37973
G1 X171.02 Y145.43 E112.38916
G1 X171.22 Y145.63 E112.40250
G1 X171.22 Y145.83 E112.41193
G1 X171.42 Y146.03 E112.42527
G1 X171.42 Y147.03 E112.47242
G1 X171.62 Y147.23 E112.48576
G1 X171.62 Y148.43 E112.54235
G1 X171.82 Y148.63 E112.55569
G1 X171.82 Y156.41 E112.92276
G1 X171.62 Y156.62 E112.93610
G1 X171.62 Y157.62 E112.98325
G1 X171.42 Y157.81 E112.99659
G1 X171.42 Y159.01 E113.05318
G1 X171.22 Y159.22 E113.06652
G1 X171.22 Y159.41 E113.07595
G1 X171.02 Y159.62 E113.08929
G1 X171.02 Y159.81 E113.09872
G1 X170.82 Y160.01 E113.11206
G1 X170.82 Y160.22 E113.12149
G1 X170.62 Y160.41 E113.13483
G1 X170.62 Y160.62 E113.14426
G1 X170.42 Y160.81 E113.15759
G1 X170.42 Y161.01 E113.16703
G1 X170.22 Y161.22 E113.18036
G1 X170.22 Y161.41 E113.18980
G1 X170.02 Y161.62 E113.20313
G1 X170.02 Y161.81 E113.21257
G1 X169.82 Y162.01 E113.22590
G1 X169.82 Y162.22 E113.23533
G1 X169.42 Y162.62 E113.26201
G1 X169.42 Y162.81 E113.27144
G1 X163.97 Y168.26 E113.63487
G1 X162.77 Y168.87 E113.69814
G1 X162.57 Y169.06 E113.71148
G1 X162.17 Y169.26 E113.73256
G1 X161.97 Y169.47 E113.74590
G1 X160.22 Y170.34 E113.83846
G1 X158.53 Y170.91 E113.92229
G1 X156.82 Y171.47 E114.00733
G1 X154.38 Y171.82 E114.12337
G1 X152.09 Y171.82 E114.23183
G1 X150.45 Y171.55 E114.31014
G1 X149.03 Y171.35 E114.37774
G1 X147.25 Y171.05 E114.46265
G1 X146.41 Y170.77 E114.50445
G1 X145.15 Y170.46 E114.56556
G1 X142.37 Y169.06 E114.71217
G1 X141.77 Y168.47 E114.75212
G1 X141.37 Y168.26 E114.77332
G1 X141.17 Y168.06 E114.78665
G1 X140.77 Y167.87 E114.80774
G1 X140.57 Y167.66 E114.82108
G1 X140.17 Y167.47 E114.84217
G1 X139.57 Y166.87 E114.88212
G1 X136.52 Y165.34 E115.04288
G1 X136.52 Y163.81 E115.11494
G1 X135.72 Y163.01 E115.16829
G1 X135.72 Y162.81 E115.17772
G1 X135.32 Y162.41 E115.20440
G1 X135.32 Y162.22 E115.21383
G1 X134.92 Y161.81 E115.24050
G1 X134.92 Y161.62 E115.24994
G1 X134.72 Y161.41 E115.26327
G1 X134.72 Y161.22 E115.27271
G1 X134.32 Y160.81 E115.29938
G1 X134.32 Y160.41 E115.31824
G1 X134.12 Y160.22 E115.33158
G1 X134.12 Y160.01 E115.34101
G1 X133.92 Y159.81 E115.35435
G1 X133.92 Y159.62 E115.36378
G1 X133.72 Y159.41 E115.37712
G1 X133.72 Y159.01 E115.39598
G1 X133.52 Y158.81 E115.40932
G1 X133.52 Y158.41 E115.42818
G1 X133.32 Y158.22 E115.44152
G1 X133.32 Y157.01 E115.49811
G1 X133.12 Y156.81 E115.51145
G1 X133.12 Y155.81 E115.55861
G1 X132.92 Y155.62 E115.57194
G1 X132.92 Y149.03 E115.88243
G1 X133.12 Y148.83 E115.89576
G1 X133.12 Y147.83 E115.94292
G1 X133.32 Y147.63 E115.95626
G1 X133.32 Y146.43 E116.01285
G1 X133.52 Y146.23 E116.02619
G1 X133.52 Y145.83 E116.04505
G1 X133.72 Y145.63 E116.05839
G1 X133.72 Y145.23 E116.07725
G1 X133.92 Y145.03 E116.09059
G1 X133.92 Y144.83 E116.10002
G1 X134.12 Y144.63 E116.11336
G1 X134.12 Y144.43 E116.12279
G1 X134.32 Y144.23 E116.13613
G1 X134.32 Y144.03 E116.14556
G1 X134.52 Y143.83 E116.15890
G1 X134.52 Y143.63 E116.16833
G1 X134.72 Y143.43 E116.18166
G1 X134.72 Y143.23 E116.19110
G1 X134.92 Y143.03 E116.20443
G1 X134.92 Y142.83 E116.21387
G1 X135.32 Y142.43 E116.24054
G1 X135.32 Y142.23 E116.24997
G1 X135.72 Y141.83 E116.27665
G1 X135.72 Y141.63 E116.28608
G1 X139.37 Y137.98 E116.52947
G1 X139.77 Y137.78 E116.55060
G0 F12000 X139.53 Y137.45
G1 F2700 X140.13 Y136.85 E116.59061
G1 X140.53 Y136.65 E116.61170
G1 X141.13 Y136.05 E116.65171
G1 X144.97 Y134.13 E116.85413
G1 X146.89 Y133.49 E116.94952
G1 X147.69 Y133.29 E116.98846
G1 X148.56 Y133.01 E117.03125
G1 X150.85 Y132.62 E117.14102
G1 X154.69 Y132.62 E117.32225
G1 X157.10 Y133.02 E117.43708
G1 X157.24 Y133.02 E117.44406
G1 X157.39 Y133.07 E117.45141
G1 X162.56 Y133.93 E117.69848
G1 X162.48 Y135.29 E117.76252
G1 X164.01 Y136.05 E117.84309
G1 X169.82 Y141.87 E118.23069
G1 X169.82 Y142.06 E118.24012
G1 X170.22 Y142.47 E118.26680
G1 X170.22 Y142.66 E118.27623
G1 X170.62 Y143.06 E118.30290
G1 X170.62 Y143.26 E118.31233
G1 X170.82 Y143.47 E118.32567
G1 X170.82 Y143.87 E118.34454
G1 X171.02 Y144.06 E118.35787
G1 X171.02 Y144.47 E118.37674
G1 X171.22 Y144.66 E118.39007
G1 X171.22 Y144.87 E118.39951
G1 X171.42 Y145.06 E118.41284
G1 X171.42 Y145.26 E118.42227
G1 X171.62 Y145.47 E118.43561
G1 X171.62 Y145.66 E118.44504
G1 X171.82 Y145.87 E118.45838
G1 X171.82 Y146.87 E118.50554
G1 X172.02 Y147.06 E118.51888
G1 X172.02 Y148.26 E118.57547
G1 X172.22 Y148.47 E118.58880
G1 X172.22 Y156.58 E118.97153
G1 X172.02 Y156.78 E118.98487
G1 X172.02 Y157.78 E119.03203
G1 X171.82 Y157.98 E119.04536
G1 X171.82 Y159.18 E119.10195
G1 X171.62 Y159.38 E119.11529
G1 X171.62 Y159.58 E119.12472
G1 X171.42 Y159.78 E119.13806
G1 X171.42 Y159.98 E119.14749
G1 X171.22 Y160.18 E119.16083
G1 X171.22 Y160.38 E119.17026
G1 X171.02 Y160.58 E119.18360
G1 X171.02 Y160.78 E119.19303
G1 X170.82 Y160.98 E119.20637
G1 X170.82 Y161.18 E119.21580
G1 X170.62 Y161.38 E119.22914
G1 X170.62 Y161.58 E119.23857
G1 X170.42 Y161.78 E119.25191
G1 X170.42 Y161.98 E119.26134
G1 X170.22 Y162.18 E119.27468
G1 X170.22 Y162.38 E119.28411
G1 X169.82 Y162.78 E119.31078
G1 X169.82 Y162.98 E119.32021
G1 X164.21 Y168.59 E119.69448
G1 X163.01 Y169.19 E119.75775
G1 X162.81 Y169.39 E119.77109
G1 X162.41 Y169.59 E119.79217
G1 X162.21 Y169.79 E119.80551
G1 X160.37 Y170.71 E119.90248
G1 X158.66 Y171.28 E119.98765
G1 X156.91 Y171.87 E120.07442
G1 X154.41 Y172.22 E120.19346
G1 X152.05 Y172.22 E120.30489
G1 X150.36 Y171.94 E120.38559
G1 X148.97 Y171.74 E120.45209
G1 X147.16 Y171.44 E120.53873
G1 X146.29 Y171.15 E120.58166
G1 X145.01 Y170.83 E120.64374
G1 X142.14 Y169.39 E120.79546
G1 X141.53 Y168.79 E120.83554
G1 X141.13 Y168.59 E120.85663
G1 X140.94 Y168.39 E120.86997
G1 X140.53 Y168.19 E120.89106
G1 X140.34 Y167.99 E120.90439
G1 X139.94 Y167.79 E120.92548
G1 X139.34 Y167.19 E120.96543
G1 X136.12 Y165.59 E121.13478
G1 X136.12 Y163.98 E121.21065
G1 X135.32 Y163.18 E121.26401
G1 X135.32 Y162.98 E121.27344
G1 X134.92 Y162.58 E121.30011
G1 X134.92 Y162.38 E121.30954
G1 X134.52 Y161.98 E121.33622
G1 X134.52 Y161.78 E121.34565
G1 X134.32 Y161.58 E121.35899
G1 X134.32 Y161.38 E121.36842
G1 X133.92 Y160.98 E121.39510
G1 X133.92 Y160.58 E121.41396
G1 X133.72 Y160.38 E121.42730
G1 X133.72 Y160.18 E121.43673
G1 X133.52 Y159.98 E121.45007
G1 X133.52 Y159.78 E121.45950
G1 X133.32 Y159.58 E121.47284
G1 X133.32 Y159.18 E121.49170
G1 X133.12 Y158.98 E121.50504
G1 X133.12 Y158.58 E121.52390
G1 X132.92 Y158.38 E121.53724
G1 X132.92 Y157.18 E121.59383
G1 X132.72 Y156.98 E121.60717
G1 X132.72 Y155.98 E121.65432
G1 X132.52 Y155.78 E121.66766
G1 X132.52 Y148.87 E121.99380
G1 X132.72 Y148.66 E122.00714
G1 X132.72 Y147.66 E122.05429
G1 X132.92 Y147.47 E122.06763
G1 X132.92 Y146.26 E122.12422
G1 X133.12 Y146.06 E122.13756
G1 X133.12 Y145.66 E122.15642
G1 X133.32 Y145.47 E122.16976
G1 X133.32 Y145.06 E122.18862
G1 X133.52 Y144.87 E122.20196
