;-- START GCODE --
;Sliced for Type A Machines Series 1
;Sliced at: Tue 30-06-2015 00:16:10
;Basic settings: Layer height: 0.1 Walls: 0.8 Fill: 9
;Print Speed: 130 Support: 0
;Retraction Speed: 40 Retraction Distance: 0.5
;Print time: #P_TIME#
;Filament used: #F_AMNT#m #F_WGHT#g
;Filament cost: #F_COST#
M106 S255	 ;start with the fan on
G21        ;metric values
G90        ;absolute positioning
M106 S255    ;start with the fan on
G28     ;move to endstops
G29		;allows for auto-levelling
G1 X150 Y5  Z15.0 F12000 ;center and move the platform down 15mm
M109 S220 ;Heat To temp
G92 E0                  ;zero the extruded length
G1 F200 E30              ;extrude 30mm of feed stock
G92 E0                  ;zero the extruded length again
G1 X175 Y25  Z0 F12000 ;remove bugger
G1 X220 F12000 ;remove bugger
G1 X150 Y150  Z15 F12000 ;recenter and begin
G1 F12000

;Layer count: 137
;LAYER:0
M106 S255
G0 F12000 X136.87 Y133.46 Z0.30
;TYPE:SKIRT
G1 F2700 X140.22 Y131.22 E0.18980
G1 X140.91 Y130.76 E0.22884
G1 X144.56 Y129.25 E0.41524
G1 X145.34 Y128.93 E0.45496
G1 X149.24 Y128.15 E0.64260
G1 X149.24 Y128.15 E0.64265
G1 X150.07 Y127.98 E0.68254
G1 X154.91 Y127.98 E0.91097
G1 X158.85 Y128.77 E1.10044
G1 X159.67 Y128.93 E1.13956
G1 X163.36 Y130.46 E1.32807
G1 X164.12 Y130.78 E1.36711
G1 X167.40 Y132.97 E1.55315
G1 X168.11 Y133.44 E1.59324
G1 X171.54 Y136.87 E1.82198
G1 X173.78 Y140.22 E2.01179
G1 X174.24 Y140.91 E2.05083
G1 X175.75 Y144.56 E2.23722
G1 X176.07 Y145.34 E2.27694
G1 X176.85 Y149.24 E2.46458
G1 X176.85 Y149.24 E2.46463
G1 X177.02 Y150.07 E2.50452
G1 X177.02 Y154.91 E2.73295
G1 X176.23 Y158.85 E2.92243
G1 X176.07 Y159.67 E2.96155
G1 X174.54 Y163.36 E3.15005
G1 X174.22 Y164.12 E3.18909
G1 X172.03 Y167.40 E3.37513
G1 X171.56 Y168.11 E3.41522
G1 X168.13 Y171.54 E3.64396
G1 X164.78 Y173.78 E3.83377
G1 X164.09 Y174.24 E3.87281
G1 X160.44 Y175.75 E4.05920
G1 X159.66 Y176.07 E4.09892
G1 X155.76 Y176.85 E4.28657
G1 X155.76 Y176.85 E4.28661
G1 X154.93 Y177.02 E4.32650
G1 X150.09 Y177.02 E4.55493
G1 X146.15 Y176.23 E4.74441
G1 X145.33 Y176.07 E4.78353
G1 X141.64 Y174.54 E4.97203
G1 X140.88 Y174.22 E5.01108
G1 X137.60 Y172.03 E5.19711
G1 X136.89 Y171.56 E5.23720
G1 X133.46 Y168.13 E5.46595
G1 X131.22 Y164.78 E5.65575
G1 X130.76 Y164.09 E5.69479
G1 X129.24 Y160.41 E5.88245
G1 X128.93 Y159.66 E5.92090
G1 X128.15 Y155.76 E6.10855
G1 X128.15 Y155.76 E6.10860
G1 X127.98 Y154.93 E6.14848
G1 X127.98 Y150.09 E6.37691
G1 X128.77 Y146.15 E6.56639
G1 X128.93 Y145.33 E6.60551
G1 X130.46 Y141.64 E6.79402
G1 X130.78 Y140.88 E6.83306
G1 X132.97 Y137.60 E7.01910
G1 X133.44 Y136.89 E7.05918
G1 X136.87 Y133.46 E7.28793
G0 F12000 X137.13 Y133.77
G1 F2700 X140.44 Y131.55 E7.47577
G1 X141.10 Y131.12 E7.51301
G1 X144.74 Y129.61 E7.69885
G1 X145.45 Y129.31 E7.73544
G1 X149.32 Y128.54 E7.92131
G1 X149.32 Y128.54 E7.92136
G1 X150.11 Y128.38 E7.95932
G1 X154.87 Y128.38 E8.18403
G1 X158.78 Y129.16 E8.37158
G1 X159.55 Y129.31 E8.40882
G1 X163.21 Y130.83 E8.59549
G1 X163.93 Y131.13 E8.63269
G1 X167.22 Y133.33 E8.81900
G1 X167.22 Y133.33 E8.81905
G1 X167.86 Y133.75 E8.85520
G1 X171.23 Y137.13 E9.08021
G1 X173.45 Y140.44 E9.26805
G1 X173.88 Y141.10 E9.30529
G1 X175.38 Y144.71 E9.48991
G1 X175.69 Y145.45 E9.52772
G1 X176.46 Y149.32 E9.71359
G1 X176.46 Y149.32 E9.71364
G1 X176.62 Y150.11 E9.75161
G1 X176.62 Y154.87 E9.97631
G1 X175.84 Y158.78 E10.16386
G1 X175.69 Y159.55 E10.20111
G1 X174.17 Y163.21 E10.38777
G1 X173.87 Y163.93 E10.42498
G1 X171.67 Y167.22 E10.61129
G1 X171.67 Y167.22 E10.61133
G1 X171.25 Y167.86 E10.64748
G1 X167.87 Y171.23 E10.87250
G1 X164.56 Y173.45 E11.06034
G1 X163.90 Y173.88 E11.09757
G1 X160.26 Y175.39 E11.28342
G1 X159.55 Y175.69 E11.32001
G1 X155.68 Y176.46 E11.50588
G1 X155.68 Y176.46 E11.50593
G1 X154.89 Y176.62 E11.54389
G1 X150.13 Y176.62 E11.76859
G1 X146.22 Y175.84 E11.95615
G1 X145.45 Y175.69 E11.99339
G1 X141.79 Y174.17 E12.18006
G1 X141.07 Y173.87 E12.21726
G1 X137.78 Y171.67 E12.40357
G1 X137.78 Y171.67 E12.40362
G1 X137.14 Y171.25 E12.43977
G1 X133.77 Y167.87 E12.66478
G1 X131.55 Y164.56 E12.85262
G1 X131.12 Y163.90 E12.88986
G1 X129.61 Y160.26 E13.07570
G1 X129.31 Y159.55 E13.11229
G1 X128.54 Y155.68 E13.29816
G1 X128.54 Y155.68 E13.29821
G1 X128.38 Y154.89 E13.33617
G1 X128.38 Y150.13 E13.56088
G1 X129.16 Y146.22 E13.74843
G1 X129.31 Y145.45 E13.78567
G1 X130.83 Y141.79 E13.97234
G1 X131.13 Y141.07 E14.00954
G1 X133.33 Y137.78 E14.19585
G1 X133.33 Y137.78 E14.19590
G1 X133.75 Y137.14 E14.23205
G1 X137.13 Y133.77 E14.45706
G0 F12000 X137.38 Y134.08
G1 F2700 X140.66 Y131.89 E14.64300
G1 X141.28 Y131.47 E14.67836
G1 X144.87 Y129.99 E14.86124
G1 X145.57 Y129.70 E14.89718
G1 X149.40 Y128.94 E15.08127
G1 X150.15 Y128.78 E15.11731
G1 X154.84 Y128.78 E15.33829
G1 X158.70 Y129.55 E15.52397
G1 X159.43 Y129.70 E15.55934
G1 X163.05 Y131.20 E15.74411
G1 X163.74 Y131.49 E15.77947
G1 X166.96 Y133.64 E15.96207
G1 X167.60 Y134.06 E15.99835
G1 X170.92 Y137.38 E16.21956
G1 X173.11 Y140.66 E16.40549
G1 X173.53 Y141.28 E16.44086
G1 X175.01 Y144.87 E16.62374
G1 X175.30 Y145.57 E16.65968
G1 X176.06 Y149.40 E16.84377
G1 X176.22 Y150.15 E16.87981
G1 X176.22 Y154.84 E17.10079
G1 X175.45 Y158.70 E17.28647
G1 X175.30 Y159.43 E17.32184
G1 X173.80 Y163.05 E17.50661
G1 X173.51 Y163.74 E17.54197
G1 X171.34 Y167.00 E17.72644
G1 X170.94 Y167.60 E17.76085
G1 X167.62 Y170.92 E17.98206
G1 X164.34 Y173.11 E18.16799
G1 X163.72 Y173.53 E18.20336
G1 X160.13 Y175.01 E18.38624
G1 X159.43 Y175.30 E18.42217
G1 X155.60 Y176.06 E18.60627
G1 X154.85 Y176.22 E18.64231
G1 X150.16 Y176.22 E18.86329
G1 X146.30 Y175.45 E19.04897
G1 X145.57 Y175.30 E19.08434
G1 X141.95 Y173.80 E19.26911
G1 X141.26 Y173.51 E19.30447
G1 X138.00 Y171.34 E19.48894
G1 X137.40 Y170.94 E19.52335
G1 X134.08 Y167.62 E19.74456
G1 X131.89 Y164.34 E19.93049
G1 X131.47 Y163.72 E19.96586
G1 X129.99 Y160.13 E20.14874
G1 X129.70 Y159.43 E20.18467
G1 X128.93 Y155.57 E20.37026
G1 X128.78 Y154.85 E20.40481
G1 X128.78 Y150.16 E20.62579
G1 X129.55 Y146.30 E20.81146
G1 X129.70 Y145.57 E20.84684
G1 X131.20 Y141.95 E21.03160
G1 X131.49 Y141.26 E21.06697
G1 X133.66 Y138.00 E21.25143
G1 X134.06 Y137.40 E21.28585
G1 X137.38 Y134.08 E21.50706
G0 F12000 X137.64 Y134.39
G1 F2700 X140.88 Y132.22 E21.69112
G1 X141.47 Y131.83 E21.72457
G1 X145.04 Y130.35 E21.90684
G1 X145.69 Y130.08 E21.93976
G1 X149.48 Y129.33 E22.12207
G1 X149.48 Y129.33 E22.12211
G1 X150.19 Y129.18 E22.15628
G1 X154.79 Y129.18 E22.37344
G1 X158.62 Y129.94 E22.55724
G1 X159.31 Y130.08 E22.59073
G1 X162.90 Y131.57 E22.77372
G1 X163.55 Y131.84 E22.80720
G1 X166.74 Y133.97 E22.98807
G1 X167.35 Y134.38 E23.02242
G1 X170.61 Y137.64 E23.23986
G1 X172.78 Y140.88 E23.42392
G1 X173.17 Y141.47 E23.45738
G1 X174.64 Y145.02 E23.63857
G1 X174.92 Y145.69 E23.67256
G1 X175.67 Y149.48 E23.85487
G1 X175.67 Y149.48 E23.85492
G1 X175.82 Y150.19 E23.88908
G1 X175.82 Y154.79 E24.10624
G1 X175.06 Y158.62 E24.29004
G1 X174.92 Y159.31 E24.32354
G1 X173.43 Y162.90 E24.50652
G1 X173.16 Y163.55 E24.54001
G1 X171.03 Y166.74 E24.72088
G1 X170.62 Y167.35 E24.75522
G1 X167.36 Y170.61 E24.97266
G1 X164.12 Y172.78 E25.15673
G1 X163.53 Y173.17 E25.19018
G1 X159.96 Y174.65 E25.37245
G1 X159.31 Y174.92 E25.40536
G1 X155.52 Y175.67 E25.58767
G1 X155.52 Y175.67 E25.58772
G1 X154.81 Y175.82 E25.62188
G1 X150.21 Y175.82 E25.83904
G1 X146.38 Y175.06 E26.02284
G1 X145.69 Y174.92 E26.05634
G1 X142.10 Y173.43 E26.23933
G1 X141.45 Y173.16 E26.27281
G1 X138.26 Y171.03 E26.45368
G1 X137.65 Y170.62 E26.48802
G1 X134.39 Y167.36 E26.70547
G1 X132.22 Y164.12 E26.88953
G1 X131.83 Y163.53 E26.92299
G1 X130.35 Y159.96 E27.10525
G1 X130.08 Y159.31 E27.13817
G1 X129.33 Y155.52 E27.32048
G1 X129.33 Y155.52 E27.32052
G1 X129.18 Y154.81 E27.35469
G1 X129.18 Y150.21 E27.57185
G1 X129.94 Y146.38 E27.75565
G1 X130.08 Y145.69 E27.78914
G1 X131.57 Y142.10 E27.97213
G1 X131.84 Y141.45 E28.00561
G1 X133.97 Y138.26 E28.18648
G1 X134.38 Y137.65 E28.22083
G1 X137.64 Y134.39 E28.43827
G0 F12000 X137.89 Y134.70
G1 F2700 X141.10 Y132.55 E28.62040
G1 X141.66 Y132.18 E28.65202
G1 X145.18 Y130.73 E28.83144
G1 X145.81 Y130.47 E28.86359
G1 X149.56 Y129.72 E29.04402
G1 X149.56 Y129.72 E29.04407
G1 X150.23 Y129.58 E29.07635
G1 X154.76 Y129.58 E29.28979
G1 X158.54 Y130.34 E29.47167
G1 X159.20 Y130.47 E29.50333
G1 X162.75 Y131.94 E29.68443
G1 X163.36 Y132.20 E29.71608
G1 X166.52 Y134.31 E29.89518
G1 X167.10 Y134.69 E29.92768
G1 X170.30 Y137.89 E30.14136
G1 X172.45 Y141.10 E30.32348
G1 X172.82 Y141.66 E30.35511
G1 X174.27 Y145.18 E30.53452
G1 X174.53 Y145.81 E30.56667
G1 X175.28 Y149.56 E30.74711
G1 X175.28 Y149.56 E30.74715
G1 X175.42 Y150.23 E30.77944
G1 X175.42 Y154.76 E30.99287
G1 X174.66 Y158.54 E31.17476
G1 X174.53 Y159.20 E31.20641
G1 X173.06 Y162.75 E31.38752
G1 X172.80 Y163.36 E31.41916
G1 X170.67 Y166.55 E31.59997
G1 X170.31 Y167.10 E31.63077
G1 X167.11 Y170.30 E31.84444
G1 X163.90 Y172.45 E32.02657
G1 X163.34 Y172.82 E32.05819
G1 X159.82 Y174.27 E32.23761
G1 X159.19 Y174.53 E32.26976
G1 X155.44 Y175.28 E32.45019
G1 X155.44 Y175.28 E32.45024
G1 X154.77 Y175.42 E32.48252
G1 X150.24 Y175.42 E32.69596
G1 X146.46 Y174.66 E32.87784
G1 X145.80 Y174.53 E32.90950
G1 X142.25 Y173.06 E33.09060
G1 X141.64 Y172.80 E33.12225
G1 X138.45 Y170.67 E33.30305
G1 X137.90 Y170.31 E33.33385
G1 X134.70 Y167.11 E33.54753
G1 X132.55 Y163.90 E33.72965
G1 X132.18 Y163.34 E33.76128
G1 X130.72 Y159.80 E33.94171
G1 X130.47 Y159.19 E33.97284
G1 X129.72 Y155.44 E34.15328
G1 X129.72 Y155.44 E34.15332
G1 X129.58 Y154.77 E34.18561
G1 X129.58 Y150.24 E34.39904
G1 X130.34 Y146.46 E34.58093
G1 X130.47 Y145.80 E34.61258
G1 X131.94 Y142.25 E34.79369
G1 X132.20 Y141.64 E34.82533
G1 X134.33 Y138.45 E35.00614
G1 X134.69 Y137.90 E35.03694
G1 X137.89 Y134.70 E35.25061
G0 F12000 X138.15 Y135.01
G1 F2700 X141.32 Y132.89 E35.43083
G1 X141.85 Y132.54 E35.46058
G1 X145.35 Y131.09 E35.63924
G1 X145.92 Y130.85 E35.66851
G1 X149.64 Y130.11 E35.84718
G1 X150.27 Y129.98 E35.87754
G1 X154.72 Y129.98 E36.08725
G1 X158.46 Y130.73 E36.26721
G1 X159.08 Y130.85 E36.29700
G1 X162.59 Y132.31 E36.47625
G1 X163.17 Y132.55 E36.50605
G1 X166.30 Y134.64 E36.68346
G1 X166.84 Y135.00 E36.71402
G1 X169.99 Y138.15 E36.92393
G1 X172.11 Y141.32 E37.10414
G1 X172.46 Y141.85 E37.13390
G1 X173.90 Y145.33 E37.31158
G1 X174.15 Y145.92 E37.34183
G1 X174.89 Y149.64 E37.52050
G1 X175.02 Y150.27 E37.55086
G1 X175.02 Y154.72 E37.76057
G1 X174.27 Y158.46 E37.94053
G1 X174.15 Y159.08 E37.97032
G1 X172.69 Y162.59 E38.14957
G1 X172.45 Y163.17 E38.17937
G1 X170.36 Y166.30 E38.35677
G1 X170.00 Y166.84 E38.38734
G1 X166.85 Y169.99 E38.59725
G1 X163.68 Y172.11 E38.77746
G1 X163.15 Y172.46 E38.80722
G1 X159.65 Y173.91 E38.98587
G1 X159.08 Y174.15 E39.01515
G1 X155.36 Y174.89 E39.19381
G1 X154.73 Y175.02 E39.22418
G1 X150.28 Y175.02 E39.43388
G1 X146.54 Y174.27 E39.61384
G1 X145.92 Y174.15 E39.64363
G1 X142.41 Y172.69 E39.82288
G1 X141.83 Y172.45 E39.85268
G1 X138.70 Y170.36 E40.03009
G1 X138.16 Y170.00 E40.06065
G1 X135.01 Y166.85 E40.27056
G1 X132.89 Y163.68 E40.45078
G1 X132.54 Y163.15 E40.48053
G1 X131.09 Y159.65 E40.65919
G1 X130.85 Y159.08 E40.68846
G1 X130.11 Y155.34 E40.86838
G1 X129.98 Y154.73 E40.89749
G1 X129.98 Y150.28 E41.10720
G1 X130.73 Y146.54 E41.28716
G1 X130.85 Y145.92 E41.31695
G1 X132.31 Y142.41 E41.49620
G1 X132.55 Y141.83 E41.52600
G1 X134.64 Y138.70 E41.70340
G1 X135.00 Y138.16 E41.73397
G1 X138.15 Y135.01 E41.94388
G0 F12000 X138.40 Y135.32
G1 F2700 X141.54 Y133.22 E42.12220
G1 X142.04 Y132.89 E42.15011
G1 X145.50 Y131.46 E42.32692
G1 X146.04 Y131.23 E42.35438
G1 X149.72 Y130.50 E42.53125
G1 X149.72 Y130.50 E42.53130
G1 X150.31 Y130.38 E42.55974
G1 X154.68 Y130.38 E42.76567
G1 X158.38 Y131.12 E42.94376
G1 X158.96 Y131.24 E42.97171
G1 X162.44 Y132.68 E43.14912
G1 X162.98 Y132.91 E43.17704
G1 X166.08 Y134.97 E43.35275
G1 X166.59 Y135.31 E43.38136
G1 X169.68 Y138.40 E43.58750
G1 X171.78 Y141.54 E43.76582
G1 X172.11 Y142.04 E43.79373
G1 X173.53 Y145.49 E43.96968
G1 X173.77 Y146.04 E43.99800
G1 X174.50 Y149.72 E44.17488
G1 X174.50 Y149.72 E44.17492
G1 X174.62 Y150.31 E44.20336
G1 X174.62 Y154.68 E44.40930
G1 X173.88 Y158.38 E44.58738
G1 X173.76 Y158.96 E44.61534
G1 X172.32 Y162.44 E44.79275
G1 X172.09 Y162.98 E44.82067
G1 X170.01 Y166.11 E44.99780
G1 X169.69 Y166.59 E45.02499
G1 X166.60 Y169.68 E45.23113
G1 X163.46 Y171.78 E45.40945
G1 X162.96 Y172.11 E45.43736
G1 X159.50 Y173.54 E45.61417
G1 X158.96 Y173.77 E45.64163
G1 X155.28 Y174.50 E45.81850
G1 X155.28 Y174.50 E45.81855
G1 X154.69 Y174.62 E45.84699
G1 X150.32 Y174.62 E46.05292
G1 X146.62 Y173.88 E46.23101
G1 X146.04 Y173.76 E46.25896
G1 X142.56 Y172.32 E46.43637
G1 X142.02 Y172.09 E46.46429
G1 X138.92 Y170.03 E46.64000
G1 X138.41 Y169.69 E46.66861
G1 X135.32 Y166.60 E46.87475
G1 X133.22 Y163.46 E47.05307
G1 X132.89 Y162.96 E47.08098
G1 X131.46 Y159.50 E47.25780
G1 X131.23 Y158.96 E47.28525
G1 X130.50 Y155.28 E47.46213
G1 X130.50 Y155.28 E47.46217
G1 X130.38 Y154.69 E47.49061
G1 X130.38 Y150.32 E47.69655
G1 X131.12 Y146.62 E47.87463
G1 X131.24 Y146.04 E47.90259
G1 X132.68 Y142.56 E48.08000
G1 X132.91 Y142.02 E48.10792
G1 X134.99 Y138.89 E48.28505
G1 X135.31 Y138.41 E48.31224
G1 X138.40 Y135.32 E48.51838
G0 F12000 X138.66 Y135.63
G1 F2700 X141.77 Y133.55 E48.69476
G1 X142.23 Y133.25 E48.72083
G1 X145.66 Y131.83 E48.89585
G1 X146.16 Y131.62 E48.92149
G1 X149.80 Y130.90 E49.09649
G1 X149.80 Y130.90 E49.09654
G1 X150.35 Y130.78 E49.12315
G1 X154.64 Y130.78 E49.32531
G1 X158.30 Y131.51 E49.50147
G1 X158.84 Y131.62 E49.52755
G1 X162.28 Y133.05 E49.70314
G1 X162.79 Y133.26 E49.72920
G1 X165.86 Y135.31 E49.90317
G1 X166.33 Y135.62 E49.92989
G1 X169.37 Y138.66 E50.13229
G1 X171.45 Y141.77 E50.30867
G1 X171.75 Y142.23 E50.33474
G1 X173.16 Y145.64 E50.50894
G1 X173.38 Y146.16 E50.53540
G1 X174.10 Y149.80 E50.71041
G1 X174.10 Y149.80 E50.71045
G1 X174.22 Y150.35 E50.73706
G1 X174.22 Y154.64 E50.93922
G1 X173.49 Y158.30 E51.11538
G1 X173.38 Y158.84 E51.14146
G1 X171.95 Y162.28 E51.31705
G1 X171.74 Y162.79 E51.34312
G1 X169.68 Y165.88 E51.51844
G1 X169.38 Y166.33 E51.54380
G1 X166.34 Y169.37 E51.74620
G1 X163.23 Y171.45 E51.92259
G1 X162.77 Y171.75 E51.94865
G1 X159.34 Y173.17 E52.12367
G1 X158.84 Y173.38 E52.14932
G1 X155.20 Y174.10 E52.32432
G1 X155.20 Y174.10 E52.32437
G1 X154.65 Y174.22 E52.35097
G1 X150.36 Y174.22 E52.55314
G1 X146.70 Y173.49 E52.72930
G1 X146.16 Y173.38 E52.75538
G1 X142.72 Y171.95 E52.93097
G1 X142.21 Y171.74 E52.95703
G1 X139.12 Y169.68 E53.13235
G1 X138.67 Y169.38 E53.15771
G1 X135.63 Y166.34 E53.36012
G1 X133.55 Y163.23 E53.53650
G1 X133.25 Y162.77 E53.56257
G1 X131.83 Y159.34 E53.73759
G1 X131.62 Y158.84 E53.76323
G1 X130.90 Y155.20 E53.93823
G1 X130.90 Y155.20 E53.93828
G1 X130.78 Y154.65 E53.96489
G1 X130.78 Y150.36 E54.16705
G1 X131.51 Y146.70 E54.34321
G1 X131.62 Y146.16 E54.36929
G1 X133.05 Y142.72 E54.54488
G1 X133.26 Y142.21 E54.57094
G1 X135.32 Y139.12 E54.74627
G1 X135.62 Y138.67 E54.77163
G1 X138.66 Y135.63 E54.97403
G0 F12000 X138.91 Y135.94
G1 F2700 X141.99 Y133.89 E55.14851
G1 X142.41 Y133.60 E55.17270
G1 X145.79 Y132.20 E55.34516
G1 X146.28 Y132.00 E55.36975
G1 X149.88 Y131.29 E55.54298
G1 X150.39 Y131.18 E55.56766
G1 X154.60 Y131.18 E55.76610
G1 X158.22 Y131.90 E55.94038
G1 X158.73 Y132.01 E55.96459
G1 X162.13 Y133.41 E56.13828
G1 X162.60 Y133.61 E56.16250
G1 X165.66 Y135.66 E56.33600
G1 X166.08 Y135.93 E56.35958
G1 X169.06 Y138.91 E56.55818
G1 X171.11 Y141.99 E56.73265
G1 X171.40 Y142.41 E56.75685
G1 X172.80 Y145.79 E56.92931
G1 X173.00 Y146.28 E56.95389
G1 X173.71 Y149.88 E57.12712
G1 X173.82 Y150.39 E57.15181
G1 X173.82 Y154.60 E57.35024
G1 X173.10 Y158.22 E57.52453
G1 X172.99 Y158.73 E57.54874
G1 X171.59 Y162.13 E57.72243
G1 X171.39 Y162.60 E57.74665
G1 X169.34 Y165.66 E57.92014
G1 X169.07 Y166.08 E57.94373
G1 X166.09 Y169.06 E58.14233
G1 X163.01 Y171.11 E58.31680
G1 X162.59 Y171.40 E58.34100
G1 X159.21 Y172.80 E58.51346
G1 X158.72 Y173.00 E58.53804
G1 X155.12 Y173.71 E58.71127
G1 X154.61 Y173.82 E58.73596
G1 X150.40 Y173.82 E58.93439
G1 X146.78 Y173.10 E59.10868
G1 X146.27 Y172.99 E59.13289
G1 X142.87 Y171.59 E59.30658
G1 X142.40 Y171.39 E59.33080
G1 X139.34 Y169.34 E59.50429
G1 X138.92 Y169.07 E59.52787
G1 X135.94 Y166.09 E59.72648
G1 X133.89 Y163.01 E59.90095
G1 X133.60 Y162.59 E59.92515
G1 X132.20 Y159.19 E60.09837
G1 X132.00 Y158.72 E60.12219
G1 X131.28 Y155.10 E60.29643
G1 X131.18 Y154.61 E60.32011
G1 X131.18 Y150.40 E60.51854
G1 X131.90 Y146.78 E60.69283
G1 X132.01 Y146.27 E60.71704
G1 X133.41 Y142.87 E60.89072
G1 X133.61 Y142.40 E60.91495
G1 X135.66 Y139.34 E61.08844
G1 X135.93 Y138.92 E61.11202
G1 X138.91 Y135.94 E61.31063
G0 F12000 X139.17 Y136.25
G1 F2700 X142.21 Y134.22 E61.48319
G1 X142.60 Y133.96 E61.50556
G1 X145.95 Y132.57 E61.67628
G1 X146.39 Y132.39 E61.69892
G1 X149.96 Y131.68 E61.87037
G1 X149.96 Y131.68 E61.87041
G1 X150.43 Y131.58 E61.89317
G1 X154.56 Y131.58 E62.08784
G1 X158.15 Y132.29 E62.26024
G1 X158.61 Y132.39 E62.28258
G1 X161.98 Y133.78 E62.45447
G1 X162.41 Y133.97 E62.47681
G1 X165.44 Y135.99 E62.64850
G1 X165.83 Y136.24 E62.67025
G1 X168.75 Y139.17 E62.86509
G1 X170.78 Y142.21 E63.03765
G1 X171.04 Y142.60 E63.06002
G1 X172.43 Y145.95 E63.23074
G1 X172.61 Y146.39 E63.25338
G1 X173.32 Y149.96 E63.42483
G1 X173.32 Y149.96 E63.42487
G1 X173.42 Y150.43 E63.44763
G1 X173.42 Y154.56 E63.64230
G1 X172.71 Y158.15 E63.81470
G1 X172.61 Y158.61 E63.83704
G1 X171.22 Y161.98 E64.00893
G1 X171.03 Y162.41 E64.03127
G1 X169.01 Y165.44 E64.20296
G1 X168.76 Y165.83 E64.22471
G1 X165.83 Y168.75 E64.41955
G1 X162.79 Y170.78 E64.59211
G1 X162.40 Y171.04 E64.61448
G1 X159.05 Y172.43 E64.78520
G1 X158.61 Y172.61 E64.80784
G1 X155.04 Y173.32 E64.97929
G1 X155.04 Y173.32 E64.97933
G1 X154.57 Y173.42 E65.00209
G1 X150.44 Y173.42 E65.19676
G1 X146.85 Y172.71 E65.36916
G1 X146.39 Y172.61 E65.39150
G1 X143.02 Y171.22 E65.56339
G1 X142.59 Y171.03 E65.58573
G1 X139.56 Y169.01 E65.75742
G1 X139.17 Y168.76 E65.77917
G1 X136.25 Y165.83 E65.97401
G1 X134.22 Y162.79 E66.14657
G1 X133.96 Y162.40 E66.16894
G1 X132.57 Y159.04 E66.34032
G1 X132.39 Y158.61 E66.36230
G1 X131.68 Y155.04 E66.53375
G1 X131.68 Y155.04 E66.53379
G1 X131.58 Y154.57 E66.55655
G1 X131.58 Y150.44 E66.75122
G1 X132.29 Y146.85 E66.92362
G1 X132.39 Y146.39 E66.94596
G1 X133.78 Y143.02 E67.11785
G1 X133.97 Y142.59 E67.14019
G1 X135.99 Y139.56 E67.31188
G1 X136.24 Y139.17 E67.33363
G1 X139.17 Y136.25 E67.52846
G0 F12000 X139.42 Y136.56
G1 F2700 X142.43 Y134.55 E67.69913
G1 X142.79 Y134.31 E67.71959
G1 X146.12 Y132.94 E67.88919
G1 X146.51 Y132.77 E67.90938
G1 X150.04 Y132.07 E68.07900
G1 X150.47 Y131.98 E68.09984
G1 X154.52 Y131.98 E68.29078
G1 X158.07 Y132.69 E68.46127
G1 X158.49 Y132.77 E68.48176
G1 X161.82 Y134.15 E68.65179
G1 X162.22 Y134.32 E68.67223
G1 X165.20 Y136.31 E68.84110
G1 X165.20 Y136.31 E68.84114
G1 X165.57 Y136.56 E68.86217
G1 X168.44 Y139.42 E69.05324
G1 X170.45 Y142.43 E69.22391
G1 X170.69 Y142.79 E69.24436
G1 X172.06 Y146.10 E69.41336
G1 X172.23 Y146.51 E69.43416
G1 X172.93 Y150.04 E69.60378
G1 X173.02 Y150.47 E69.62462
G1 X173.02 Y154.52 E69.81556
G1 X172.31 Y158.07 E69.98605
G1 X172.23 Y158.49 E70.00654
G1 X170.85 Y161.82 E70.17657
G1 X170.68 Y162.22 E70.19701
G1 X168.69 Y165.20 E70.36587
G1 X168.69 Y165.20 E70.36592
G1 X168.44 Y165.57 E70.38695
G1 X165.58 Y168.44 E70.57802
G1 X162.57 Y170.45 E70.74869
G1 X162.21 Y170.69 E70.76914
G1 X158.88 Y172.06 E70.93875
G1 X158.49 Y172.23 E70.95893
G1 X154.96 Y172.93 E71.12856
G1 X154.53 Y173.02 E71.14939
G1 X150.48 Y173.02 E71.34033
G1 X146.93 Y172.31 E71.51082
G1 X146.51 Y172.23 E71.53132
G1 X143.18 Y170.85 E71.70134
G1 X142.78 Y170.68 E71.72178
G1 X139.80 Y168.69 E71.89065
G1 X139.80 Y168.69 E71.89069
G1 X139.43 Y168.44 E71.91173
G1 X136.56 Y165.58 E72.10279
G1 X134.55 Y162.57 E72.27346
G1 X134.31 Y162.21 E72.29392
G1 X132.94 Y158.88 E72.46352
G1 X132.77 Y158.49 E72.48371
G1 X132.07 Y154.94 E72.65415
G1 X131.98 Y154.53 E72.67417
G1 X131.98 Y150.48 E72.86511
G1 X132.69 Y146.93 E73.03560
G1 X132.77 Y146.51 E73.05609
G1 X134.15 Y143.18 E73.22612
G1 X134.32 Y142.78 E73.24656
G1 X136.31 Y139.80 E73.41542
G1 X136.31 Y139.80 E73.41547
G1 X136.56 Y139.43 E73.43650
G1 X139.42 Y136.56 E73.62757
G0 F12000 X139.68 Y136.87
G1 F2700 X142.65 Y134.89 E73.79630
G1 X142.98 Y134.67 E73.81495
G1 X146.26 Y133.31 E73.98217
G1 X146.63 Y133.16 E74.00107
G1 X150.13 Y132.46 E74.16959
G1 X150.51 Y132.38 E74.18787
G1 X154.48 Y132.38 E74.37499
G1 X157.99 Y133.08 E74.54361
G1 X158.37 Y133.16 E74.56222
G1 X161.67 Y134.52 E74.73041
G1 X162.03 Y134.68 E74.74901
G1 X164.98 Y136.64 E74.91615
G1 X165.32 Y136.87 E74.93521
G1 X168.13 Y139.68 E75.12254
G1 X170.11 Y142.65 E75.29127
G1 X170.33 Y142.98 E75.30992
G1 X171.69 Y146.26 E75.47714
G1 X171.84 Y146.63 E75.49604
G1 X172.54 Y150.12 E75.66384
G1 X172.62 Y150.51 E75.68284
G1 X172.62 Y154.48 E75.86996
G1 X171.92 Y157.99 E76.03857
G1 X171.84 Y158.37 E76.05719
G1 X170.48 Y161.67 E76.22538
G1 X170.32 Y162.03 E76.24398
G1 X168.34 Y165.00 E76.41203
G1 X168.13 Y165.32 E76.43017
G1 X165.32 Y168.13 E76.61751
G1 X162.35 Y170.11 E76.78624
G1 X162.02 Y170.33 E76.80489
G1 X158.74 Y171.69 E76.97210
G1 X158.37 Y171.84 E76.99100
G1 X154.87 Y172.54 E77.15953
G1 X154.49 Y172.62 E77.17781
G1 X150.52 Y172.62 E77.36493
G1 X147.01 Y171.92 E77.53354
G1 X146.63 Y171.84 E77.55216
G1 X143.33 Y170.48 E77.72035
G1 X142.97 Y170.32 E77.73895
G1 X140.02 Y168.36 E77.90609
G1 X139.68 Y168.13 E77.92514
G1 X136.87 Y165.32 E78.11247
G1 X134.89 Y162.35 E78.28121
G1 X134.67 Y162.02 E78.29986
G1 X133.31 Y158.74 E78.46707
G1 X133.16 Y158.37 E78.48597
G1 X132.46 Y154.87 E78.65449
G1 X132.38 Y154.49 E78.67278
G1 X132.38 Y150.52 E78.85990
G1 X133.08 Y147.01 E79.02851
G1 X133.16 Y146.63 E79.04713
G1 X134.52 Y143.33 E79.21532
G1 X134.68 Y142.97 E79.23392
G1 X136.66 Y140.00 E79.40197
G1 X136.87 Y139.68 E79.42011
G1 X139.68 Y136.87 E79.60744
G0 F12000 X139.93 Y137.19
G1 F2700 X142.87 Y135.22 E79.77427
G1 X143.17 Y135.02 E79.79105
G1 X146.42 Y133.68 E79.95704
G1 X146.74 Y133.54 E79.97354
G1 X150.20 Y132.86 E80.13955
G1 X150.20 Y132.85 E80.13960
G1 X150.55 Y132.78 E80.15668
G1 X154.44 Y132.78 E80.34007
G1 X157.91 Y133.47 E80.50676
G1 X158.26 Y133.54 E80.52356
G1 X161.52 Y134.89 E80.68989
G1 X161.84 Y135.03 E80.70661
G1 X164.76 Y136.98 E80.87204
G1 X165.06 Y137.18 E80.88919
G1 X167.81 Y139.93 E81.07272
G1 X169.78 Y142.87 E81.23954
G1 X169.98 Y143.17 E81.25633
G1 X171.32 Y146.41 E81.42185
G1 X171.46 Y146.74 E81.43882
G1 X172.14 Y150.20 E81.60483
G1 X172.15 Y150.20 E81.60488
G1 X172.22 Y150.55 E81.62196
G1 X172.22 Y154.44 E81.80535
G1 X171.53 Y157.91 E81.97204
G1 X171.46 Y158.26 E81.98884
G1 X170.11 Y161.52 E82.15517
G1 X169.97 Y161.84 E82.17189
G1 X168.02 Y164.76 E82.33732
G1 X167.82 Y165.06 E82.35447
G1 X165.07 Y167.81 E82.53800
G1 X162.13 Y169.78 E82.70482
G1 X161.83 Y169.98 E82.72160
G1 X158.58 Y171.32 E82.88759
G1 X158.26 Y171.46 E82.90410
G1 X154.80 Y172.14 E83.07011
G1 X154.80 Y172.15 E83.07016
G1 X154.45 Y172.22 E83.08724
G1 X150.56 Y172.22 E83.27063
G1 X147.09 Y171.53 E83.43732
G1 X146.74 Y171.46 E83.45412
G1 X143.48 Y170.11 E83.62045
G1 X143.16 Y169.97 E83.63717
G1 X140.24 Y168.02 E83.80260
G1 X139.94 Y167.82 E83.81975
G1 X137.19 Y165.07 E84.00328
G1 X135.22 Y162.13 E84.17010
G1 X135.02 Y161.83 E84.18688
G1 X133.68 Y158.58 E84.35287
G1 X133.54 Y158.26 E84.36938
G1 X132.86 Y154.80 E84.53539
G1 X132.85 Y154.80 E84.53544
G1 X132.78 Y154.45 E84.55252
G1 X132.78 Y150.56 E84.73591
G1 X133.47 Y147.09 E84.90260
G1 X133.54 Y146.74 E84.91940
G1 X134.89 Y143.48 E85.08573
G1 X135.03 Y143.16 E85.10245
G1 X136.98 Y140.24 E85.26788
G1 X137.18 Y139.94 E85.28503
G1 X139.93 Y137.19 E85.46856
G0 F12000 X140.19 Y137.50
G1 F2700 X143.09 Y135.55 E85.63351
G1 X143.36 Y135.38 E85.64838
G1 X146.57 Y134.05 E85.81217
G1 X146.86 Y133.93 E85.82729
G1 X150.28 Y133.25 E85.99148
G1 X150.59 Y133.18 E86.00664
G1 X154.40 Y133.18 E86.18631
G1 X157.83 Y133.86 E86.35108
G1 X158.14 Y133.93 E86.36604
G1 X161.36 Y135.26 E86.53051
G1 X161.65 Y135.38 E86.54537
G1 X164.55 Y137.32 E86.70978
G1 X164.81 Y137.49 E86.72432
G1 X167.50 Y140.19 E86.90408
G1 X169.45 Y143.09 E87.06903
G1 X169.62 Y143.36 E87.08390
G1 X170.95 Y146.57 E87.24769
G1 X171.07 Y146.86 E87.26281
G1 X171.75 Y150.28 E87.42700
G1 X171.82 Y150.59 E87.44216
G1 X171.82 Y154.40 E87.62183
G1 X171.14 Y157.83 E87.78660
G1 X171.07 Y158.14 E87.80156
G1 X169.74 Y161.36 E87.96603
G1 X169.62 Y161.65 E87.98089
G1 X167.68 Y164.55 E88.14530
G1 X167.51 Y164.81 E88.15983
G1 X164.81 Y167.50 E88.33960
G1 X161.91 Y169.45 E88.50455
G1 X161.64 Y169.62 E88.51942
G1 X158.43 Y170.95 E88.68321
G1 X158.14 Y171.07 E88.69833
G1 X154.72 Y171.75 E88.86252
G1 X154.41 Y171.82 E88.87768
G1 X150.60 Y171.82 E89.05735
G1 X147.17 Y171.14 E89.22211
G1 X146.86 Y171.07 E89.23708
G1 X143.64 Y169.74 E89.40154
G1 X143.35 Y169.62 E89.41641
G1 X140.45 Y167.68 E89.58082
G1 X140.19 Y167.51 E89.59535
G1 X137.50 Y164.81 E89.77512
G1 X135.55 Y161.91 E89.94007
G1 X135.38 Y161.64 E89.95494
G1 X134.05 Y158.43 E90.11913
G1 X133.93 Y158.14 E90.13385
G1 X133.25 Y154.71 E90.29857
G1 X133.18 Y154.41 E90.31320
G1 X133.18 Y150.60 E90.49287
G1 X133.86 Y147.17 E90.65763
G1 X133.93 Y146.86 E90.67260
G1 X135.26 Y143.64 E90.83706
G1 X135.38 Y143.35 E90.85192
G1 X137.32 Y140.45 E91.01634
G1 X137.49 Y140.19 E91.03087
G1 X140.19 Y137.50 E91.21063
G0 F12000 X140.44 Y137.81
G1 F2700 X143.31 Y135.88 E91.37365
G1 X143.55 Y135.73 E91.38669
G1 X146.73 Y134.41 E91.54906
G1 X146.98 Y134.31 E91.56194
G1 X150.37 Y133.64 E91.72478
G1 X150.63 Y133.58 E91.73763
G1 X154.36 Y133.58 E91.91348
G1 X157.75 Y134.26 E92.07641
G1 X158.02 Y134.31 E92.08945
G1 X161.21 Y135.63 E92.25208
G1 X161.46 Y135.74 E92.26512
G1 X164.32 Y137.65 E92.42709
G1 X164.56 Y137.80 E92.44043
G1 X167.19 Y140.44 E92.61643
G1 X169.12 Y143.31 E92.77944
G1 X169.27 Y143.55 E92.79248
G1 X170.58 Y146.72 E92.95450
G1 X170.69 Y146.98 E92.96773
G1 X171.36 Y150.36 E93.13014
G1 X171.42 Y150.63 E93.14342
G1 X171.42 Y154.36 E93.31927
G1 X170.74 Y157.75 E93.48220
G1 X170.69 Y158.02 E93.49524
G1 X169.37 Y161.21 E93.65787
G1 X169.26 Y161.46 E93.67091
G1 X167.35 Y164.33 E93.83346
G1 X167.20 Y164.56 E93.84622
G1 X164.56 Y167.19 E94.02222
G1 X161.69 Y169.12 E94.18523
G1 X161.45 Y169.27 E94.19827
G1 X158.27 Y170.59 E94.36065
G1 X158.02 Y170.69 E94.37352
G1 X154.63 Y171.36 E94.53636
G1 X154.37 Y171.42 E94.54921
G1 X150.64 Y171.42 E94.72506
G1 X147.25 Y170.74 E94.88799
G1 X146.98 Y170.69 E94.90103
G1 X143.79 Y169.37 E95.06366
G1 X143.54 Y169.26 E95.07670
G1 X140.68 Y167.35 E95.23867
G1 X140.44 Y167.20 E95.25201
G1 X137.81 Y164.56 E95.42801
G1 X135.88 Y161.69 E95.59102
G1 X135.73 Y161.45 E95.60406
G1 X134.41 Y158.27 E95.76644
G1 X134.31 Y158.02 E95.77931
G1 X133.64 Y154.63 E95.94215
G1 X133.58 Y154.37 E95.95500
G1 X133.58 Y150.64 E96.13085
G1 X134.26 Y147.25 E96.29379
G1 X134.31 Y146.98 E96.30683
G1 X135.63 Y143.79 E96.46945
G1 X135.74 Y143.54 E96.48249
G1 X137.65 Y140.67 E96.64504
G1 X137.80 Y140.44 E96.65780
G1 X140.44 Y137.81 E96.83380
G0 F12000 X140.70 Y138.12
G1 F2700 X143.54 Y136.22 E96.99488
G1 X143.73 Y136.09 E97.00608
G1 X146.88 Y134.78 E97.16665
G1 X147.10 Y134.69 E97.17769
G1 X150.44 Y134.03 E97.33827
G1 X150.44 Y134.03 E97.33831
G1 X150.67 Y133.98 E97.34972
G1 X154.32 Y133.98 E97.52184
G1 X157.67 Y134.65 E97.68285
G1 X157.91 Y134.70 E97.69407
G1 X161.06 Y136.00 E97.85484
G1 X161.27 Y136.09 E97.86600
G1 X164.11 Y137.99 E98.02671
G1 X164.30 Y138.11 E98.03767
G1 X166.88 Y140.70 E98.20990
G1 X168.78 Y143.54 E98.37098
G1 X168.91 Y143.73 E98.38218
G1 X170.21 Y146.88 E98.54250
G1 X170.31 Y147.10 E98.55379
G1 X170.97 Y150.44 E98.71437
G1 X170.97 Y150.44 E98.71441
G1 X171.02 Y150.67 E98.72582
G1 X171.02 Y154.32 E98.89794
G1 X170.35 Y157.67 E99.05895
G1 X170.30 Y157.91 E99.07017
G1 X169.00 Y161.06 E99.23094
G1 X168.91 Y161.27 E99.24210
G1 X167.01 Y164.11 E99.40281
G1 X166.89 Y164.30 E99.41377
G1 X164.30 Y166.88 E99.58600
G1 X161.46 Y168.78 E99.74708
G1 X161.27 Y168.91 E99.75828
G1 X158.12 Y170.22 E99.91885
G1 X157.90 Y170.31 E99.92989
G1 X154.56 Y170.97 E100.09047
G1 X154.56 Y170.97 E100.09051
G1 X154.33 Y171.02 E100.10192
G1 X150.68 Y171.02 E100.27404
G1 X147.33 Y170.35 E100.43505
G1 X147.09 Y170.30 E100.44627
G1 X143.94 Y169.00 E100.60704
G1 X143.73 Y168.91 E100.61820
G1 X140.89 Y167.01 E100.77891
G1 X140.70 Y166.89 E100.78987
G1 X138.12 Y164.30 E100.96210
G1 X136.22 Y161.46 E101.12318
G1 X136.09 Y161.27 E101.13438
G1 X134.78 Y158.12 E101.29495
G1 X134.69 Y157.90 E101.30599
G1 X134.03 Y154.56 E101.46657
G1 X134.03 Y154.56 E101.46661
G1 X133.98 Y154.33 E101.47802
G1 X133.98 Y150.68 E101.65014
G1 X134.65 Y147.33 E101.81115
G1 X134.70 Y147.09 E101.82237
G1 X136.00 Y143.94 E101.98314
G1 X136.09 Y143.73 E101.99430
G1 X137.99 Y140.89 E102.15501
G1 X138.11 Y140.70 E102.16597
G1 X140.70 Y138.12 E102.33820
G0 F12000 X140.95 Y138.43
G1 F2700 X143.76 Y136.55 E102.49737
G1 X143.92 Y136.44 E102.50674
G1 X147.03 Y135.16 E102.66527
G1 X147.03 Y135.16 E102.66531
G1 X147.21 Y135.08 E102.67472
G1 X150.52 Y134.42 E102.83352
G1 X150.71 Y134.38 E102.84300
G1 X154.28 Y134.38 E103.01140
G1 X157.59 Y135.04 E103.17049
G1 X157.79 Y135.08 E103.17983
G1 X160.90 Y136.37 E103.33876
G1 X161.08 Y136.45 E103.34808
G1 X163.88 Y138.32 E103.50699
G1 X164.05 Y138.43 E103.51614
G1 X166.57 Y140.95 E103.68457
G1 X168.45 Y143.76 E103.84374
G1 X168.56 Y143.92 E103.85310
G1 X169.84 Y147.03 E104.01163
G1 X169.84 Y147.03 E104.01168
G1 X169.92 Y147.21 E104.02109
G1 X170.58 Y150.52 E104.17989
G1 X170.62 Y150.71 E104.18937
G1 X170.62 Y154.28 E104.35776
G1 X169.96 Y157.59 E104.51685
G1 X169.92 Y157.79 E104.52619
G1 X168.63 Y160.90 E104.68512
G1 X168.55 Y161.08 E104.69444
G1 X166.68 Y163.88 E104.85335
G1 X166.57 Y164.05 E104.86251
G1 X164.05 Y166.57 E105.03093
G1 X161.24 Y168.45 E105.19011
G1 X161.08 Y168.56 E105.19947
G1 X157.97 Y169.84 E105.35800
G1 X157.97 Y169.84 E105.35805
G1 X157.79 Y169.92 E105.36745
G1 X154.48 Y170.58 E105.52625
G1 X154.29 Y170.62 E105.53573
G1 X150.72 Y170.62 E105.70413
G1 X147.41 Y169.96 E105.86322
G1 X147.21 Y169.92 E105.87256
G1 X144.10 Y168.63 E106.03149
G1 X143.92 Y168.55 E106.04081
G1 X141.12 Y166.68 E106.19972
G1 X140.95 Y166.57 E106.20888
G1 X138.43 Y164.05 E106.37730
G1 X136.55 Y161.24 E106.53647
G1 X136.44 Y161.08 E106.54584
G1 X135.16 Y157.97 E106.70437
G1 X135.16 Y157.97 E106.70441
G1 X135.08 Y157.79 E106.71382
G1 X134.42 Y154.48 E106.87291
G1 X134.38 Y154.29 E106.88210
G1 X134.38 Y150.72 E107.05050
G1 X135.04 Y147.41 E107.20959
G1 X135.08 Y147.21 E107.21893
G1 X136.37 Y144.10 E107.37786
G1 X136.45 Y143.92 E107.38718
G1 X138.32 Y141.12 E107.54609
G1 X138.43 Y140.95 E107.55524
G1 X140.95 Y138.43 E107.72367
G0 F12000 X141.21 Y138.74
G1 F2700 X143.98 Y136.88 E107.88094
G1 X144.11 Y136.80 E107.88840
G1 X147.18 Y135.53 E108.04521
G1 X147.33 Y135.46 E108.05276
G1 X150.60 Y134.81 E108.20993
G1 X150.75 Y134.78 E108.21730
G1 X154.24 Y134.78 E108.38192
G1 X157.51 Y135.43 E108.53914
G1 X157.67 Y135.46 E108.54664
G1 X160.75 Y136.74 E108.70371
G1 X160.89 Y136.80 E108.71117
G1 X163.66 Y138.65 E108.86797
G1 X163.79 Y138.74 E108.87556
G1 X166.26 Y141.21 E109.04028
G1 X168.12 Y143.98 E109.19756
G1 X168.20 Y144.11 E109.20501
G1 X169.47 Y147.18 E109.36183
G1 X169.54 Y147.33 E109.36937
G1 X170.19 Y150.60 E109.52635
G1 X170.22 Y150.75 E109.53391
G1 X170.22 Y154.24 E109.69854
G1 X169.57 Y157.51 E109.85576
G1 X169.54 Y157.67 E109.86326
G1 X168.26 Y160.75 E110.02032
G1 X168.20 Y160.89 E110.02778
G1 X166.35 Y163.66 E110.18459
G1 X166.26 Y163.79 E110.19217
G1 X163.79 Y166.26 E110.35690
G1 X161.02 Y168.12 E110.51417
G1 X160.89 Y168.20 E110.52163
G1 X157.82 Y169.47 E110.67844
G1 X157.67 Y169.54 E110.68599
G1 X154.40 Y170.19 E110.84316
G1 X154.25 Y170.22 E110.85052
G1 X150.76 Y170.22 E111.01515
G1 X147.49 Y169.57 E111.17237
G1 X147.33 Y169.54 E111.17987
G1 X144.25 Y168.26 E111.33694
G1 X144.11 Y168.20 E111.34440
G1 X141.34 Y166.35 E111.50120
G1 X141.21 Y166.26 E111.50879
G1 X138.74 Y163.79 E111.67351
G1 X136.88 Y161.02 E111.83079
G1 X136.80 Y160.89 E111.83824
G1 X135.52 Y157.81 E111.99520
G1 X135.46 Y157.67 E112.00260
G1 X134.81 Y154.40 E112.15978
G1 X134.78 Y154.25 E112.16714
G1 X134.78 Y150.76 E112.33176
G1 X135.43 Y147.49 E112.48899
G1 X135.46 Y147.33 E112.49649
G1 X136.74 Y144.25 E112.65355
G1 X136.80 Y144.11 E112.66101
G1 X138.65 Y141.34 E112.81782
G1 X138.74 Y141.21 E112.82540
G1 X141.21 Y138.74 E112.99013
G0 F12000 X141.46 Y139.05
G1 F2700 X144.20 Y137.22 E113.14549
G1 X144.30 Y137.15 E113.15108
G1 X147.34 Y135.89 E113.30620
G1 X147.45 Y135.85 E113.31182
G1 X150.68 Y135.21 E113.46696
G1 X150.68 Y135.21 E113.46701
G1 X150.79 Y135.18 E113.47273
G1 X154.21 Y135.18 E113.63359
G1 X157.44 Y135.82 E113.78888
G1 X157.55 Y135.85 E113.79452
G1 X160.59 Y137.11 E113.94977
G1 X160.70 Y137.15 E113.95535
G1 X163.44 Y138.98 E114.11045
G1 X163.54 Y139.05 E114.11613
G1 X165.95 Y141.46 E114.27705
G1 X167.78 Y144.20 E114.43242
G1 X167.85 Y144.30 E114.43800
G1 X169.11 Y147.34 E114.59312
G1 X169.15 Y147.45 E114.59874
G1 X169.79 Y150.68 E114.75388
G1 X169.79 Y150.68 E114.75393
G1 X169.82 Y150.79 E114.75966
G1 X169.82 Y154.21 E114.92051
G1 X169.18 Y157.44 E115.07581
G1 X169.15 Y157.55 E115.08144
G1 X167.89 Y160.59 E115.23669
G1 X167.85 Y160.70 E115.24227
G1 X166.02 Y163.44 E115.39737
G1 X165.95 Y163.54 E115.40305
G1 X163.54 Y165.95 E115.56397
G1 X160.80 Y167.78 E115.71934
G1 X160.70 Y167.85 E115.72492
G1 X157.66 Y169.11 E115.88004
G1 X157.55 Y169.15 E115.88567
G1 X154.32 Y169.79 E116.04081
G1 X154.32 Y169.79 E116.04085
G1 X154.21 Y169.82 E116.04658
G1 X150.79 Y169.82 E116.20743
G1 X147.56 Y169.18 E116.36273
G1 X147.45 Y169.15 E116.36836
G1 X144.41 Y167.89 E116.52361
G1 X144.30 Y167.85 E116.52919
G1 X141.56 Y166.02 E116.68430
G1 X141.46 Y165.95 E116.68997
G1 X139.05 Y163.54 E116.85089
G1 X137.22 Y160.80 E117.00626
G1 X137.15 Y160.70 E117.01185
G1 X135.89 Y157.66 E117.16701
G1 X135.85 Y157.55 E117.17259
G1 X135.21 Y154.32 E117.32773
G1 X135.21 Y154.32 E117.32778
G1 X135.18 Y154.21 E117.33350
G1 X135.18 Y150.79 E117.49435
G1 X135.82 Y147.56 E117.64965
G1 X135.85 Y147.45 E117.65528
G1 X137.11 Y144.41 E117.81053
G1 X137.15 Y144.30 E117.81611
G1 X138.98 Y141.56 E117.97122
G1 X139.05 Y141.46 E117.97689
G1 X141.46 Y139.05 E118.13782
G0 F12000 X141.72 Y139.36
G1 F2700 X144.42 Y137.55 E118.29127
G1 X144.49 Y137.51 E118.29503
G1 X147.57 Y136.23 E118.45214
G1 X150.83 Y135.58 E118.60927
G1 X154.17 Y135.58 E118.76639
G1 X157.43 Y136.23 E118.92352
G1 X160.51 Y137.51 E119.08067
G1 X163.22 Y139.31 E119.23404
G1 X163.28 Y139.36 E119.23782
G1 X165.64 Y141.72 E119.39497
G1 X167.45 Y144.42 E119.54843
G1 X167.49 Y144.49 E119.55218
G1 X168.77 Y147.57 E119.70929
G1 X169.42 Y150.83 E119.86642
G1 X169.42 Y154.17 E120.02355
G1 X168.77 Y157.43 E120.18068
G1 X167.49 Y160.51 E120.33783
G1 X165.68 Y163.22 E120.49126
G1 X165.64 Y163.28 E120.49497
G1 X163.28 Y165.64 E120.65213
G1 X160.58 Y167.45 E120.80558
G1 X160.51 Y167.49 E120.80934
G1 X157.43 Y168.77 E120.96645
G1 X154.17 Y169.42 E121.12358
G1 X150.83 Y169.42 E121.28070
G1 X147.57 Y168.77 E121.43783
G1 X144.49 Y167.49 E121.59498
G1 X141.78 Y165.69 E121.74835
G1 X141.72 Y165.64 E121.75213
G1 X139.36 Y163.28 E121.90928
G1 X137.55 Y160.58 E122.06274
G1 X137.51 Y160.51 E122.06649
G1 X136.23 Y157.43 E122.22360
G1 X135.58 Y154.17 E122.38073
G1 X135.58 Y150.83 E122.53786
G1 X136.23 Y147.57 E122.69499
G1 X137.51 Y144.49 E122.85214
G1 X139.32 Y141.78 E123.00557
G1 X139.36 Y141.72 E123.00928
G1 X141.72 Y139.36 E123.16644
G0 F12000 X142.22 Y139.98
;TYPE:WALL-INNER
G1 F2700 X144.86 Y138.22 E123.31610
G1 X147.80 Y137.00 E123.46602
G1 X150.91 Y136.38 E123.61570
G1 X154.09 Y136.38 E123.76547
G1 X157.20 Y137.00 E123.91489
G1 X160.13 Y138.22 E124.06471
G1 X162.78 Y139.98 E124.21460
G1 X165.02 Y142.22 E124.36416
G1 X166.78 Y144.86 E124.51382
G1 X168.00 Y147.80 E124.66374
G1 X168.62 Y150.91 E124.81341
G1 X168.62 Y154.09 E124.96309
G1 X168.00 Y157.20 E125.11261
G1 X166.78 Y160.13 E125.26242
G1 X165.02 Y162.78 E125.41232
G1 X162.78 Y165.02 E125.56187
G1 X160.14 Y166.78 E125.71153
G1 X157.20 Y168.00 E125.86145
G1 X154.09 Y168.62 E126.01113
G1 X150.91 Y168.62 E126.16090
G1 X147.80 Y168.00 E126.31032
G1 X144.87 Y166.78 E126.46014
G1 X142.22 Y165.02 E126.61004
G1 X139.98 Y162.78 E126.75966
G1 X138.22 Y160.14 E126.90925
G1 X137.00 Y157.20 E127.05917
G1 X136.38 Y154.09 E127.20885
G1 X136.38 Y150.91 E127.35862
G1 X137.00 Y147.80 E127.50804
G1 X138.22 Y144.87 E127.65786
G1 X139.98 Y142.22 E127.80775
G1 X142.22 Y139.98 E127.95731
G0 F12000 X141.97 Y139.67
;TYPE:WALL-OUTER
G1 F2700 X144.64 Y137.88 E128.10891
G1 X144.67 Y137.86 E128.11071
G1 X147.69 Y136.62 E128.26440
G1 X150.87 Y135.98 E128.41768
G1 X154.13 Y135.98 E128.57113
G1 X157.31 Y136.62 E128.72441
G1 X160.33 Y137.86 E128.87809
G1 X163.00 Y139.65 E129.02955
G1 X163.03 Y139.67 E129.03163
G1 X165.33 Y141.97 E129.18475
G1 X167.12 Y144.64 E129.33635
G1 X167.14 Y144.67 E129.33815
G1 X168.38 Y147.69 E129.49184
G1 X169.02 Y150.87 E129.64512
G1 X169.02 Y154.13 E129.79856
G1 X168.38 Y157.31 E129.95185
G1 X167.14 Y160.33 E130.10553
G1 X165.35 Y163.00 E130.25699
G1 X165.33 Y163.03 E130.25907
G1 X163.03 Y165.33 E130.41219
G1 X160.36 Y167.12 E130.56378
G1 X160.33 Y167.14 E130.56559
G1 X157.31 Y168.38 E130.71927
G1 X154.13 Y169.02 E130.87256
G1 X150.87 Y169.02 E131.02600
G1 X147.69 Y168.38 E131.17928
G1 X144.67 Y167.14 E131.33297
G1 X142.00 Y165.35 E131.48442
G1 X141.97 Y165.33 E131.48650
G1 X139.67 Y163.03 E131.63963
G1 X137.88 Y160.36 E131.79129
G1 X136.62 Y157.31 E131.94669
G1 X135.98 Y154.13 E132.09997
G1 X135.98 Y150.87 E132.25342
G1 X136.62 Y147.69 E132.40670
G1 X137.86 Y144.67 E132.56038
G1 X139.65 Y142.00 E132.71184
G1 X139.67 Y141.97 E132.71392
G1 X141.97 Y139.67 E132.86704
G0 F12000 X142.19 Y140.21
;TYPE:FILL
G1 F2700 X164.79 Y162.81 E134.37403
G0 F12000 X164.50 Y163.09
G1 F2700 X141.91 Y140.49 E135.88103
G0 F12000 X141.62 Y140.78
G1 F2700 X164.22 Y163.37 E137.38803
G0 F12000 X163.94 Y163.66
G1 F2700 X141.34 Y141.06 E138.89502
G0 F12000 X141.06 Y141.34
G1 F2700 X163.66 Y163.94 E140.40202
G0 F12000 X163.37 Y164.22
G1 F2700 X140.78 Y141.62 E141.90901
G0 F12000 X140.49 Y141.91
G1 F2700 X163.09 Y164.50 E143.41601
G0 F12000 X162.81 Y164.79
G1 F2700 X140.21 Y142.19 E144.92301
G0 F12000 X139.96 Y142.51
G1 F2700 X162.49 Y165.04 E146.42570
G0 F12000 X162.15 Y165.26
G1 F2700 X139.73 Y142.84 E147.92083
G0 F12000 X139.51 Y143.18
G1 F2700 X161.81 Y165.49 E149.40848
G0 F12000 X161.47 Y165.72
G1 F2700 X139.28 Y143.52 E150.88860
G0 F12000 X139.05 Y143.86
G1 F2700 X161.14 Y165.94 E152.36125
G0 F12000 X160.80 Y166.17
G1 F2700 X138.83 Y144.20 E153.82637
G0 F12000 X138.60 Y144.54
G1 F2700 X160.46 Y166.40 E155.28395
G0 F12000 X160.12 Y166.62
G1 F2700 X138.38 Y144.88 E156.73396
G0 F12000 X138.20 Y145.27
G1 F2700 X159.73 Y166.80 E158.16953
G0 F12000 X159.33 Y166.96
G1 F2700 X138.03 Y145.67 E159.58949
G0 F12000 X137.87 Y146.07
G1 F2700 X158.93 Y167.13 E160.99382
G0 F12000 X158.53 Y167.29
G1 F2700 X137.70 Y146.47 E162.38261
G0 F12000 X137.54 Y146.87
G1 F2700 X158.13 Y167.46 E163.75569
G0 F12000 X157.73 Y167.63
G1 F2700 X137.37 Y147.27 E165.11320
G0 F12000 X137.21 Y147.67
G1 F2700 X157.33 Y167.79 E166.45514
G0 F12000 X156.88 Y167.92
G1 F2700 X137.08 Y148.11 E167.77593
G0 F12000 X136.99 Y148.58
G1 F2700 X156.41 Y168.01 E169.07152
G0 F12000 X155.94 Y168.10
G1 F2700 X136.89 Y149.06 E170.34187
G0 F12000 X136.80 Y149.53
G1 F2700 X155.47 Y168.20 E171.58711
G0 F12000 X155.00 Y168.29
G1 F2700 X136.71 Y150.00 E172.80700
G0 F12000 X136.61 Y150.47
G1 F2700 X154.53 Y168.38 E174.00176
G0 F12000 X154.05 Y168.47
G1 F2700 X136.52 Y150.95 E175.17070
G0 F12000 X136.52 Y151.51
G1 F2700 X153.49 Y168.47 E176.30193
G0 F12000 X152.92 Y168.47
G1 F2700 X136.52 Y152.08 E177.39545
G0 F12000 X136.52 Y152.64
G1 F2700 X152.35 Y168.47 E178.45122
G0 F12000 X151.79 Y168.47
G1 F2700 X136.52 Y153.21 E179.46928
G0 F12000 X136.52 Y153.78
G1 F2700 X151.22 Y168.47 E180.44962
G0 F12000 X150.59 Y168.41
G1 F2700 X136.59 Y154.41 E181.38335
G0 F12000 X136.73 Y155.11
G1 F2700 X149.88 Y168.27 E182.26066
G0 F12000 X149.18 Y168.13
G1 F2700 X136.87 Y155.82 E183.08155
G0 F12000 X137.01 Y156.53
G1 F2700 X148.47 Y167.99 E183.84588
G0 F12000 X147.74 Y167.82
G1 F2700 X137.18 Y157.26 E184.54996
G0 F12000 X137.58 Y158.23
G1 F2700 X146.77 Y167.42 E185.16298
G0 F12000 X145.81 Y167.02
G1 F2700 X137.98 Y159.19 E185.68489
G0 F12000 X138.45 Y160.22
G1 F2700 X144.77 Y166.55 E186.10664
G0 F12000 X143.07 Y165.41
G1 F2700 X139.58 Y161.93 E186.33892
G0 F12000 X142.51 Y139.96
G1 F2700 X165.04 Y162.49 E187.84158
G0 F12000 X165.26 Y162.15
G1 F2700 X142.85 Y139.73 E189.33668
G0 F12000 X143.19 Y139.51
G1 F2700 X165.49 Y161.81 E190.82430
G0 F12000 X165.72 Y161.47
G1 F2700 X143.52 Y139.28 E192.30442
G0 F12000 X143.86 Y139.06
G1 F2700 X165.94 Y161.14 E193.77700
G0 F12000 X166.17 Y160.80
G1 F2700 X144.20 Y138.83 E195.24212
G0 F12000 X144.54 Y138.60
G1 F2700 X166.40 Y160.46 E196.69970
G0 F12000 X166.62 Y160.12
G1 F2700 X144.88 Y138.38 E198.14974
G0 F12000 X145.27 Y138.20
G1 F2700 X166.80 Y159.73 E199.58531
G0 F12000 X166.96 Y159.33
G1 F2700 X145.67 Y138.03 E201.00531
G0 F12000 X146.07 Y137.87
G1 F2700 X167.13 Y158.93 E202.40964
G0 F12000 X167.30 Y158.53
G1 F2700 X146.47 Y137.70 E203.79839
G0 F12000 X146.87 Y137.54
G1 F2700 X167.46 Y158.13 E205.17151
G0 F12000 X167.63 Y157.73
G1 F2700 X147.27 Y137.37 E206.52902
G0 F12000 X147.67 Y137.21
G1 F2700 X167.79 Y157.33 E207.87092
G0 F12000 X167.92 Y156.89
G1 F2700 X148.11 Y137.08 E209.19172
G0 F12000 X148.59 Y136.99
G1 F2700 X168.01 Y156.41 E210.48727
G0 F12000 X168.11 Y155.94
G1 F2700 X149.06 Y136.90 E211.75762
G0 F12000 X149.53 Y136.80
G1 F2700 X168.20 Y155.47 E213.00272
G0 F12000 X168.29 Y155.00
G1 F2700 X150.00 Y136.71 E214.22259
G0 F12000 X150.47 Y136.61
G1 F2700 X168.39 Y154.53 E215.41721
G0 F12000 X168.48 Y154.05
G1 F2700 X150.95 Y136.52 E216.58615
G0 F12000 X151.51 Y136.52
G1 F2700 X168.48 Y153.49 E217.71741
G0 F12000 X168.48 Y152.92
G1 F2700 X152.08 Y136.52 E218.81093
G0 F12000 X152.65 Y136.52
G1 F2700 X168.48 Y152.35 E219.86670
G0 F12000 X168.48 Y151.79
G1 F2700 X153.21 Y136.52 E220.88476
G0 F12000 X153.78 Y136.52
G1 F2700 X168.48 Y151.22 E221.86511
G0 F12000 X168.41 Y150.59
G1 F2700 X154.41 Y136.59 E222.79890
G0 F12000 X155.11 Y136.73
G1 F2700 X168.27 Y149.88 E223.67621
G0 F12000 X168.13 Y149.18
G1 F2700 X155.82 Y136.87 E224.49706
G0 F12000 X156.53 Y137.01
G1 F2700 X167.99 Y148.47 E225.26143
G0 F12000 X167.82 Y147.74
G1 F2700 X157.26 Y137.18 E225.96555
G0 F12000 X158.23 Y137.58
G1 F2700 X167.42 Y146.77 E226.57853
G0 F12000 X167.02 Y145.81
G1 F2700 X159.19 Y137.98 E227.10041
G0 F12000 X160.23 Y138.45
G1 F2700 X166.55 Y144.77 E227.52213
G0 F12000 X165.41 Y143.07
G1 F2700 X161.93 Y139.59 E227.75437
;LAYER:1
G0 F12000 X162.75 Y139.96 Z0.40
;TYPE:WALL-INNER
G1 F3900 X162.78 Y139.98 E227.75485
G1 X165.02 Y142.22 E227.80471
G1 X166.77 Y144.85 E227.85433
G1 X166.78 Y144.87 E227.85471
G1 X168.00 Y147.80 E227.90451
G1 X168.61 Y150.89 E227.95411
G1 X168.62 Y154.08 E228.00430
G1 X168.00 Y157.17 E228.05379
G1 X166.78 Y160.13 E228.10414
G1 X165.04 Y162.75 E228.15360
G1 X165.02 Y162.78 E228.15408
G1 X162.78 Y165.02 E228.20394
G1 X160.15 Y166.77 E228.25356
G1 X160.13 Y166.78 E228.25394
G1 X157.20 Y168.00 E228.30374
G1 X154.11 Y168.61 E228.35334
G1 X150.92 Y168.62 E228.40353
G1 X147.82 Y168.00 E228.45310
G1 X144.87 Y166.78 E228.50337
G1 X142.25 Y165.04 E228.55283
G1 X142.22 Y165.02 E228.55330
G1 X139.98 Y162.78 E228.60317
G1 X138.23 Y160.15 E228.65278
G1 X138.22 Y160.13 E228.65317
G1 X137.00 Y157.20 E228.70297
G1 X136.39 Y154.11 E228.75257
G1 X136.38 Y150.92 E228.80276
G1 X137.00 Y147.83 E228.85225
G1 X138.22 Y144.87 E228.90260
G1 X139.96 Y142.25 E228.95206
G1 X139.98 Y142.22 E228.95253
G1 X142.22 Y139.98 E229.00239
G1 X144.85 Y138.23 E229.05201
G1 X144.87 Y138.22 E229.05239
G1 X147.80 Y137.00 E229.10219
G1 X150.89 Y136.39 E229.15179
G1 X154.08 Y136.38 E229.20198
G1 X157.17 Y137.00 E229.25147
G1 X160.13 Y138.22 E229.30183
G1 X162.75 Y139.96 E229.35128
G0 F12000 X162.97 Y139.63
;TYPE:WALL-OUTER
G1 F3900 X163.03 Y139.67 E229.35235
G1 X165.33 Y141.97 E229.40343
G1 X167.10 Y144.62 E229.45363
G1 X167.14 Y144.68 E229.45460
G1 X168.38 Y147.69 E229.50579
G1 X169.00 Y150.81 E229.55591
G1 X169.02 Y150.88 E229.55692
G1 X169.02 Y154.13 E229.60804
G1 X168.40 Y157.25 E229.65813
G1 X168.38 Y157.32 E229.65915
G1 X167.14 Y160.33 E229.71036
G1 X165.37 Y162.97 E229.76043
G1 X165.33 Y163.03 E229.76149
G1 X163.03 Y165.33 E229.81258
G1 X160.38 Y167.10 E229.86278
G1 X160.32 Y167.14 E229.86375
G1 X157.31 Y168.38 E229.91494
G1 X154.19 Y169.00 E229.96505
G1 X154.12 Y169.02 E229.96607
G1 X150.87 Y169.02 E230.01718
G1 X147.75 Y168.40 E230.06728
G1 X147.68 Y168.38 E230.06829
G1 X144.67 Y167.14 E230.11951
G1 X142.03 Y165.37 E230.16958
G1 X141.97 Y165.33 E230.17064
G1 X139.67 Y163.03 E230.22173
G1 X137.90 Y160.38 E230.27192
G1 X137.86 Y160.32 E230.27290
G1 X136.62 Y157.31 E230.32409
G1 X136.00 Y154.19 E230.37420
G1 X135.98 Y154.12 E230.37521
G1 X135.98 Y150.87 E230.42633
G1 X136.60 Y147.75 E230.47643
G1 X136.62 Y147.68 E230.47744
G1 X137.86 Y144.67 E230.52865
G1 X139.63 Y142.03 E230.57872
G1 X139.67 Y141.97 E230.57979
G1 X141.97 Y139.67 E230.63087
G1 X144.62 Y137.90 E230.68107
G1 X144.68 Y137.86 E230.68204
G1 X147.69 Y136.62 E230.73324
G1 X150.81 Y136.00 E230.78335
G1 X150.88 Y135.98 E230.78436
G1 X154.13 Y135.98 E230.83548
G1 X157.25 Y136.60 E230.88558
G1 X157.32 Y136.62 E230.88659
G1 X160.33 Y137.86 E230.93780
G1 X162.97 Y139.63 E230.98787
G0 F12000 X162.76 Y140.16
;TYPE:FILL
G1 F3900 X140.16 Y162.76 E231.49018
G0 F12000 X140.45 Y163.04
G1 F3900 X163.04 Y140.45 E231.99251
G0 F12000 X163.33 Y140.73
G1 F3900 X140.73 Y163.33 E232.49485
G0 F12000 X141.01 Y163.61
G1 F3900 X163.61 Y141.01 E232.99716
G0 F12000 X163.89 Y141.29
G1 F3900 X141.29 Y163.89 E233.49947
G0 F12000 X141.58 Y164.17
G1 F3900 X164.17 Y141.58 E234.00178
G0 F12000 X164.46 Y141.86
G1 F3900 X141.86 Y164.46 E234.50409
G0 F12000 X142.14 Y164.74
G1 F3900 X164.74 Y142.14 E235.00640
G0 F12000 X165.00 Y142.45
G1 F3900 X142.45 Y165.00 E235.50768
G0 F12000 X142.79 Y165.23
G1 F3900 X165.23 Y142.79 E236.00648
G0 F12000 X165.45 Y143.13
G1 F3900 X143.13 Y165.45 E236.50278
G0 F12000 X143.47 Y165.68
G1 F3900 X165.68 Y143.47 E236.99657
G0 F12000 X165.91 Y143.81
G1 F3900 X143.81 Y165.91 E237.48786
G0 F12000 X144.14 Y166.13
G1 F3900 X166.13 Y144.15 E237.97666
G0 F12000 X166.36 Y144.49
G1 F3900 X144.48 Y166.36 E238.46294
G0 F12000 X144.82 Y166.59
G1 F3900 X166.59 Y144.82 E238.94674
G0 F12000 X166.77 Y145.20
G1 F3900 X145.20 Y166.77 E239.42618
G0 F12000 X145.60 Y166.94
G1 F3900 X166.94 Y145.60 E239.90039
G0 F12000 X167.10 Y146.00
G1 F3900 X146.00 Y167.10 E240.36940
G0 F12000 X146.41 Y167.27
G1 F3900 X167.27 Y146.41 E240.83315
G0 F12000 X167.43 Y146.80
G1 F3900 X146.81 Y167.43 E241.29171
G0 F12000 X147.21 Y167.60
G1 F3900 X167.60 Y147.20 E241.74505
G0 F12000 X167.76 Y147.60
G1 F3900 X147.61 Y167.76 E242.19314
G0 F12000 X148.03 Y167.90
G1 F3900 X167.90 Y148.03 E242.63479
G0 F12000 X167.99 Y148.51
G1 F3900 X148.50 Y168.00 E243.06803
G0 F12000 X148.98 Y168.09
G1 F3900 X168.09 Y148.98 E243.49285
G0 F12000 X168.18 Y149.45
G1 F3900 X149.45 Y168.18 E243.90928
G0 F12000 X149.92 Y168.28
G1 F3900 X168.28 Y149.92 E244.31729
G0 F12000 X168.37 Y150.39
G1 F3900 X150.39 Y168.37 E244.71690
G0 F12000 X150.86 Y168.46
G1 F3900 X168.46 Y150.87 E245.10811
G0 F12000 X168.47 Y151.42
G1 F3900 X151.42 Y168.47 E245.48718
G0 F12000 X151.99 Y168.47
G1 F3900 X168.47 Y151.99 E245.85368
G0 F12000 X168.47 Y152.55
G1 F3900 X152.55 Y168.47 E246.20762
G0 F12000 X153.12 Y168.47
G1 F3900 X168.47 Y153.12 E246.54896
G0 F12000 X168.47 Y153.68
G1 F3900 X153.69 Y168.47 E246.87774
G0 F12000 X154.29 Y168.43
G1 F3900 X168.43 Y154.29 E247.19213
G0 F12000 X168.29 Y155.00
G1 F3900 X155.00 Y168.29 E247.48769
G0 F12000 X155.70 Y168.15
G1 F3900 X168.15 Y155.70 E247.76446
G0 F12000 X168.01 Y156.41
G1 F3900 X156.41 Y168.01 E248.02241
G0 F12000 X157.11 Y167.87
G1 F3900 X167.87 Y157.11 E248.26155
G0 F12000 X167.48 Y158.07
G1 F3900 X158.06 Y167.49 E248.47091
G0 F12000 X159.03 Y167.09
G1 F3900 X167.09 Y159.03 E248.65004
G0 F12000 X166.69 Y159.99
G1 F3900 X159.99 Y166.69 E248.79891
G0 F12000 X161.64 Y165.61
G1 F3900 X165.61 Y161.64 E248.88712
G0 F12000 X162.44 Y139.92
G1 F3900 X139.92 Y162.44 E249.38758
G0 F12000 X139.70 Y162.10
G1 F3900 X162.10 Y139.69 E249.88556
G0 F12000 X161.76 Y139.47
G1 F3900 X139.47 Y161.76 E250.38102
G0 F12000 X139.24 Y161.42
G1 F3900 X161.42 Y139.24 E250.87397
G0 F12000 X161.08 Y139.01
G1 F3900 X139.02 Y161.08 E251.36443
G0 F12000 X138.79 Y160.74
G1 F3900 X160.74 Y138.79 E251.85238
G0 F12000 X160.40 Y138.56
G1 F3900 X138.56 Y160.40 E252.33784
G0 F12000 X138.34 Y160.06
G1 F3900 X160.06 Y138.34 E252.82077
G0 F12000 X159.66 Y138.17
G1 F3900 X138.17 Y159.66 E253.29846
G0 F12000 X138.01 Y159.26
G1 F3900 X159.26 Y138.01 E253.77092
G0 F12000 X158.86 Y137.84
G1 F3900 X137.84 Y158.86 E254.23817
G0 F12000 X137.68 Y158.46
G1 F3900 X158.46 Y137.68 E254.70019
G0 F12000 X158.06 Y137.51
G1 F3900 X137.51 Y158.06 E255.15699
G0 F12000 X137.34 Y157.66
G1 F3900 X157.66 Y137.35 E255.60854
G0 F12000 X157.26 Y137.18
G1 F3900 X137.18 Y157.26 E256.05487
G0 F12000 X137.07 Y156.81
G1 F3900 X156.81 Y137.06 E256.49371
G0 F12000 X156.34 Y136.97
G1 F3900 X136.97 Y156.33 E256.92413
G0 F12000 X136.88 Y155.86
G1 F3900 X155.86 Y136.88 E257.34616
G0 F12000 X155.39 Y136.78
G1 F3900 X136.79 Y155.39 E257.75976
G0 F12000 X136.69 Y154.92
G1 F3900 X154.92 Y136.69 E258.16496
G0 F12000 X154.45 Y136.60
G1 F3900 X136.60 Y154.45 E258.56175
G0 F12000 X136.53 Y153.95
G1 F3900 X153.96 Y136.52 E258.94918
G0 F12000 X153.39 Y136.52
G1 F3900 X136.53 Y153.39 E259.32405
G0 F12000 X136.53 Y152.82
G1 F3900 X152.82 Y136.52 E259.68633
G0 F12000 X152.26 Y136.53
G1 F3900 X136.53 Y152.26 E260.03606
G0 F12000 X136.52 Y151.69
G1 F3900 X151.69 Y136.53 E260.37319
G0 F12000 X151.12 Y136.53
G1 F3900 X136.52 Y151.13 E260.69774
G0 F12000 X136.61 Y150.47
G1 F3900 X150.47 Y136.61 E261.00579
G0 F12000 X149.76 Y136.75
G1 F3900 X136.75 Y149.76 E261.29503
G0 F12000 X136.89 Y149.06
G1 F3900 X149.06 Y136.89 E261.56546
G0 F12000 X148.35 Y137.03
G1 F3900 X137.03 Y148.35 E261.81710
G0 F12000 X137.25 Y147.57
G1 F3900 X147.58 Y137.25 E262.04658
G0 F12000 X146.61 Y137.64
G1 F3900 X137.65 Y146.61 E262.24582
G0 F12000 X138.05 Y145.64
G1 F3900 X145.65 Y138.04 E262.41480
G0 F12000 X144.49 Y138.64
G1 F3900 X138.63 Y144.49 E262.54489
G0 F12000 X139.77 Y142.79
G1 F3900 X142.78 Y139.78 E262.61182
;LAYER:2
G0 F12000 X142.22 Y139.98 Z0.50
;TYPE:WALL-INNER
G1 F5220 X144.83 Y138.24 E262.66102
G1 X144.87 Y138.22 E262.66178
G1 X147.80 Y137.00 E262.71169
G1 X150.91 Y136.38 E262.76154
G1 X154.09 Y136.38 E262.81150
G1 X157.20 Y137.00 E262.86136
G1 X160.13 Y138.22 E262.91127
G1 X162.73 Y139.95 E262.96041
G1 X162.78 Y139.98 E262.96123
G1 X165.02 Y142.22 E263.01107
G1 X166.76 Y144.83 E263.06027
G1 X166.78 Y144.87 E263.06103
G1 X168.00 Y147.80 E263.11094
G1 X168.62 Y150.91 E263.16079
G1 X168.62 Y154.09 E263.21075
G1 X168.00 Y157.20 E263.26060
G1 X166.78 Y160.13 E263.31052
G1 X165.05 Y162.73 E263.35966
G1 X165.02 Y162.78 E263.36048
G1 X162.78 Y165.02 E263.41032
G1 X160.17 Y166.76 E263.45952
G1 X160.13 Y166.78 E263.46028
G1 X157.20 Y168.00 E263.51018
G1 X154.09 Y168.62 E263.56004
G1 X150.91 Y168.62 E263.61000
G1 X147.80 Y168.00 E263.65985
G1 X144.87 Y166.78 E263.70977
G1 X142.27 Y165.05 E263.75891
G1 X142.22 Y165.02 E263.75973
G1 X139.98 Y162.78 E263.80956
G1 X138.24 Y160.17 E263.85877
G1 X138.22 Y160.13 E263.85953
G1 X137.00 Y157.20 E263.90943
G1 X136.38 Y154.09 E263.95929
G1 X136.38 Y150.91 E264.00925
G1 X137.00 Y147.80 E264.05910
G1 X138.22 Y144.87 E264.10902
G1 X139.95 Y142.27 E264.15816
G1 X139.98 Y142.22 E264.15897
G1 X142.22 Y139.98 E264.20881
G0 F12000 X141.97 Y139.67
;TYPE:WALL-OUTER
G1 F5220 X144.67 Y137.86 E264.25995
G1 X147.69 Y136.62 E264.31118
G1 X150.87 Y135.98 E264.36227
G1 X154.13 Y135.98 E264.41342
G1 X157.31 Y136.62 E264.46451
G1 X160.33 Y137.86 E264.51574
G1 X163.03 Y139.67 E264.56688
G1 X165.33 Y141.97 E264.61796
G1 X167.14 Y144.67 E264.66910
G1 X168.38 Y147.69 E264.72032
G1 X169.02 Y150.87 E264.77142
G1 X169.02 Y154.13 E264.82257
G1 X168.38 Y157.31 E264.87366
G1 X167.14 Y160.33 E264.92489
G1 X165.33 Y163.03 E264.97602
G1 X163.03 Y165.33 E265.02711
G1 X160.33 Y167.14 E265.07824
G1 X157.31 Y168.38 E265.12947
G1 X154.13 Y169.02 E265.18057
G1 X150.87 Y169.02 E265.23171
G1 X147.69 Y168.38 E265.28281
G1 X144.67 Y167.14 E265.33404
G1 X141.97 Y165.33 E265.38517
G1 X139.67 Y163.03 E265.43626
G1 X137.86 Y160.33 E265.48739
G1 X136.62 Y157.31 E265.53862
G1 X135.98 Y154.13 E265.58971
G1 X135.98 Y150.87 E265.64086
G1 X136.62 Y147.69 E265.69196
G1 X137.86 Y144.67 E265.74318
G1 X139.67 Y141.97 E265.79432
G1 X141.97 Y139.67 E265.84540
G0 F12000 X142.19 Y140.21
;TYPE:FILL
G1 F5220 X164.79 Y162.81 E266.34774
G0 F12000 X164.50 Y163.09
G1 F5220 X141.91 Y140.49 E266.85007
G0 F12000 X141.62 Y140.78
G1 F5220 X164.22 Y163.37 E267.35240
G0 F12000 X163.94 Y163.66
G1 F5220 X141.34 Y141.06 E267.85473
G0 F12000 X141.06 Y141.34
G1 F5220 X163.66 Y163.94 E268.35706
G0 F12000 X163.37 Y164.22
G1 F5220 X140.78 Y141.62 E268.85940
G0 F12000 X140.49 Y141.91
G1 F5220 X163.09 Y164.50 E269.36173
G0 F12000 X162.81 Y164.79
G1 F5220 X140.21 Y142.19 E269.86406
G0 F12000 X139.96 Y142.51
G1 F5220 X162.49 Y165.04 E270.36496
G0 F12000 X162.15 Y165.26
G1 F5220 X139.73 Y142.84 E270.86333
G0 F12000 X139.51 Y143.18
G1 F5220 X161.81 Y165.49 E271.35922
G0 F12000 X161.47 Y165.72
G1 F5220 X139.28 Y143.52 E271.85259
G0 F12000 X139.05 Y143.86
G1 F5220 X161.14 Y165.94 E272.34349
G0 F12000 X160.80 Y166.17
G1 F5220 X138.83 Y144.20 E272.83186
G0 F12000 X138.60 Y144.54
G1 F5220 X160.46 Y166.40 E273.31774
G0 F12000 X160.12 Y166.62
G1 F5220 X138.37 Y144.88 E273.80110
G0 F12000 X138.20 Y145.27
G1 F5220 X159.73 Y166.80 E274.27966
G0 F12000 X159.33 Y166.96
G1 F5220 X138.03 Y145.67 E274.75300
G0 F12000 X137.87 Y146.07
G1 F5220 X158.93 Y167.13 E275.22113
G0 F12000 X158.53 Y167.29
G1 F5220 X137.70 Y146.47 E275.68407
G0 F12000 X137.54 Y146.87
G1 F5220 X158.13 Y167.46 E276.14179
G0 F12000 X157.73 Y167.63
G1 F5220 X137.37 Y147.27 E276.59429
G0 F12000 X137.21 Y147.67
G1 F5220 X157.33 Y167.79 E277.04160
G0 F12000 X156.89 Y167.92
G1 F5220 X137.08 Y148.11 E277.48187
G0 F12000 X136.99 Y148.58
G1 F5220 X156.41 Y168.01 E277.91374
G0 F12000 X155.94 Y168.10
G1 F5220 X136.89 Y149.06 E278.33720
G0 F12000 X136.80 Y149.53
G1 F5220 X155.47 Y168.20 E278.75226
G0 F12000 X155.00 Y168.29
G1 F5220 X136.71 Y150.00 E279.15893
G0 F12000 X136.61 Y150.47
G1 F5220 X154.53 Y168.39 E279.55717
G0 F12000 X154.05 Y168.47
G1 F5220 X136.52 Y150.95 E279.94681
G0 F12000 X136.52 Y151.51
G1 F5220 X153.49 Y168.47 E280.32389
G0 F12000 X152.92 Y168.47
G1 F5220 X136.52 Y152.08 E280.68840
G0 F12000 X136.52 Y152.64
G1 F5220 X152.35 Y168.47 E281.04032
G0 F12000 X151.79 Y168.47
G1 F5220 X136.52 Y153.21 E281.37967
G0 F12000 X136.52 Y153.78
G1 F5220 X151.22 Y168.47 E281.70645
G0 F12000 X150.59 Y168.41
G1 F5220 X136.59 Y154.41 E282.01771
G0 F12000 X136.73 Y155.11
G1 F5220 X149.88 Y168.27 E282.31013
G0 F12000 X149.18 Y168.13
G1 F5220 X136.87 Y155.82 E282.58375
G0 F12000 X137.01 Y156.53
G1 F5220 X148.47 Y167.99 E282.83854
G0 F12000 X147.74 Y167.82
G1 F5220 X137.18 Y157.26 E283.07324
G0 F12000 X137.58 Y158.23
G1 F5220 X146.77 Y167.42 E283.27762
G0 F12000 X145.81 Y167.02
G1 F5220 X137.98 Y159.19 E283.45166
G0 F12000 X138.45 Y160.22
G1 F5220 X144.78 Y166.55 E283.59235
G0 F12000 X143.07 Y165.41
G1 F5220 X139.58 Y161.93 E283.66984
G0 F12000 X142.51 Y139.96
G1 F5220 X165.04 Y162.49 E284.17074
G0 F12000 X165.26 Y162.15
G1 F5220 X142.85 Y139.73 E284.66913
G0 F12000 X143.19 Y139.51
G1 F5220 X165.49 Y161.81 E285.16500
G0 F12000 X165.72 Y161.48
G1 F5220 X143.52 Y139.28 E285.65839
G0 F12000 X143.86 Y139.06
G1 F5220 X165.94 Y161.14 E286.14926
G0 F12000 X166.17 Y160.80
G1 F5220 X144.20 Y138.83 E286.63763
G0 F12000 X144.54 Y138.60
G1 F5220 X166.40 Y160.46 E287.12350
G0 F12000 X166.62 Y160.12
G1 F5220 X144.88 Y138.38 E287.60686
G0 F12000 X145.27 Y138.20
G1 F5220 X166.80 Y159.73 E288.08541
G0 F12000 X166.96 Y159.33
G1 F5220 X145.67 Y138.03 E288.55875
G0 F12000 X146.07 Y137.87
G1 F5220 X167.13 Y158.93 E289.02688
G0 F12000 X167.30 Y158.53
G1 F5220 X146.47 Y137.70 E289.48982
G0 F12000 X146.87 Y137.54
G1 F5220 X167.46 Y158.13 E289.94755
G0 F12000 X167.63 Y157.73
G1 F5220 X147.27 Y137.37 E290.40005
G0 F12000 X147.67 Y137.21
G1 F5220 X167.79 Y157.33 E290.84737
G0 F12000 X167.92 Y156.89
G1 F5220 X148.11 Y137.08 E291.28765
G0 F12000 X148.58 Y136.99
G1 F5220 X168.01 Y156.41 E291.71954
G0 F12000 X168.10 Y155.94
G1 F5220 X149.06 Y136.89 E292.14300
G0 F12000 X149.53 Y136.80
G1 F5220 X168.20 Y155.47 E292.55806
G0 F12000 X168.29 Y155.00
G1 F5220 X150.00 Y136.71 E292.96472
G0 F12000 X150.47 Y136.61
G1 F5220 X168.39 Y154.53 E293.36295
G0 F12000 X168.48 Y154.05
G1 F5220 X150.95 Y136.52 E293.75260
G0 F12000 X151.51 Y136.52
G1 F5220 X168.48 Y153.49 E294.12969
G0 F12000 X168.48 Y152.92
G1 F5220 X152.08 Y136.52 E294.49419
G0 F12000 X152.65 Y136.52
G1 F5220 X168.48 Y152.35 E294.84611
G0 F12000 X168.48 Y151.79
G1 F5220 X153.21 Y136.52 E295.18547
G0 F12000 X153.78 Y136.52
G1 F5220 X168.48 Y151.22 E295.51225
G0 F12000 X168.41 Y150.59
G1 F5220 X154.41 Y136.59 E295.82351
G0 F12000 X155.12 Y136.73
G1 F5220 X168.27 Y149.88 E296.11593
G0 F12000 X168.13 Y149.18
G1 F5220 X155.82 Y136.87 E296.38956
G0 F12000 X156.53 Y137.01
G1 F5220 X167.99 Y148.47 E296.64434
G0 F12000 X167.82 Y147.74
G1 F5220 X157.26 Y137.18 E296.87903
G0 F12000 X158.23 Y137.58
G1 F5220 X167.42 Y146.77 E297.08339
G0 F12000 X167.02 Y145.81
G1 F5220 X159.19 Y137.98 E297.25743
G0 F12000 X160.22 Y138.44
G1 F5220 X166.55 Y144.77 E297.39810
G0 F12000 X165.41 Y143.07
G1 F5220 X161.93 Y139.58 E297.47559
;LAYER:3
G0 F12000 X162.78 Y139.98 Z0.60
;TYPE:WALL-INNER
G1 F6480 X165.02 Y142.22 E297.52543
G1 X166.78 Y144.87 E297.57539
G1 X168.00 Y147.80 E297.62523
G1 X168.60 Y150.84 E297.67408
G1 X168.62 Y150.91 E297.67519
G1 X168.62 Y154.08 E297.72504
G1 X168.01 Y157.13 E297.77387
G1 X168.00 Y157.20 E297.77497
G1 X166.78 Y160.13 E297.82489
G1 X165.02 Y162.78 E297.87484
G1 X162.78 Y165.02 E297.92468
G1 X160.13 Y166.78 E297.97463
G1 X157.20 Y168.00 E298.02448
G1 X154.16 Y168.60 E298.07333
G1 X154.09 Y168.62 E298.07444
G1 X150.92 Y168.62 E298.12428
G1 X147.87 Y168.01 E298.17311
G1 X147.80 Y168.00 E298.17422
G1 X144.87 Y166.78 E298.22413
G1 X142.22 Y165.02 E298.27409
G1 X139.98 Y162.78 E298.32393
G1 X138.22 Y160.13 E298.37388
G1 X137.00 Y157.20 E298.42373
G1 X136.40 Y154.16 E298.47258
G1 X136.38 Y154.09 E298.47368
G1 X136.38 Y150.92 E298.52353
G1 X136.99 Y147.87 E298.57236
G1 X137.00 Y147.80 E298.57346
G1 X138.22 Y144.87 E298.62338
G1 X139.98 Y142.22 E298.67333
G1 X142.22 Y139.98 E298.72317
G1 X144.87 Y138.22 E298.77313
G1 X147.80 Y137.00 E298.82297
G1 X150.84 Y136.40 E298.87182
G1 X150.91 Y136.38 E298.87293
G1 X154.08 Y136.38 E298.92278
G1 X157.13 Y136.99 E298.97161
G1 X157.20 Y137.00 E298.97271
G1 X160.13 Y138.22 E299.02263
G1 X162.78 Y139.98 E299.07258
G0 F12000 X163.03 Y139.67
;TYPE:WALL-OUTER
G1 F6480 X165.33 Y141.97 E299.12367
G1 X167.14 Y144.67 E299.17480
G1 X168.38 Y147.69 E299.22603
G1 X169.02 Y150.87 E299.27712
G1 X169.02 Y154.13 E299.32827
G1 X168.38 Y157.31 E299.37936
G1 X167.14 Y160.33 E299.43059
G1 X165.33 Y163.03 E299.48173
G1 X163.03 Y165.33 E299.53281
G1 X160.33 Y167.14 E299.58395
G1 X157.31 Y168.38 E299.63518
G1 X154.13 Y169.02 E299.68627
G1 X150.87 Y169.02 E299.73742
G1 X147.69 Y168.38 E299.78851
G1 X144.67 Y167.14 E299.83974
G1 X141.97 Y165.33 E299.89087
G1 X139.67 Y163.03 E299.94196
G1 X137.86 Y160.33 E299.99309
G1 X136.62 Y157.31 E300.04432
G1 X135.98 Y154.13 E300.09542
G1 X135.98 Y150.87 E300.14657
G1 X136.62 Y147.69 E300.19766
G1 X137.86 Y144.67 E300.24889
G1 X139.67 Y141.97 E300.30002
G1 X141.97 Y139.67 E300.35111
G1 X144.67 Y137.86 E300.40224
G1 X147.69 Y136.62 E300.45347
G1 X150.87 Y135.98 E300.50456
G1 X154.13 Y135.98 E300.55571
G1 X157.31 Y136.62 E300.60681
G1 X160.33 Y137.86 E300.65803
G1 X163.03 Y139.67 E300.70917
G0 F12000 X162.76 Y140.16
;TYPE:FILL
G1 F6480 X140.16 Y162.76 E301.21148
G0 F12000 X140.45 Y163.04
G1 F6480 X163.04 Y140.45 E301.71381
G0 F12000 X163.33 Y140.73
G1 F6480 X140.73 Y163.33 E302.21614
G0 F12000 X141.01 Y163.61
G1 F6480 X163.61 Y141.01 E302.71845
G0 F12000 X163.89 Y141.29
G1 F6480 X141.29 Y163.89 E303.22076
G0 F12000 X141.58 Y164.17
G1 F6480 X164.17 Y141.58 E303.72307
G0 F12000 X164.46 Y141.86
G1 F6480 X141.86 Y164.46 E304.22538
G0 F12000 X142.14 Y164.74
G1 F6480 X164.74 Y142.14 E304.72769
G0 F12000 X165.00 Y142.45
G1 F6480 X142.45 Y165.00 E305.22898
G0 F12000 X142.79 Y165.23
G1 F6480 X165.23 Y142.79 E305.72779
G0 F12000 X165.45 Y143.13
G1 F6480 X143.13 Y165.45 E306.22408
G0 F12000 X143.47 Y165.68
G1 F6480 X165.68 Y143.47 E306.71789
G0 F12000 X165.91 Y143.81
G1 F6480 X143.81 Y165.91 E307.20920
G0 F12000 X144.15 Y166.13
G1 F6480 X166.13 Y144.15 E307.69798
G0 F12000 X166.36 Y144.48
G1 F6480 X144.48 Y166.36 E308.18428
G0 F12000 X144.82 Y166.59
G1 F6480 X166.59 Y144.82 E308.66807
G0 F12000 X166.77 Y145.20
G1 F6480 X145.20 Y166.77 E309.14751
G0 F12000 X145.60 Y166.94
G1 F6480 X166.94 Y145.60 E309.62175
G0 F12000 X167.10 Y146.00
G1 F6480 X146.00 Y167.10 E310.09075
G0 F12000 X146.40 Y167.27
G1 F6480 X167.27 Y146.41 E310.55455
G0 F12000 X167.43 Y146.81
G1 F6480 X146.80 Y167.43 E311.01313
G0 F12000 X147.20 Y167.60
G1 F6480 X167.60 Y147.20 E311.46652
G0 F12000 X167.76 Y147.60
G1 F6480 X147.60 Y167.77 E311.91470
G0 F12000 X148.03 Y167.90
G1 F6480 X167.90 Y148.03 E312.35636
G0 F12000 X167.99 Y148.51
G1 F6480 X148.50 Y168.00 E312.78960
G0 F12000 X148.98 Y168.09
G1 F6480 X168.09 Y148.98 E313.21445
G0 F12000 X168.18 Y149.45
G1 F6480 X149.45 Y168.18 E313.63090
G0 F12000 X149.92 Y168.28
G1 F6480 X168.28 Y149.92 E314.03895
G0 F12000 X168.37 Y150.39
G1 F6480 X150.39 Y168.37 E314.43857
G0 F12000 X150.86 Y168.46
G1 F6480 X168.46 Y150.87 E314.82980
G0 F12000 X168.47 Y151.42
G1 F6480 X151.42 Y168.48 E315.20897
G0 F12000 X151.98 Y168.48
G1 F6480 X168.47 Y151.98 E315.57558
G0 F12000 X168.47 Y152.55
G1 F6480 X152.55 Y168.48 E315.92962
G0 F12000 X153.12 Y168.48
G1 F6480 X168.47 Y153.12 E316.27107
G0 F12000 X168.47 Y153.68
G1 F6480 X153.68 Y168.48 E316.59995
G0 F12000 X154.29 Y168.43
G1 F6480 X168.43 Y154.29 E316.91432
G0 F12000 X168.29 Y155.00
G1 F6480 X155.00 Y168.29 E317.20987
G0 F12000 X155.70 Y168.15
G1 F6480 X168.15 Y155.70 E317.48661
G0 F12000 X168.01 Y156.41
G1 F6480 X156.41 Y168.01 E317.74454
G0 F12000 X157.11 Y167.87
G1 F6480 X167.87 Y157.11 E317.98367
G0 F12000 X167.49 Y158.06
G1 F6480 X158.06 Y167.49 E318.19317
G0 F12000 X159.03 Y167.09
G1 F6480 X167.09 Y159.03 E318.37230
G0 F12000 X166.69 Y160.00
G1 F6480 X159.99 Y166.69 E318.52108
G0 F12000 X161.64 Y165.61
G1 F6480 X165.61 Y161.64 E318.60927
G0 F12000 X162.44 Y139.92
G1 F6480 X139.92 Y162.44 E319.10972
G0 F12000 X139.70 Y162.10
G1 F6480 X162.10 Y139.70 E319.60769
G0 F12000 X161.76 Y139.47
G1 F6480 X139.47 Y161.76 E320.10314
G0 F12000 X139.24 Y161.42
G1 F6480 X161.42 Y139.24 E320.59611
G0 F12000 X161.08 Y139.02
G1 F6480 X139.02 Y161.08 E321.08655
G0 F12000 X138.79 Y160.74
G1 F6480 X160.74 Y138.79 E321.57451
G0 F12000 X160.40 Y138.56
G1 F6480 X138.56 Y160.40 E322.05996
G0 F12000 X138.34 Y160.06
G1 F6480 X160.06 Y138.34 E322.54286
G0 F12000 X159.66 Y138.17
G1 F6480 X138.17 Y159.66 E323.02055
G0 F12000 X138.01 Y159.26
G1 F6480 X159.26 Y138.01 E323.49302
G0 F12000 X158.86 Y137.84
G1 F6480 X137.84 Y158.86 E323.96029
G0 F12000 X137.68 Y158.46
G1 F6480 X158.46 Y137.68 E324.42236
G0 F12000 X158.06 Y137.51
G1 F6480 X137.51 Y158.06 E324.87919
G0 F12000 X137.34 Y157.66
G1 F6480 X157.66 Y137.34 E325.33084
G0 F12000 X157.26 Y137.18
G1 F6480 X137.18 Y157.26 E325.77725
G0 F12000 X137.07 Y156.81
G1 F6480 X156.81 Y137.06 E326.21610
G0 F12000 X156.34 Y136.97
G1 F6480 X136.97 Y156.33 E326.64652
G0 F12000 X136.88 Y155.86
G1 F6480 X155.86 Y136.88 E327.06854
G0 F12000 X155.39 Y136.78
G1 F6480 X136.78 Y155.39 E327.48215
G0 F12000 X136.69 Y154.92
G1 F6480 X154.92 Y136.69 E327.88738
G0 F12000 X154.45 Y136.60
G1 F6480 X136.60 Y154.45 E328.28417
G0 F12000 X136.52 Y153.96
G1 F6480 X153.96 Y136.52 E328.67172
G0 F12000 X153.39 Y136.52
G1 F6480 X136.52 Y153.39 E329.04669
G0 F12000 X136.52 Y152.82
G1 F6480 X152.82 Y136.52 E329.40909
G0 F12000 X152.26 Y136.52
G1 F6480 X136.52 Y152.26 E329.75891
G0 F12000 X136.52 Y151.69
G1 F6480 X151.69 Y136.52 E330.09616
G0 F12000 X151.13 Y136.52
G1 F6480 X136.52 Y151.13 E330.42083
G0 F12000 X136.61 Y150.47
G1 F6480 X150.47 Y136.61 E330.72888
G0 F12000 X149.76 Y136.75
G1 F6480 X136.75 Y149.76 E331.01813
G0 F12000 X136.89 Y149.06
G1 F6480 X149.06 Y136.89 E331.28858
G0 F12000 X148.35 Y137.03
G1 F6480 X137.03 Y148.35 E331.54020
G0 F12000 X137.25 Y147.58
G1 F6480 X147.58 Y137.25 E331.76986
G0 F12000 X146.61 Y137.65
G1 F6480 X137.65 Y146.61 E331.96917
G0 F12000 X138.04 Y145.65
G1 F6480 X145.65 Y138.04 E332.13814
G0 F12000 X144.49 Y138.63
G1 F6480 X138.64 Y144.49 E332.26828
G0 F12000 X139.78 Y142.78
G1 F6480 X142.78 Y139.77 E332.33519
;LAYER:4
G0 F12000 X142.22 Y139.98 Z0.70
;TYPE:WALL-INNER
G1 F7800 X144.87 Y138.22 E332.38514
G1 X147.80 Y137.00 E332.43499
G1 X150.82 Y136.40 E332.48349
G1 X150.92 Y136.38 E332.48499
G1 X154.08 Y136.38 E332.53479
G1 X157.11 Y136.98 E332.58325
G1 X157.20 Y137.00 E332.58476
G1 X160.13 Y138.22 E332.63464
G1 X162.78 Y139.98 E332.68460
G1 X165.02 Y142.22 E332.73444
G1 X166.78 Y144.87 E332.78439
G1 X168.00 Y147.80 E332.83424
G1 X168.60 Y150.82 E332.88273
G1 X168.62 Y150.92 E332.88424
G1 X168.62 Y154.08 E332.93404
G1 X168.02 Y157.10 E332.98243
G1 X168.00 Y157.20 E332.98401
G1 X166.78 Y160.13 E333.03389
G1 X165.02 Y162.78 E333.08384
G1 X162.78 Y165.02 E333.13368
G1 X160.13 Y166.78 E333.18363
G1 X157.20 Y168.00 E333.23348
G1 X154.18 Y168.60 E333.28198
G1 X154.08 Y168.62 E333.28348
G1 X150.92 Y168.62 E333.33328
G1 X147.89 Y168.02 E333.38174
G1 X147.80 Y168.00 E333.38325
G1 X144.87 Y166.78 E333.43313
G1 X142.22 Y165.02 E333.48309
G1 X139.98 Y162.78 E333.53293
G1 X138.22 Y160.13 E333.58288
G1 X137.00 Y157.20 E333.63273
G1 X136.40 Y154.18 E333.68122
G1 X136.38 Y154.08 E333.68273
G1 X136.38 Y150.92 E333.73253
G1 X136.98 Y147.90 E333.78092
G1 X137.00 Y147.80 E333.78249
G1 X138.22 Y144.87 E333.83238
G1 X139.98 Y142.22 E333.88233
G1 X142.22 Y139.98 E333.93217
G0 F12000 X141.97 Y139.67
;TYPE:WALL-OUTER
G1 F7800 X144.67 Y137.86 E333.98330
G1 X147.69 Y136.62 E334.03453
G1 X150.74 Y136.01 E334.08354
G1 X150.88 Y135.98 E334.08566
G1 X154.13 Y135.98 E334.13678
G1 X157.19 Y136.59 E334.18578
G1 X157.31 Y136.62 E334.18787
G1 X160.33 Y137.86 E334.23910
G1 X163.03 Y139.67 E334.29023
G1 X165.33 Y141.97 E334.34132
G1 X167.14 Y144.67 E334.39245
G1 X168.38 Y147.69 E334.44368
G1 X168.99 Y150.74 E334.49269
G1 X169.02 Y150.88 E334.49480
G1 X169.02 Y154.13 E334.54592
G1 X168.41 Y157.19 E334.59493
G1 X168.38 Y157.31 E334.59702
G1 X167.14 Y160.33 E334.64824
G1 X165.33 Y163.03 E334.69938
G1 X163.03 Y165.33 E334.75046
G1 X160.33 Y167.14 E334.80160
G1 X157.31 Y168.38 E334.85283
G1 X154.26 Y168.99 E334.90183
G1 X154.12 Y169.02 E334.90395
G1 X150.87 Y169.02 E334.95507
G1 X147.81 Y168.41 E335.00408
G1 X147.69 Y168.38 E335.00616
G1 X144.67 Y167.14 E335.05739
G1 X141.97 Y165.33 E335.10853
G1 X139.67 Y163.03 E335.15961
G1 X137.86 Y160.33 E335.21074
G1 X136.62 Y157.31 E335.26197
G1 X136.01 Y154.26 E335.31098
G1 X135.98 Y154.12 E335.31310
G1 X135.98 Y150.87 E335.36422
G1 X136.59 Y147.81 E335.41322
G1 X136.62 Y147.69 E335.41531
G1 X137.86 Y144.67 E335.46654
G1 X139.67 Y141.97 E335.51767
G1 X141.97 Y139.67 E335.56876
G0 F12000 X142.19 Y140.21
;TYPE:FILL
G1 F7800 X164.79 Y162.81 E336.07109
G0 F12000 X164.50 Y163.09
G1 F7800 X141.91 Y140.49 E336.57342
G0 F12000 X141.62 Y140.78
G1 F7800 X164.22 Y163.37 E337.07575
G0 F12000 X163.94 Y163.66
G1 F7800 X141.34 Y141.06 E337.57808
G0 F12000 X141.06 Y141.34
G1 F7800 X163.66 Y163.94 E338.08042
G0 F12000 X163.37 Y164.22
G1 F7800 X140.78 Y141.62 E338.58275
G0 F12000 X140.49 Y141.91
G1 F7800 X163.09 Y164.50 E339.08508
G0 F12000 X162.81 Y164.79
G1 F7800 X140.21 Y142.19 E339.58741
G0 F12000 X139.96 Y142.51
G1 F7800 X162.49 Y165.04 E340.08831
G0 F12000 X162.15 Y165.26
G1 F7800 X139.73 Y142.84 E340.58669
G0 F12000 X139.51 Y143.18
G1 F7800 X161.81 Y165.49 E341.08257
G0 F12000 X161.47 Y165.72
G1 F7800 X139.28 Y143.52 E341.57597
G0 F12000 X139.05 Y143.86
G1 F7800 X161.14 Y165.94 E342.06686
G0 F12000 X160.80 Y166.17
G1 F7800 X138.83 Y144.20 E342.55523
G0 F12000 X138.60 Y144.54
G1 F7800 X160.46 Y166.40 E343.04113
G0 F12000 X160.12 Y166.62
G1 F7800 X138.37 Y144.88 E343.52451
G0 F12000 X138.20 Y145.27
G1 F7800 X159.73 Y166.80 E344.00308
G0 F12000 X159.33 Y166.96
G1 F7800 X138.03 Y145.67 E344.47642
G0 F12000 X137.87 Y146.07
G1 F7800 X158.93 Y167.13 E344.94456
G0 F12000 X158.53 Y167.29
G1 F7800 X137.70 Y146.47 E345.40749
G0 F12000 X137.54 Y146.87
G1 F7800 X158.13 Y167.46 E345.86521
G0 F12000 X157.73 Y167.63
G1 F7800 X137.37 Y147.27 E346.31772
G0 F12000 X137.21 Y147.67
G1 F7800 X157.33 Y167.79 E346.76503
G0 F12000 X156.88 Y167.91
G1 F7800 X137.08 Y148.11 E347.20527
G0 F12000 X136.99 Y148.58
G1 F7800 X156.41 Y168.01 E347.63710
G0 F12000 X155.94 Y168.10
G1 F7800 X136.89 Y149.06 E348.06052
G0 F12000 X136.80 Y149.53
G1 F7800 X155.47 Y168.20 E348.47554
G0 F12000 X155.00 Y168.29
G1 F7800 X136.71 Y150.00 E348.88213
G0 F12000 X136.61 Y150.47
G1 F7800 X154.53 Y168.38 E349.28034
G0 F12000 X154.05 Y168.47
G1 F7800 X136.52 Y150.95 E349.66999
G0 F12000 X136.52 Y151.51
G1 F7800 X153.49 Y168.47 E350.04707
G0 F12000 X152.92 Y168.47
G1 F7800 X136.52 Y152.08 E350.41157
G0 F12000 X136.52 Y152.64
G1 F7800 X152.35 Y168.47 E350.76350
G0 F12000 X151.79 Y168.47
G1 F7800 X136.52 Y153.21 E351.10285
G0 F12000 X136.52 Y153.78
G1 F7800 X151.22 Y168.47 E351.42963
G0 F12000 X150.59 Y168.41
G1 F7800 X136.59 Y154.41 E351.74085
G0 F12000 X136.73 Y155.11
G1 F7800 X149.88 Y168.27 E352.03327
G0 F12000 X149.18 Y168.13
G1 F7800 X136.87 Y155.82 E352.30687
G0 F12000 X137.01 Y156.53
G1 F7800 X148.47 Y167.99 E352.56164
G0 F12000 X147.74 Y167.82
G1 F7800 X137.18 Y157.26 E352.79636
G0 F12000 X137.58 Y158.22
G1 F7800 X146.77 Y167.42 E353.00076
G0 F12000 X145.81 Y167.02
G1 F7800 X137.98 Y159.19 E353.17482
G0 F12000 X138.44 Y160.22
G1 F7800 X144.78 Y166.55 E353.31556
G0 F12000 X143.07 Y165.41
G1 F7800 X139.58 Y161.93 E353.39306
G0 F12000 X142.51 Y139.96
G1 F7800 X165.04 Y162.49 E353.89396
G0 F12000 X165.26 Y162.15
G1 F7800 X142.85 Y139.73 E354.39235
G0 F12000 X143.18 Y139.51
G1 F7800 X165.49 Y161.81 E354.88824
G0 F12000 X165.72 Y161.48
G1 F7800 X143.52 Y139.28 E355.38163
G0 F12000 X143.86 Y139.05
G1 F7800 X165.94 Y161.14 E355.87252
G0 F12000 X166.17 Y160.80
G1 F7800 X144.20 Y138.83 E356.36090
G0 F12000 X144.54 Y138.60
G1 F7800 X166.40 Y160.46 E356.84678
G0 F12000 X166.62 Y160.12
G1 F7800 X144.88 Y138.38 E357.33015
G0 F12000 X145.27 Y138.20
G1 F7800 X166.80 Y159.73 E357.80871
G0 F12000 X166.96 Y159.33
G1 F7800 X145.67 Y138.03 E358.28206
G0 F12000 X146.07 Y137.87
G1 F7800 X167.13 Y158.93 E358.75021
G0 F12000 X167.30 Y158.53
G1 F7800 X146.47 Y137.70 E359.21313
G0 F12000 X146.87 Y137.54
G1 F7800 X167.46 Y158.13 E359.67086
G0 F12000 X167.63 Y157.73
G1 F7800 X147.27 Y137.37 E360.12338
G0 F12000 X147.67 Y137.21
G1 F7800 X167.79 Y157.33 E360.57069
G0 F12000 X167.92 Y156.89
G1 F7800 X148.11 Y137.08 E361.01093
G0 F12000 X148.59 Y136.99
G1 F7800 X168.01 Y156.41 E361.44276
G0 F12000 X168.10 Y155.94
G1 F7800 X149.06 Y136.90 E361.86617
G0 F12000 X149.53 Y136.80
G1 F7800 X168.20 Y155.47 E362.28119
G0 F12000 X168.29 Y155.00
G1 F7800 X150.00 Y136.71 E362.68780
G0 F12000 X150.47 Y136.61
G1 F7800 X168.39 Y154.53 E363.08600
G0 F12000 X168.48 Y154.05
G1 F7800 X150.95 Y136.52 E363.47565
G0 F12000 X151.51 Y136.52
G1 F7800 X168.48 Y153.49 E363.85274
G0 F12000 X168.48 Y152.92
G1 F7800 X152.08 Y136.52 E364.21724
G0 F12000 X152.65 Y136.52
G1 F7800 X168.48 Y152.35 E364.56917
G0 F12000 X168.48 Y151.79
G1 F7800 X153.21 Y136.52 E364.90852
G0 F12000 X153.78 Y136.52
G1 F7800 X168.48 Y151.22 E365.23530
G0 F12000 X168.41 Y150.59
G1 F7800 X154.41 Y136.59 E365.54652
G0 F12000 X155.12 Y136.73
G1 F7800 X168.27 Y149.88 E365.83894
G0 F12000 X168.13 Y149.18
G1 F7800 X155.82 Y136.87 E366.11252
G0 F12000 X156.53 Y137.01
G1 F7800 X167.99 Y148.47 E366.36729
G0 F12000 X167.82 Y147.74
G1 F7800 X157.26 Y137.18 E366.60202
G0 F12000 X158.23 Y137.58
G1 F7800 X167.42 Y146.77 E366.80641
G0 F12000 X167.02 Y145.81
G1 F7800 X159.19 Y137.98 E366.98047
G0 F12000 X160.22 Y138.44
G1 F7800 X166.56 Y144.78 E367.12121
G0 F12000 X165.41 Y143.07
G1 F7800 X161.93 Y139.58 E367.19873
;LAYER:5
G0 F12000 X162.78 Y139.98 Z0.80
;TYPE:WALL-INNER
G1 F7800 X165.02 Y142.22 E367.24856
G1 X166.78 Y144.87 E367.29852
G1 X167.95 Y147.69 E367.34653
G1 X168.00 Y147.80 E367.34848
G1 X168.62 Y150.91 E367.39829
G1 X168.62 Y154.09 E367.44825
G1 X168.00 Y157.20 E367.49809
G1 X166.83 Y160.02 E367.54616
G1 X166.78 Y160.14 E367.54806
G1 X165.02 Y162.78 E367.59797
G1 X162.78 Y165.02 E367.64781
G1 X160.13 Y166.78 E367.69776
G1 X157.31 Y167.95 E367.74578
G1 X157.20 Y168.00 E367.74772
G1 X154.09 Y168.62 E367.79754
G1 X150.91 Y168.62 E367.84749
G1 X147.80 Y168.00 E367.89733
G1 X144.98 Y166.83 E367.94540
G1 X144.86 Y166.78 E367.94731
G1 X142.22 Y165.02 E367.99722
G1 X139.98 Y162.78 E368.04705
G1 X138.22 Y160.13 E368.09701
G1 X137.05 Y157.31 E368.14502
G1 X137.00 Y157.20 E368.14697
G1 X136.38 Y154.09 E368.19678
G1 X136.38 Y150.91 E368.24674
G1 X137.00 Y147.80 E368.29658
G1 X138.17 Y144.98 E368.34465
G1 X138.22 Y144.86 E368.34655
G1 X139.98 Y142.22 E368.39646
G1 X142.22 Y139.98 E368.44630
G1 X144.87 Y138.22 E368.49625
G1 X147.69 Y137.05 E368.54427
G1 X147.80 Y137.00 E368.54621
G1 X150.91 Y136.38 E368.59603
G1 X154.09 Y136.38 E368.64598
G1 X157.20 Y137.00 E368.69582
G1 X160.02 Y138.17 E368.74389
G1 X160.14 Y138.22 E368.74580
G1 X162.78 Y139.98 E368.79571
G0 F12000 X163.03 Y139.67
;TYPE:WALL-OUTER
G1 F7800 X165.33 Y141.97 E368.84679
G1 X167.14 Y144.67 E368.89792
G1 X168.38 Y147.69 E368.94915
G1 X169.02 Y150.87 E369.00025
G1 X169.02 Y154.13 E369.05140
G1 X168.38 Y157.31 E369.10249
G1 X167.14 Y160.33 E369.15372
G1 X165.33 Y163.03 E369.20485
G1 X163.03 Y165.33 E369.25594
G1 X160.33 Y167.14 E369.30707
G1 X157.31 Y168.38 E369.35830
G1 X154.13 Y169.02 E369.40939
G1 X150.87 Y169.02 E369.46054
G1 X147.69 Y168.38 E369.51164
G1 X144.67 Y167.14 E369.56287
G1 X141.97 Y165.33 E369.61400
G1 X139.67 Y163.03 E369.66508
G1 X137.86 Y160.33 E369.71622
G1 X136.62 Y157.31 E369.76745
G1 X135.98 Y154.13 E369.81854
G1 X135.98 Y150.87 E369.86969
G1 X136.62 Y147.69 E369.92078
G1 X137.86 Y144.67 E369.97201
G1 X139.67 Y141.97 E370.02315
G1 X141.97 Y139.67 E370.07423
G1 X144.67 Y137.86 E370.12537
G1 X147.69 Y136.62 E370.17659
G1 X150.87 Y135.98 E370.22769
G1 X154.13 Y135.98 E370.27884
G1 X157.31 Y136.62 E370.32993
G1 X160.33 Y137.86 E370.38116
G1 X163.03 Y139.67 E370.43229
G0 F12000 X162.76 Y140.16
;TYPE:FILL
G1 F7800 X140.16 Y162.76 E370.93460
G0 F12000 X140.45 Y163.04
G1 F7800 X163.04 Y140.45 E371.43694
G0 F12000 X163.33 Y140.73
G1 F7800 X140.73 Y163.33 E371.93927
G0 F12000 X141.01 Y163.61
G1 F7800 X163.61 Y141.01 E372.44158
G0 F12000 X163.89 Y141.29
G1 F7800 X141.29 Y163.89 E372.94389
G0 F12000 X141.58 Y164.17
G1 F7800 X164.17 Y141.58 E373.44620
G0 F12000 X164.46 Y141.86
G1 F7800 X141.86 Y164.46 E373.94851
G0 F12000 X142.14 Y164.74
G1 F7800 X164.74 Y142.14 E374.45082
G0 F12000 X165.00 Y142.45
G1 F7800 X142.45 Y165.00 E374.95210
G0 F12000 X142.79 Y165.23
G1 F7800 X165.23 Y142.79 E375.45091
G0 F12000 X165.45 Y143.13
G1 F7800 X143.13 Y165.45 E375.94721
G0 F12000 X143.47 Y165.68
G1 F7800 X165.68 Y143.47 E376.44101
G0 F12000 X165.91 Y143.81
G1 F7800 X143.81 Y165.91 E376.93231
G0 F12000 X144.15 Y166.13
G1 F7800 X166.13 Y144.15 E377.42109
G0 F12000 X166.36 Y144.48
G1 F7800 X144.48 Y166.36 E377.90740
G0 F12000 X144.82 Y166.59
G1 F7800 X166.59 Y144.82 E378.39118
G0 F12000 X166.77 Y145.21
G1 F7800 X145.20 Y166.77 E378.87059
G0 F12000 X145.60 Y166.94
G1 F7800 X166.94 Y145.60 E379.34480
G0 F12000 X167.10 Y146.00
G1 F7800 X146.00 Y167.10 E379.81381
G0 F12000 X146.40 Y167.27
G1 F7800 X167.27 Y146.41 E380.27760
G0 F12000 X167.43 Y146.81
G1 F7800 X146.80 Y167.43 E380.73616
G0 F12000 X147.20 Y167.60
G1 F7800 X167.60 Y147.21 E381.18952
G0 F12000 X167.76 Y147.60
G1 F7800 X147.60 Y167.76 E381.63768
G0 F12000 X148.03 Y167.90
G1 F7800 X167.90 Y148.03 E382.07933
G0 F12000 X168.00 Y148.50
G1 F7800 X148.50 Y168.00 E382.51259
G0 F12000 X148.98 Y168.09
G1 F7800 X168.09 Y148.98 E382.93743
G0 F12000 X168.18 Y149.45
G1 F7800 X149.45 Y168.18 E383.35388
G0 F12000 X149.92 Y168.28
G1 F7800 X168.28 Y149.92 E383.76193
G0 F12000 X168.37 Y150.39
G1 F7800 X150.39 Y168.37 E384.16155
G0 F12000 X150.86 Y168.46
G1 F7800 X168.46 Y150.87 E384.55278
G0 F12000 X168.47 Y151.42
G1 F7800 X151.42 Y168.48 E384.93196
G0 F12000 X151.98 Y168.48
G1 F7800 X168.47 Y151.98 E385.29856
G0 F12000 X168.47 Y152.55
G1 F7800 X152.55 Y168.48 E385.65260
G0 F12000 X153.12 Y168.48
G1 F7800 X168.47 Y153.12 E385.99405
G0 F12000 X168.47 Y153.68
G1 F7800 X153.68 Y168.48 E386.32293
G0 F12000 X154.29 Y168.43
G1 F7800 X168.43 Y154.29 E386.63737
G0 F12000 X168.29 Y155.00
G1 F7800 X154.99 Y168.29 E386.93300
G0 F12000 X155.70 Y168.15
G1 F7800 X168.15 Y155.70 E387.20979
G0 F12000 X168.01 Y156.41
G1 F7800 X156.41 Y168.01 E387.46778
G0 F12000 X157.11 Y167.87
G1 F7800 X167.87 Y157.11 E387.70694
G0 F12000 X167.49 Y158.06
G1 F7800 X158.06 Y167.49 E387.91644
G0 F12000 X159.03 Y167.09
G1 F7800 X167.09 Y159.03 E388.09554
G0 F12000 X166.69 Y160.00
G1 F7800 X159.99 Y166.69 E388.24429
G0 F12000 X161.64 Y165.61
G1 F7800 X165.61 Y161.64 E388.33247
G0 F12000 X162.44 Y139.92
G1 F7800 X139.92 Y162.44 E388.83293
G0 F12000 X139.70 Y162.10
G1 F7800 X162.10 Y139.70 E389.33089
G0 F12000 X161.76 Y139.47
G1 F7800 X139.47 Y161.76 E389.82634
G0 F12000 X139.24 Y161.42
G1 F7800 X161.42 Y139.24 E390.31931
G0 F12000 X161.08 Y139.02
G1 F7800 X139.02 Y161.08 E390.80975
G0 F12000 X138.79 Y160.74
G1 F7800 X160.74 Y138.79 E391.29770
G0 F12000 X160.40 Y138.56
G1 F7800 X138.56 Y160.40 E391.78315
G0 F12000 X138.34 Y160.06
G1 F7800 X160.06 Y138.34 E392.26603
G0 F12000 X159.66 Y138.17
G1 F7800 X138.17 Y159.66 E392.74371
G0 F12000 X138.01 Y159.26
G1 F7800 X159.26 Y138.01 E393.21618
G0 F12000 X158.86 Y137.84
G1 F7800 X137.84 Y158.86 E393.68343
G0 F12000 X137.68 Y158.46
G1 F7800 X158.46 Y137.68 E394.14546
G0 F12000 X158.06 Y137.51
G1 F7800 X137.51 Y158.06 E394.60229
G0 F12000 X137.34 Y157.66
G1 F7800 X157.66 Y137.34 E395.05391
G0 F12000 X157.26 Y137.18
G1 F7800 X137.18 Y157.26 E395.50031
G0 F12000 X137.07 Y156.81
G1 F7800 X156.81 Y137.07 E395.93914
G0 F12000 X156.34 Y136.97
G1 F7800 X136.97 Y156.33 E396.36957
G0 F12000 X136.88 Y155.86
G1 F7800 X155.86 Y136.88 E396.79162
G0 F12000 X155.39 Y136.78
G1 F7800 X136.78 Y155.39 E397.20523
G0 F12000 X136.69 Y154.92
G1 F7800 X154.92 Y136.69 E397.61047
G0 F12000 X154.45 Y136.60
G1 F7800 X136.60 Y154.45 E398.00729
G0 F12000 X136.52 Y153.96
G1 F7800 X153.96 Y136.52 E398.39484
G0 F12000 X153.39 Y136.52
G1 F7800 X136.52 Y153.39 E398.76982
G0 F12000 X136.52 Y152.82
G1 F7800 X152.82 Y136.52 E399.13221
G0 F12000 X152.26 Y136.52
G1 F7800 X136.52 Y152.26 E399.48203
G0 F12000 X136.52 Y151.69
G1 F7800 X151.69 Y136.52 E399.81929
G0 F12000 X151.13 Y136.52
G1 F7800 X136.52 Y151.13 E400.14396
G0 F12000 X136.61 Y150.47
G1 F7800 X150.47 Y136.61 E400.45210
G0 F12000 X149.77 Y136.75
G1 F7800 X136.75 Y149.77 E400.74140
G0 F12000 X136.89 Y149.06
G1 F7800 X149.06 Y136.89 E401.01189
G0 F12000 X148.35 Y137.03
G1 F7800 X137.03 Y148.35 E401.26357
G0 F12000 X137.25 Y147.58
G1 F7800 X147.58 Y137.24 E401.49327
G0 F12000 X146.61 Y137.64
G1 F7800 X137.65 Y146.61 E401.69259
G0 F12000 X138.05 Y145.64
G1 F7800 X145.65 Y138.04 E401.86154
G0 F12000 X144.49 Y138.63
G1 F7800 X138.64 Y144.49 E401.99165
G0 F12000 X139.78 Y142.78
G1 F7800 X142.78 Y139.77 E402.05855
;LAYER:6
G0 F12000 X142.22 Y139.98 Z0.90
;TYPE:WALL-INNER
G1 F7800 X144.87 Y138.22 E402.10854
G1 X147.67 Y137.06 E402.15618
G1 X147.80 Y137.00 E402.15837
G1 X150.77 Y136.41 E402.20608
G1 X150.91 Y136.38 E402.20831
G1 X154.08 Y136.38 E402.25815
G1 X157.06 Y136.97 E402.30586
G1 X157.20 Y137.00 E402.30813
G1 X160.00 Y138.16 E402.35572
G1 X160.13 Y138.22 E402.35797
G1 X162.78 Y139.98 E402.40796
G1 X165.02 Y142.22 E402.45780
G1 X166.78 Y144.87 E402.50778
G1 X167.94 Y147.67 E402.55543
G1 X168.00 Y147.80 E402.55761
G1 X168.59 Y150.77 E402.60532
G1 X168.62 Y150.91 E402.60755
G1 X168.62 Y154.08 E402.65740
G1 X168.03 Y157.06 E402.70510
G1 X168.00 Y157.20 E402.70738
G1 X166.84 Y160.00 E402.75496
G1 X166.78 Y160.13 E402.75721
G1 X165.02 Y162.78 E402.80720
G1 X162.78 Y165.02 E402.85704
G1 X160.13 Y166.78 E402.90703
G1 X157.33 Y167.94 E402.95467
G1 X157.20 Y168.00 E402.95686
G1 X154.23 Y168.59 E403.00457
G1 X154.09 Y168.62 E403.00680
G1 X150.92 Y168.62 E403.05664
G1 X147.94 Y168.03 E403.10435
G1 X147.80 Y168.00 E403.10662
G1 X145.00 Y166.84 E403.15421
G1 X144.87 Y166.78 E403.15646
G1 X142.22 Y165.02 E403.20645
G1 X139.98 Y162.78 E403.25629
G1 X138.22 Y160.13 E403.30627
G1 X137.06 Y157.33 E403.35392
G1 X137.00 Y157.20 E403.35610
G1 X136.41 Y154.23 E403.40381
G1 X136.38 Y154.09 E403.40604
G1 X136.38 Y150.92 E403.45589
G1 X136.97 Y147.94 E403.50359
G1 X137.00 Y147.80 E403.50587
G1 X138.16 Y145.00 E403.55345
G1 X138.22 Y144.87 E403.55570
G1 X139.98 Y142.22 E403.60569
G1 X142.22 Y139.98 E403.65553
G0 F12000 X141.97 Y139.67
;TYPE:WALL-OUTER
G1 F7800 X144.68 Y137.86 E403.70669
G1 X147.68 Y136.62 E403.75787
G1 X150.87 Y135.98 E403.80899
G1 X154.13 Y135.98 E403.86014
G1 X157.32 Y136.62 E403.91126
G1 X160.32 Y137.86 E403.96244
G1 X163.03 Y139.67 E404.01360
G1 X165.33 Y141.97 E404.06468
G1 X167.14 Y144.68 E404.11584
G1 X168.38 Y147.68 E404.16702
G1 X169.02 Y150.87 E404.21814
G1 X169.02 Y154.13 E404.26929
G1 X168.38 Y157.32 E404.32042
G1 X167.14 Y160.32 E404.37160
G1 X165.33 Y163.03 E404.42275
G1 X163.03 Y165.33 E404.47384
G1 X160.32 Y167.14 E404.52499
G1 X157.32 Y168.38 E404.57617
G1 X154.13 Y169.02 E404.62730
G1 X150.87 Y169.02 E404.67845
G1 X147.68 Y168.38 E404.72957
G1 X144.68 Y167.14 E404.78075
G1 X141.97 Y165.33 E404.83191
G1 X139.67 Y163.03 E404.88299
G1 X137.86 Y160.32 E404.93415
G1 X136.62 Y157.32 E404.98533
G1 X135.98 Y154.13 E405.03645
G1 X135.98 Y150.87 E405.08760
G1 X136.62 Y147.68 E405.13872
G1 X137.86 Y144.68 E405.18990
G1 X139.67 Y141.97 E405.24106
G1 X141.97 Y139.67 E405.29214
G0 F12000 X142.19 Y140.21
;TYPE:FILL
G1 F7800 X164.79 Y162.81 E405.79448
G0 F12000 X164.50 Y163.09
G1 F7800 X141.91 Y140.49 E406.29681
G0 F12000 X141.62 Y140.78
G1 F7800 X164.22 Y163.37 E406.79914
G0 F12000 X163.94 Y163.66
G1 F7800 X141.34 Y141.06 E407.30147
G0 F12000 X141.06 Y141.34
G1 F7800 X163.66 Y163.94 E407.80380
G0 F12000 X163.37 Y164.22
G1 F7800 X140.78 Y141.62 E408.30614
G0 F12000 X140.49 Y141.91
G1 F7800 X163.09 Y164.50 E408.80847
G0 F12000 X162.81 Y164.79
G1 F7800 X140.21 Y142.19 E409.31080
G0 F12000 X139.96 Y142.51
G1 F7800 X162.49 Y165.04 E409.81170
G0 F12000 X162.15 Y165.26
G1 F7800 X139.73 Y142.84 E410.31007
G0 F12000 X139.51 Y143.18
G1 F7800 X161.81 Y165.49 E410.80596
G0 F12000 X161.47 Y165.72
G1 F7800 X139.28 Y143.52 E411.29935
G0 F12000 X139.05 Y143.86
G1 F7800 X161.14 Y165.94 E411.79024
G0 F12000 X160.80 Y166.17
G1 F7800 X138.83 Y144.20 E412.27861
G0 F12000 X138.60 Y144.54
G1 F7800 X160.46 Y166.40 E412.76447
G0 F12000 X160.12 Y166.62
G1 F7800 X138.38 Y144.88 E413.24783
G0 F12000 X138.20 Y145.27
G1 F7800 X159.73 Y166.80 E413.72640
G0 F12000 X159.33 Y166.96
G1 F7800 X138.03 Y145.67 E414.19974
G0 F12000 X137.87 Y146.07
G1 F7800 X158.93 Y167.13 E414.66788
G0 F12000 X158.53 Y167.29
G1 F7800 X137.70 Y146.47 E415.13082
G0 F12000 X137.54 Y146.87
G1 F7800 X158.13 Y167.46 E415.58854
G0 F12000 X157.73 Y167.63
G1 F7800 X137.37 Y147.27 E416.04104
G0 F12000 X137.21 Y147.67
G1 F7800 X157.33 Y167.79 E416.48836
G0 F12000 X156.88 Y167.92
G1 F7800 X137.08 Y148.11 E416.92860
G0 F12000 X136.99 Y148.58
G1 F7800 X156.41 Y168.01 E417.36043
G0 F12000 X155.94 Y168.10
G1 F7800 X136.89 Y149.06 E417.78385
G0 F12000 X136.80 Y149.53
G1 F7800 X155.47 Y168.20 E418.19889
G0 F12000 X155.00 Y168.29
G1 F7800 X136.71 Y150.00 E418.60549
G0 F12000 X136.61 Y150.47
G1 F7800 X154.53 Y168.38 E419.00369
G0 F12000 X154.05 Y168.47
G1 F7800 X136.52 Y150.95 E419.39332
G0 F12000 X136.52 Y151.51
G1 F7800 X153.49 Y168.47 E419.77039
G0 F12000 X152.92 Y168.47
G1 F7800 X136.52 Y152.08 E420.13487
G0 F12000 X136.52 Y152.65
G1 F7800 X152.35 Y168.47 E420.48677
G0 F12000 X151.79 Y168.47
G1 F7800 X136.52 Y153.21 E420.82611
G0 F12000 X136.52 Y153.78
G1 F7800 X151.22 Y168.47 E421.15287
G0 F12000 X150.59 Y168.41
G1 F7800 X136.59 Y154.41 E421.46409
G0 F12000 X136.73 Y155.11
G1 F7800 X149.88 Y168.27 E421.75652
G0 F12000 X149.18 Y168.13
G1 F7800 X136.87 Y155.82 E422.03012
G0 F12000 X137.01 Y156.53
G1 F7800 X148.47 Y167.99 E422.28492
G0 F12000 X147.74 Y167.82
G1 F7800 X137.18 Y157.26 E422.51972
G0 F12000 X137.58 Y158.22
G1 F7800 X146.77 Y167.42 E422.72413
G0 F12000 X145.81 Y167.02
G1 F7800 X137.98 Y159.19 E422.89822
G0 F12000 X138.44 Y160.22
G1 F7800 X144.77 Y166.55 E423.03891
G0 F12000 X143.07 Y165.41
G1 F7800 X139.58 Y161.93 E423.11641
G0 F12000 X142.51 Y139.96
G1 F7800 X165.04 Y162.49 E423.61730
G0 F12000 X165.26 Y162.15
G1 F7800 X142.85 Y139.73 E424.11569
G0 F12000 X143.18 Y139.51
G1 F7800 X165.49 Y161.81 E424.61159
G0 F12000 X165.72 Y161.47
G1 F7800 X143.52 Y139.28 E425.10496
G0 F12000 X143.86 Y139.06
G1 F7800 X165.94 Y161.14 E425.59583
G0 F12000 X166.17 Y160.80
G1 F7800 X144.20 Y138.83 E426.08420
G0 F12000 X144.54 Y138.60
G1 F7800 X166.40 Y160.46 E426.57006
G0 F12000 X166.62 Y160.12
G1 F7800 X144.88 Y138.38 E427.05342
G0 F12000 X145.27 Y138.20
G1 F7800 X166.80 Y159.73 E427.53199
G0 F12000 X166.96 Y159.33
G1 F7800 X145.67 Y138.03 E428.00533
G0 F12000 X146.07 Y137.87
G1 F7800 X167.13 Y158.93 E428.47348
G0 F12000 X167.30 Y158.53
G1 F7800 X146.47 Y137.70 E428.93642
G0 F12000 X146.87 Y137.54
G1 F7800 X167.46 Y158.13 E429.39414
G0 F12000 X167.63 Y157.73
G1 F7800 X147.27 Y137.37 E429.84665
G0 F12000 X147.67 Y137.21
G1 F7800 X167.79 Y157.33 E430.29396
G0 F12000 X167.92 Y156.89
G1 F7800 X148.11 Y137.08 E430.73420
G0 F12000 X148.59 Y136.99
G1 F7800 X168.01 Y156.41 E431.16603
G0 F12000 X168.10 Y155.94
G1 F7800 X149.06 Y136.90 E431.58945
G0 F12000 X149.53 Y136.80
G1 F7800 X168.20 Y155.47 E432.00446
G0 F12000 X168.29 Y155.00
G1 F7800 X150.00 Y136.71 E432.41107
G0 F12000 X150.47 Y136.61
G1 F7800 X168.39 Y154.53 E432.80928
G0 F12000 X168.48 Y154.05
G1 F7800 X150.95 Y136.52 E433.19893
G0 F12000 X151.51 Y136.52
G1 F7800 X168.48 Y153.49 E433.57601
G0 F12000 X168.48 Y152.92
G1 F7800 X152.08 Y136.52 E433.94052
G0 F12000 X152.65 Y136.52
G1 F7800 X168.48 Y152.35 E434.29244
G0 F12000 X168.48 Y151.79
G1 F7800 X153.21 Y136.52 E434.63180
G0 F12000 X153.78 Y136.52
G1 F7800 X168.48 Y151.22 E434.95858
G0 F12000 X168.41 Y150.59
G1 F7800 X154.41 Y136.59 E435.26982
G0 F12000 X155.12 Y136.73
G1 F7800 X168.27 Y149.88 E435.56226
G0 F12000 X168.13 Y149.18
G1 F7800 X155.82 Y136.87 E435.83589
G0 F12000 X156.53 Y137.01
G1 F7800 X167.99 Y148.47 E436.09071
G0 F12000 X167.82 Y147.74
G1 F7800 X157.26 Y137.18 E436.32551
G0 F12000 X158.22 Y137.58
G1 F7800 X167.42 Y146.77 E436.52995
G0 F12000 X167.02 Y145.81
G1 F7800 X159.19 Y137.98 E436.70404
G0 F12000 X160.22 Y138.45
G1 F7800 X166.55 Y144.78 E436.84473
G0 F12000 X165.41 Y143.07
G1 F7800 X161.93 Y139.58 E436.92223
;LAYER:7
G0 F12000 X162.78 Y139.98 Z1.00
;TYPE:WALL-INNER
G1 F7800 X165.02 Y142.22 E436.97207
G1 X166.78 Y144.87 E437.02206
G1 X167.93 Y147.65 E437.06932
G1 X168.00 Y147.80 E437.07201
G1 X168.62 Y150.91 E437.12180
G1 X168.62 Y154.09 E437.17176
G1 X168.00 Y157.20 E437.22165
G1 X166.85 Y159.98 E437.26887
G1 X166.78 Y160.14 E437.27157
G1 X165.02 Y162.78 E437.32148
G1 X162.78 Y165.02 E437.37132
G1 X160.13 Y166.78 E437.42131
G1 X157.35 Y167.93 E437.46856
G1 X157.20 Y168.00 E437.47126
G1 X154.09 Y168.62 E437.52105
G1 X150.91 Y168.62 E437.57100
G1 X147.80 Y168.00 E437.62089
G1 X145.02 Y166.85 E437.66812
G1 X144.86 Y166.78 E437.67082
G1 X142.22 Y165.02 E437.72073
G1 X139.98 Y162.78 E437.77057
G1 X138.22 Y160.13 E437.82056
G1 X137.07 Y157.35 E437.86781
G1 X137.00 Y157.20 E437.87050
G1 X136.38 Y154.09 E437.92029
G1 X136.38 Y150.91 E437.97025
G1 X137.00 Y147.80 E438.02014
G1 X138.15 Y145.02 E438.06737
G1 X138.22 Y144.86 E438.07006
G1 X139.98 Y142.22 E438.11997
G1 X142.22 Y139.98 E438.16981
G1 X144.87 Y138.22 E438.21980
G1 X147.65 Y137.07 E438.26706
G1 X147.80 Y137.00 E438.26975
G1 X150.91 Y136.38 E438.31954
G1 X154.09 Y136.38 E438.36950
G1 X157.20 Y137.00 E438.41939
G1 X159.98 Y138.15 E438.46661
G1 X160.14 Y138.22 E438.46931
G1 X162.78 Y139.98 E438.51922
G0 F12000 X163.03 Y139.67
;TYPE:WALL-OUTER
G1 F7800 X165.33 Y141.97 E438.57031
G1 X167.14 Y144.68 E438.62146
G1 X168.38 Y147.68 E438.67264
G1 X169.02 Y150.87 E438.72376
G1 X169.02 Y154.13 E438.77491
G1 X168.38 Y157.32 E438.82604
G1 X167.14 Y160.32 E438.87722
G1 X165.33 Y163.03 E438.92837
G1 X163.03 Y165.33 E438.97946
G1 X160.32 Y167.14 E439.03061
G1 X157.32 Y168.38 E439.08179
G1 X154.13 Y169.02 E439.13292
G1 X150.87 Y169.02 E439.18407
G1 X147.68 Y168.38 E439.23519
G1 X144.68 Y167.14 E439.28637
G1 X141.97 Y165.33 E439.33753
G1 X139.67 Y163.03 E439.38861
G1 X137.86 Y160.32 E439.43977
G1 X136.62 Y157.32 E439.49095
G1 X135.98 Y154.13 E439.54207
G1 X135.98 Y150.87 E439.59322
G1 X136.62 Y147.68 E439.64435
G1 X137.86 Y144.68 E439.69552
G1 X139.67 Y141.97 E439.74668
G1 X141.97 Y139.67 E439.79777
G1 X144.68 Y137.86 E439.84892
G1 X147.68 Y136.62 E439.90010
G1 X150.87 Y135.98 E439.95122
G1 X154.13 Y135.98 E440.00237
G1 X157.32 Y136.62 E440.05350
G1 X160.32 Y137.86 E440.10468
G1 X163.03 Y139.67 E440.15583
G0 F12000 X162.76 Y140.16
;TYPE:FILL
G1 F7800 X140.16 Y162.76 E440.65814
G0 F12000 X140.45 Y163.04
G1 F7800 X163.04 Y140.45 E441.16048
G0 F12000 X163.33 Y140.73
G1 F7800 X140.73 Y163.33 E441.66281
G0 F12000 X141.01 Y163.61
G1 F7800 X163.61 Y141.01 E442.16512
G0 F12000 X163.89 Y141.29
G1 F7800 X141.29 Y163.89 E442.66743
G0 F12000 X141.58 Y164.17
G1 F7800 X164.17 Y141.58 E443.16974
G0 F12000 X164.46 Y141.86
G1 F7800 X141.86 Y164.46 E443.67205
G0 F12000 X142.14 Y164.74
G1 F7800 X164.74 Y142.14 E444.17436
G0 F12000 X165.00 Y142.45
G1 F7800 X142.45 Y165.00 E444.67564
G0 F12000 X142.79 Y165.23
G1 F7800 X165.23 Y142.79 E445.17445
G0 F12000 X165.45 Y143.13
G1 F7800 X143.13 Y165.45 E445.67075
G0 F12000 X143.47 Y165.68
G1 F7800 X165.68 Y143.47 E446.16455
G0 F12000 X165.91 Y143.81
G1 F7800 X143.81 Y165.91 E446.65585
G0 F12000 X144.15 Y166.13
G1 F7800 X166.13 Y144.15 E447.14463
G0 F12000 X166.36 Y144.48
G1 F7800 X144.48 Y166.36 E447.63092
G0 F12000 X144.82 Y166.59
G1 F7800 X166.59 Y144.82 E448.11470
G0 F12000 X166.77 Y145.20
G1 F7800 X145.20 Y166.77 E448.59413
G0 F12000 X145.60 Y166.94
G1 F7800 X166.94 Y145.60 E449.06837
G0 F12000 X167.10 Y146.00
G1 F7800 X146.00 Y167.10 E449.53737
G0 F12000 X146.40 Y167.27
G1 F7800 X167.27 Y146.40 E450.00119
G0 F12000 X167.43 Y146.80
G1 F7800 X146.80 Y167.43 E450.45980
G0 F12000 X147.20 Y167.60
G1 F7800 X167.60 Y147.20 E450.91320
G0 F12000 X167.76 Y147.60
G1 F7800 X147.60 Y167.77 E451.36140
G0 F12000 X148.03 Y167.90
G1 F7800 X167.90 Y148.03 E451.80311
G0 F12000 X168.00 Y148.50
G1 F7800 X148.50 Y168.00 E452.23638
G0 F12000 X148.98 Y168.09
G1 F7800 X168.09 Y148.98 E452.66126
G0 F12000 X168.18 Y149.45
G1 F7800 X149.45 Y168.18 E453.07772
G0 F12000 X149.92 Y168.28
G1 F7800 X168.28 Y149.92 E453.48577
G0 F12000 X168.37 Y150.39
G1 F7800 X150.39 Y168.37 E453.88540
G0 F12000 X150.86 Y168.46
G1 F7800 X168.46 Y150.87 E454.27663
G0 F12000 X168.47 Y151.42
G1 F7800 X151.42 Y168.48 E454.65581
G0 F12000 X151.98 Y168.48
G1 F7800 X168.47 Y151.98 E455.02241
G0 F12000 X168.47 Y152.55
G1 F7800 X152.55 Y168.48 E455.37645
G0 F12000 X153.12 Y168.48
G1 F7800 X168.47 Y153.12 E455.71790
G0 F12000 X168.47 Y153.68
G1 F7800 X153.68 Y168.48 E456.04678
G0 F12000 X154.29 Y168.43
G1 F7800 X168.43 Y154.29 E456.36122
G0 F12000 X168.29 Y155.00
G1 F7800 X154.99 Y168.29 E456.65685
G0 F12000 X155.70 Y168.15
G1 F7800 X168.15 Y155.70 E456.93366
G0 F12000 X168.01 Y156.41
G1 F7800 X156.41 Y168.01 E457.19164
G0 F12000 X157.11 Y167.87
G1 F7800 X167.87 Y157.11 E457.43081
G0 F12000 X167.49 Y158.06
G1 F7800 X158.06 Y167.49 E457.64033
G0 F12000 X159.03 Y167.09
G1 F7800 X167.09 Y159.03 E457.81946
G0 F12000 X166.69 Y160.00
G1 F7800 X159.99 Y166.69 E457.96824
G0 F12000 X161.64 Y165.61
G1 F7800 X165.61 Y161.64 E458.05638
G0 F12000 X162.44 Y139.92
G1 F7800 X139.92 Y162.44 E458.55683
G0 F12000 X139.70 Y162.10
G1 F7800 X162.10 Y139.70 E459.05480
G0 F12000 X161.76 Y139.47
G1 F7800 X139.47 Y161.76 E459.55025
G0 F12000 X139.24 Y161.42
G1 F7800 X161.42 Y139.24 E460.04320
G0 F12000 X161.08 Y139.02
G1 F7800 X139.02 Y161.08 E460.53364
G0 F12000 X138.79 Y160.74
G1 F7800 X160.74 Y138.79 E461.02159
G0 F12000 X160.40 Y138.56
G1 F7800 X138.56 Y160.40 E461.50704
G0 F12000 X138.34 Y160.06
G1 F7800 X160.06 Y138.34 E461.98992
G0 F12000 X159.66 Y138.17
G1 F7800 X138.17 Y159.66 E462.46762
G0 F12000 X138.01 Y159.26
G1 F7800 X159.26 Y138.01 E462.94009
G0 F12000 X158.86 Y137.84
G1 F7800 X137.84 Y158.86 E463.40737
G0 F12000 X137.68 Y158.46
G1 F7800 X158.46 Y137.68 E463.86943
G0 F12000 X158.06 Y137.51
G1 F7800 X137.51 Y158.06 E464.32629
G0 F12000 X137.34 Y157.66
G1 F7800 X157.66 Y137.34 E464.77794
G0 F12000 X157.26 Y137.18
G1 F7800 X137.18 Y157.26 E465.22439
G0 F12000 X137.06 Y156.81
G1 F7800 X156.81 Y137.06 E465.66325
G0 F12000 X156.34 Y136.97
G1 F7800 X136.97 Y156.34 E466.09371
G0 F12000 X136.88 Y155.86
G1 F7800 X155.86 Y136.88 E466.51576
G0 F12000 X155.39 Y136.78
G1 F7800 X136.78 Y155.39 E466.92941
G0 F12000 X136.69 Y154.92
G1 F7800 X154.92 Y136.69 E467.33464
G0 F12000 X154.45 Y136.60
G1 F7800 X136.60 Y154.45 E467.73147
G0 F12000 X136.52 Y153.96
G1 F7800 X153.96 Y136.52 E468.11901
G0 F12000 X153.39 Y136.52
G1 F7800 X136.52 Y153.39 E468.49399
G0 F12000 X136.52 Y152.82
G1 F7800 X152.82 Y136.52 E468.85638
G0 F12000 X152.26 Y136.52
G1 F7800 X136.52 Y152.26 E469.20621
G0 F12000 X136.52 Y151.69
G1 F7800 X151.69 Y136.52 E469.54346
G0 F12000 X151.13 Y136.52
G1 F7800 X136.52 Y151.13 E469.86813
G0 F12000 X136.61 Y150.47
G1 F7800 X150.47 Y136.61 E470.17627
G0 F12000 X149.77 Y136.75
G1 F7800 X136.75 Y149.77 E470.46559
G0 F12000 X136.89 Y149.06
G1 F7800 X149.06 Y136.89 E470.73609
G0 F12000 X148.35 Y137.03
G1 F7800 X137.03 Y148.35 E470.98778
G0 F12000 X137.24 Y147.58
G1 F7800 X147.58 Y137.24 E471.21750
G0 F12000 X146.61 Y137.64
G1 F7800 X137.65 Y146.61 E471.41684
G0 F12000 X138.04 Y145.65
G1 F7800 X145.65 Y138.04 E471.58582
G0 F12000 X144.49 Y138.64
G1 F7800 X138.64 Y144.49 E471.71589
G0 F12000 X139.78 Y142.78
G1 F7800 X142.78 Y139.78 E471.78277
;LAYER:8
G0 F12000 X142.22 Y139.98 Z1.10
;TYPE:WALL-INNER
G1 F7800 X144.71 Y138.32 E471.82973
G1 X144.87 Y138.22 E471.83276
G1 X147.62 Y137.07 E471.87964
G1 X147.80 Y137.00 E471.88260
G1 X150.73 Y136.42 E471.92956
G1 X150.91 Y136.38 E471.93251
G1 X154.08 Y136.38 E471.98237
G1 X157.01 Y136.97 E472.02934
G1 X157.20 Y137.00 E472.03234
G1 X159.96 Y138.14 E472.07920
G1 X160.13 Y138.22 E472.08224
G1 X162.62 Y139.87 E472.12914
G1 X162.77 Y139.98 E472.13213
G1 X165.02 Y142.22 E472.18201
G1 X166.68 Y144.71 E472.22898
G1 X166.78 Y144.87 E472.23200
G1 X167.93 Y147.62 E472.27888
G1 X168.00 Y147.80 E472.28184
G1 X168.58 Y150.73 E472.32880
G1 X168.62 Y150.91 E472.33175
G1 X168.62 Y154.08 E472.38161
G1 X168.03 Y157.01 E472.42858
G1 X168.00 Y157.20 E472.43158
G1 X166.86 Y159.96 E472.47845
G1 X166.78 Y160.13 E472.48148
G1 X165.13 Y162.62 E472.52838
G1 X165.02 Y162.77 E472.53137
G1 X162.78 Y165.02 E472.58125
G1 X160.29 Y166.68 E472.62822
G1 X160.13 Y166.78 E472.63124
G1 X157.38 Y167.93 E472.67812
G1 X157.20 Y168.00 E472.68108
G1 X154.27 Y168.58 E472.72804
G1 X154.09 Y168.62 E472.73099
G1 X150.92 Y168.62 E472.78085
G1 X147.99 Y168.03 E472.82783
G1 X147.80 Y168.00 E472.83082
G1 X145.04 Y166.86 E472.87769
G1 X144.87 Y166.78 E472.88073
G1 X142.38 Y165.12 E472.92765
G1 X142.23 Y165.02 E472.93061
G1 X139.98 Y162.78 E472.98050
G1 X138.32 Y160.29 E473.02747
G1 X138.22 Y160.13 E473.03049
G1 X137.07 Y157.38 E473.07737
G1 X137.00 Y157.20 E473.08033
G1 X136.42 Y154.27 E473.12729
G1 X136.38 Y154.09 E473.13024
G1 X136.38 Y150.92 E473.18010
G1 X136.97 Y147.99 E473.22707
G1 X137.00 Y147.80 E473.23007
G1 X138.14 Y145.04 E473.27693
G1 X138.22 Y144.87 E473.27997
G1 X139.87 Y142.38 E473.32687
G1 X139.98 Y142.23 E473.32986
G1 X142.22 Y139.98 E473.37974
G0 F12000 X141.97 Y139.67
;TYPE:WALL-OUTER
G1 F7800 X144.68 Y137.86 E473.43090
G1 X147.68 Y136.62 E473.48208
G1 X150.87 Y135.98 E473.53320
G1 X154.13 Y135.98 E473.58435
G1 X157.32 Y136.62 E473.63548
G1 X160.32 Y137.86 E473.68665
G1 X163.03 Y139.67 E473.73781
G1 X165.33 Y141.97 E473.78890
G1 X167.14 Y144.68 E473.84005
G1 X168.38 Y147.68 E473.89123
G1 X169.02 Y150.87 E473.94235
G1 X169.02 Y154.13 E473.99350
G1 X168.38 Y157.32 E474.04463
G1 X167.14 Y160.32 E474.09581
G1 X165.33 Y163.03 E474.14696
G1 X163.03 Y165.33 E474.19805
G1 X160.32 Y167.14 E474.24920
G1 X157.32 Y168.38 E474.30038
G1 X154.13 Y169.02 E474.35151
G1 X150.87 Y169.02 E474.40266
G1 X147.68 Y168.38 E474.45378
G1 X144.68 Y167.14 E474.50496
G1 X141.97 Y165.33 E474.55612
G1 X139.67 Y163.03 E474.60720
G1 X137.86 Y160.32 E474.65836
G1 X136.62 Y157.32 E474.70954
G1 X135.98 Y154.13 E474.76066
G1 X135.98 Y150.87 E474.81181
G1 X136.62 Y147.68 E474.86294
G1 X137.86 Y144.68 E474.91411
G1 X139.67 Y141.97 E474.96527
G1 X141.97 Y139.67 E475.01636
G0 F12000 X142.19 Y140.21
;TYPE:FILL
G1 F7800 X164.79 Y162.81 E475.51869
G0 F12000 X164.50 Y163.09
G1 F7800 X141.91 Y140.49 E476.02102
G0 F12000 X141.62 Y140.78
G1 F7800 X164.22 Y163.37 E476.52335
G0 F12000 X163.94 Y163.66
G1 F7800 X141.34 Y141.06 E477.02568
G0 F12000 X141.06 Y141.34
G1 F7800 X163.66 Y163.94 E477.52802
G0 F12000 X163.37 Y164.22
G1 F7800 X140.78 Y141.62 E478.03035
G0 F12000 X140.49 Y141.91
G1 F7800 X163.09 Y164.50 E478.53268
G0 F12000 X162.81 Y164.79
G1 F7800 X140.21 Y142.19 E479.03501
G0 F12000 X139.96 Y142.51
G1 F7800 X162.49 Y165.04 E479.53591
G0 F12000 X162.15 Y165.26
G1 F7800 X139.73 Y142.84 E480.03431
G0 F12000 X139.51 Y143.18
G1 F7800 X161.81 Y165.49 E480.53019
G0 F12000 X161.47 Y165.72
G1 F7800 X139.28 Y143.52 E481.02360
G0 F12000 X139.05 Y143.86
G1 F7800 X161.14 Y165.94 E481.51449
G0 F12000 X160.80 Y166.17
G1 F7800 X138.83 Y144.20 E482.00287
G0 F12000 X138.60 Y144.54
G1 F7800 X160.46 Y166.40 E482.48875
G0 F12000 X160.12 Y166.62
G1 F7800 X138.37 Y144.88 E482.97213
G0 F12000 X138.20 Y145.27
G1 F7800 X159.73 Y166.80 E483.45070
G0 F12000 X159.33 Y166.96
G1 F7800 X138.03 Y145.67 E483.92406
G0 F12000 X137.87 Y146.07
G1 F7800 X158.93 Y167.13 E484.39220
G0 F12000 X158.53 Y167.29
G1 F7800 X137.70 Y146.47 E484.85515
G0 F12000 X137.54 Y146.87
G1 F7800 X158.13 Y167.46 E485.31286
G0 F12000 X157.73 Y167.63
G1 F7800 X137.37 Y147.27 E485.76538
G0 F12000 X137.21 Y147.67
G1 F7800 X157.33 Y167.79 E486.21269
G0 F12000 X156.88 Y167.92
G1 F7800 X137.08 Y148.11 E486.65293
G0 F12000 X136.99 Y148.58
G1 F7800 X156.41 Y168.01 E487.08476
G0 F12000 X155.94 Y168.10
G1 F7800 X136.89 Y149.06 E487.50819
G0 F12000 X136.80 Y149.53
G1 F7800 X155.47 Y168.20 E487.92322
G0 F12000 X155.00 Y168.29
G1 F7800 X136.71 Y150.00 E488.32984
G0 F12000 X136.61 Y150.47
G1 F7800 X154.53 Y168.38 E488.72805
G0 F12000 X154.05 Y168.47
G1 F7800 X136.52 Y150.95 E489.11770
G0 F12000 X136.52 Y151.51
G1 F7800 X153.49 Y168.47 E489.49478
G0 F12000 X152.92 Y168.47
G1 F7800 X136.52 Y152.08 E489.85928
G0 F12000 X136.52 Y152.64
G1 F7800 X152.35 Y168.47 E490.21120
G0 F12000 X151.79 Y168.47
G1 F7800 X136.52 Y153.21 E490.55056
G0 F12000 X136.52 Y153.78
G1 F7800 X151.22 Y168.47 E490.87734
G0 F12000 X150.59 Y168.41
G1 F7800 X136.59 Y154.41 E491.18857
G0 F12000 X136.73 Y155.11
G1 F7800 X149.88 Y168.27 E491.48102
G0 F12000 X149.18 Y168.13
G1 F7800 X136.87 Y155.82 E491.75464
G0 F12000 X137.01 Y156.53
G1 F7800 X148.47 Y167.99 E492.00944
G0 F12000 X147.74 Y167.82
G1 F7800 X137.18 Y157.26 E492.24423
G0 F12000 X137.58 Y158.22
G1 F7800 X146.77 Y167.42 E492.44868
G0 F12000 X145.81 Y167.02
G1 F7800 X137.98 Y159.19 E492.62277
G0 F12000 X138.44 Y160.22
G1 F7800 X144.78 Y166.56 E492.76353
G0 F12000 X143.07 Y165.42
G1 F7800 X139.58 Y161.93 E492.84106
G0 F12000 X142.51 Y139.96
G1 F7800 X165.04 Y162.49 E493.34196
G0 F12000 X165.27 Y162.16
G1 F7800 X142.85 Y139.73 E493.84037
G0 F12000 X143.18 Y139.51
G1 F7800 X165.49 Y161.81 E494.33628
G0 F12000 X165.72 Y161.48
G1 F7800 X143.52 Y139.28 E494.82966
G0 F12000 X143.86 Y139.06
G1 F7800 X165.94 Y161.14 E495.32053
G0 F12000 X166.17 Y160.80
G1 F7800 X144.20 Y138.83 E495.80893
G0 F12000 X144.54 Y138.60
