;-- START GCODE --
;Sliced for Type A Machines Series 1
;Sliced at: Tue 30-06-2015 23:53:17
;Basic settings: Layer height: 0.1 Walls: 0.8 Fill: 9
;Print Speed: 130 Support: 0
;Retraction Speed: 40 Retraction Distance: 0.5
;Print time: #P_TIME#
;Filament used: #F_AMNT#m #F_WGHT#g
;Filament cost: #F_COST#
M106 S255	 ;start with the fan on
G21        ;metric values
G90        ;absolute positioning
M106 S255    ;start with the fan on
G28     ;move to endstops
G29		;allows for auto-levelling
G1 X150 Y5  Z15.0 F12000 ;center and move the platform down 15mm
M109 S220 ;Heat To temp
G92 E0                  ;zero the extruded length
G1 F200 E30              ;extrude 30mm of feed stock
G92 E0                  ;zero the extruded length again
G1 X175 Y25  Z0 F12000 ;remove bugger
G1 X220 F12000 ;remove bugger
G1 X150 Y150  Z15 F12000 ;recenter and begin
G1 F12000

;Layer count: 135
;LAYER:0
M106 S255
G0 F12000 X135.10 Y135.07 Z0.30
;TYPE:SKIRT
G1 F2700 X138.17 Y132.54 E0.18770
G1 X138.79 Y132.03 E0.22575
G1 X142.29 Y130.16 E0.41263
G1 X143.04 Y129.75 E0.45272
G1 X146.85 Y128.59 E0.64081
G1 X146.85 Y128.59 E0.64086
G1 X147.67 Y128.34 E0.68119
G1 X151.68 Y127.94 E0.87106
G1 X151.68 Y127.95 E0.87110
G1 X152.49 Y127.86 E0.90978
G1 X156.49 Y128.26 E1.09898
G1 X157.31 Y128.34 E1.13808
G1 X161.16 Y129.50 E1.32765
G1 X161.95 Y129.75 E1.36675
G1 X165.49 Y131.64 E1.55604
G1 X166.22 Y132.04 E1.59502
G1 X169.29 Y134.57 E1.78286
G1 X169.93 Y135.10 E1.82204
G1 X172.43 Y138.14 E2.00766
G1 X172.97 Y138.79 E2.04779
G1 X174.83 Y142.28 E2.23386
G1 X175.25 Y143.04 E2.27476
G1 X176.41 Y146.85 E2.46285
G1 X176.41 Y146.85 E2.46289
G1 X176.66 Y147.67 E2.50323
G1 X177.06 Y151.68 E2.69310
G1 X177.05 Y151.68 E2.69314
G1 X177.14 Y152.49 E2.73182
G1 X176.74 Y156.49 E2.92102
G1 X176.66 Y157.31 E2.96012
G1 X175.50 Y161.16 E3.14968
G1 X175.25 Y161.95 E3.18879
G1 X173.36 Y165.49 E3.37807
G1 X172.96 Y166.22 E3.41705
G1 X170.43 Y169.29 E3.60490
G1 X169.90 Y169.93 E3.64408
G1 X166.83 Y172.46 E3.83178
G1 X166.21 Y172.97 E3.86982
G1 X162.72 Y174.83 E4.05590
G1 X161.96 Y175.25 E4.09680
G1 X158.15 Y176.41 E4.28488
G1 X158.15 Y176.41 E4.28493
G1 X157.33 Y176.66 E4.32526
G1 X153.32 Y177.06 E4.51513
G1 X153.32 Y177.05 E4.51518
G1 X152.51 Y177.14 E4.55385
G1 X148.51 Y176.74 E4.74306
G1 X147.69 Y176.66 E4.78216
G1 X143.84 Y175.50 E4.97172
G1 X143.05 Y175.25 E5.01083
G1 X139.51 Y173.36 E5.20011
G1 X138.78 Y172.96 E5.23909
G1 X135.71 Y170.43 E5.42694
G1 X135.07 Y169.90 E5.46611
G1 X132.54 Y166.83 E5.65382
G1 X132.03 Y166.21 E5.69186
G1 X130.17 Y162.72 E5.87794
G1 X129.75 Y161.96 E5.91884
G1 X128.59 Y158.15 E6.10692
G1 X128.59 Y158.15 E6.10697
G1 X128.34 Y157.33 E6.14730
G1 X127.94 Y153.32 E6.33717
G1 X127.95 Y153.32 E6.33722
G1 X127.86 Y152.51 E6.37589
G1 X128.26 Y148.51 E6.56510
G1 X128.34 Y147.69 E6.60420
G1 X129.50 Y143.84 E6.79376
G1 X129.75 Y143.05 E6.83287
G1 X131.64 Y139.51 E7.02215
G1 X132.04 Y138.78 E7.06113
G1 X134.57 Y135.71 E7.24897
G1 X135.10 Y135.07 E7.28815
G0 F12000 X135.38 Y135.35
G1 F2700 X138.40 Y132.88 E7.47211
G1 X139.02 Y132.36 E7.51028
G1 X142.50 Y130.50 E7.69615
G1 X143.19 Y130.12 E7.73361
G1 X147.02 Y128.96 E7.92211
G1 X147.02 Y128.96 E7.92216
G1 X147.75 Y128.73 E7.95831
G1 X151.72 Y128.34 E8.14633
G1 X151.72 Y128.34 E8.14638
G1 X152.49 Y128.27 E8.18316
G1 X156.45 Y128.65 E8.37051
G1 X157.23 Y128.73 E8.40776
G1 X161.04 Y129.89 E8.59536
G1 X161.79 Y130.12 E8.63265
G1 X165.30 Y132.00 E8.82001
G1 X165.99 Y132.37 E8.85719
G1 X169.04 Y134.88 E9.04319
G1 X169.65 Y135.38 E9.08050
G1 X172.12 Y138.40 E9.26445
G1 X172.64 Y139.02 E9.30263
G1 X174.48 Y142.47 E9.48700
G1 X174.88 Y143.19 E9.52595
G1 X176.04 Y147.02 E9.71445
G1 X176.04 Y147.02 E9.71450
G1 X176.27 Y147.75 E9.75065
G1 X176.66 Y151.72 E9.93868
G1 X176.66 Y151.72 E9.93872
G1 X176.73 Y152.49 E9.97550
G1 X176.35 Y156.45 E10.16286
G1 X176.27 Y157.23 E10.20011
G1 X175.11 Y161.04 E10.38770
G1 X174.88 Y161.79 E10.42499
G1 X173.00 Y165.30 E10.61235
G1 X172.63 Y165.99 E10.64954
G1 X170.12 Y169.04 E10.83553
G1 X169.62 Y169.65 E10.87284
G1 X166.60 Y172.12 E11.05679
G1 X165.98 Y172.64 E11.09497
G1 X162.50 Y174.50 E11.28084
G1 X161.81 Y174.88 E11.31829
G1 X157.98 Y176.04 E11.50680
G1 X157.98 Y176.04 E11.50684
G1 X157.25 Y176.27 E11.54300
G1 X153.28 Y176.66 E11.73102
G1 X153.28 Y176.66 E11.73107
G1 X152.51 Y176.73 E11.76784
G1 X148.55 Y176.35 E11.95520
G1 X147.77 Y176.27 E11.99245
G1 X143.96 Y175.11 E12.18004
G1 X143.21 Y174.88 E12.21733
G1 X139.70 Y173.00 E12.40470
G1 X139.01 Y172.63 E12.44188
G1 X135.96 Y170.12 E12.62787
G1 X135.35 Y169.62 E12.66518
G1 X132.88 Y166.60 E12.84914
G1 X132.36 Y165.98 E12.88731
G1 X130.48 Y162.47 E13.07506
G1 X130.12 Y161.81 E13.11064
G1 X128.96 Y157.98 E13.29914
G1 X128.96 Y157.98 E13.29919
G1 X128.73 Y157.25 E13.33534
G1 X128.34 Y153.28 E13.52336
G1 X128.34 Y153.28 E13.52341
G1 X128.27 Y152.51 E13.56019
G1 X128.65 Y148.55 E13.74754
G1 X128.73 Y147.77 E13.78479
G1 X129.89 Y143.96 E13.97239
G1 X130.12 Y143.21 E14.00968
G1 X132.00 Y139.70 E14.19704
G1 X132.37 Y139.01 E14.23422
G1 X134.88 Y135.96 E14.42022
G1 X135.38 Y135.35 E14.45753
G0 F12000 X135.66 Y135.64
G1 F2700 X138.68 Y133.16 E14.64158
G1 X139.24 Y132.69 E14.67600
G1 X142.66 Y130.87 E14.85866
G1 X143.35 Y130.49 E14.89566
G1 X147.13 Y129.34 E15.08227
G1 X147.83 Y129.13 E15.11659
G1 X151.74 Y128.74 E15.30205
G1 X152.49 Y128.67 E15.33764
G1 X156.41 Y129.05 E15.52305
G1 X157.15 Y129.13 E15.55845
G1 X160.92 Y130.27 E15.74418
G1 X161.64 Y130.49 E15.77958
G1 X165.11 Y132.35 E15.96508
G1 X165.77 Y132.71 E16.00039
G1 X168.79 Y135.18 E16.18458
G1 X169.36 Y135.66 E16.22004
G1 X171.81 Y138.65 E16.40225
G1 X172.31 Y139.24 E16.43852
G1 X174.13 Y142.66 E16.62118
G1 X174.51 Y143.35 E16.65817
G1 X175.66 Y147.13 E16.84478
G1 X175.87 Y147.83 E16.87910
G1 X176.26 Y151.74 E17.06456
G1 X176.33 Y152.49 E17.10015
G1 X175.95 Y156.41 E17.28556
G1 X175.87 Y157.15 E17.32097
G1 X174.73 Y160.92 E17.50669
G1 X174.51 Y161.64 E17.54209
G1 X172.65 Y165.11 E17.72760
G1 X172.29 Y165.77 E17.76290
G1 X169.82 Y168.79 E17.94709
G1 X169.34 Y169.36 E17.98255
G1 X166.32 Y171.84 E18.16660
G1 X165.76 Y172.31 E18.20103
G1 X162.34 Y174.13 E18.38369
G1 X161.65 Y174.51 E18.42069
G1 X157.87 Y175.66 E18.60729
G1 X157.17 Y175.87 E18.64161
G1 X153.26 Y176.26 E18.82707
G1 X152.51 Y176.33 E18.86266
G1 X148.59 Y175.95 E19.04808
G1 X147.85 Y175.87 E19.08348
G1 X144.08 Y174.73 E19.26921
G1 X143.36 Y174.51 E19.30460
G1 X139.89 Y172.65 E19.49011
G1 X139.23 Y172.29 E19.52542
G1 X136.21 Y169.82 E19.70961
G1 X135.64 Y169.34 E19.74507
G1 X133.16 Y166.32 E19.92912
G1 X132.69 Y165.76 E19.96355
G1 X130.87 Y162.34 E20.14620
G1 X130.49 Y161.65 E20.18320
G1 X129.34 Y157.87 E20.36981
G1 X129.13 Y157.17 E20.40413
G1 X128.74 Y153.24 E20.59020
G1 X128.67 Y152.51 E20.62518
G1 X129.05 Y148.59 E20.81059
G1 X129.13 Y147.85 E20.84599
G1 X130.27 Y144.08 E21.03172
G1 X130.49 Y143.36 E21.06712
G1 X132.35 Y139.89 E21.25262
G1 X132.71 Y139.23 E21.28793
G1 X135.18 Y136.21 E21.47212
G1 X135.66 Y135.64 E21.50758
G0 F12000 X135.95 Y135.92
G1 F2700 X138.94 Y133.47 E21.68986
G1 X139.47 Y133.03 E21.72247
G1 X142.91 Y131.19 E21.90646
G1 X143.50 Y130.86 E21.93845
G1 X147.25 Y129.73 E22.12309
G1 X147.91 Y129.52 E22.15564
G1 X151.78 Y129.14 E22.33920
G1 X152.49 Y129.07 E22.37290
G1 X156.37 Y129.45 E22.55646
G1 X157.07 Y129.52 E22.58997
G1 X160.81 Y130.65 E22.77382
G1 X161.49 Y130.86 E22.80735
G1 X164.92 Y132.70 E22.99098
G1 X165.54 Y133.04 E23.02440
G1 X168.53 Y135.49 E23.20678
G1 X169.08 Y135.95 E23.24037
G1 X171.51 Y138.91 E23.42087
G1 X171.97 Y139.47 E23.45526
G1 X173.80 Y142.89 E23.63838
G1 X174.14 Y143.50 E23.67124
G1 X175.27 Y147.25 E23.85588
G1 X175.48 Y147.91 E23.88843
G1 X175.86 Y151.78 E24.07199
G1 X175.93 Y152.49 E24.10569
G1 X175.55 Y156.37 E24.28925
G1 X175.48 Y157.07 E24.32276
G1 X174.35 Y160.81 E24.50661
G1 X174.14 Y161.49 E24.54014
G1 X172.30 Y164.92 E24.72377
G1 X171.96 Y165.54 E24.75719
G1 X169.51 Y168.53 E24.93957
G1 X169.05 Y169.08 E24.97316
G1 X166.06 Y171.53 E25.15544
G1 X165.53 Y171.97 E25.18805
G1 X162.09 Y173.81 E25.37204
G1 X161.50 Y174.14 E25.40403
G1 X157.75 Y175.27 E25.58867
G1 X157.09 Y175.48 E25.62122
G1 X153.22 Y175.86 E25.80478
G1 X152.51 Y175.93 E25.83848
G1 X148.63 Y175.55 E26.02204
G1 X147.93 Y175.48 E26.05555
G1 X144.19 Y174.35 E26.23940
G1 X143.51 Y174.14 E26.27293
G1 X140.08 Y172.30 E26.45656
G1 X139.46 Y171.96 E26.48998
G1 X136.47 Y169.51 E26.67236
G1 X135.92 Y169.05 E26.70595
G1 X133.47 Y166.06 E26.88823
G1 X133.03 Y165.53 E26.92084
G1 X131.19 Y162.09 E27.10483
G1 X130.86 Y161.50 E27.13682
G1 X129.73 Y157.75 E27.32146
G1 X129.52 Y157.09 E27.35401
G1 X129.14 Y153.21 E27.53814
G1 X129.07 Y152.51 E27.57127
G1 X129.45 Y148.63 E27.75483
G1 X129.52 Y147.93 E27.78834
G1 X130.65 Y144.19 E27.97219
G1 X130.86 Y143.51 E28.00572
G1 X132.70 Y140.08 E28.18935
G1 X133.04 Y139.46 E28.22278
G1 X135.49 Y136.47 E28.40515
G1 X135.95 Y135.92 E28.43874
G0 F12000 X136.23 Y136.21
G1 F2700 X139.19 Y133.78 E28.61918
G1 X139.69 Y133.36 E28.65002
G1 X143.10 Y131.54 E28.83205
G1 X143.66 Y131.23 E28.86231
G1 X147.37 Y130.11 E29.04498
G1 X147.99 Y129.91 E29.07571
G1 X151.82 Y129.54 E29.25742
G1 X152.50 Y129.47 E29.28927
G1 X156.33 Y129.85 E29.47094
G1 X157.00 Y129.91 E29.50260
G1 X160.69 Y131.03 E29.68453
G1 X161.33 Y131.23 E29.71618
G1 X164.73 Y133.05 E29.89791
G1 X165.32 Y133.37 E29.92949
G1 X168.28 Y135.80 E30.11009
G1 X168.79 Y136.23 E30.14181
G1 X171.20 Y139.16 E30.32060
G1 X171.64 Y139.69 E30.35309
G1 X173.46 Y143.10 E30.53511
G1 X173.77 Y143.66 E30.56538
G1 X174.88 Y147.33 E30.74612
G1 X175.09 Y147.99 E30.77877
G1 X175.46 Y151.82 E30.96049
G1 X175.53 Y152.50 E30.99233
G1 X175.15 Y156.33 E31.17400
G1 X175.09 Y157.00 E31.20566
G1 X173.97 Y160.69 E31.38760
G1 X173.77 Y161.33 E31.41925
G1 X171.95 Y164.73 E31.60098
G1 X171.63 Y165.32 E31.63255
G1 X169.20 Y168.28 E31.81315
G1 X168.77 Y168.79 E31.84487
G1 X165.84 Y171.20 E32.02367
G1 X165.31 Y171.64 E32.05615
G1 X161.90 Y173.46 E32.23818
G1 X161.34 Y173.77 E32.26844
G1 X157.63 Y174.89 E32.45111
G1 X157.01 Y175.09 E32.48184
G1 X153.18 Y175.46 E32.66355
G1 X152.50 Y175.53 E32.69540
G1 X148.67 Y175.15 E32.87707
G1 X148.00 Y175.09 E32.90872
G1 X144.31 Y173.97 E33.09066
G1 X143.67 Y173.77 E33.12231
G1 X140.27 Y171.95 E33.30404
G1 X139.68 Y171.63 E33.33562
G1 X136.72 Y169.20 E33.51622
G1 X136.21 Y168.77 E33.54794
G1 X133.78 Y165.81 E33.72838
G1 X133.36 Y165.31 E33.75922
G1 X131.54 Y161.90 E33.94124
G1 X131.23 Y161.34 E33.97151
G1 X130.11 Y157.63 E34.15418
G1 X129.91 Y157.01 E34.18490
G1 X129.54 Y153.17 E34.36714
G1 X129.47 Y152.50 E34.39846
G1 X129.85 Y148.67 E34.58013
G1 X129.91 Y148.00 E34.61179
G1 X131.03 Y144.31 E34.79373
G1 X131.23 Y143.67 E34.82538
G1 X133.05 Y140.27 E35.00711
G1 X133.37 Y139.68 E35.03868
G1 X135.80 Y136.72 E35.21928
G1 X136.23 Y136.21 E35.25100
G0 F12000 X136.51 Y136.49
G1 F2700 X139.44 Y134.09 E35.42959
G1 X139.92 Y133.69 E35.45863
G1 X143.26 Y131.91 E35.63721
G1 X143.81 Y131.60 E35.66723
G1 X147.46 Y130.50 E35.84679
G1 X148.07 Y130.31 E35.87691
G1 X151.87 Y129.94 E36.05720
G1 X152.50 Y129.87 E36.08668
G1 X156.29 Y130.25 E36.26645
G1 X156.92 Y130.31 E36.29626
G1 X160.57 Y131.42 E36.47628
G1 X161.18 Y131.60 E36.50609
G1 X164.54 Y133.40 E36.68593
G1 X165.09 Y133.71 E36.71570
G1 X168.02 Y136.11 E36.89443
G1 X168.51 Y136.51 E36.92433
G1 X170.89 Y139.42 E37.10139
G1 X171.31 Y139.92 E37.13196
G1 X173.08 Y143.24 E37.30943
G1 X173.40 Y143.81 E37.34056
G1 X174.50 Y147.45 E37.51953
G1 X174.69 Y148.07 E37.55024
G1 X175.06 Y151.86 E37.73007
G1 X175.13 Y152.50 E37.76002
G1 X174.75 Y156.29 E37.93979
G1 X174.69 Y156.92 E37.96960
G1 X173.58 Y160.57 E38.14961
G1 X173.40 Y161.18 E38.17943
G1 X171.60 Y164.54 E38.35926
G1 X171.29 Y165.09 E38.38904
G1 X168.89 Y168.02 E38.56776
G1 X168.49 Y168.51 E38.59767
G1 X165.56 Y170.91 E38.77626
G1 X165.08 Y171.31 E38.80530
G1 X161.74 Y173.09 E38.98388
G1 X161.19 Y173.40 E39.01389
G1 X157.55 Y174.50 E39.19287
G1 X156.93 Y174.69 E39.22358
G1 X153.13 Y175.06 E39.40387
G1 X152.50 Y175.13 E39.43335
G1 X148.71 Y174.75 E39.61312
G1 X148.08 Y174.69 E39.64293
G1 X144.43 Y173.58 E39.82295
G1 X143.82 Y173.40 E39.85276
G1 X140.46 Y171.60 E40.03260
G1 X139.91 Y171.29 E40.06237
G1 X136.98 Y168.89 E40.24110
G1 X136.49 Y168.49 E40.27100
G1 X134.09 Y165.56 E40.44960
G1 X133.69 Y165.08 E40.47863
G1 X131.89 Y161.72 E40.65878
G1 X131.60 Y161.19 E40.68723
G1 X130.49 Y157.52 E40.86797
G1 X130.31 Y156.93 E40.89691
G1 X129.94 Y153.13 E41.07721
G1 X129.87 Y152.50 E41.10668
G1 X130.25 Y148.71 E41.28646
G1 X130.31 Y148.08 E41.31627
G1 X131.42 Y144.43 E41.49628
G1 X131.60 Y143.82 E41.52610
G1 X133.40 Y140.46 E41.70593
G1 X133.71 Y139.91 E41.73571
G1 X136.11 Y136.98 E41.91443
G1 X136.51 Y136.49 E41.94434
G0 F12000 X136.80 Y136.78
G1 F2700 X139.70 Y134.40 E42.12115
G1 X140.14 Y134.03 E42.14838
G1 X143.47 Y132.25 E42.32659
G1 X143.97 Y131.97 E42.35330
G1 X147.60 Y130.87 E42.53209
G1 X148.15 Y130.70 E42.55924
G1 X151.91 Y130.33 E42.73760
G1 X152.50 Y130.28 E42.76522
G1 X156.25 Y130.64 E42.94315
G1 X156.84 Y130.70 E42.97106
G1 X160.45 Y131.80 E43.14920
G1 X161.02 Y131.97 E43.17715
G1 X164.35 Y133.75 E43.35510
G1 X164.87 Y134.04 E43.38300
G1 X167.77 Y136.42 E43.55995
G1 X168.22 Y136.80 E43.58795
G1 X170.58 Y139.67 E43.76336
G1 X170.97 Y140.14 E43.79199
G1 X172.73 Y143.43 E43.96773
G1 X173.03 Y143.97 E43.99691
G1 X174.13 Y147.60 E44.17570
G1 X174.30 Y148.15 E44.20285
G1 X174.66 Y151.90 E44.38078
G1 X174.72 Y152.50 E44.40883
G1 X174.36 Y156.25 E44.58676
G1 X174.30 Y156.84 E44.61467
G1 X173.20 Y160.45 E44.79281
G1 X173.03 Y161.02 E44.82076
G1 X171.25 Y164.35 E44.99871
G1 X170.96 Y164.87 E45.02661
G1 X168.58 Y167.77 E45.20356
G1 X168.20 Y168.22 E45.23156
G1 X165.30 Y170.60 E45.40838
G1 X164.86 Y170.97 E45.43560
G1 X161.53 Y172.75 E45.61381
G1 X161.03 Y173.03 E45.64053
G1 X157.40 Y174.13 E45.81932
G1 X156.85 Y174.30 E45.84646
G1 X153.09 Y174.67 E46.02482
G1 X152.50 Y174.72 E46.05245
G1 X148.75 Y174.36 E46.23037
G1 X148.16 Y174.30 E46.25828
G1 X144.55 Y173.20 E46.43642
G1 X143.98 Y173.03 E46.46437
G1 X140.65 Y171.25 E46.64232
G1 X140.13 Y170.96 E46.67022
G1 X137.23 Y168.58 E46.84717
G1 X136.78 Y168.20 E46.87517
G1 X134.40 Y165.30 E47.05199
G1 X134.03 Y164.86 E47.07921
G1 X132.25 Y161.53 E47.25742
G1 X131.97 Y161.03 E47.28414
G1 X130.87 Y157.40 E47.46293
G1 X130.70 Y156.85 E47.49007
G1 X130.33 Y153.09 E47.66843
G1 X130.28 Y152.50 E47.69606
G1 X130.64 Y148.75 E47.87398
G1 X130.70 Y148.16 E47.90189
G1 X131.80 Y144.55 E48.08003
G1 X131.97 Y143.98 E48.10798
G1 X133.75 Y140.65 E48.28593
G1 X134.04 Y140.13 E48.31383
G1 X136.42 Y137.23 E48.49078
G1 X136.80 Y136.78 E48.51878
G0 F12000 X137.08 Y137.06
G1 F2700 X139.95 Y134.71 E48.69382
G1 X140.37 Y134.36 E48.71924
G1 X143.66 Y132.60 E48.89555
G1 X144.13 Y132.34 E48.92050
G1 X147.71 Y131.26 E49.09730
G1 X148.23 Y131.10 E49.12263
G1 X151.95 Y130.73 E49.29909
G1 X152.50 Y130.68 E49.32492
G1 X156.21 Y131.04 E49.50090
G1 X156.76 Y131.10 E49.52701
G1 X160.34 Y132.18 E49.70323
G1 X160.87 Y132.35 E49.72931
G1 X164.16 Y134.11 E49.90538
G1 X164.64 Y134.37 E49.93140
G1 X167.51 Y136.73 E50.10651
G1 X167.94 Y137.08 E50.13267
G1 X170.28 Y139.93 E50.30637
G1 X170.64 Y140.37 E50.33313
G1 X172.40 Y143.66 E50.50944
G1 X172.66 Y144.13 E50.53438
G1 X173.74 Y147.71 E50.71119
G1 X173.90 Y148.23 E50.73652
G1 X174.27 Y151.94 E50.91255
G1 X174.32 Y152.50 E50.93880
G1 X173.96 Y156.21 E51.11478
G1 X173.90 Y156.76 E51.14090
G1 X172.82 Y160.34 E51.31712
G1 X172.65 Y160.87 E51.34319
G1 X170.89 Y164.16 E51.51927
G1 X170.63 Y164.64 E51.54529
G1 X168.27 Y167.51 E51.72040
G1 X167.92 Y167.94 E51.74655
G1 X165.05 Y170.29 E51.92160
G1 X164.63 Y170.64 E51.94702
G1 X161.34 Y172.40 E52.12333
G1 X160.87 Y172.66 E52.14827
G1 X157.29 Y173.74 E52.32508
G1 X156.77 Y173.90 E52.35040
G1 X153.05 Y174.27 E52.52686
G1 X152.50 Y174.32 E52.55269
G1 X148.79 Y173.96 E52.72867
G1 X148.24 Y173.90 E52.75478
G1 X144.66 Y172.82 E52.93101
G1 X144.13 Y172.65 E52.95708
G1 X140.84 Y170.89 E53.13316
G1 X140.36 Y170.63 E53.15918
G1 X137.49 Y168.27 E53.33429
G1 X137.06 Y167.92 E53.36044
G1 X134.71 Y165.05 E53.53548
G1 X134.36 Y164.63 E53.56090
G1 X132.60 Y161.34 E53.73721
G1 X132.34 Y160.87 E53.76216
G1 X131.26 Y157.29 E53.93896
G1 X131.10 Y156.77 E53.96429
G1 X130.73 Y153.05 E54.14075
G1 X130.68 Y152.50 E54.16658
G1 X131.04 Y148.79 E54.34256
G1 X131.10 Y148.24 E54.36867
G1 X132.18 Y144.66 E54.54489
G1 X132.35 Y144.13 E54.57097
G1 X134.11 Y140.84 E54.74704
G1 X134.37 Y140.36 E54.77306
G1 X136.73 Y137.49 E54.94817
G1 X137.08 Y137.06 E54.97433
G0 F12000 X137.36 Y137.34
G1 F2700 X140.18 Y135.03 E55.14632
G1 X140.59 Y134.70 E55.17114
G1 X143.85 Y132.95 E55.34553
G1 X144.28 Y132.72 E55.36874
G1 X147.83 Y131.64 E55.54358
G1 X148.31 Y131.49 E55.56713
G1 X151.99 Y131.13 E55.74165
G1 X152.50 Y131.08 E55.76563
G1 X156.17 Y131.44 E55.93976
G1 X156.68 Y131.49 E55.96399
G1 X160.22 Y132.56 E56.13827
G1 X160.71 Y132.72 E56.16253
G1 X163.97 Y134.46 E56.33668
G1 X164.42 Y134.70 E56.36087
G1 X167.26 Y137.03 E56.53416
G1 X167.66 Y137.36 E56.55848
G1 X169.97 Y140.18 E56.73047
G1 X170.30 Y140.59 E56.75529
G1 X172.05 Y143.85 E56.92968
G1 X172.28 Y144.28 E56.95289
G1 X173.36 Y147.83 E57.12773
G1 X173.51 Y148.31 E57.15128
G1 X173.87 Y151.98 E57.32542
G1 X173.92 Y152.50 E57.34978
G1 X173.56 Y156.17 E57.52391
G1 X173.51 Y156.68 E57.54814
G1 X172.44 Y160.22 E57.72242
G1 X172.28 Y160.71 E57.74667
G1 X170.54 Y163.97 E57.92083
G1 X170.30 Y164.42 E57.94502
G1 X167.97 Y167.26 E58.11831
G1 X167.64 Y167.66 E58.14263
G1 X164.82 Y169.97 E58.31462
G1 X164.41 Y170.30 E58.33944
G1 X161.15 Y172.05 E58.51383
G1 X160.72 Y172.28 E58.53704
G1 X157.17 Y173.36 E58.71188
G1 X156.69 Y173.51 E58.73543
G1 X153.01 Y173.87 E58.90994
G1 X152.50 Y173.92 E58.93393
G1 X148.83 Y173.56 E59.10806
G1 X148.32 Y173.51 E59.13229
G1 X144.78 Y172.44 E59.30657
G1 X144.29 Y172.28 E59.33082
G1 X141.03 Y170.54 E59.50498
G1 X140.58 Y170.30 E59.52917
G1 X137.74 Y167.97 E59.70246
G1 X137.34 Y167.64 E59.72678
G1 X135.03 Y164.82 E59.89877
G1 X134.70 Y164.41 E59.92359
G1 X132.95 Y161.15 E60.09797
G1 X132.72 Y160.72 E60.12119
G1 X131.64 Y157.17 E60.29603
G1 X131.49 Y156.69 E60.31958
G1 X131.13 Y153.01 E60.49409
G1 X131.08 Y152.50 E60.51808
G1 X131.44 Y148.83 E60.69221
G1 X131.49 Y148.32 E60.71643
G1 X132.56 Y144.78 E60.89072
G1 X132.72 Y144.29 E60.91497
G1 X134.46 Y141.03 E61.08913
G1 X134.70 Y140.58 E61.11331
G1 X137.03 Y137.74 E61.28661
G1 X137.36 Y137.34 E61.31093
G0 F12000 X137.65 Y137.63
G1 F2700 X140.46 Y135.32 E61.48232
G1 X140.81 Y135.03 E61.50415
G1 X144.00 Y133.32 E61.67472
G1 X144.44 Y133.09 E61.69804
G1 X147.95 Y132.02 E61.87095
G1 X148.39 Y131.89 E61.89273
G1 X152.03 Y131.53 E62.06530
G1 X152.50 Y131.48 E62.08743
G1 X156.13 Y131.84 E62.25967
G1 X156.60 Y131.89 E62.28205
G1 X160.10 Y132.95 E62.45447
G1 X160.56 Y133.09 E62.47683
G1 X163.78 Y134.81 E62.64913
G1 X164.19 Y135.04 E62.67144
G1 X167.00 Y137.34 E62.84293
G1 X167.37 Y137.65 E62.86536
G1 X169.66 Y140.44 E63.03565
G1 X169.97 Y140.81 E63.05859
G1 X171.68 Y144.00 E63.22916
G1 X171.91 Y144.44 E63.25247
G1 X172.97 Y147.92 E63.42411
G1 X173.11 Y148.39 E63.44717
G1 X173.47 Y152.02 E63.61941
G1 X173.52 Y152.50 E63.64187
G1 X173.16 Y156.13 E63.81411
G1 X173.11 Y156.60 E63.83649
G1 X172.05 Y160.10 E64.00891
G1 X171.91 Y160.56 E64.03127
G1 X170.19 Y163.78 E64.20357
G1 X169.96 Y164.19 E64.22587
G1 X167.66 Y167.00 E64.39737
G1 X167.35 Y167.37 E64.41980
G1 X164.54 Y169.68 E64.59119
G1 X164.19 Y169.97 E64.61302
G1 X161.00 Y171.68 E64.78359
G1 X160.56 Y171.91 E64.80691
G1 X157.05 Y172.98 E64.97983
G1 X156.61 Y173.11 E65.00160
G1 X152.97 Y173.47 E65.17418
G1 X152.50 Y173.52 E65.19631
G1 X148.87 Y173.16 E65.36855
G1 X148.40 Y173.11 E65.39092
G1 X144.90 Y172.05 E65.56335
G1 X144.44 Y171.91 E65.58570
G1 X141.22 Y170.19 E65.75801
G1 X140.81 Y169.96 E65.78031
G1 X138.00 Y167.66 E65.95180
G1 X137.63 Y167.35 E65.97424
G1 X135.32 Y164.54 E66.14563
G1 X135.03 Y164.19 E66.16746
G1 X133.32 Y161.00 E66.33803
G1 X133.09 Y160.56 E66.36135
G1 X132.02 Y157.05 E66.53426
G1 X131.89 Y156.61 E66.55604
G1 X131.53 Y152.97 E66.72862
G1 X131.48 Y152.50 E66.75075
G1 X131.84 Y148.87 E66.92299
G1 X131.89 Y148.40 E66.94536
G1 X132.95 Y144.90 E67.11778
G1 X133.09 Y144.44 E67.14014
G1 X134.81 Y141.22 E67.31244
G1 X135.04 Y140.81 E67.33475
G1 X137.34 Y138.00 E67.50624
G1 X137.65 Y137.63 E67.52868
G0 F12000 X137.93 Y137.91
G1 F2700 X140.71 Y135.63 E67.69829
G1 X141.04 Y135.36 E67.71828
G1 X144.19 Y133.68 E67.88714
G1 X144.59 Y133.46 E67.90852
G1 X148.04 Y132.41 E68.07848
G1 X148.47 Y132.28 E68.09942
G1 X152.07 Y131.93 E68.27015
G1 X152.50 Y131.88 E68.29043
G1 X156.09 Y132.24 E68.46078
G1 X156.53 Y132.28 E68.48130
G1 X159.99 Y133.33 E68.65180
G1 X160.40 Y133.46 E68.67229
G1 X163.59 Y135.16 E68.84269
G1 X163.97 Y135.37 E68.86319
G1 X166.75 Y137.65 E69.03283
G1 X167.09 Y137.93 E69.05339
G1 X169.35 Y140.69 E69.22197
G1 X169.64 Y141.04 E69.24300
G1 X171.32 Y144.19 E69.41186
G1 X171.54 Y144.59 E69.43324
G1 X172.59 Y148.04 E69.60305
G1 X172.72 Y148.47 E69.62414
G1 X173.07 Y152.06 E69.79453
G1 X173.12 Y152.50 E69.81515
G1 X172.76 Y156.09 E69.98550
G1 X172.72 Y156.53 E70.00602
G1 X171.67 Y159.99 E70.17651
G1 X171.54 Y160.40 E70.19701
G1 X169.84 Y163.59 E70.36741
G1 X169.63 Y163.97 E70.38790
G1 X167.35 Y166.75 E70.55755
G1 X167.07 Y167.09 E70.57811
G1 X164.29 Y169.37 E70.74772
G1 X163.96 Y169.64 E70.76772
G1 X160.81 Y171.32 E70.93658
G1 X160.41 Y171.54 E70.95795
G1 X156.96 Y172.59 E71.12776
G1 X156.53 Y172.72 E71.14885
G1 X152.93 Y173.07 E71.31958
G1 X152.50 Y173.12 E71.33986
G1 X148.91 Y172.76 E71.51021
G1 X148.47 Y172.72 E71.53073
G1 X145.01 Y171.67 E71.70123
G1 X144.60 Y171.54 E71.72172
G1 X141.41 Y169.84 E71.89212
G1 X141.03 Y169.63 E71.91262
G1 X138.25 Y167.35 E72.08226
G1 X137.91 Y167.07 E72.10283
G1 X135.63 Y164.29 E72.27244
G1 X135.36 Y163.96 E72.29243
G1 X133.68 Y160.81 E72.46129
G1 X133.46 Y160.41 E72.48267
G1 X132.41 Y156.94 E72.65361
G1 X132.28 Y156.53 E72.67357
G1 X131.93 Y152.93 E72.84430
G1 X131.88 Y152.50 E72.86458
G1 X132.24 Y148.91 E73.03493
G1 X132.28 Y148.47 E73.05545
G1 X133.33 Y145.01 E73.22595
G1 X133.46 Y144.60 E73.24644
G1 X135.16 Y141.41 E73.41684
G1 X135.37 Y141.03 E73.43733
G1 X137.65 Y138.25 E73.60698
G1 X137.93 Y137.91 E73.62754
G0 F12000 X138.21 Y138.20
G1 F2700 X140.97 Y135.94 E73.79534
G1 X141.26 Y135.70 E73.81353
G1 X144.39 Y134.03 E73.98064
G1 X144.75 Y133.83 E74.00010
G1 X148.18 Y132.79 E74.16907
G1 X148.55 Y132.67 E74.18724
G1 X152.11 Y132.32 E74.35602
G1 X152.50 Y132.28 E74.37446
G1 X156.05 Y132.63 E74.54291
G1 X156.45 Y132.67 E74.56158
G1 X159.87 Y133.71 E74.73017
G1 X160.25 Y133.83 E74.74883
G1 X163.40 Y135.51 E74.91731
G1 X163.74 Y135.70 E74.93597
G1 X166.50 Y137.96 E75.10381
G1 X166.80 Y138.21 E75.12252
G1 X169.04 Y140.95 E75.28942
G1 X169.30 Y141.26 E75.30851
G1 X170.97 Y144.39 E75.47562
G1 X171.17 Y144.75 E75.49508
G1 X172.21 Y148.18 E75.66406
G1 X172.33 Y148.55 E75.68222
G1 X172.68 Y152.10 E75.85072
G1 X172.72 Y152.50 E75.86944
G1 X172.37 Y156.05 E76.03789
G1 X172.33 Y156.45 E76.05657
G1 X171.29 Y159.87 E76.22515
G1 X171.17 Y160.25 E76.24381
G1 X169.49 Y163.40 E76.41229
G1 X169.30 Y163.74 E76.43095
G1 X167.04 Y166.50 E76.59879
G1 X166.79 Y166.80 E76.61751
G1 X164.03 Y169.06 E76.78531
G1 X163.74 Y169.30 E76.80349
G1 X160.61 Y170.97 E76.97060
G1 X160.25 Y171.17 E76.99006
G1 X156.82 Y172.21 E77.15904
G1 X156.45 Y172.33 E77.17720
G1 X152.89 Y172.68 E77.34599
G1 X152.50 Y172.72 E77.36442
G1 X148.95 Y172.37 E77.53288
G1 X148.55 Y172.33 E77.55155
G1 X145.13 Y171.29 E77.72013
G1 X144.75 Y171.17 E77.73879
G1 X141.60 Y169.49 E77.90727
G1 X141.26 Y169.30 E77.92593
G1 X138.50 Y167.04 E78.09377
G1 X138.20 Y166.79 E78.11249
G1 X135.94 Y164.03 E78.28029
G1 X135.70 Y163.74 E78.29848
G1 X134.03 Y160.61 E78.46559
G1 X133.83 Y160.25 E78.48504
G1 X132.79 Y156.82 E78.65402
G1 X132.67 Y156.45 E78.67219
G1 X132.32 Y152.89 E78.84097
G1 X132.28 Y152.50 E78.85940
G1 X132.63 Y148.95 E79.02786
G1 X132.67 Y148.55 E79.04653
G1 X133.71 Y145.13 E79.21512
G1 X133.83 Y144.75 E79.23378
G1 X135.51 Y141.60 E79.40226
G1 X135.70 Y141.26 E79.42091
G1 X137.96 Y138.50 E79.58875
G1 X138.21 Y138.20 E79.60747
G0 F12000 X138.50 Y138.49
G1 F2700 X141.21 Y136.26 E79.77266
G1 X141.49 Y136.03 E79.78987
G1 X144.60 Y134.36 E79.95664
G1 X144.90 Y134.20 E79.97272
G1 X148.29 Y133.17 E80.13977
G1 X148.63 Y133.07 E80.15617
G1 X152.15 Y132.72 E80.32301
G1 X152.50 Y132.69 E80.33959
G1 X156.01 Y133.03 E80.50620
G1 X156.37 Y133.07 E80.52297
G1 X159.75 Y134.09 E80.68968
G1 X160.09 Y134.20 E80.70648
G1 X163.21 Y135.87 E80.87308
G1 X163.52 Y136.04 E80.88986
G1 X166.24 Y138.27 E81.05588
G1 X166.51 Y138.50 E81.07273
G1 X168.74 Y141.21 E81.23792
G1 X168.97 Y141.49 E81.25513
G1 X170.62 Y144.58 E81.42051
G1 X170.80 Y144.90 E81.43799
G1 X171.83 Y148.29 E81.60504
G1 X171.93 Y148.63 E81.62143
G1 X172.28 Y152.14 E81.78798
G1 X172.31 Y152.50 E81.80486
G1 X171.97 Y156.01 E81.97146
G1 X171.93 Y156.37 E81.98824
G1 X170.91 Y159.75 E82.15494
G1 X170.80 Y160.09 E82.17174
G1 X169.13 Y163.21 E82.33834
G1 X168.96 Y163.52 E82.35512
G1 X166.73 Y166.24 E82.52115
G1 X166.50 Y166.51 E82.53799
G1 X163.79 Y168.74 E82.70318
G1 X163.51 Y168.97 E82.72039
G1 X160.40 Y170.64 E82.88717
G1 X160.10 Y170.80 E82.90325
G1 X156.71 Y171.83 E83.07030
G1 X156.37 Y171.93 E83.08669
G1 X152.85 Y172.28 E83.25353
G1 X152.50 Y172.31 E83.27012
G1 X148.99 Y171.97 E83.43672
G1 X148.63 Y171.93 E83.45350
G1 X145.25 Y170.91 E83.62021
G1 X144.91 Y170.80 E83.63700
G1 X141.79 Y169.13 E83.80360
G1 X141.48 Y168.96 E83.82038
G1 X138.76 Y166.73 E83.98641
G1 X138.49 Y166.50 E84.00325
G1 X136.26 Y163.79 E84.16844
G1 X136.03 Y163.51 E84.18566
G1 X134.36 Y160.40 E84.35243
G1 X134.20 Y160.10 E84.36851
G1 X133.17 Y156.71 E84.53556
G1 X133.07 Y156.37 E84.55195
G1 X132.72 Y152.85 E84.71879
G1 X132.69 Y152.50 E84.73538
G1 X133.03 Y148.99 E84.90198
G1 X133.07 Y148.63 E84.91876
G1 X134.09 Y145.25 E85.08547
G1 X134.20 Y144.91 E85.10226
G1 X135.87 Y141.79 E85.26887
G1 X136.04 Y141.48 E85.28564
G1 X138.27 Y138.76 E85.45167
G1 X138.50 Y138.49 E85.46852
G0 F12000 X138.78 Y138.77
G1 F2700 X141.47 Y136.56 E85.63270
G1 X141.71 Y136.36 E85.64730
G1 X144.79 Y134.72 E85.81215
G1 X145.06 Y134.57 E85.82650
G1 X148.41 Y133.55 E85.99159
G1 X148.71 Y133.46 E86.00616
G1 X152.19 Y133.12 E86.17110
G1 X152.50 Y133.09 E86.18589
G1 X155.97 Y133.43 E86.35055
G1 X156.29 Y133.46 E86.36548
G1 X159.63 Y134.48 E86.53030
G1 X159.94 Y134.57 E86.54522
G1 X163.02 Y136.22 E86.70997
G1 X163.29 Y136.37 E86.72487
G1 X165.99 Y138.58 E86.88909
G1 X166.23 Y138.78 E86.90406
G1 X168.43 Y141.46 E87.06757
G1 X168.64 Y141.71 E87.08284
G1 X170.27 Y144.77 E87.24651
G1 X170.43 Y145.06 E87.26205
G1 X171.44 Y148.39 E87.42634
G1 X171.54 Y148.71 E87.44170
G1 X171.88 Y152.19 E87.60664
G1 X171.91 Y152.50 E87.62143
G1 X171.57 Y155.97 E87.78609
G1 X171.54 Y156.29 E87.80102
G1 X170.52 Y159.63 E87.96585
G1 X170.43 Y159.94 E87.98076
G1 X168.78 Y163.02 E88.14551
G1 X168.63 Y163.29 E88.16041
G1 X166.42 Y165.99 E88.32463
G1 X166.22 Y166.23 E88.33960
G1 X163.53 Y168.44 E88.50378
G1 X163.29 Y168.64 E88.51838
G1 X160.21 Y170.28 E88.68324
G1 X159.94 Y170.43 E88.69759
G1 X156.59 Y171.45 E88.86267
G1 X156.29 Y171.54 E88.87724
G1 X152.81 Y171.88 E89.04218
G1 X152.50 Y171.91 E89.05697
G1 X149.03 Y171.57 E89.22163
G1 X148.71 Y171.54 E89.23656
G1 X145.37 Y170.52 E89.40139
G1 X145.06 Y170.43 E89.41630
G1 X141.98 Y168.78 E89.58105
G1 X141.71 Y168.63 E89.59595
G1 X139.01 Y166.42 E89.76017
G1 X138.77 Y166.22 E89.77514
G1 X136.56 Y163.53 E89.93933
G1 X136.36 Y163.29 E89.95393
G1 X134.72 Y160.21 E90.11878
G1 X134.57 Y159.94 E90.13313
G1 X133.55 Y156.59 E90.29821
G1 X133.46 Y156.29 E90.31278
G1 X133.12 Y152.81 E90.47773
G1 X133.09 Y152.50 E90.49251
G1 X133.43 Y149.03 E90.65717
G1 X133.46 Y148.71 E90.67210
G1 X134.48 Y145.37 E90.83693
G1 X134.57 Y145.06 E90.85184
G1 X136.22 Y141.98 E91.01659
G1 X136.37 Y141.71 E91.03149
G1 X138.58 Y139.01 E91.19571
G1 X138.78 Y138.77 E91.21068
G0 F12000 X139.06 Y139.06
G1 F2700 X141.73 Y136.87 E91.37306
G1 X141.93 Y136.70 E91.38581
G1 X144.96 Y135.08 E91.54778
G1 X145.22 Y134.94 E91.56137
G1 X148.51 Y133.94 E91.72384
G1 X148.78 Y133.86 E91.73728
G1 X152.22 Y133.52 E91.90008
G1 X152.50 Y133.49 E91.91321
G1 X155.93 Y133.83 E92.07603
G1 X156.21 Y133.86 E92.08910
G1 X159.51 Y134.86 E92.25198
G1 X159.78 Y134.94 E92.26506
G1 X162.83 Y136.57 E92.42793
G1 X163.07 Y136.70 E92.44095
G1 X165.73 Y138.89 E92.60336
G1 X165.94 Y139.06 E92.61649
G1 X168.12 Y141.72 E92.77826
G1 X168.30 Y141.93 E92.79162
G1 X169.92 Y144.96 E92.95358
G1 X170.06 Y145.22 E92.96717
G1 X171.06 Y148.51 E93.12964
G1 X171.14 Y148.78 E93.14308
G1 X171.48 Y152.22 E93.30589
G1 X171.51 Y152.50 E93.31902
G1 X171.17 Y155.93 E93.48183
G1 X171.14 Y156.21 E93.49491
G1 X170.14 Y159.51 E93.65778
G1 X170.06 Y159.78 E93.67086
G1 X168.43 Y162.83 E93.83373
G1 X168.30 Y163.07 E93.84676
G1 X166.11 Y165.73 E94.00917
G1 X165.94 Y165.94 E94.02229
G1 X163.27 Y168.13 E94.18467
G1 X163.07 Y168.30 E94.19742
G1 X160.04 Y169.92 E94.35939
G1 X159.78 Y170.06 E94.37298
G1 X156.49 Y171.06 E94.53545
G1 X156.22 Y171.14 E94.54889
G1 X152.78 Y171.48 E94.71170
G1 X152.50 Y171.51 E94.72482
G1 X149.07 Y171.17 E94.88764
G1 X148.79 Y171.14 E94.90072
G1 X145.49 Y170.14 E95.06359
G1 X145.22 Y170.06 E95.07667
G1 X142.17 Y168.43 E95.23954
G1 X141.93 Y168.30 E95.25256
G1 X139.27 Y166.11 E95.41497
G1 X139.06 Y165.94 E95.42810
G1 X136.87 Y163.27 E95.59047
G1 X136.70 Y163.07 E95.60323
G1 X135.07 Y160.02 E95.76620
G1 X134.94 Y159.78 E95.77878
G1 X133.94 Y156.47 E95.94194
G1 X133.86 Y156.22 E95.95469
G1 X133.52 Y152.78 E96.11769
G1 X133.49 Y152.50 E96.13063
G1 X133.83 Y149.07 E96.29344
G1 X133.86 Y148.79 E96.30652
G1 X134.86 Y145.49 E96.46939
G1 X134.94 Y145.22 E96.48248
G1 X136.57 Y142.17 E96.64534
G1 X136.70 Y141.93 E96.65837
G1 X138.89 Y139.27 E96.82078
G1 X139.06 Y139.06 E96.83390
G0 F12000 X139.35 Y139.34
G1 F2700 X141.98 Y137.18 E96.99447
G1 X141.98 Y137.18 E96.99453
G1 X142.16 Y137.03 E97.00555
G1 X145.17 Y135.42 E97.16654
G1 X145.37 Y135.31 E97.17734
G1 X148.64 Y134.32 E97.33859
G1 X148.87 Y134.25 E97.34954
G1 X152.26 Y133.92 E97.51046
G1 X152.50 Y133.89 E97.52169
G1 X155.90 Y134.23 E97.68265
G1 X156.13 Y134.25 E97.69384
G1 X159.40 Y135.24 E97.85483
G1 X159.62 Y135.31 E97.86605
G1 X162.63 Y136.92 E98.02700
G1 X162.84 Y137.03 E98.03822
G1 X165.48 Y139.19 E98.19882
G1 X165.66 Y139.35 E98.21004
G1 X167.82 Y141.98 E98.37060
G1 X167.82 Y141.98 E98.37067
G1 X167.97 Y142.16 E98.38168
G1 X169.57 Y145.16 E98.54187
G1 X169.69 Y145.37 E98.55348
G1 X170.68 Y148.63 E98.71413
G1 X170.75 Y148.87 E98.72568
G1 X171.08 Y152.26 E98.88659
G1 X171.11 Y152.50 E98.89783
G1 X170.77 Y155.90 E99.05879
G1 X170.75 Y156.13 E99.06997
G1 X169.76 Y159.40 E99.23097
G1 X169.69 Y159.62 E99.24218
G1 X168.08 Y162.63 E99.40313
G1 X167.97 Y162.84 E99.41436
G1 X165.81 Y165.48 E99.57496
G1 X165.65 Y165.66 E99.58618
G1 X163.02 Y167.82 E99.74674
G1 X163.02 Y167.82 E99.74681
G1 X162.84 Y167.97 E99.75782
G1 X159.83 Y169.58 E99.91881
G1 X159.63 Y169.69 E99.92962
G1 X156.36 Y170.68 E100.09086
G1 X156.13 Y170.75 E100.10181
G1 X152.74 Y171.08 E100.26273
G1 X152.50 Y171.11 E100.27396
G1 X149.10 Y170.77 E100.43493
G1 X148.87 Y170.75 E100.44611
G1 X145.60 Y169.76 E100.60710
G1 X145.38 Y169.69 E100.61832
G1 X142.37 Y168.08 E100.77927
G1 X142.16 Y167.97 E100.79050
G1 X139.52 Y165.81 E100.95110
G1 X139.34 Y165.65 E100.96231
G1 X137.18 Y163.02 E101.12288
G1 X137.18 Y163.02 E101.12294
G1 X137.03 Y162.84 E101.13396
G1 X135.42 Y159.83 E101.29495
G1 X135.31 Y159.63 E101.30575
G1 X134.32 Y156.36 E101.46700
G1 X134.25 Y156.13 E101.47795
G1 X133.92 Y152.74 E101.63901
G1 X133.89 Y152.50 E101.65010
G1 X134.23 Y149.10 E101.81106
G1 X134.25 Y148.87 E101.82225
G1 X135.24 Y145.60 E101.98324
G1 X135.31 Y145.38 E101.99446
G1 X136.92 Y142.37 E102.15541
G1 X137.03 Y142.16 E102.16663
G1 X139.19 Y139.52 E102.32723
G1 X139.35 Y139.34 E102.33845
G0 F12000 X139.63 Y139.62
G1 F2700 X142.23 Y137.49 E102.49721
G1 X142.38 Y137.37 E102.50642
G1 X145.36 Y135.77 E102.66555
G1 X145.53 Y135.68 E102.67458
G1 X148.76 Y134.70 E102.83385
G1 X148.94 Y134.65 E102.84298
G1 X152.30 Y134.31 E103.00205
G1 X152.50 Y134.29 E103.01143
G1 X155.85 Y134.62 E103.17045
G1 X156.05 Y134.65 E103.17979
G1 X159.28 Y135.62 E103.33890
G1 X159.47 Y135.68 E103.34823
G1 X162.44 Y137.27 E103.50732
G1 X162.62 Y137.37 E103.51667
G1 X165.22 Y139.50 E103.67543
G1 X165.38 Y139.63 E103.68480
G1 X167.50 Y142.23 E103.84319
G1 X167.63 Y142.38 E103.85277
G1 X169.23 Y145.36 E104.01191
G1 X169.32 Y145.53 E104.02094
G1 X170.29 Y148.75 E104.17975
G1 X170.35 Y148.94 E104.18933
G1 X170.69 Y152.30 E104.34840
G1 X170.71 Y152.50 E104.35778
G1 X170.38 Y155.85 E104.51681
G1 X170.35 Y156.05 E104.52614
G1 X169.38 Y159.28 E104.68526
G1 X169.32 Y159.47 E104.69458
G1 X167.73 Y162.44 E104.85368
G1 X167.63 Y162.62 E104.86302
G1 X165.50 Y165.22 E105.02178
G1 X165.37 Y165.38 E105.03116
G1 X162.77 Y167.51 E105.18992
G1 X162.62 Y167.63 E105.19912
G1 X159.64 Y169.23 E105.35826
G1 X159.47 Y169.32 E105.36729
G1 X156.24 Y170.30 E105.52656
G1 X156.06 Y170.35 E105.53569
G1 X152.70 Y170.69 E105.69475
G1 X152.50 Y170.71 E105.70414
G1 X149.15 Y170.38 E105.86316
G1 X148.95 Y170.35 E105.87250
G1 X145.72 Y169.38 E106.03161
G1 X145.53 Y169.32 E106.04094
G1 X142.56 Y167.73 E106.20003
G1 X142.38 Y167.63 E106.20938
G1 X139.78 Y165.50 E106.36814
G1 X139.62 Y165.37 E106.37751
G1 X137.49 Y162.77 E106.53627
G1 X137.37 Y162.62 E106.54548
G1 X135.77 Y159.64 E106.70462
G1 X135.68 Y159.47 E106.71365
G1 X134.70 Y156.24 E106.87291
G1 X134.65 Y156.06 E106.88204
G1 X134.31 Y152.70 E107.04120
G1 X134.29 Y152.50 E107.05049
G1 X134.62 Y149.15 E107.20952
G1 X134.65 Y148.95 E107.21885
G1 X135.62 Y145.72 E107.37797
G1 X135.68 Y145.53 E107.38729
G1 X137.27 Y142.56 E107.54639
G1 X137.37 Y142.38 E107.55573
G1 X139.50 Y139.78 E107.71449
G1 X139.63 Y139.62 E107.72387
G0 F12000 X139.91 Y139.91
G1 F2700 X142.48 Y137.80 E107.88055
G1 X142.48 Y137.80 E107.88062
G1 X142.61 Y137.70 E107.88825
G1 X145.55 Y136.13 E108.04551
G1 X145.68 Y136.05 E108.05277
G1 X148.88 Y135.09 E108.21007
G1 X149.02 Y135.04 E108.21742
G1 X152.34 Y134.71 E108.37455
G1 X152.50 Y134.70 E108.38208
G1 X155.82 Y135.02 E108.53926
G1 X155.97 Y135.04 E108.54674
G1 X159.16 Y136.01 E108.70389
G1 X159.31 Y136.05 E108.71139
G1 X162.25 Y137.62 E108.86859
G1 X162.39 Y137.70 E108.87608
G1 X164.97 Y139.81 E109.03303
G1 X165.09 Y139.91 E109.04056
G1 X167.20 Y142.48 E109.19724
G1 X167.20 Y142.48 E109.19731
G1 X167.30 Y142.61 E109.20495
G1 X168.87 Y145.54 E109.36172
G1 X168.95 Y145.68 E109.36946
G1 X169.91 Y148.87 E109.52646
G1 X169.96 Y149.02 E109.53411
G1 X170.29 Y152.34 E109.69124
G1 X170.30 Y152.50 E109.69877
G1 X169.98 Y155.82 E109.85595
G1 X169.96 Y155.97 E109.86344
G1 X168.99 Y159.16 E110.02058
G1 X168.95 Y159.31 E110.02809
G1 X167.38 Y162.25 E110.18528
G1 X167.30 Y162.39 E110.19277
G1 X165.19 Y164.97 E110.34972
G1 X165.09 Y165.09 E110.35725
G1 X162.52 Y167.20 E110.51393
G1 X162.52 Y167.20 E110.51400
G1 X162.39 Y167.30 E110.52164
G1 X159.45 Y168.87 E110.67890
G1 X159.32 Y168.95 E110.68616
G1 X156.12 Y169.91 E110.84345
G1 X155.98 Y169.96 E110.85080
G1 X152.66 Y170.29 E111.00793
G1 X152.50 Y170.30 E111.01547
G1 X149.18 Y169.98 E111.17264
G1 X149.03 Y169.96 E111.18013
G1 X145.84 Y168.99 E111.33728
G1 X145.69 Y168.95 E111.34478
G1 X142.75 Y167.38 E111.50197
G1 X142.61 Y167.30 E111.50947
G1 X140.03 Y165.19 E111.66641
G1 X139.91 Y165.09 E111.67395
G1 X137.80 Y162.52 E111.83063
G1 X137.80 Y162.52 E111.83069
G1 X137.70 Y162.39 E111.83833
G1 X136.13 Y159.45 E111.99559
G1 X136.05 Y159.32 E112.00285
G1 X135.09 Y156.12 E112.16014
G1 X135.04 Y155.98 E112.16750
G1 X134.71 Y152.66 E112.32472
G1 X134.70 Y152.50 E112.33216
G1 X135.02 Y149.18 E112.48933
G1 X135.04 Y149.03 E112.49682
G1 X136.01 Y145.84 E112.65397
G1 X136.05 Y145.69 E112.66147
G1 X137.62 Y142.75 E112.81866
G1 X137.70 Y142.61 E112.82616
G1 X139.81 Y140.03 E112.98310
G1 X139.91 Y139.91 E112.99064
G0 F12000 X140.20 Y140.19
G1 F2700 X142.74 Y138.11 E113.14577
G1 X142.83 Y138.03 E113.15140
G1 X145.74 Y136.48 E113.30668
G1 X145.84 Y136.42 E113.31216
G1 X148.99 Y135.47 E113.46734
G1 X149.10 Y135.43 E113.47311
G1 X152.38 Y135.11 E113.62834
G1 X152.50 Y135.10 E113.63398
G1 X155.78 Y135.42 E113.78926
G1 X155.90 Y135.43 E113.79490
G1 X159.05 Y136.39 E113.95017
G1 X159.16 Y136.42 E113.95580
G1 X162.06 Y137.98 E114.11108
G1 X162.17 Y138.03 E114.11673
G1 X164.71 Y140.12 E114.27188
G1 X164.81 Y140.20 E114.27753
G1 X166.89 Y142.74 E114.43254
G1 X166.97 Y142.83 E114.43830
G1 X168.52 Y145.73 E114.59330
G1 X168.58 Y145.84 E114.59906
G1 X169.53 Y148.99 E114.75423
G1 X169.57 Y149.10 E114.76001
G1 X169.89 Y152.38 E114.91524
G1 X169.90 Y152.50 E114.92088
G1 X169.58 Y155.78 E115.07615
G1 X169.57 Y155.90 E115.08179
G1 X168.61 Y159.05 E115.23706
G1 X168.58 Y159.16 E115.24270
G1 X167.02 Y162.06 E115.39797
G1 X166.97 Y162.17 E115.40363
G1 X164.88 Y164.71 E115.55877
G1 X164.80 Y164.81 E115.56443
G1 X162.26 Y166.89 E115.71956
G1 X162.17 Y166.97 E115.72519
G1 X159.26 Y168.52 E115.88046
G1 X159.16 Y168.58 E115.88595
G1 X156.01 Y169.53 E116.04113
G1 X155.90 Y169.57 E116.04690
G1 X152.62 Y169.89 E116.20213
G1 X152.50 Y169.90 E116.20777
G1 X149.22 Y169.58 E116.36305
G1 X149.10 Y169.57 E116.36869
G1 X145.95 Y168.61 E116.52396
G1 X145.84 Y168.58 E116.52959
G1 X142.94 Y167.02 E116.68487
G1 X142.83 Y166.97 E116.69052
G1 X140.29 Y164.88 E116.84567
G1 X140.19 Y164.80 E116.85132
G1 X138.11 Y162.26 E117.00646
G1 X138.03 Y162.17 E117.01208
G1 X136.48 Y159.26 E117.16736
G1 X136.42 Y159.16 E117.17285
G1 X135.47 Y156.01 E117.32822
G1 X135.43 Y155.90 E117.33380
G1 X135.11 Y152.62 E117.48907
G1 X135.10 Y152.50 E117.49467
G1 X135.42 Y149.22 E117.64994
G1 X135.43 Y149.10 E117.65558
G1 X136.39 Y145.95 E117.81085
G1 X136.42 Y145.84 E117.81649
G1 X137.98 Y142.94 E117.97176
G1 X138.03 Y142.83 E117.97742
G1 X140.12 Y140.29 E118.13256
G1 X140.20 Y140.19 E118.13822
G0 F12000 X140.48 Y140.48
G1 F2700 X142.99 Y138.42 E118.29158
G1 X143.06 Y138.37 E118.29536
G1 X145.93 Y136.83 E118.44876
G1 X145.99 Y136.79 E118.45247
G1 X149.11 Y135.85 E118.60583
G1 X149.18 Y135.83 E118.60963
G1 X152.50 Y135.50 E118.76681
G1 X155.82 Y135.83 E118.92393
G1 X158.93 Y136.77 E119.07733
G1 X159.00 Y136.79 E119.08109
G1 X161.87 Y138.33 E119.23449
G1 X161.94 Y138.37 E119.23827
G1 X164.46 Y140.43 E119.39160
G1 X164.52 Y140.48 E119.39538
G1 X166.58 Y142.99 E119.54868
G1 X166.63 Y143.06 E119.55253
G1 X168.17 Y145.92 E119.70582
G1 X168.21 Y145.99 E119.70964
G1 X169.15 Y149.11 E119.86299
G1 X169.17 Y149.18 E119.86680
G1 X169.50 Y152.50 E120.02397
G1 X169.17 Y155.82 E120.18110
G1 X168.23 Y158.93 E120.33450
G1 X168.21 Y159.00 E120.33826
G1 X166.67 Y161.87 E120.49165
G1 X166.63 Y161.94 E120.49543
G1 X164.57 Y164.46 E120.64876
G1 X164.52 Y164.52 E120.65255
G1 X162.01 Y166.58 E120.80591
G1 X161.94 Y166.63 E120.80969
G1 X159.07 Y168.17 E120.96309
G1 X159.01 Y168.21 E120.96680
G1 X155.89 Y169.15 E121.12016
G1 X155.82 Y169.17 E121.12396
G1 X152.50 Y169.50 E121.28114
G1 X149.18 Y169.17 E121.43826
G1 X146.07 Y168.23 E121.59166
G1 X146.00 Y168.21 E121.59542
G1 X143.13 Y166.67 E121.74882
G1 X143.06 Y166.63 E121.75260
G1 X140.54 Y164.57 E121.90593
G1 X140.48 Y164.52 E121.90971
G1 X138.42 Y162.01 E122.06307
G1 X138.37 Y161.94 E122.06686
G1 X136.83 Y159.07 E122.22025
G1 X136.79 Y159.01 E122.22397
G1 X135.85 Y155.89 E122.37737
G1 X135.83 Y155.82 E122.38113
G1 X135.50 Y152.50 E122.53830
G1 X135.83 Y149.18 E122.69543
G1 X136.77 Y146.07 E122.84883
G1 X136.79 Y146.00 E122.85259
G1 X138.33 Y143.13 E123.00598
G1 X138.37 Y143.06 E123.00976
G1 X140.43 Y140.54 E123.16309
G1 X140.48 Y140.48 E123.16688
G0 F12000 X141.04 Y141.05
;TYPE:WALL-INNER
G1 F2700 X143.50 Y139.03 E123.31682
G1 X146.30 Y137.54 E123.46661
G1 X149.34 Y136.62 E123.61627
G1 X152.50 Y136.31 E123.76591
G1 X155.66 Y136.62 E123.91555
G1 X158.69 Y137.53 E124.06510
G1 X161.49 Y139.03 E124.21485
G1 X163.95 Y141.05 E124.36472
G1 X165.97 Y143.50 E124.51453
G1 X167.46 Y146.30 E124.66432
G1 X168.38 Y149.34 E124.81398
G1 X168.69 Y152.50 E124.96362
G1 X168.38 Y155.66 E125.11326
G1 X167.47 Y158.69 E125.26281
G1 X165.97 Y161.49 E125.41245
G1 X163.96 Y163.95 E125.56230
G1 X161.50 Y165.97 E125.71224
G1 X158.70 Y167.46 E125.86203
G1 X155.66 Y168.38 E126.01168
G1 X152.50 Y168.69 E126.16133
G1 X149.34 Y168.38 E126.31096
G1 X146.31 Y167.47 E126.46052
G1 X143.51 Y165.97 E126.61026
G1 X141.05 Y163.95 E126.76014
G1 X139.03 Y161.50 E126.90995
G1 X137.54 Y158.70 E127.05974
G1 X136.62 Y155.66 E127.20939
G1 X136.31 Y152.50 E127.35904
G1 X136.62 Y149.34 E127.50867
G1 X137.53 Y146.31 E127.65823
G1 X139.03 Y143.51 E127.80797
G1 X141.04 Y141.05 E127.95772
G0 F12000 X140.74 Y140.80
;TYPE:WALL-OUTER
G1 F2700 X140.76 Y140.76 E127.95966
G1 X143.25 Y138.73 E128.11124
G1 X143.28 Y138.70 E128.11332
G1 X146.11 Y137.19 E128.26473
G1 X146.15 Y137.16 E128.26668
G1 X149.22 Y136.23 E128.41815
G1 X149.26 Y136.22 E128.42003
G1 X152.50 Y135.90 E128.57346
G1 X155.74 Y136.22 E128.72698
G1 X158.81 Y137.15 E128.87833
G1 X158.85 Y137.17 E128.88035
G1 X161.68 Y138.68 E129.03173
G1 X161.72 Y138.70 E129.03350
G1 X164.20 Y140.74 E129.18518
G1 X164.24 Y140.76 E129.18713
G1 X166.27 Y143.25 E129.33871
G1 X166.30 Y143.28 E129.34079
G1 X167.81 Y146.11 E129.49220
G1 X167.84 Y146.15 E129.49415
G1 X168.77 Y149.22 E129.64562
G1 X168.78 Y149.26 E129.64750
G1 X169.10 Y152.50 E129.80093
G1 X168.78 Y155.74 E129.95445
G1 X167.85 Y158.81 E130.10579
G1 X167.83 Y158.85 E130.10782
G1 X166.32 Y161.68 E130.25919
G1 X166.30 Y161.72 E130.26097
G1 X164.26 Y164.20 E130.41265
G1 X164.24 Y164.24 E130.41460
G1 X161.75 Y166.27 E130.56618
G1 X161.72 Y166.30 E130.56826
G1 X158.89 Y167.81 E130.71967
G1 X158.85 Y167.84 E130.72161
G1 X155.78 Y168.77 E130.87309
G1 X155.74 Y168.78 E130.87497
G1 X152.50 Y169.10 E131.02840
G1 X149.26 Y168.78 E131.18192
G1 X146.19 Y167.85 E131.33326
G1 X146.15 Y167.83 E131.33529
G1 X143.31 Y166.32 E131.48677
G1 X143.28 Y166.30 E131.48844
G1 X140.80 Y164.26 E131.64019
G1 X140.76 Y164.24 E131.64207
G1 X138.73 Y161.75 E131.79365
G1 X138.70 Y161.72 E131.79573
G1 X137.19 Y158.89 E131.94714
G1 X137.16 Y158.85 E131.94908
G1 X136.23 Y155.78 E132.10056
G1 X136.22 Y155.74 E132.10244
G1 X135.90 Y152.50 E132.25587
G1 X136.22 Y149.26 E132.40939
G1 X137.15 Y146.19 E132.56073
G1 X137.17 Y146.15 E132.56276
G1 X138.68 Y143.32 E132.71413
G1 X138.70 Y143.28 E132.71591
G1 X140.74 Y140.80 E132.86759
G0 F12000 X141.02 Y141.30
;TYPE:FILL
G1 F2700 X163.69 Y163.98 E134.37989
G0 F12000 X163.98 Y163.70
G1 F2700 X141.30 Y141.02 E135.89222
G0 F12000 X141.61 Y140.76
G1 F2700 X164.23 Y163.39 E137.40082
G0 F12000 X164.49 Y163.07
G1 F2700 X141.92 Y140.51 E138.90571
G0 F12000 X142.24 Y140.26
G1 F2700 X164.74 Y162.76 E140.40681
G0 F12000 X165.00 Y162.45
G1 F2700 X142.55 Y140.00 E141.90420
G0 F12000 X142.86 Y139.75
G1 F2700 X165.25 Y162.14 E143.39779
G0 F12000 X165.51 Y161.83
G1 F2700 X143.17 Y139.49 E144.88772
G0 F12000 X143.48 Y139.24
G1 F2700 X165.76 Y161.52 E146.37384
G0 F12000 X165.98 Y161.17
G1 F2700 X143.83 Y139.02 E147.85126
G0 F12000 X144.20 Y138.82
G1 F2700 X166.18 Y160.80 E149.31717
G0 F12000 X166.38 Y160.44
G1 F2700 X144.56 Y138.62 E150.77168
G0 F12000 X144.93 Y138.43
G1 F2700 X166.57 Y160.07 E152.21479
G0 F12000 X166.77 Y159.70
G1 F2700 X145.30 Y138.23 E153.64649
G0 F12000 X145.67 Y138.03
G1 F2700 X166.97 Y159.33 E155.06673
G0 F12000 X167.16 Y158.96
G1 F2700 X146.04 Y137.84 E156.47555
G0 F12000 X146.42 Y137.65
G1 F2700 X167.35 Y158.58 E157.87178
G0 F12000 X167.48 Y158.15
G1 F2700 X146.85 Y137.52 E159.24783
G0 F12000 X147.28 Y137.38
G1 F2700 X167.62 Y157.72 E160.60367
G0 F12000 X167.75 Y157.28
G1 F2700 X147.72 Y137.25 E161.93934
G0 F12000 X148.15 Y137.12
G1 F2700 X167.88 Y156.85 E163.25487
G0 F12000 X168.01 Y156.41
G1 F2700 X148.59 Y136.99 E164.55022
G0 F12000 X149.02 Y136.86
G1 F2700 X168.14 Y155.98 E165.82544
G0 F12000 X168.26 Y155.53
G1 F2700 X149.47 Y136.74 E167.07828
G0 F12000 X149.99 Y136.69
G1 F2700 X168.31 Y155.01 E168.30014
G0 F12000 X168.36 Y154.50
G1 F2700 X150.50 Y136.64 E169.49096
G0 F12000 X151.02 Y136.59
G1 F2700 X168.41 Y153.98 E170.65083
G0 F12000 X168.46 Y153.47
G1 F2700 X151.53 Y136.54 E171.77973
G0 F12000 X152.05 Y136.49
G1 F2700 X168.51 Y152.95 E172.87765
G0 F12000 X168.54 Y152.42
G1 F2700 X152.57 Y136.45 E173.94269
G0 F12000 X153.20 Y136.51
G1 F2700 X168.48 Y151.80 E174.96185
G0 F12000 X168.42 Y151.17
G1 F2700 X153.83 Y136.58 E175.93506
G0 F12000 X154.46 Y136.64
G1 F2700 X168.36 Y150.54 E176.86238
G0 F12000 X168.30 Y149.91
G1 F2700 X155.08 Y136.70 E177.74369
G0 F12000 X155.74 Y136.78
G1 F2700 X168.22 Y149.26 E178.57599
G0 F12000 X167.97 Y148.45
G1 F2700 X156.55 Y137.03 E179.33772
G0 F12000 X157.36 Y137.28
G1 F2700 X167.72 Y147.64 E180.02893
G0 F12000 X167.48 Y146.83
G1 F2700 X158.17 Y137.52 E180.64958
G0 F12000 X159.15 Y137.94
G1 F2700 X167.06 Y145.85 E181.17693
G0 F12000 X166.41 Y144.63
G1 F2700 X160.37 Y138.59 E181.57981
G0 F12000 X161.86 Y139.51
G1 F2700 X165.48 Y143.14 E181.82159
G0 F12000 X163.38 Y164.23
G1 F2700 X140.76 Y141.61 E183.33022
G0 F12000 X140.51 Y141.92
G1 F2700 X163.07 Y164.49 E184.83508
G0 F12000 X162.76 Y164.74
G1 F2700 X140.25 Y142.23 E186.33621
G0 F12000 X140.00 Y142.54
G1 F2700 X162.45 Y165.00 E187.83357
G0 F12000 X162.14 Y165.25
G1 F2700 X139.74 Y142.86 E189.32720
G0 F12000 X139.49 Y143.17
G1 F2700 X161.83 Y165.51 E190.81712
G0 F12000 X161.52 Y165.76
G1 F2700 X139.24 Y143.48 E192.30328
G0 F12000 X139.02 Y143.83
G1 F2700 X161.17 Y165.98 E193.78069
G0 F12000 X160.80 Y166.18
G1 F2700 X138.82 Y144.19 E195.24661
G0 F12000 X138.62 Y144.56
G1 F2700 X160.43 Y166.37 E196.70112
G0 F12000 X160.06 Y166.57
G1 F2700 X138.43 Y144.93 E198.14423
G0 F12000 X138.23 Y145.30
G1 F2700 X159.70 Y166.77 E199.57586
G0 F12000 X159.33 Y166.97
G1 F2700 X138.03 Y145.67 E200.99610
G0 F12000 X137.84 Y146.04
G1 F2700 X158.96 Y167.16 E202.40486
G0 F12000 X158.58 Y167.35
G1 F2700 X137.65 Y146.41 E203.80101
G0 F12000 X137.52 Y146.85
G1 F2700 X158.15 Y167.48 E205.17700
G0 F12000 X157.71 Y167.61
G1 F2700 X137.38 Y147.28 E206.53284
G0 F12000 X137.25 Y147.72
G1 F2700 X157.28 Y167.75 E207.86848
G0 F12000 X156.85 Y167.88
G1 F2700 X137.12 Y148.15 E209.18401
G0 F12000 X136.99 Y148.59
G1 F2700 X156.41 Y168.01 E210.47933
G0 F12000 X155.98 Y168.14
G1 F2700 X136.86 Y149.02 E211.75451
G0 F12000 X136.74 Y149.47
G1 F2700 X155.53 Y168.25 E213.00728
G0 F12000 X155.01 Y168.31
G1 F2700 X136.69 Y149.99 E214.22908
G0 F12000 X136.64 Y150.50
G1 F2700 X154.50 Y168.36 E215.41993
G0 F12000 X153.98 Y168.41
G1 F2700 X136.59 Y151.01 E216.57980
G0 F12000 X136.54 Y151.53
G1 F2700 X153.47 Y168.46 E217.70870
G0 F12000 X152.95 Y168.51
G1 F2700 X136.49 Y152.04 E218.80665
G0 F12000 X136.45 Y152.57
G1 F2700 X152.42 Y168.54 E219.87176
G0 F12000 X151.80 Y168.48
G1 F2700 X136.51 Y153.20 E220.89095
G0 F12000 X136.58 Y153.83
G1 F2700 X151.17 Y168.42 E221.86416
G0 F12000 X150.54 Y168.36
G1 F2700 X136.64 Y154.46 E222.79149
G0 F12000 X136.70 Y155.08
G1 F2700 X149.91 Y168.30 E223.67280
G0 F12000 X149.26 Y168.21
G1 F2700 X136.78 Y155.73 E224.50506
G0 F12000 X137.03 Y156.55
G1 F2700 X148.45 Y167.97 E225.26676
G0 F12000 X147.64 Y167.72
G1 F2700 X137.28 Y157.36 E225.95793
G0 F12000 X137.52 Y158.17
G1 F2700 X146.83 Y167.48 E226.57855
G0 F12000 X145.85 Y167.06
G1 F2700 X137.94 Y159.15 E227.10594
G0 F12000 X138.59 Y160.37
G1 F2700 X144.63 Y166.41 E227.50874
G0 F12000 X143.14 Y165.49
G1 F2700 X139.52 Y161.86 E227.75053
;LAYER:1
G0 F12000 X139.03 Y161.50 Z0.40
;TYPE:WALL-INNER
G1 F3900 X137.54 Y158.70 E227.80040
G1 X136.62 Y155.68 E227.84993
G1 X136.62 Y155.66 E227.85034
G1 X136.31 Y152.52 E227.89984
G1 X136.31 Y152.50 E227.90026
G1 X136.61 Y149.37 E227.94962
G1 X136.62 Y149.34 E227.95011
G1 X137.53 Y146.33 E227.99956
G1 X137.54 Y146.31 E227.99997
G1 X139.03 Y143.50 E228.04988
G1 X141.05 Y141.05 E228.09982
G1 X143.50 Y139.03 E228.14977
G1 X146.30 Y137.54 E228.19964
G1 X149.32 Y136.62 E228.24917
G1 X149.34 Y136.62 E228.24958
G1 X152.48 Y136.31 E228.29908
G1 X152.50 Y136.31 E228.29950
G1 X155.63 Y136.61 E228.34886
G1 X155.66 Y136.62 E228.34935
G1 X158.67 Y137.53 E228.39880
G1 X158.69 Y137.54 E228.39921
G1 X161.50 Y139.03 E228.44912
G1 X163.95 Y141.05 E228.49906
G1 X165.97 Y143.50 E228.54901
G1 X167.46 Y146.30 E228.59888
G1 X168.38 Y149.32 E228.64841
G1 X168.38 Y149.34 E228.64882
G1 X168.69 Y152.48 E228.69832
G1 X168.69 Y152.50 E228.69874
G1 X168.39 Y155.63 E228.74810
G1 X168.38 Y155.66 E228.74859
G1 X167.47 Y158.67 E228.79804
G1 X167.46 Y158.69 E228.79845
G1 X165.97 Y161.50 E228.84836
G1 X163.95 Y163.95 E228.89830
G1 X161.50 Y165.97 E228.94825
G1 X158.70 Y167.46 E228.99812
G1 X155.68 Y168.38 E229.04765
G1 X155.66 Y168.38 E229.04806
G1 X152.52 Y168.69 E229.09756
G1 X152.50 Y168.69 E229.09798
G1 X149.37 Y168.39 E229.14734
G1 X149.34 Y168.38 E229.14783
G1 X146.33 Y167.47 E229.19733
G1 X146.31 Y167.46 E229.19769
G1 X143.50 Y165.97 E229.24760
G1 X141.05 Y163.95 E229.29754
G1 X139.03 Y161.50 E229.34749
G0 F12000 X138.70 Y161.72
;TYPE:WALL-OUTER
G1 F3900 X137.16 Y158.85 E229.39857
G1 X136.22 Y155.74 E229.44968
G1 X135.91 Y152.56 E229.49985
G1 X135.90 Y152.50 E229.50087
G1 X136.21 Y149.33 E229.55096
G1 X136.22 Y149.26 E229.55203
G1 X137.16 Y146.15 E229.60315
G1 X138.70 Y143.28 E229.65423
G1 X140.76 Y140.76 E229.70544
G1 X143.28 Y138.70 E229.75665
G1 X146.15 Y137.16 E229.80773
G1 X149.26 Y136.22 E229.85884
G1 X152.44 Y135.91 E229.90901
G1 X152.50 Y135.90 E229.91003
G1 X155.67 Y136.21 E229.96012
G1 X155.74 Y136.22 E229.96119
G1 X158.85 Y137.16 E230.01231
G1 X161.72 Y138.70 E230.06339
G1 X164.24 Y140.76 E230.11460
G1 X166.30 Y143.28 E230.16581
G1 X167.84 Y146.15 E230.21689
G1 X168.78 Y149.26 E230.26801
G1 X169.09 Y152.44 E230.31817
G1 X169.10 Y152.50 E230.31918
G1 X168.79 Y155.67 E230.36928
G1 X168.78 Y155.74 E230.37035
G1 X167.84 Y158.85 E230.42147
G1 X166.30 Y161.72 E230.47255
G1 X164.24 Y164.24 E230.52376
G1 X161.72 Y166.30 E230.57497
G1 X158.85 Y167.84 E230.62605
G1 X155.74 Y168.78 E230.67717
G1 X152.56 Y169.09 E230.72733
G1 X152.50 Y169.10 E230.72836
G1 X149.33 Y168.79 E230.77844
G1 X149.26 Y168.78 E230.77951
G1 X146.15 Y167.84 E230.83063
G1 X143.28 Y166.30 E230.88171
G1 X140.76 Y164.24 E230.93292
G1 X138.70 Y161.72 E230.98413
G0 F12000 X139.19 Y161.47
;TYPE:FILL
G1 F3900 X161.47 Y139.19 E231.47930
G0 F12000 X161.78 Y139.45
G1 F3900 X139.45 Y161.78 E231.97570
G0 F12000 X139.70 Y162.09
G1 F3900 X162.09 Y139.70 E232.47336
G0 F12000 X162.40 Y139.96
G1 F3900 X139.96 Y162.40 E232.97227
G0 F12000 X140.21 Y162.71
G1 F3900 X162.71 Y140.21 E233.47243
G0 F12000 X163.02 Y140.47
G1 F3900 X140.47 Y163.02 E233.97381
G0 F12000 X140.72 Y163.33
G1 F3900 X163.33 Y140.72 E234.47646
G0 F12000 X163.64 Y140.98
G1 F3900 X140.98 Y163.64 E234.98032
G0 F12000 X141.25 Y163.94
G1 F3900 X163.94 Y141.25 E235.48461
G0 F12000 X164.19 Y141.56
G1 F3900 X141.56 Y164.19 E235.98765
G0 F12000 X141.87 Y164.45
G1 F3900 X164.44 Y141.87 E236.48945
G0 F12000 X164.70 Y142.18
G1 F3900 X142.18 Y164.70 E236.99001
G0 F12000 X142.49 Y164.96
G1 F3900 X164.96 Y142.49 E237.48932
G0 F12000 X165.21 Y142.81
G1 F3900 X142.81 Y165.21 E237.98738
G0 F12000 X143.12 Y165.47
G1 F3900 X165.47 Y143.12 E238.48421
G0 F12000 X165.72 Y143.43
G1 F3900 X143.43 Y165.72 E238.97981
G0 F12000 X143.76 Y165.95
G1 F3900 X165.95 Y143.77 E239.47289
G0 F12000 X166.14 Y144.13
G1 F3900 X144.13 Y166.14 E239.96217
G0 F12000 X144.50 Y166.34
G1 F3900 X166.34 Y144.50 E240.44766
G0 F12000 X166.54 Y144.87
G1 F3900 X144.87 Y166.54 E240.92931
G0 F12000 X145.24 Y166.74
G1 F3900 X166.74 Y145.24 E241.40717
G0 F12000 X166.93 Y145.61
G1 F3900 X145.61 Y166.93 E241.88123
G0 F12000 X145.98 Y167.13
G1 F3900 X167.13 Y145.98 E242.35146
G0 F12000 X167.33 Y146.34
G1 F3900 X146.34 Y167.33 E242.81793
G0 F12000 X146.78 Y167.46
G1 F3900 X167.46 Y146.78 E243.27774
G0 F12000 X167.59 Y147.21
G1 F3900 X147.21 Y167.59 E243.73081
G0 F12000 X147.64 Y167.72
G1 F3900 X167.72 Y147.65 E244.17717
G0 F12000 X167.85 Y148.08
G1 F3900 X148.08 Y167.86 E244.61680
G0 F12000 X148.51 Y167.99
G1 F3900 X167.99 Y148.51 E245.04968
G0 F12000 X168.12 Y148.95
G1 F3900 X148.95 Y168.12 E245.47583
G0 F12000 X149.38 Y168.25
G1 F3900 X168.25 Y149.38 E245.89517
G0 F12000 X168.30 Y149.90
G1 F3900 X149.90 Y168.30 E246.30420
G0 F12000 X150.41 Y168.35
G1 F3900 X168.35 Y150.41 E246.70288
G0 F12000 X168.40 Y150.93
G1 F3900 X150.93 Y168.40 E247.09121
G0 F12000 X151.44 Y168.45
G1 F3900 X168.45 Y151.44 E247.46923
G0 F12000 X168.50 Y151.96
G1 F3900 X151.96 Y168.50 E247.83692
G0 F12000 X152.47 Y168.55
G1 F3900 X168.55 Y152.48 E248.19428
G0 F12000 X168.49 Y153.10
G1 F3900 X153.10 Y168.50 E248.53656
G0 F12000 X153.72 Y168.43
G1 F3900 X168.43 Y153.72 E248.86355
G0 F12000 X168.37 Y154.35
G1 F3900 X154.35 Y168.37 E249.17523
G0 F12000 X154.98 Y168.31
G1 F3900 X168.31 Y154.98 E249.47160
G0 F12000 X168.25 Y155.60
G1 F3900 X155.60 Y168.25 E249.75267
G0 F12000 X156.41 Y168.01
G1 F3900 X168.01 Y156.41 E250.01051
G0 F12000 X167.76 Y157.22
G1 F3900 X157.22 Y167.76 E250.24488
G0 F12000 X158.03 Y167.52
G1 F3900 X167.52 Y158.03 E250.45570
G0 F12000 X167.17 Y158.95
G1 F3900 X158.94 Y167.17 E250.63851
G0 F12000 X160.16 Y166.52
G1 F3900 X166.52 Y160.16 E250.77984
G0 F12000 X165.87 Y161.38
G1 F3900 X161.38 Y165.87 E250.87968
G0 F12000 X138.99 Y161.11
G1 F3900 X161.11 Y138.99 E251.37149
G0 F12000 X160.74 Y138.79
G1 F3900 X138.79 Y160.74 E251.85951
G0 F12000 X138.59 Y160.37
G1 F3900 X160.37 Y138.59 E252.34370
G0 F12000 X160.00 Y138.39
G1 F3900 X138.39 Y160.00 E252.82409
G0 F12000 X138.20 Y159.63
G1 F3900 X159.63 Y138.20 E253.30066
G0 F12000 X159.27 Y138.00
G1 F3900 X138.00 Y159.27 E253.77343
G0 F12000 X137.80 Y158.90
G1 F3900 X158.90 Y137.80 E254.24237
G0 F12000 X158.51 Y137.62
G1 F3900 X137.63 Y158.51 E254.70663
G0 F12000 X137.49 Y158.07
G1 F3900 X158.08 Y137.49 E255.16418
G0 F12000 X157.64 Y137.36
G1 F3900 X137.36 Y157.64 E255.61501
G0 F12000 X137.23 Y157.21
G1 F3900 X157.21 Y137.23 E256.05910
G0 F12000 X156.77 Y137.10
G1 F3900 X137.10 Y156.77 E256.49645
G0 F12000 X136.97 Y156.34
G1 F3900 X156.34 Y136.97 E256.92707
G0 F12000 X155.91 Y136.84
G1 F3900 X136.84 Y155.90 E257.35098
G0 F12000 X136.73 Y155.44
G1 F3900 X155.44 Y136.73 E257.76686
G0 F12000 X154.93 Y136.68
G1 F3900 X136.68 Y154.93 E258.17240
G0 F12000 X136.63 Y154.41
G1 F3900 X154.41 Y136.63 E258.56761
G0 F12000 X153.90 Y136.58
G1 F3900 X136.58 Y153.90 E258.95247
G0 F12000 X136.53 Y153.38
G1 F3900 X153.38 Y136.53 E259.32702
G0 F12000 X152.87 Y136.48
G1 F3900 X136.48 Y152.87 E259.69124
G0 F12000 X136.46 Y152.32
G1 F3900 X152.32 Y136.46 E260.04370
G0 F12000 X151.69 Y136.53
G1 F3900 X136.53 Y151.69 E260.38084
G0 F12000 X136.59 Y151.06
G1 F3900 X151.06 Y136.59 E260.70268
G0 F12000 X150.44 Y136.65
G1 F3900 X136.65 Y150.44 E261.00921
G0 F12000 X136.71 Y149.81
G1 F3900 X149.81 Y136.71 E261.30044
G0 F12000 X149.13 Y136.83
G1 F3900 X136.82 Y149.13 E261.57393
G0 F12000 X137.07 Y148.32
G1 F3900 X148.31 Y137.07 E261.82393
G0 F12000 X147.50 Y137.32
G1 F3900 X137.32 Y147.51 E262.05041
G0 F12000 X137.56 Y146.69
G1 F3900 X146.69 Y137.56 E262.25337
G0 F12000 X145.65 Y138.04
G1 F3900 X138.05 Y145.64 E262.42228
G0 F12000 X138.70 Y144.43
G1 F3900 X144.43 Y138.70 E262.54968
G0 F12000 X142.62 Y139.94
G1 F3900 X139.94 Y142.62 E262.60916
;LAYER:2
G0 F12000 X139.03 Y143.50 Z0.50
;TYPE:WALL-INNER
G1 F5220 X141.05 Y141.05 E262.65911
G1 X143.50 Y139.03 E262.70906
G1 X146.26 Y137.56 E262.75811
G1 X146.30 Y137.54 E262.75892
G1 X149.29 Y136.63 E262.80806
G1 X149.34 Y136.62 E262.80884
G1 X152.45 Y136.31 E262.85797
G1 X152.50 Y136.31 E262.85876
G1 X155.61 Y136.61 E262.90782
G1 X155.66 Y136.62 E262.90864
G1 X158.65 Y137.52 E262.95776
G1 X158.69 Y137.53 E262.95848
G1 X161.45 Y139.01 E263.00768
G1 X161.50 Y139.03 E263.00841
G1 X163.95 Y141.05 E263.05835
G1 X165.97 Y143.50 E263.10830
G1 X167.44 Y146.26 E263.15736
G1 X167.46 Y146.30 E263.15816
G1 X168.37 Y149.29 E263.20730
G1 X168.38 Y149.34 E263.20808
G1 X168.69 Y152.45 E263.25722
G1 X168.69 Y152.50 E263.25798
G1 X168.39 Y155.61 E263.30706
G1 X168.38 Y155.66 E263.30789
G1 X167.48 Y158.65 E263.35697
G1 X167.47 Y158.69 E263.35772
G1 X165.99 Y161.45 E263.40692
G1 X165.97 Y161.50 E263.40765
G1 X163.95 Y163.95 E263.45760
G1 X161.50 Y165.97 E263.50754
G1 X158.74 Y167.44 E263.55660
G1 X158.70 Y167.46 E263.55740
G1 X155.71 Y168.37 E263.60655
G1 X155.66 Y168.38 E263.60732
G1 X152.55 Y168.69 E263.65646
G1 X152.50 Y168.69 E263.65725
G1 X149.39 Y168.39 E263.70631
G1 X149.34 Y168.38 E263.70713
G1 X146.35 Y167.48 E263.75624
G1 X146.31 Y167.47 E263.75697
G1 X143.55 Y165.99 E263.80616
G1 X143.50 Y165.97 E263.80690
G1 X141.05 Y163.95 E263.85684
G1 X139.03 Y161.50 E263.90679
G1 X137.56 Y158.74 E263.95588
G1 X137.54 Y158.70 E263.95665
G1 X136.63 Y155.71 E264.00579
G1 X136.62 Y155.66 E264.00657
G1 X136.31 Y152.55 E264.05570
G1 X136.31 Y152.50 E264.05649
G1 X136.61 Y149.39 E264.10555
G1 X136.62 Y149.34 E264.10637
G1 X137.52 Y146.35 E264.15545
G1 X137.53 Y146.31 E264.15621
G1 X139.01 Y143.55 E264.20541
G1 X139.03 Y143.50 E264.20614
G0 F12000 X138.70 Y143.28
;TYPE:WALL-OUTER
G1 F5220 X140.76 Y140.76 E264.25735
G1 X143.28 Y138.70 E264.30856
G1 X146.15 Y137.16 E264.35964
G1 X149.26 Y136.22 E264.41076
G1 X152.50 Y135.90 E264.46193
G1 X155.74 Y136.22 E264.51310
G1 X158.85 Y137.16 E264.56422
G1 X161.72 Y138.70 E264.61530
G1 X164.24 Y140.76 E264.66651
G1 X166.30 Y143.28 E264.71772
G1 X167.84 Y146.15 E264.76880
G1 X168.78 Y149.26 E264.81992
G1 X169.10 Y152.50 E264.87109
G1 X168.78 Y155.74 E264.92226
G1 X167.84 Y158.85 E264.97338
G1 X166.30 Y161.72 E265.02446
G1 X164.24 Y164.24 E265.07567
G1 X161.72 Y166.30 E265.12688
G1 X158.85 Y167.84 E265.17796
G1 X155.74 Y168.78 E265.22908
G1 X152.50 Y169.10 E265.28025
G1 X149.26 Y168.78 E265.33143
G1 X146.15 Y167.84 E265.38254
G1 X143.28 Y166.30 E265.43362
G1 X140.76 Y164.24 E265.48483
G1 X138.70 Y161.72 E265.53604
G1 X137.16 Y158.85 E265.58712
G1 X136.22 Y155.74 E265.63824
G1 X135.90 Y152.50 E265.68941
G1 X136.22 Y149.26 E265.74059
G1 X137.16 Y146.15 E265.79170
G1 X138.70 Y143.28 E265.84278
G0 F12000 X139.24 Y143.48
;TYPE:FILL
G1 F5220 X161.52 Y165.76 E266.33818
G0 F12000 X161.83 Y165.51
G1 F5220 X139.49 Y143.17 E266.83482
G0 F12000 X139.75 Y142.86
G1 F5220 X162.14 Y165.25 E267.33270
G0 F12000 X162.45 Y165.00
G1 F5220 X140.00 Y142.54 E267.83182
G0 F12000 X140.25 Y142.24
G1 F5220 X162.76 Y164.74 E268.33218
G0 F12000 X163.07 Y164.49
G1 F5220 X140.51 Y141.92 E268.83379
G0 F12000 X140.76 Y141.61
G1 F5220 X163.38 Y164.23 E269.33662
G0 F12000 X163.69 Y163.98
G1 F5220 X141.02 Y141.30 E269.84071
G0 F12000 X141.30 Y141.02
G1 F5220 X163.98 Y163.70 E270.34480
G0 F12000 X164.23 Y163.38
G1 F5220 X141.61 Y140.76 E270.84764
G0 F12000 X141.92 Y140.51
G1 F5220 X164.49 Y163.07 E271.34926
G0 F12000 X164.74 Y162.76
G1 F5220 X142.24 Y140.26 E271.84962
G0 F12000 X142.55 Y140.00
G1 F5220 X165.00 Y162.45 E272.34876
G0 F12000 X165.25 Y162.14
G1 F5220 X142.86 Y139.75 E272.84664
G0 F12000 X143.17 Y139.49
G1 F5220 X165.51 Y161.83 E273.34328
G0 F12000 X165.76 Y161.52
G1 F5220 X143.48 Y139.24 E273.83868
G0 F12000 X143.83 Y139.02
G1 F5220 X165.98 Y161.17 E274.33115
G0 F12000 X166.18 Y160.80
G1 F5220 X144.20 Y138.82 E274.81981
G0 F12000 X144.56 Y138.62
G1 F5220 X166.38 Y160.44 E275.30468
G0 F12000 X166.57 Y160.07
G1 F5220 X144.93 Y138.43 E275.78575
G0 F12000 X145.30 Y138.23
G1 F5220 X166.77 Y159.70 E276.26299
G0 F12000 X166.97 Y159.33
G1 F5220 X145.67 Y138.03 E276.73644
G0 F12000 X146.04 Y137.84
G1 F5220 X167.16 Y158.96 E277.20607
G0 F12000 X167.35 Y158.58
G1 F5220 X146.41 Y137.65 E277.67151
G0 F12000 X146.85 Y137.52
G1 F5220 X167.48 Y158.15 E278.13021
G0 F12000 X167.62 Y157.72
G1 F5220 X147.28 Y137.38 E278.58218
G0 F12000 X147.72 Y137.25
G1 F5220 X167.75 Y157.28 E279.02742
G0 F12000 X167.88 Y156.85
G1 F5220 X148.15 Y137.12 E279.46593
G0 F12000 X148.59 Y136.99
G1 F5220 X168.01 Y156.41 E279.89772
G0 F12000 X168.14 Y155.98
G1 F5220 X149.02 Y136.86 E280.32278
G0 F12000 X149.47 Y136.74
G1 F5220 X168.26 Y155.53 E280.74039
G0 F12000 X168.31 Y155.01
G1 F5220 X149.99 Y136.69 E281.14768
G0 F12000 X150.50 Y136.64
G1 F5220 X168.36 Y154.50 E281.54463
G0 F12000 X168.41 Y153.98
G1 F5220 X151.02 Y136.59 E281.93126
G0 F12000 X151.53 Y136.54
G1 F5220 X168.46 Y153.47 E282.30753
G0 F12000 X168.51 Y152.95
G1 F5220 X152.05 Y136.49 E282.67347
G0 F12000 X152.57 Y136.45
G1 F5220 X168.55 Y152.42 E283.02851
G0 F12000 X168.49 Y151.80
G1 F5220 X153.20 Y136.51 E283.36823
G0 F12000 X153.83 Y136.58
G1 F5220 X168.42 Y151.17 E283.69263
G0 F12000 X168.36 Y150.54
G1 F5220 X154.46 Y136.64 E284.00174
G0 F12000 X155.08 Y136.70
G1 F5220 X168.30 Y149.91 E284.29552
G0 F12000 X168.21 Y149.26
G1 F5220 X155.73 Y136.78 E284.57295
G0 F12000 X156.55 Y137.03
G1 F5220 X167.97 Y148.45 E284.82686
G0 F12000 X167.72 Y147.64
G1 F5220 X157.36 Y137.28 E285.05726
G0 F12000 X158.17 Y137.52
G1 F5220 X167.48 Y146.83 E285.26416
G0 F12000 X167.06 Y145.85
G1 F5220 X159.15 Y137.94 E285.44003
G0 F12000 X160.37 Y138.59
G1 F5220 X166.41 Y144.63 E285.57440
G0 F12000 X165.49 Y143.15
G1 F5220 X161.85 Y139.51 E285.65524
G0 F12000 X139.02 Y143.83
G1 F5220 X161.17 Y165.98 E286.14773
G0 F12000 X160.80 Y166.18
G1 F5220 X138.82 Y144.19 E286.63639
G0 F12000 X138.62 Y144.56
G1 F5220 X160.44 Y166.38 E287.12126
G0 F12000 X160.07 Y166.57
G1 F5220 X138.43 Y144.93 E287.60230
G0 F12000 X138.23 Y145.30
G1 F5220 X159.70 Y166.77 E288.07955
G0 F12000 X159.33 Y166.97
G1 F5220 X138.03 Y145.67 E288.55299
G0 F12000 X137.83 Y146.04
G1 F5220 X158.96 Y167.16 E289.02264
G0 F12000 X158.58 Y167.35
G1 F5220 X137.65 Y146.41 E289.48807
G0 F12000 X137.51 Y146.85
G1 F5220 X158.15 Y167.48 E289.94676
G0 F12000 X157.71 Y167.61
G1 F5220 X137.38 Y147.28 E290.39873
G0 F12000 X137.25 Y147.72
G1 F5220 X157.28 Y167.75 E290.84398
G0 F12000 X156.85 Y167.88
G1 F5220 X137.12 Y148.15 E291.28250
G0 F12000 X136.99 Y148.59
G1 F5220 X156.41 Y168.01 E291.71428
G0 F12000 X155.98 Y168.14
G1 F5220 X136.86 Y149.02 E292.13935
G0 F12000 X136.74 Y149.47
G1 F5220 X155.53 Y168.25 E292.55697
G0 F12000 X155.01 Y168.31
G1 F5220 X136.69 Y149.99 E292.96424
G0 F12000 X136.64 Y150.50
G1 F5220 X154.50 Y168.36 E293.36122
G0 F12000 X153.98 Y168.41
G1 F5220 X136.59 Y151.01 E293.74784
G0 F12000 X136.54 Y151.53
G1 F5220 X153.47 Y168.46 E294.12414
G0 F12000 X152.95 Y168.51
G1 F5220 X136.49 Y152.05 E294.49010
G0 F12000 X136.45 Y152.57
G1 F5220 X152.42 Y168.54 E294.84511
G0 F12000 X151.80 Y168.48
G1 F5220 X136.51 Y153.20 E295.18483
G0 F12000 X136.58 Y153.83
G1 F5220 X151.17 Y168.42 E295.50924
G0 F12000 X150.54 Y168.36
G1 F5220 X136.64 Y154.46 E295.81835
G0 F12000 X136.70 Y155.08
G1 F5220 X149.91 Y168.30 E296.11213
G0 F12000 X149.26 Y168.22
G1 F5220 X136.78 Y155.74 E296.38955
G0 F12000 X137.03 Y156.55
G1 F5220 X148.45 Y167.97 E296.64345
G0 F12000 X147.64 Y167.72
G1 F5220 X137.28 Y157.36 E296.87385
G0 F12000 X137.52 Y158.17
G1 F5220 X146.83 Y167.48 E297.08074
G0 F12000 X145.85 Y167.06
G1 F5220 X137.94 Y159.15 E297.25662
G0 F12000 X138.59 Y160.37
G1 F5220 X144.63 Y166.41 E297.39098
G0 F12000 X143.15 Y165.49
G1 F5220 X139.51 Y161.85 E297.47182
;LAYER:3
G0 F12000 X139.08 Y161.55 Z0.60
;TYPE:WALL-INNER
G1 F6480 X139.03 Y161.50 E297.47295
G1 X137.57 Y158.76 E297.52174
G1 X137.54 Y158.70 E297.52291
G1 X136.64 Y155.73 E297.57164
G1 X136.62 Y155.66 E297.57282
G1 X136.31 Y152.50 E297.62268
G1 X136.62 Y149.34 E297.67260
G1 X137.51 Y146.38 E297.72130
G1 X137.54 Y146.30 E297.72251
G1 X139.00 Y143.57 E297.77121
G1 X139.03 Y143.51 E297.77232
G1 X141.00 Y141.10 E297.82116
G1 X141.05 Y141.05 E297.82227
G1 X143.45 Y139.08 E297.87106
G1 X143.50 Y139.03 E297.87220
G1 X146.24 Y137.57 E297.92098
G1 X146.30 Y137.54 E297.92215
G1 X149.27 Y136.64 E297.97088
G1 X149.34 Y136.62 E297.97207
G1 X152.50 Y136.31 E298.02193
G1 X155.66 Y136.62 E298.07184
G1 X158.62 Y137.51 E298.12054
G1 X158.70 Y137.54 E298.12175
G1 X161.43 Y139.00 E298.17048
G1 X161.49 Y139.03 E298.17156
G1 X163.90 Y141.00 E298.22040
G1 X163.95 Y141.05 E298.22152
G1 X165.92 Y143.45 E298.27030
G1 X165.97 Y143.50 E298.27144
G1 X167.43 Y146.24 E298.32023
G1 X167.46 Y146.30 E298.32139
G1 X168.36 Y149.27 E298.37013
G1 X168.38 Y149.34 E298.37131
G1 X168.69 Y152.50 E298.42117
G1 X168.38 Y155.66 E298.47108
G1 X167.49 Y158.62 E298.51979
G1 X167.46 Y158.70 E298.52099
G1 X166.00 Y161.43 E298.56970
G1 X165.97 Y161.49 E298.57080
G1 X164.00 Y163.90 E298.61964
G1 X163.95 Y163.95 E298.62076
G1 X161.55 Y165.92 E298.66955
G1 X161.50 Y165.97 E298.67069
G1 X158.76 Y167.43 E298.71947
G1 X158.70 Y167.46 E298.72064
G1 X155.73 Y168.36 E298.76937
G1 X155.66 Y168.38 E298.77055
G1 X152.50 Y168.69 E298.82042
G1 X149.34 Y168.38 E298.87033
G1 X146.38 Y167.49 E298.91903
G1 X146.30 Y167.46 E298.92024
G1 X143.57 Y166.00 E298.96896
G1 X143.51 Y165.97 E298.97005
G1 X141.10 Y164.00 E299.01889
G1 X141.05 Y163.95 E299.02001
G1 X139.08 Y161.55 E299.06879
G0 F12000 X138.70 Y161.72
;TYPE:WALL-OUTER
G1 F6480 X137.16 Y158.85 E299.11987
G1 X136.22 Y155.74 E299.17099
G1 X135.90 Y152.50 E299.22216
G1 X136.22 Y149.26 E299.27333
G1 X137.16 Y146.15 E299.32445
G1 X138.70 Y143.28 E299.37553
G1 X140.76 Y140.76 E299.42674
G1 X143.28 Y138.70 E299.47795
G1 X146.15 Y137.16 E299.52903
G1 X149.26 Y136.22 E299.58015
G1 X152.50 Y135.90 E299.63132
G1 X155.74 Y136.22 E299.68249
G1 X158.85 Y137.16 E299.73361
G1 X161.72 Y138.70 E299.78469
G1 X164.24 Y140.76 E299.83590
G1 X166.30 Y143.28 E299.88711
G1 X167.84 Y146.15 E299.93819
G1 X168.78 Y149.26 E299.98931
G1 X169.10 Y152.50 E300.04048
G1 X168.78 Y155.74 E300.09165
G1 X167.84 Y158.85 E300.14277
G1 X166.30 Y161.72 E300.19385
G1 X164.24 Y164.24 E300.24506
G1 X161.72 Y166.30 E300.29627
G1 X158.85 Y167.84 E300.34735
G1 X155.74 Y168.78 E300.39847
G1 X152.50 Y169.10 E300.44964
G1 X149.26 Y168.78 E300.50081
G1 X146.15 Y167.84 E300.55193
G1 X143.28 Y166.30 E300.60301
G1 X140.76 Y164.24 E300.65422
G1 X138.70 Y161.72 E300.70543
G0 F12000 X139.19 Y161.47
;TYPE:FILL
G1 F6480 X161.47 Y139.19 E301.20062
G0 F12000 X161.78 Y139.45
G1 F6480 X139.45 Y161.78 E301.69703
G0 F12000 X139.70 Y162.09
G1 F6480 X162.09 Y139.70 E302.19470
G0 F12000 X162.40 Y139.96
G1 F6480 X139.96 Y162.40 E302.69361
G0 F12000 X140.21 Y162.71
G1 F6480 X162.71 Y140.21 E303.19375
G0 F12000 X163.02 Y140.47
G1 F6480 X140.47 Y163.02 E303.69514
G0 F12000 X140.72 Y163.33
G1 F6480 X163.33 Y140.72 E304.19776
G0 F12000 X163.64 Y140.98
G1 F6480 X140.98 Y163.64 E304.70162
G0 F12000 X141.25 Y163.94
G1 F6480 X163.94 Y141.25 E305.20592
G0 F12000 X164.19 Y141.56
G1 F6480 X141.56 Y164.19 E305.70897
G0 F12000 X141.87 Y164.45
G1 F6480 X164.44 Y141.87 E306.21077
G0 F12000 X164.70 Y142.18
G1 F6480 X142.18 Y164.70 E306.71134
G0 F12000 X142.49 Y164.96
G1 F6480 X164.96 Y142.49 E307.21065
G0 F12000 X165.21 Y142.81
G1 F6480 X142.80 Y165.21 E307.70874
G0 F12000 X143.12 Y165.47
G1 F6480 X165.47 Y143.12 E308.20557
G0 F12000 X165.72 Y143.43
G1 F6480 X143.43 Y165.72 E308.70115
G0 F12000 X143.76 Y165.95
G1 F6480 X165.94 Y143.77 E309.19422
G0 F12000 X166.14 Y144.13
G1 F6480 X144.13 Y166.14 E309.68350
G0 F12000 X144.50 Y166.34
G1 F6480 X166.34 Y144.50 E310.16893
G0 F12000 X166.54 Y144.87
G1 F6480 X144.87 Y166.54 E310.65057
G0 F12000 X145.24 Y166.74
G1 F6480 X166.73 Y145.24 E311.12838
G0 F12000 X166.93 Y145.61
G1 F6480 X145.61 Y166.93 E311.60237
G0 F12000 X145.98 Y167.13
G1 F6480 X167.13 Y145.98 E312.07254
G0 F12000 X167.33 Y146.35
G1 F6480 X146.34 Y167.33 E312.53893
G0 F12000 X146.78 Y167.46
G1 F6480 X167.46 Y146.78 E312.99876
G0 F12000 X167.59 Y147.21
G1 F6480 X147.21 Y167.59 E313.45183
G0 F12000 X147.64 Y167.72
G1 F6480 X167.72 Y147.65 E313.89821
G0 F12000 X167.85 Y148.08
G1 F6480 X148.08 Y167.86 E314.33785
G0 F12000 X148.51 Y167.99
G1 F6480 X167.99 Y148.51 E314.77078
G0 F12000 X168.12 Y148.95
G1 F6480 X148.95 Y168.12 E315.19697
G0 F12000 X149.38 Y168.25
G1 F6480 X168.25 Y149.38 E315.61630
G0 F12000 X168.30 Y149.90
G1 F6480 X149.90 Y168.30 E316.02529
G0 F12000 X150.41 Y168.35
G1 F6480 X168.35 Y150.41 E316.42396
G0 F12000 X168.40 Y150.93
G1 F6480 X150.93 Y168.40 E316.81230
G0 F12000 X151.44 Y168.45
G1 F6480 X168.45 Y151.45 E317.19029
G0 F12000 X168.50 Y151.96
G1 F6480 X151.96 Y168.50 E317.55797
G0 F12000 X152.47 Y168.55
G1 F6480 X168.55 Y152.48 E317.91531
G0 F12000 X168.49 Y153.10
G1 F6480 X153.10 Y168.50 E318.25760
G0 F12000 X153.72 Y168.43
G1 F6480 X168.43 Y153.72 E318.58456
G0 F12000 X168.37 Y154.35
G1 F6480 X154.35 Y168.37 E318.89626
G0 F12000 X154.98 Y168.31
G1 F6480 X168.31 Y154.98 E319.19264
G0 F12000 X168.25 Y155.60
G1 F6480 X155.60 Y168.25 E319.47371
G0 F12000 X156.41 Y168.01
G1 F6480 X168.01 Y156.41 E319.73163
G0 F12000 X167.76 Y157.22
G1 F6480 X157.22 Y167.76 E319.96604
G0 F12000 X158.03 Y167.52
G1 F6480 X167.52 Y158.03 E320.17692
G0 F12000 X167.17 Y158.95
G1 F6480 X158.95 Y167.17 E320.35960
G0 F12000 X160.16 Y166.52
G1 F6480 X166.52 Y160.16 E320.50085
G0 F12000 X165.87 Y161.38
G1 F6480 X161.38 Y165.87 E320.60069
G0 F12000 X138.99 Y161.11
G1 F6480 X161.11 Y138.99 E321.09249
G0 F12000 X160.74 Y138.79
G1 F6480 X138.79 Y160.74 E321.58048
G0 F12000 X138.59 Y160.37
G1 F6480 X160.37 Y138.59 E322.06466
G0 F12000 X160.00 Y138.39
G1 F6480 X138.40 Y160.00 E322.54500
G0 F12000 X138.20 Y159.63
G1 F6480 X159.63 Y138.20 E323.02154
G0 F12000 X159.27 Y138.00
G1 F6480 X138.00 Y159.26 E323.49427
G0 F12000 X137.81 Y158.90
G1 F6480 X158.90 Y137.80 E323.96317
G0 F12000 X158.51 Y137.62
G1 F6480 X137.62 Y158.51 E324.42744
G0 F12000 X137.49 Y158.08
G1 F6480 X158.08 Y137.49 E324.88500
G0 F12000 X157.64 Y137.36
G1 F6480 X137.36 Y157.64 E325.33585
G0 F12000 X137.23 Y157.21
G1 F6480 X157.21 Y137.23 E325.77995
G0 F12000 X156.77 Y137.10
G1 F6480 X137.10 Y156.77 E326.21734
G0 F12000 X136.97 Y156.34
G1 F6480 X156.34 Y136.97 E326.64799
G0 F12000 X155.91 Y136.84
G1 F6480 X136.84 Y155.91 E327.07193
G0 F12000 X136.73 Y155.44
G1 F6480 X155.44 Y136.73 E327.48781
G0 F12000 X154.93 Y136.68
G1 F6480 X136.68 Y154.93 E327.89335
G0 F12000 X136.63 Y154.41
G1 F6480 X154.41 Y136.63 E328.28856
G0 F12000 X153.90 Y136.58
G1 F6480 X136.58 Y153.90 E328.67343
G0 F12000 X136.53 Y153.38
G1 F6480 X153.38 Y136.53 E329.04797
G0 F12000 X152.87 Y136.48
G1 F6480 X136.48 Y152.87 E329.41218
G0 F12000 X136.46 Y152.32
G1 F6480 X152.32 Y136.46 E329.76465
G0 F12000 X151.69 Y136.52
G1 F6480 X136.53 Y151.69 E330.10181
G0 F12000 X136.59 Y151.06
G1 F6480 X151.06 Y136.59 E330.42366
G0 F12000 X150.44 Y136.65
G1 F6480 X136.65 Y150.44 E330.73021
G0 F12000 X136.71 Y149.81
G1 F6480 X149.81 Y136.71 E331.02145
G0 F12000 X149.13 Y136.82
G1 F6480 X136.82 Y149.13 E331.29499
G0 F12000 X137.07 Y148.32
G1 F6480 X148.32 Y137.07 E331.54502
G0 F12000 X147.50 Y137.32
G1 F6480 X137.32 Y147.51 E331.77152
G0 F12000 X137.56 Y146.69
G1 F6480 X146.69 Y137.56 E331.97448
G0 F12000 X145.64 Y138.05
G1 F6480 X138.05 Y145.64 E332.14328
G0 F12000 X138.70 Y144.43
G1 F6480 X144.43 Y138.70 E332.27063
G0 F12000 X142.62 Y139.94
G1 F6480 X139.94 Y142.62 E332.33026
;LAYER:4
G0 F12000 X139.03 Y143.50 Z0.70
;TYPE:WALL-INNER
G1 F7800 X140.99 Y141.12 E332.37867
G1 X141.04 Y141.05 E332.38012
G1 X143.43 Y139.10 E332.42860
G1 X143.50 Y139.03 E332.43010
G1 X146.30 Y137.54 E332.48003
G1 X149.25 Y136.64 E332.52841
G1 X149.34 Y136.62 E332.52997
G1 X152.40 Y136.31 E332.57832
G1 X152.50 Y136.31 E332.57987
G1 X155.56 Y136.60 E332.62816
G1 X155.66 Y136.62 E332.62974
G1 X158.60 Y137.51 E332.67807
G1 X158.70 Y137.54 E332.67965
G1 X161.50 Y139.03 E332.72951
G1 X163.88 Y140.99 E332.77791
G1 X163.95 Y141.04 E332.77937
G1 X165.90 Y143.43 E332.82784
G1 X165.97 Y143.50 E332.82935
G1 X167.46 Y146.30 E332.87928
G1 X168.36 Y149.25 E332.92765
G1 X168.38 Y149.34 E332.92921
G1 X168.69 Y152.40 E332.97756
G1 X168.69 Y152.50 E332.97908
G1 X168.40 Y155.56 E333.02741
G1 X168.38 Y155.66 E333.02899
G1 X167.49 Y158.60 E333.07731
G1 X167.46 Y158.70 E333.07890
G1 X165.97 Y161.50 E333.12875
G1 X164.01 Y163.88 E333.17716
G1 X163.96 Y163.95 E333.17861
G1 X161.57 Y165.90 E333.22708
G1 X161.50 Y165.97 E333.22859
G1 X158.70 Y167.46 E333.27852
G1 X155.75 Y168.36 E333.32689
G1 X155.66 Y168.38 E333.32846
G1 X152.60 Y168.69 E333.37680
G1 X152.50 Y168.69 E333.37835
G1 X149.44 Y168.40 E333.42665
G1 X149.34 Y168.38 E333.42823
G1 X146.40 Y167.49 E333.47655
G1 X146.30 Y167.46 E333.47814
G1 X143.50 Y165.97 E333.52799
G1 X141.12 Y164.01 E333.57640
G1 X141.05 Y163.96 E333.57785
G1 X139.10 Y161.57 E333.62632
G1 X139.03 Y161.50 E333.62783
G1 X137.54 Y158.70 E333.67776
G1 X136.64 Y155.75 E333.72614
G1 X136.62 Y155.66 E333.72770
G1 X136.31 Y152.60 E333.77604
G1 X136.31 Y152.50 E333.77759
G1 X136.60 Y149.44 E333.82589
G1 X136.62 Y149.34 E333.82747
G1 X137.51 Y146.40 E333.87580
G1 X137.54 Y146.30 E333.87738
G1 X139.03 Y143.50 E333.92723
G0 F12000 X138.70 Y143.28
;TYPE:WALL-OUTER
G1 F7800 X140.76 Y140.76 E333.97844
G1 X143.28 Y138.70 E334.02966
G1 X146.15 Y137.16 E334.08073
G1 X149.26 Y136.22 E334.13185
G1 X152.50 Y135.90 E334.18302
G1 X155.74 Y136.22 E334.23420
G1 X158.85 Y137.16 E334.28532
G1 X161.72 Y138.70 E334.33639
G1 X164.24 Y140.76 E334.38760
G1 X166.30 Y143.28 E334.43882
G1 X167.84 Y146.15 E334.48989
G1 X168.78 Y149.26 E334.54101
G1 X169.10 Y152.50 E334.59218
G1 X168.78 Y155.74 E334.64336
G1 X167.84 Y158.85 E334.69448
G1 X166.30 Y161.72 E334.74555
G1 X164.24 Y164.24 E334.79676
G1 X161.72 Y166.30 E334.84798
G1 X158.85 Y167.84 E334.89905
G1 X155.74 Y168.78 E334.95017
G1 X152.50 Y169.10 E335.00134
G1 X149.26 Y168.78 E335.05252
G1 X146.15 Y167.84 E335.10364
G1 X143.28 Y166.30 E335.15471
G1 X140.76 Y164.24 E335.20592
G1 X138.70 Y161.72 E335.25714
G1 X137.16 Y158.85 E335.30821
G1 X136.22 Y155.74 E335.35933
G1 X135.90 Y152.50 E335.41050
G1 X136.22 Y149.26 E335.46168
G1 X137.16 Y146.15 E335.51280
G1 X138.70 Y143.28 E335.56387
G0 F12000 X139.24 Y143.48
;TYPE:FILL
G1 F7800 X161.52 Y165.76 E336.05927
G0 F12000 X161.83 Y165.51
G1 F7800 X139.49 Y143.17 E336.55591
G0 F12000 X139.74 Y142.86
G1 F7800 X162.14 Y165.25 E337.05381
G0 F12000 X162.45 Y165.00
G1 F7800 X140.00 Y142.54 E337.55295
G0 F12000 X140.25 Y142.23
G1 F7800 X162.76 Y164.74 E338.05333
G0 F12000 X163.07 Y164.49
G1 F7800 X140.51 Y141.92 E338.55497
G0 F12000 X140.76 Y141.61
G1 F7800 X163.38 Y164.23 E339.05786
G0 F12000 X163.70 Y163.98
G1 F7800 X141.02 Y141.30 E339.56198
G0 F12000 X141.30 Y141.02
G1 F7800 X163.98 Y163.70 E340.06610
G0 F12000 X164.24 Y163.39
G1 F7800 X141.61 Y140.76 E340.56898
G0 F12000 X141.92 Y140.51
G1 F7800 X164.49 Y163.08 E341.07062
G0 F12000 X164.75 Y162.76
G1 F7800 X142.24 Y140.25 E341.57102
G0 F12000 X142.55 Y140.00
G1 F7800 X165.00 Y162.45 E342.07016
G0 F12000 X165.25 Y162.14
G1 F7800 X142.86 Y139.75 E342.56807
G0 F12000 X143.17 Y139.49
G1 F7800 X165.51 Y161.83 E343.06471
G0 F12000 X165.76 Y161.52
G1 F7800 X143.48 Y139.24 E343.56011
G0 F12000 X143.83 Y139.02
G1 F7800 X165.98 Y161.17 E344.05257
G0 F12000 X166.18 Y160.80
G1 F7800 X144.20 Y138.82 E344.54121
G0 F12000 X144.56 Y138.62
G1 F7800 X166.38 Y160.44 E345.02607
G0 F12000 X166.57 Y160.07
G1 F7800 X144.93 Y138.43 E345.50712
G0 F12000 X145.30 Y138.23
G1 F7800 X166.77 Y159.70 E345.98435
G0 F12000 X166.97 Y159.33
G1 F7800 X145.67 Y138.03 E346.45778
G0 F12000 X146.04 Y137.84
G1 F7800 X167.16 Y158.96 E346.92740
G0 F12000 X167.35 Y158.58
G1 F7800 X146.41 Y137.65 E347.39281
G0 F12000 X146.85 Y137.52
G1 F7800 X167.48 Y158.15 E347.85149
G0 F12000 X167.62 Y157.72
G1 F7800 X147.28 Y137.38 E348.30346
G0 F12000 X147.72 Y137.25
G1 F7800 X167.75 Y157.28 E348.74870
G0 F12000 X167.88 Y156.85
G1 F7800 X148.15 Y137.12 E349.18723
G0 F12000 X148.59 Y136.99
G1 F7800 X168.01 Y156.41 E349.61903
G0 F12000 X168.14 Y155.98
G1 F7800 X149.02 Y136.86 E350.04411
G0 F12000 X149.47 Y136.74
G1 F7800 X168.26 Y155.53 E350.46172
G0 F12000 X168.31 Y155.01
G1 F7800 X149.99 Y136.69 E350.86901
G0 F12000 X150.50 Y136.64
G1 F7800 X168.36 Y154.50 E351.26596
G0 F12000 X168.41 Y153.98
G1 F7800 X151.02 Y136.59 E351.65258
G0 F12000 X151.53 Y136.54
G1 F7800 X168.46 Y153.47 E352.02886
G0 F12000 X168.51 Y152.95
G1 F7800 X152.05 Y136.49 E352.39482
G0 F12000 X152.57 Y136.45
G1 F7800 X168.55 Y152.42 E352.74986
G0 F12000 X168.49 Y151.80
G1 F7800 X153.20 Y136.51 E353.08958
G0 F12000 X153.83 Y136.58
G1 F7800 X168.42 Y151.17 E353.41400
G0 F12000 X168.36 Y150.54
G1 F7800 X154.46 Y136.64 E353.72313
G0 F12000 X155.08 Y136.70
G1 F7800 X168.30 Y149.91 E354.01692
G0 F12000 X168.22 Y149.26
G1 F7800 X155.73 Y136.78 E354.29439
G0 F12000 X156.55 Y137.03
G1 F7800 X167.97 Y148.45 E354.54830
G0 F12000 X167.72 Y147.64
G1 F7800 X157.36 Y137.28 E354.77869
G0 F12000 X158.17 Y137.52
G1 F7800 X167.48 Y146.83 E354.98555
G0 F12000 X167.06 Y145.85
G1 F7800 X159.15 Y137.94 E355.16135
G0 F12000 X160.37 Y138.59
G1 F7800 X166.41 Y144.63 E355.29566
G0 F12000 X165.49 Y143.15
G1 F7800 X161.86 Y139.51 E355.37652
G0 F12000 X139.02 Y143.83
G1 F7800 X161.17 Y165.98 E355.86899
G0 F12000 X160.80 Y166.18
G1 F7800 X138.82 Y144.19 E356.35765
G0 F12000 X138.62 Y144.56
G1 F7800 X160.43 Y166.37 E356.84250
G0 F12000 X160.07 Y166.57
G1 F7800 X138.43 Y144.93 E357.32354
G0 F12000 X138.23 Y145.30
G1 F7800 X159.70 Y166.77 E357.80077
G0 F12000 X159.33 Y166.97
G1 F7800 X138.03 Y145.67 E358.27420
G0 F12000 X137.84 Y146.04
G1 F7800 X158.96 Y167.16 E358.74382
G0 F12000 X158.58 Y167.35
G1 F7800 X137.65 Y146.41 E359.20923
G0 F12000 X137.52 Y146.85
G1 F7800 X158.15 Y167.48 E359.66791
G0 F12000 X157.72 Y167.61
G1 F7800 X137.38 Y147.28 E360.11988
G0 F12000 X137.25 Y147.72
G1 F7800 X157.28 Y167.75 E360.56513
G0 F12000 X156.85 Y167.88
G1 F7800 X137.12 Y148.15 E361.00365
G0 F12000 X136.99 Y148.59
G1 F7800 X156.41 Y168.01 E361.43544
G0 F12000 X155.98 Y168.14
G1 F7800 X136.86 Y149.02 E361.86054
G0 F12000 X136.74 Y149.47
G1 F7800 X155.53 Y168.26 E362.27817
G0 F12000 X155.01 Y168.31
G1 F7800 X136.69 Y149.99 E362.68546
G0 F12000 X136.64 Y150.50
G1 F7800 X154.50 Y168.36 E363.08243
G0 F12000 X153.98 Y168.41
G1 F7800 X136.59 Y151.01 E363.46908
G0 F12000 X136.54 Y151.53
G1 F7800 X153.47 Y168.46 E363.84538
G0 F12000 X152.95 Y168.51
G1 F7800 X136.49 Y152.05 E364.21135
G0 F12000 X136.45 Y152.57
G1 F7800 X152.42 Y168.54 E364.56636
G0 F12000 X151.80 Y168.48
G1 F7800 X136.51 Y153.20 E364.90608
G0 F12000 X136.58 Y153.83
G1 F7800 X151.17 Y168.42 E365.23049
G0 F12000 X150.54 Y168.36
G1 F7800 X136.64 Y154.46 E365.53960
G0 F12000 X136.70 Y155.08
G1 F7800 X149.91 Y168.30 E365.83338
G0 F12000 X149.26 Y168.22
G1 F7800 X136.78 Y155.73 E366.11083
G0 F12000 X137.03 Y156.55
G1 F7800 X148.45 Y167.97 E366.36474
G0 F12000 X147.64 Y167.72
G1 F7800 X137.28 Y157.36 E366.59513
G0 F12000 X137.52 Y158.17
G1 F7800 X146.83 Y167.48 E366.80202
G0 F12000 X145.85 Y167.06
G1 F7800 X137.94 Y159.15 E366.97783
G0 F12000 X138.59 Y160.37
G1 F7800 X144.63 Y166.41 E367.11217
G0 F12000 X143.14 Y165.49
G1 F7800 X139.50 Y161.85 E367.19303
;LAYER:5
G0 F12000 X139.03 Y161.50 Z0.80
;TYPE:WALL-INNER
G1 F7800 X137.54 Y158.70 E367.24291
G1 X136.65 Y155.78 E367.29090
G1 X136.62 Y155.66 E367.29284
G1 X136.32 Y152.62 E367.34079
G1 X136.31 Y152.50 E367.34272
G1 X136.60 Y149.46 E367.39067
G1 X136.62 Y149.34 E367.39261
G1 X137.50 Y146.42 E367.44056
G1 X137.54 Y146.30 E367.44252
G1 X139.03 Y143.50 E367.49238
G1 X141.05 Y141.05 E367.54232
G1 X143.50 Y139.03 E367.59227
G1 X146.30 Y137.54 E367.64214
G1 X149.22 Y136.65 E367.69014
G1 X149.34 Y136.62 E367.69208
G1 X152.38 Y136.32 E367.74003
G1 X152.50 Y136.31 E367.74196
G1 X155.54 Y136.60 E367.78991
G1 X155.66 Y136.62 E367.79185
G1 X158.58 Y137.50 E367.83980
G1 X158.70 Y137.54 E367.84176
G1 X161.50 Y139.03 E367.89161
G1 X163.95 Y141.05 E367.94156
G1 X165.97 Y143.50 E367.99151
G1 X167.46 Y146.30 E368.04138
G1 X168.35 Y149.22 E368.08938
G1 X168.38 Y149.34 E368.09132
G1 X168.68 Y152.38 E368.13927
G1 X168.69 Y152.50 E368.14118
G1 X168.40 Y155.54 E368.18915
G1 X168.38 Y155.66 E368.19109
G1 X167.50 Y158.58 E368.23904
G1 X167.46 Y158.70 E368.24100
G1 X165.97 Y161.50 E368.29085
G1 X163.95 Y163.95 E368.34080
G1 X161.50 Y165.97 E368.39075
G1 X158.70 Y167.46 E368.44062
G1 X155.78 Y168.35 E368.48862
G1 X155.66 Y168.38 E368.49055
G1 X152.62 Y168.68 E368.53851
G1 X152.50 Y168.69 E368.54043
G1 X149.46 Y168.40 E368.58839
G1 X149.34 Y168.38 E368.59033
G1 X146.42 Y167.50 E368.63827
G1 X146.30 Y167.46 E368.64024
G1 X143.50 Y165.97 E368.69009
G1 X141.05 Y163.95 E368.74004
G1 X139.03 Y161.50 E368.78998
G0 F12000 X138.70 Y161.72
;TYPE:WALL-OUTER
G1 F7800 X137.16 Y158.85 E368.84106
G1 X136.22 Y155.74 E368.89218
G1 X135.90 Y152.50 E368.94335
G1 X136.22 Y149.26 E368.99453
G1 X137.16 Y146.15 E369.04565
G1 X138.70 Y143.28 E369.09672
G1 X140.76 Y140.76 E369.14793
G1 X143.28 Y138.70 E369.19914
G1 X146.15 Y137.16 E369.25022
G1 X149.26 Y136.22 E369.30134
G1 X152.50 Y135.90 E369.35251
G1 X155.74 Y136.22 E369.40369
G1 X158.85 Y137.16 E369.45481
G1 X161.72 Y138.70 E369.50588
G1 X164.24 Y140.76 E369.55709
G1 X166.30 Y143.28 E369.60830
G1 X167.84 Y146.15 E369.65938
G1 X168.78 Y149.26 E369.71050
G1 X169.10 Y152.50 E369.76167
G1 X168.78 Y155.74 E369.81285
G1 X167.84 Y158.85 E369.86397
G1 X166.30 Y161.72 E369.91504
G1 X164.24 Y164.24 E369.96625
G1 X161.72 Y166.30 E370.01746
G1 X158.85 Y167.84 E370.06854
G1 X155.74 Y168.78 E370.11966
G1 X152.50 Y169.10 E370.17083
G1 X149.26 Y168.78 E370.22201
G1 X146.15 Y167.84 E370.27313
G1 X143.28 Y166.30 E370.32420
G1 X140.76 Y164.24 E370.37541
G1 X138.70 Y161.72 E370.42662
G0 F12000 X139.19 Y161.47
;TYPE:FILL
G1 F7800 X161.47 Y139.19 E370.92180
G0 F12000 X161.78 Y139.45
G1 F7800 X139.45 Y161.78 E371.41819
G0 F12000 X139.70 Y162.09
G1 F7800 X162.09 Y139.70 E371.91586
G0 F12000 X162.40 Y139.96
G1 F7800 X139.96 Y162.40 E372.41477
G0 F12000 X140.21 Y162.71
G1 F7800 X162.71 Y140.21 E372.91492
G0 F12000 X163.02 Y140.47
G1 F7800 X140.47 Y163.02 E373.41631
G0 F12000 X140.72 Y163.33
G1 F7800 X163.33 Y140.72 E373.91895
G0 F12000 X163.64 Y140.98
G1 F7800 X140.98 Y163.64 E374.42282
G0 F12000 X141.25 Y163.94
G1 F7800 X163.94 Y141.25 E374.92711
G0 F12000 X164.19 Y141.56
G1 F7800 X141.56 Y164.19 E375.43015
G0 F12000 X141.87 Y164.45
G1 F7800 X164.44 Y141.87 E375.93195
G0 F12000 X164.70 Y142.18
G1 F7800 X142.18 Y164.70 E376.43250
G0 F12000 X142.49 Y164.96
G1 F7800 X164.96 Y142.49 E376.93181
G0 F12000 X165.21 Y142.81
G1 F7800 X142.81 Y165.21 E377.42987
G0 F12000 X143.12 Y165.47
G1 F7800 X165.47 Y143.12 E377.92670
G0 F12000 X165.72 Y143.43
G1 F7800 X143.43 Y165.72 E378.42230
G0 F12000 X143.76 Y165.95
G1 F7800 X165.95 Y143.77 E378.91538
G0 F12000 X166.14 Y144.13
G1 F7800 X144.13 Y166.14 E379.40467
G0 F12000 X144.50 Y166.34
G1 F7800 X166.34 Y144.50 E379.89015
G0 F12000 X166.54 Y144.87
G1 F7800 X144.87 Y166.54 E380.37181
G0 F12000 X145.24 Y166.74
G1 F7800 X166.74 Y145.24 E380.84966
G0 F12000 X166.93 Y145.61
G1 F7800 X145.61 Y166.93 E381.32372
G0 F12000 X145.98 Y167.13
G1 F7800 X167.13 Y145.98 E381.79395
G0 F12000 X167.33 Y146.34
G1 F7800 X146.34 Y167.33 E382.26038
G0 F12000 X146.78 Y167.46
G1 F7800 X167.46 Y146.78 E382.72019
G0 F12000 X167.59 Y147.21
G1 F7800 X147.21 Y167.59 E383.17328
G0 F12000 X147.64 Y167.72
G1 F7800 X167.72 Y147.65 E383.61964
G0 F12000 X167.85 Y148.08
G1 F7800 X148.08 Y167.86 E384.05927
G0 F12000 X148.51 Y167.99
G1 F7800 X167.99 Y148.51 E384.49218
G0 F12000 X168.12 Y148.95
G1 F7800 X148.95 Y168.12 E384.91835
G0 F12000 X149.38 Y168.25
G1 F7800 X168.25 Y149.38 E385.33769
G0 F12000 X168.30 Y149.90
G1 F7800 X149.90 Y168.30 E385.74670
G0 F12000 X150.41 Y168.35
G1 F7800 X168.35 Y150.41 E386.14537
G0 F12000 X168.40 Y150.93
G1 F7800 X150.93 Y168.40 E386.53371
G0 F12000 X151.44 Y168.45
G1 F7800 X168.45 Y151.45 E386.91172
G0 F12000 X168.50 Y151.96
G1 F7800 X151.96 Y168.50 E387.27940
G0 F12000 X152.47 Y168.55
G1 F7800 X168.55 Y152.48 E387.63674
G0 F12000 X168.49 Y153.10
G1 F7800 X153.10 Y168.50 E387.97902
G0 F12000 X153.72 Y168.43
G1 F7800 X168.43 Y153.72 E388.30598
G0 F12000 X168.37 Y154.35
G1 F7800 X154.35 Y168.37 E388.61767
G0 F12000 X154.98 Y168.31
G1 F7800 X168.31 Y154.98 E388.91405
G0 F12000 X168.25 Y155.60
G1 F7800 X155.60 Y168.25 E389.19513
G0 F12000 X156.41 Y168.01
G1 F7800 X168.01 Y156.41 E389.45306
G0 F12000 X167.77 Y157.22
G1 F7800 X157.22 Y167.76 E389.68749
G0 F12000 X158.03 Y167.52
G1 F7800 X167.52 Y158.03 E389.89839
G0 F12000 X167.17 Y158.95
G1 F7800 X158.94 Y167.17 E390.08120
G0 F12000 X160.16 Y166.52
G1 F7800 X166.52 Y160.16 E390.22252
G0 F12000 X165.87 Y161.38
G1 F7800 X161.38 Y165.87 E390.32236
G0 F12000 X138.99 Y161.11
G1 F7800 X161.11 Y138.99 E390.81418
G0 F12000 X160.74 Y138.79
G1 F7800 X138.79 Y160.74 E391.30219
G0 F12000 X138.59 Y160.37
G1 F7800 X160.37 Y138.59 E391.78638
G0 F12000 X160.00 Y138.39
G1 F7800 X138.39 Y160.00 E392.26678
G0 F12000 X138.20 Y159.63
G1 F7800 X159.64 Y138.20 E392.74336
G0 F12000 X159.27 Y138.00
G1 F7800 X138.00 Y159.27 E393.21613
G0 F12000 X137.80 Y158.90
G1 F7800 X158.90 Y137.80 E393.68507
G0 F12000 X158.51 Y137.62
G1 F7800 X137.63 Y158.51 E394.14936
G0 F12000 X137.49 Y158.07
G1 F7800 X158.08 Y137.49 E394.60691
G0 F12000 X157.64 Y137.36
G1 F7800 X137.36 Y157.64 E395.05773
G0 F12000 X137.23 Y157.21
G1 F7800 X157.21 Y137.23 E395.50183
G0 F12000 X156.77 Y137.10
G1 F7800 X137.10 Y156.77 E395.93922
G0 F12000 X136.97 Y156.34
G1 F7800 X156.34 Y136.97 E396.36989
G0 F12000 X155.91 Y136.84
G1 F7800 X136.84 Y155.91 E396.79383
G0 F12000 X136.73 Y155.44
G1 F7800 X155.44 Y136.73 E397.20971
G0 F12000 X154.93 Y136.68
G1 F7800 X136.68 Y154.93 E397.61525
G0 F12000 X136.63 Y154.41
G1 F7800 X154.41 Y136.63 E398.01048
G0 F12000 X153.90 Y136.58
G1 F7800 X136.58 Y153.90 E398.39536
G0 F12000 X136.53 Y153.38
G1 F7800 X153.38 Y136.53 E398.76992
G0 F12000 X152.87 Y136.48
G1 F7800 X136.48 Y152.87 E399.13413
G0 F12000 X136.46 Y152.32
G1 F7800 X152.32 Y136.46 E399.48660
G0 F12000 X151.69 Y136.53
G1 F7800 X136.52 Y151.69 E399.82376
G0 F12000 X136.59 Y151.06
G1 F7800 X151.06 Y136.59 E400.14561
G0 F12000 X150.44 Y136.65
G1 F7800 X136.65 Y150.44 E400.45216
G0 F12000 X136.71 Y149.81
G1 F7800 X149.81 Y136.71 E400.74340
G0 F12000 X149.13 Y136.82
G1 F7800 X136.82 Y149.13 E401.01694
G0 F12000 X137.07 Y148.32
G1 F7800 X148.32 Y137.07 E401.26697
G0 F12000 X147.50 Y137.32
G1 F7800 X137.31 Y147.51 E401.49348
G0 F12000 X137.56 Y146.69
G1 F7800 X146.69 Y137.56 E401.69650
G0 F12000 X145.65 Y138.04
G1 F7800 X138.05 Y145.64 E401.86540
G0 F12000 X138.70 Y144.43
G1 F7800 X144.43 Y138.70 E401.99280
G0 F12000 X142.62 Y139.94
G1 F7800 X139.94 Y142.62 E402.05229
;LAYER:6
G0 F12000 X139.03 Y143.50 Z0.90
;TYPE:WALL-INNER
G1 F7800 X141.05 Y141.05 E402.10224
G1 X143.50 Y139.03 E402.15218
G1 X146.30 Y137.54 E402.20206
G1 X149.20 Y136.66 E402.24968
G1 X149.34 Y136.62 E402.25199
G1 X152.50 Y136.31 E402.30186
G1 X155.66 Y136.62 E402.35177
G1 X158.56 Y137.49 E402.39933
G1 X158.70 Y137.54 E402.40169
G1 X161.50 Y139.03 E402.45153
G1 X163.95 Y141.05 E402.50148
G1 X165.97 Y143.50 E402.55142
G1 X167.46 Y146.30 E402.60130
G1 X168.34 Y149.20 E402.64891
G1 X168.38 Y149.34 E402.65123
G1 X168.69 Y152.50 E402.70110
G1 X168.38 Y155.66 E402.75101
G1 X167.51 Y158.56 E402.79857
G1 X167.46 Y158.70 E402.80093
G1 X165.97 Y161.50 E402.85077
G1 X163.95 Y163.95 E402.90072
G1 X161.50 Y165.97 E402.95066
G1 X158.70 Y167.46 E403.00054
G1 X155.80 Y168.34 E403.04815
G1 X155.66 Y168.38 E403.05047
G1 X152.50 Y168.69 E403.10033
G1 X149.34 Y168.38 E403.15024
G1 X146.44 Y167.51 E403.19781
G1 X146.30 Y167.46 E403.20017
G1 X143.50 Y165.97 E403.25001
G1 X141.05 Y163.95 E403.29995
G1 X139.03 Y161.50 E403.34990
G1 X137.54 Y158.70 E403.39977
G1 X136.66 Y155.80 E403.44739
G1 X136.62 Y155.66 E403.44971
G1 X136.31 Y152.50 E403.49957
G1 X136.62 Y149.34 E403.54948
G1 X137.49 Y146.44 E403.59705
G1 X137.54 Y146.30 E403.59941
G1 X139.03 Y143.50 E403.64925
G0 F12000 X138.70 Y143.28
;TYPE:WALL-OUTER
G1 F7800 X140.76 Y140.76 E403.70046
G1 X143.28 Y138.70 E403.75167
G1 X146.15 Y137.16 E403.80274
G1 X149.26 Y136.22 E403.85386
G1 X152.50 Y135.90 E403.90504
G1 X155.74 Y136.22 E403.95621
G1 X158.85 Y137.16 E404.00733
G1 X161.72 Y138.70 E404.05841
G1 X164.24 Y140.76 E404.10962
G1 X166.30 Y143.28 E404.16083
G1 X167.84 Y146.15 E404.21190
G1 X168.78 Y149.26 E404.26302
G1 X169.10 Y152.50 E404.31420
G1 X168.78 Y155.74 E404.36537
G1 X167.84 Y158.85 E404.41649
G1 X166.30 Y161.72 E404.46757
G1 X164.24 Y164.24 E404.51878
G1 X161.72 Y166.30 E404.56999
G1 X158.85 Y167.84 E404.62107
G1 X155.74 Y168.78 E404.67218
G1 X152.50 Y169.10 E404.72336
G1 X149.26 Y168.78 E404.77453
G1 X146.15 Y167.84 E404.82565
G1 X143.28 Y166.30 E404.87673
G1 X140.76 Y164.24 E404.92794
G1 X138.70 Y161.72 E404.97915
G1 X137.16 Y158.85 E405.03023
G1 X136.22 Y155.74 E405.08134
G1 X135.90 Y152.50 E405.13252
G1 X136.22 Y149.26 E405.18369
G1 X137.16 Y146.15 E405.23481
G1 X138.70 Y143.28 E405.28589
G0 F12000 X139.24 Y143.48
;TYPE:FILL
G1 F7800 X161.52 Y165.76 E405.78128
G0 F12000 X161.83 Y165.51
G1 F7800 X139.49 Y143.17 E406.27793
G0 F12000 X139.75 Y142.86
G1 F7800 X162.14 Y165.25 E406.77581
G0 F12000 X162.45 Y165.00
G1 F7800 X140.00 Y142.54 E407.27493
G0 F12000 X140.25 Y142.24
G1 F7800 X162.76 Y164.74 E407.77528
G0 F12000 X163.07 Y164.49
G1 F7800 X140.51 Y141.92 E408.27689
G0 F12000 X140.76 Y141.61
G1 F7800 X163.38 Y164.23 E408.77973
G0 F12000 X163.69 Y163.98
G1 F7800 X141.02 Y141.30 E409.28381
G0 F12000 X141.30 Y141.02
G1 F7800 X163.98 Y163.70 E409.78790
G0 F12000 X164.23 Y163.38
G1 F7800 X141.61 Y140.76 E410.29075
G0 F12000 X141.92 Y140.51
G1 F7800 X164.49 Y163.07 E410.79237
G0 F12000 X164.74 Y162.76
G1 F7800 X142.24 Y140.26 E411.29273
G0 F12000 X142.55 Y140.00
G1 F7800 X165.00 Y162.45 E411.79186
G0 F12000 X165.25 Y162.14
G1 F7800 X142.86 Y139.75 E412.28975
G0 F12000 X143.17 Y139.49
G1 F7800 X165.51 Y161.83 E412.78639
G0 F12000 X165.76 Y161.52
G1 F7800 X143.48 Y139.24 E413.28179
G0 F12000 X143.83 Y139.02
G1 F7800 X165.98 Y161.17 E413.77426
G0 F12000 X166.18 Y160.80
G1 F7800 X144.20 Y138.82 E414.26292
G0 F12000 X144.56 Y138.62
G1 F7800 X166.38 Y160.44 E414.74779
G0 F12000 X166.57 Y160.07
G1 F7800 X144.93 Y138.43 E415.22885
G0 F12000 X145.30 Y138.23
G1 F7800 X166.77 Y159.70 E415.70608
G0 F12000 X166.97 Y159.33
G1 F7800 X145.67 Y138.03 E416.17954
G0 F12000 X146.04 Y137.84
G1 F7800 X167.16 Y158.96 E416.64917
G0 F12000 X167.35 Y158.58
G1 F7800 X146.41 Y137.65 E417.11458
G0 F12000 X146.85 Y137.52
G1 F7800 X167.48 Y158.15 E417.57328
G0 F12000 X167.62 Y157.72
G1 F7800 X147.28 Y137.38 E418.02527
G0 F12000 X147.72 Y137.25
G1 F7800 X167.75 Y157.28 E418.47053
G0 F12000 X167.88 Y156.85
G1 F7800 X148.15 Y137.12 E418.90906
G0 F12000 X148.59 Y136.99
G1 F7800 X168.01 Y156.41 E419.34087
G0 F12000 X168.14 Y155.98
G1 F7800 X149.02 Y136.86 E419.76594
G0 F12000 X149.47 Y136.74
G1 F7800 X168.26 Y155.53 E420.18356
G0 F12000 X168.31 Y155.01
G1 F7800 X149.99 Y136.69 E420.59084
G0 F12000 X150.50 Y136.64
G1 F7800 X168.36 Y154.50 E420.98778
G0 F12000 X168.41 Y153.98
G1 F7800 X151.02 Y136.59 E421.37441
G0 F12000 X151.53 Y136.54
G1 F7800 X168.46 Y153.47 E421.75068
G0 F12000 X168.51 Y152.95
G1 F7800 X152.05 Y136.49 E422.11663
G0 F12000 X152.57 Y136.45
G1 F7800 X168.54 Y152.42 E422.47165
G0 F12000 X168.48 Y151.80
G1 F7800 X153.20 Y136.51 E422.81135
G0 F12000 X153.83 Y136.58
G1 F7800 X168.42 Y151.17 E423.13574
G0 F12000 X168.36 Y150.54
G1 F7800 X154.46 Y136.64 E423.44482
G0 F12000 X155.08 Y136.70
G1 F7800 X168.30 Y149.91 E423.73860
G0 F12000 X168.22 Y149.26
G1 F7800 X155.73 Y136.78 E424.01607
G0 F12000 X156.54 Y137.03
G1 F7800 X167.97 Y148.45 E424.27000
G0 F12000 X167.72 Y147.64
G1 F7800 X157.36 Y137.27 E424.50045
G0 F12000 X158.17 Y137.52
G1 F7800 X167.48 Y146.83 E424.70738
G0 F12000 X167.06 Y145.85
G1 F7800 X159.15 Y137.94 E424.88326
G0 F12000 X160.37 Y138.59
G1 F7800 X166.41 Y144.63 E425.01764
G0 F12000 X165.49 Y143.15
G1 F7800 X161.85 Y139.51 E425.09848
G0 F12000 X139.02 Y143.83
G1 F7800 X161.17 Y165.98 E425.59097
G0 F12000 X160.80 Y166.18
G1 F7800 X138.82 Y144.19 E426.07963
G0 F12000 X138.62 Y144.56
G1 F7800 X160.44 Y166.38 E426.56450
G0 F12000 X160.07 Y166.57
G1 F7800 X138.43 Y144.93 E427.04554
G0 F12000 X138.23 Y145.30
G1 F7800 X159.70 Y166.77 E427.52279
G0 F12000 X159.33 Y166.97
G1 F7800 X138.03 Y145.67 E427.99623
G0 F12000 X137.84 Y146.04
G1 F7800 X158.96 Y167.16 E428.46585
G0 F12000 X158.58 Y167.35
G1 F7800 X137.65 Y146.41 E428.93126
G0 F12000 X137.51 Y146.85
G1 F7800 X158.15 Y167.48 E429.38998
G0 F12000 X157.72 Y167.61
G1 F7800 X137.38 Y147.28 E429.84196
G0 F12000 X137.25 Y147.72
G1 F7800 X157.28 Y167.75 E430.28723
G0 F12000 X156.85 Y167.88
G1 F7800 X137.12 Y148.15 E430.72575
G0 F12000 X136.99 Y148.59
G1 F7800 X156.41 Y168.01 E431.15754
G0 F12000 X155.98 Y168.14
G1 F7800 X136.86 Y149.02 E431.58264
G0 F12000 X136.74 Y149.47
G1 F7800 X155.53 Y168.26 E432.00027
G0 F12000 X155.01 Y168.31
G1 F7800 X136.69 Y149.99 E432.40756
G0 F12000 X136.64 Y150.50
G1 F7800 X154.50 Y168.36 E432.80451
G0 F12000 X153.98 Y168.41
G1 F7800 X136.59 Y151.01 E433.19114
G0 F12000 X136.54 Y151.53
G1 F7800 X153.47 Y168.46 E433.56744
G0 F12000 X152.95 Y168.51
G1 F7800 X136.49 Y152.05 E433.93340
G0 F12000 X136.45 Y152.57
G1 F7800 X152.42 Y168.54 E434.28841
G0 F12000 X151.80 Y168.48
G1 F7800 X136.51 Y153.20 E434.62812
G0 F12000 X136.58 Y153.83
G1 F7800 X151.17 Y168.42 E434.95251
G0 F12000 X150.54 Y168.36
G1 F7800 X136.64 Y154.46 E435.26160
G0 F12000 X136.70 Y155.08
G1 F7800 X149.91 Y168.30 E435.55538
G0 F12000 X149.26 Y168.22
G1 F7800 X136.78 Y155.73 E435.83283
G0 F12000 X137.03 Y156.55
G1 F7800 X148.45 Y167.97 E436.08676
G0 F12000 X147.64 Y167.72
G1 F7800 X137.28 Y157.36 E436.31720
G0 F12000 X137.52 Y158.17
G1 F7800 X146.83 Y167.48 E436.52413
G0 F12000 X145.85 Y167.06
G1 F7800 X137.94 Y159.15 E436.70001
G0 F12000 X138.59 Y160.37
G1 F7800 X144.63 Y166.41 E436.83439
G0 F12000 X143.15 Y165.49
G1 F7800 X139.51 Y161.85 E436.91523
;LAYER:7
G0 F12000 X139.03 Y161.50 Z1.00
;TYPE:WALL-INNER
G1 F7800 X137.54 Y158.70 E436.96511
G1 X136.66 Y155.82 E437.01235
G1 X136.62 Y155.66 E437.01504
G1 X136.32 Y152.67 E437.06224
G1 X136.31 Y152.50 E437.06492
G1 X136.60 Y149.51 E437.11212
G1 X136.62 Y149.34 E437.11482
G1 X137.49 Y146.47 E437.16201
G1 X137.54 Y146.30 E437.16474
G1 X139.03 Y143.50 E437.21458
G1 X141.05 Y141.05 E437.26453
G1 X143.50 Y139.03 E437.31447
G1 X146.30 Y137.54 E437.36435
G1 X149.18 Y136.66 E437.41159
G1 X149.34 Y136.62 E437.41428
G1 X152.33 Y136.32 E437.46148
G1 X152.50 Y136.31 E437.46416
G1 X155.49 Y136.60 E437.51135
G1 X155.66 Y136.62 E437.51406
G1 X158.53 Y137.49 E437.56125
G1 X158.70 Y137.54 E437.56398
G1 X161.50 Y139.03 E437.61382
G1 X163.95 Y141.05 E437.66377
G1 X165.97 Y143.50 E437.71371
G1 X167.46 Y146.30 E437.76359
G1 X168.34 Y149.18 E437.81083
G1 X168.38 Y149.34 E437.81352
G1 X168.68 Y152.33 E437.86071
G1 X168.69 Y152.50 E437.86338
G1 X168.40 Y155.49 E437.91059
G1 X168.38 Y155.66 E437.91329
G1 X167.51 Y158.53 E437.96049
G1 X167.46 Y158.70 E437.96322
G1 X165.97 Y161.50 E438.01306
G1 X163.95 Y163.95 E438.06300
G1 X161.50 Y165.97 E438.11295
G1 X158.70 Y167.46 E438.16282
G1 X155.82 Y168.34 E438.21006
G1 X155.66 Y168.38 E438.21276
G1 X152.67 Y168.68 E438.25995
G1 X152.50 Y168.69 E438.26264
G1 X149.51 Y168.40 E438.30983
G1 X149.34 Y168.38 E438.31253
G1 X146.47 Y167.51 E438.35972
G1 X146.30 Y167.46 E438.36246
G1 X143.50 Y165.97 E438.41230
G1 X141.05 Y163.95 E438.46224
G1 X139.03 Y161.50 E438.51219
G0 F12000 X138.70 Y161.72
;TYPE:WALL-OUTER
G1 F7800 X137.16 Y158.85 E438.56327
G1 X136.22 Y155.74 E438.61439
G1 X135.90 Y152.50 E438.66556
G1 X136.22 Y149.26 E438.71673
G1 X137.16 Y146.15 E438.76785
G1 X138.70 Y143.28 E438.81893
G1 X140.76 Y140.76 E438.87014
G1 X143.28 Y138.70 E438.92135
G1 X146.15 Y137.16 E438.97243
G1 X149.26 Y136.22 E439.02355
G1 X152.50 Y135.90 E439.07472
G1 X155.74 Y136.22 E439.12589
G1 X158.85 Y137.16 E439.17701
G1 X161.72 Y138.70 E439.22809
G1 X164.24 Y140.76 E439.27930
G1 X166.30 Y143.28 E439.33051
G1 X167.84 Y146.15 E439.38159
G1 X168.78 Y149.26 E439.43271
G1 X169.10 Y152.50 E439.48388
G1 X168.78 Y155.74 E439.53505
G1 X167.84 Y158.85 E439.58617
G1 X166.30 Y161.72 E439.63725
G1 X164.24 Y164.24 E439.68846
G1 X161.72 Y166.30 E439.73967
G1 X158.85 Y167.84 E439.79075
G1 X155.74 Y168.78 E439.84187
G1 X152.50 Y169.10 E439.89304
G1 X149.26 Y168.78 E439.94421
G1 X146.15 Y167.84 E439.99533
G1 X143.28 Y166.30 E440.04641
G1 X140.76 Y164.24 E440.09762
G1 X138.70 Y161.72 E440.14883
G0 F12000 X139.19 Y161.47
;TYPE:FILL
G1 F7800 X161.47 Y139.19 E440.64400
G0 F12000 X161.78 Y139.45
G1 F7800 X139.45 Y161.78 E441.14040
G0 F12000 X139.70 Y162.09
G1 F7800 X162.09 Y139.70 E441.63806
G0 F12000 X162.40 Y139.96
G1 F7800 X139.96 Y162.40 E442.13697
G0 F12000 X140.21 Y162.71
G1 F7800 X162.71 Y140.21 E442.63713
G0 F12000 X163.02 Y140.47
G1 F7800 X140.47 Y163.02 E443.13851
G0 F12000 X140.72 Y163.33
G1 F7800 X163.33 Y140.72 E443.64116
G0 F12000 X163.64 Y140.98
G1 F7800 X140.98 Y163.64 E444.14502
G0 F12000 X141.25 Y163.94
G1 F7800 X163.94 Y141.25 E444.64931
G0 F12000 X164.19 Y141.56
G1 F7800 X141.56 Y164.19 E445.15236
G0 F12000 X141.87 Y164.45
G1 F7800 X164.44 Y141.87 E445.65415
G0 F12000 X164.70 Y142.18
G1 F7800 X142.18 Y164.70 E446.15471
G0 F12000 X142.49 Y164.96
G1 F7800 X164.96 Y142.49 E446.65402
G0 F12000 X165.21 Y142.81
G1 F7800 X142.81 Y165.21 E447.15208
G0 F12000 X143.12 Y165.47
G1 F7800 X165.47 Y143.12 E447.64891
G0 F12000 X165.72 Y143.43
G1 F7800 X143.43 Y165.72 E448.14451
G0 F12000 X143.76 Y165.95
G1 F7800 X165.95 Y143.77 E448.63759
G0 F12000 X166.14 Y144.13
G1 F7800 X144.13 Y166.14 E449.12687
G0 F12000 X144.50 Y166.34
G1 F7800 X166.34 Y144.50 E449.61236
G0 F12000 X166.54 Y144.87
G1 F7800 X144.87 Y166.54 E450.09401
G0 F12000 X145.24 Y166.74
G1 F7800 X166.74 Y145.24 E450.57187
G0 F12000 X166.93 Y145.61
G1 F7800 X145.61 Y166.93 E451.04593
G0 F12000 X145.98 Y167.13
G1 F7800 X167.13 Y145.98 E451.51616
G0 F12000 X167.33 Y146.34
G1 F7800 X146.34 Y167.33 E451.98259
G0 F12000 X146.78 Y167.46
G1 F7800 X167.46 Y146.78 E452.44239
G0 F12000 X167.59 Y147.21
G1 F7800 X147.21 Y167.59 E452.89549
G0 F12000 X147.64 Y167.72
G1 F7800 X167.72 Y147.65 E453.34184
G0 F12000 X167.85 Y148.08
G1 F7800 X148.08 Y167.86 E453.78148
G0 F12000 X148.51 Y167.99
G1 F7800 X167.99 Y148.51 E454.21438
G0 F12000 X168.12 Y148.95
G1 F7800 X148.95 Y168.12 E454.64056
G0 F12000 X149.38 Y168.25
G1 F7800 X168.25 Y149.38 E455.05989
G0 F12000 X168.30 Y149.90
G1 F7800 X149.90 Y168.30 E455.46890
G0 F12000 X150.41 Y168.35
G1 F7800 X168.35 Y150.41 E455.86758
G0 F12000 X168.40 Y150.93
G1 F7800 X150.93 Y168.40 E456.25591
G0 F12000 X151.44 Y168.45
G1 F7800 X168.45 Y151.45 E456.63392
G0 F12000 X168.50 Y151.96
G1 F7800 X151.96 Y168.50 E457.00161
G0 F12000 X152.47 Y168.55
G1 F7800 X168.55 Y152.48 E457.35894
G0 F12000 X168.49 Y153.10
G1 F7800 X153.10 Y168.50 E457.70123
G0 F12000 X153.72 Y168.43
G1 F7800 X168.43 Y153.72 E458.02819
G0 F12000 X168.37 Y154.35
G1 F7800 X154.35 Y168.37 E458.33988
G0 F12000 X154.98 Y168.31
G1 F7800 X168.31 Y154.98 E458.63626
G0 F12000 X168.25 Y155.60
G1 F7800 X155.60 Y168.25 E458.91734
G0 F12000 X156.41 Y168.01
G1 F7800 X168.01 Y156.41 E459.17527
G0 F12000 X167.77 Y157.22
G1 F7800 X157.22 Y167.76 E459.40970
G0 F12000 X158.03 Y167.52
G1 F7800 X167.52 Y158.03 E459.62059
G0 F12000 X167.17 Y158.95
G1 F7800 X158.94 Y167.17 E459.80340
G0 F12000 X160.16 Y166.52
G1 F7800 X166.52 Y160.16 E459.94473
G0 F12000 X165.87 Y161.38
G1 F7800 X161.38 Y165.87 E460.04457
G0 F12000 X138.99 Y161.11
G1 F7800 X161.11 Y138.99 E460.53638
G0 F12000 X160.74 Y138.79
G1 F7800 X138.79 Y160.74 E461.02440
G0 F12000 X138.59 Y160.37
G1 F7800 X160.37 Y138.59 E461.50859
G0 F12000 X160.00 Y138.39
G1 F7800 X138.39 Y160.00 E461.98898
G0 F12000 X138.20 Y159.63
G1 F7800 X159.64 Y138.20 E462.46557
G0 F12000 X159.27 Y138.00
G1 F7800 X138.00 Y159.27 E462.93834
G0 F12000 X137.80 Y158.90
G1 F7800 X158.90 Y137.80 E463.40728
G0 F12000 X158.51 Y137.62
G1 F7800 X137.63 Y158.51 E463.87157
G0 F12000 X137.49 Y158.07
G1 F7800 X158.08 Y137.49 E464.32911
G0 F12000 X157.64 Y137.36
G1 F7800 X137.36 Y157.64 E464.77994
G0 F12000 X137.23 Y157.21
G1 F7800 X157.21 Y137.23 E465.22406
G0 F12000 X156.78 Y137.10
G1 F7800 X137.10 Y156.77 E465.66146
G0 F12000 X136.97 Y156.34
G1 F7800 X156.34 Y136.97 E466.09213
G0 F12000 X155.91 Y136.84
G1 F7800 X136.84 Y155.91 E466.51607
G0 F12000 X136.73 Y155.44
G1 F7800 X155.44 Y136.73 E466.93195
G0 F12000 X154.93 Y136.68
G1 F7800 X136.68 Y154.93 E467.33749
G0 F12000 X136.63 Y154.41
G1 F7800 X154.41 Y136.63 E467.73272
G0 F12000 X153.90 Y136.58
G1 F7800 X136.58 Y153.90 E468.11760
G0 F12000 X136.53 Y153.38
G1 F7800 X153.38 Y136.53 E468.49216
G0 F12000 X152.87 Y136.48
G1 F7800 X136.48 Y152.87 E468.85637
G0 F12000 X136.46 Y152.32
G1 F7800 X152.32 Y136.46 E469.20884
G0 F12000 X151.69 Y136.53
G1 F7800 X136.52 Y151.69 E469.54600
G0 F12000 X136.59 Y151.06
G1 F7800 X151.06 Y136.59 E469.86785
G0 F12000 X150.44 Y136.65
G1 F7800 X136.65 Y150.44 E470.17440
G0 F12000 X136.71 Y149.81
G1 F7800 X149.81 Y136.71 E470.46564
G0 F12000 X149.13 Y136.82
G1 F7800 X136.82 Y149.13 E470.73918
G0 F12000 X137.07 Y148.32
G1 F7800 X148.32 Y137.07 E470.98921
G0 F12000 X147.50 Y137.32
G1 F7800 X137.31 Y147.51 E471.21572
G0 F12000 X137.56 Y146.69
G1 F7800 X146.69 Y137.56 E471.41874
G0 F12000 X145.65 Y138.04
