;-- START GCODE --
;Sliced for Type A Machines Series 1
;Sliced at: Sat 27-06-2015 00:45:40
;Basic settings: Layer height: 0.1 Walls: 0.4 Fill: 7
;Print Speed: 120 Support: 0
;Retraction Speed: 40 Retraction Distance: 0.5
;Print time: #P_TIME#
;Filament used: #F_AMNT#m #F_WGHT#g
;Filament cost: #F_COST#
M106 S255	 ;start with the fan on
G21        ;metric values
G90        ;absolute positioning
M106 S255    ;start with the fan on
G28     ;move to endstops
G29		;allows for auto-levelling
G1 X150 Y5  Z15.0 F12000 ;center and move the platform down 15mm
M109 S220 ;Heat To temp
G92 E0                  ;zero the extruded length
G1 F200 E30              ;extrude 30mm of feed stock
G92 E0                  ;zero the extruded length again
G1 X175 Y25  Z0 F12000 ;remove bugger
G1 X220 F12000 ;remove bugger
G1 X150 Y150  Z15 F12000 ;recenter and begin
G1 F12000

;Layer count: 129
;LAYER:-2
;RAFT
G0 F12000 X133.58 Y135.05 Z0.30
;TYPE:SUPPORT
G1 F2700 X136.30 Y133.69 E0.25107
G1 X136.90 Y133.09 E0.32116
G1 X137.30 Y132.89 E0.35795
G1 X137.90 Y132.29 E0.42809
G1 X139.10 Y131.69 E0.53874
G1 X139.50 Y131.29 E0.58548
G1 X140.70 Y130.69 E0.69601
G1 X140.90 Y130.49 E0.71970
G1 X142.69 Y129.60 E0.88449
G1 X143.88 Y129.30 E0.98641
G1 X143.89 Y129.29 E0.98678
G1 X144.49 Y129.00 E1.04210
G1 X148.17 Y128.07 E1.35558
G1 X157.28 Y128.07 E2.10688
G1 X158.65 Y128.42 E2.22325
G1 X160.24 Y128.73 E2.35739
G1 X161.16 Y129.19 E2.44242
G1 X166.20 Y130.45 E2.87099
G1 X166.05 Y131.74 E2.97788
G1 X167.15 Y132.29 E3.07926
G1 X168.15 Y133.29 E3.19608
G1 X168.55 Y133.49 E3.23288
G1 X172.48 Y137.41 E3.69072
G1 X172.48 Y137.61 E3.70723
G1 X173.08 Y138.21 E3.77725
G1 X173.08 Y138.41 E3.79376
G1 X173.88 Y139.21 E3.88712
G1 X173.88 Y139.41 E3.90363
G1 X174.08 Y139.61 E3.92697
G1 X174.08 Y139.81 E3.94347
G1 X174.28 Y140.01 E3.96682
G1 X174.28 Y140.21 E3.98332
G1 X174.48 Y140.41 E4.00666
G1 X174.48 Y140.61 E4.02317
G1 X174.68 Y140.81 E4.04651
G1 X174.68 Y141.01 E4.06301
G1 X175.08 Y141.41 E4.10970
G1 X175.08 Y141.61 E4.12620
G1 X175.28 Y141.81 E4.14954
G1 X175.28 Y142.01 E4.16605
G1 X175.48 Y142.21 E4.18939
G1 X175.48 Y142.41 E4.20589
G1 X175.68 Y142.61 E4.22924
G1 X175.68 Y142.81 E4.24574
G1 X175.88 Y143.01 E4.26908
G1 X175.88 Y143.21 E4.28559
G1 X176.08 Y143.41 E4.30893
G1 X176.08 Y143.81 E4.34194
G1 X176.28 Y144.01 E4.36528
G1 X176.28 Y144.61 E4.41480
G1 X176.48 Y144.81 E4.43814
G1 X176.48 Y145.41 E4.48765
G1 X176.68 Y145.61 E4.51099
G1 X176.68 Y146.21 E4.56051
G1 X176.88 Y146.41 E4.58385
G1 X176.88 Y148.01 E4.71589
G1 X177.08 Y148.21 E4.73923
G1 X177.08 Y156.53 E5.42600
G1 X176.88 Y156.74 E5.44934
G1 X176.88 Y158.34 E5.58138
G1 X176.68 Y158.53 E5.60473
G1 X176.68 Y159.13 E5.65424
G1 X176.48 Y159.34 E5.67758
G1 X176.48 Y160.13 E5.74360
G1 X176.28 Y160.34 E5.76694
G1 X176.28 Y160.94 E5.81646
G1 X176.08 Y161.13 E5.83980
G1 X176.08 Y161.34 E5.85630
G1 X175.88 Y161.53 E5.87965
G1 X175.88 Y161.74 E5.89615
G1 X175.68 Y161.94 E5.91949
G1 X175.68 Y162.13 E5.93600
G1 X175.48 Y162.34 E5.95934
G1 X175.48 Y162.53 E5.97584
G1 X175.28 Y162.74 E5.99919
G1 X175.28 Y162.94 E6.01569
G1 X175.08 Y163.13 E6.03903
G1 X175.08 Y163.34 E6.05554
G1 X174.88 Y163.53 E6.07888
G1 X174.88 Y163.74 E6.09538
G1 X174.68 Y163.94 E6.11872
G1 X174.68 Y164.13 E6.13523
G1 X174.48 Y164.34 E6.15857
G1 X174.48 Y164.53 E6.17508
G1 X174.08 Y164.94 E6.22176
G1 X174.08 Y165.13 E6.23826
G1 X173.88 Y165.34 E6.26161
G1 X173.88 Y165.53 E6.27811
G1 X173.28 Y166.13 E6.34814
G1 X173.28 Y166.34 E6.36464
G1 X172.88 Y166.74 E6.41132
G1 X172.88 Y166.94 E6.42783
G1 X168.15 Y171.66 E6.97904
G1 X167.75 Y171.86 E7.01583
G1 X167.15 Y172.46 E7.08598
G1 X166.75 Y172.66 E7.12281
G1 X166.35 Y173.06 E7.16955
G1 X165.55 Y173.46 E7.24329
G1 X165.35 Y173.66 E7.26669
G1 X163.01 Y174.83 E7.48252
G1 X161.56 Y175.55 E7.61626
G1 X160.76 Y175.75 E7.68424
G1 X159.84 Y176.21 E7.76934
G1 X158.24 Y176.53 E7.90464
G1 X157.22 Y176.79 E7.99057
G1 X154.93 Y177.07 E8.18127
G1 X150.76 Y177.07 E8.52548
G1 X148.26 Y176.80 E8.73273
G1 X144.89 Y175.95 E9.02019
G1 X144.21 Y175.61 E9.08245
G1 X143.21 Y175.41 E9.16653
G1 X140.90 Y174.26 E9.37992
G1 X140.70 Y174.06 E9.40332
G1 X138.70 Y173.06 E9.58778
G1 X138.30 Y172.66 E9.63452
G1 X137.90 Y172.46 E9.67135
G1 X137.30 Y171.86 E9.74149
G1 X136.90 Y171.66 E9.77829
G1 X136.30 Y171.06 E9.84843
G1 X135.90 Y170.86 E9.88522
G1 X132.38 Y167.34 E10.29639
G1 X132.38 Y167.13 E10.31289
G1 X131.78 Y166.53 E10.38292
G1 X131.78 Y166.34 E10.39942
G1 X131.38 Y165.94 E10.44610
G1 X131.38 Y165.74 E10.46261
G1 X130.78 Y165.13 E10.53263
G1 X130.78 Y164.94 E10.54914
G1 X130.58 Y164.74 E10.57248
G1 X130.58 Y164.53 E10.58898
G1 X130.18 Y164.13 E10.63567
G1 X130.18 Y163.94 E10.65217
G1 X129.98 Y163.74 E10.67551
G1 X129.98 Y163.53 E10.69202
G1 X129.78 Y163.34 E10.71536
G1 X129.78 Y163.13 E10.73187
G1 X129.58 Y162.94 E10.75521
G1 X129.58 Y162.74 E10.77171
G1 X129.38 Y162.53 E10.79505
G1 X129.38 Y162.34 E10.81156
G1 X129.18 Y162.13 E10.83490
G1 X129.18 Y161.94 E10.85141
G1 X128.98 Y161.74 E10.87475
G1 X128.98 Y161.53 E10.89125
G1 X128.78 Y161.34 E10.91459
G1 X128.78 Y160.74 E10.96411
G1 X128.58 Y160.53 E10.98745
G1 X128.58 Y160.34 E11.00395
G1 X128.38 Y160.13 E11.02730
G1 X128.38 Y159.34 E11.09332
G1 X128.18 Y159.13 E11.11666
G1 X128.18 Y158.53 E11.16617
G1 X127.98 Y158.34 E11.18951
G1 X127.98 Y146.41 E12.17337
G1 X128.18 Y146.21 E12.19672
G1 X128.18 Y145.61 E12.24623
G1 X128.38 Y145.41 E12.26957
G1 X128.38 Y144.81 E12.31909
G1 X128.58 Y144.61 E12.34243
G1 X128.58 Y144.41 E12.35893
G1 X128.78 Y144.21 E12.38228
G1 X128.78 Y143.61 E12.43179
G1 X128.98 Y143.41 E12.45513
G1 X128.98 Y143.01 E12.48814
G1 X129.18 Y142.81 E12.51148
G1 X129.18 Y142.61 E12.52799
G1 X129.38 Y142.41 E12.55133
G1 X129.38 Y142.21 E12.56783
G1 X129.58 Y142.01 E12.59118
G1 X129.58 Y141.81 E12.60768
G1 X129.98 Y141.41 E12.65436
G1 X129.98 Y141.21 E12.67087
G1 X130.18 Y141.01 E12.69421
G1 X130.18 Y140.81 E12.71072
G1 X130.38 Y140.61 E12.73406
G1 X130.38 Y140.41 E12.75056
G1 X130.58 Y140.21 E12.77390
G1 X130.58 Y140.01 E12.79041
G1 X130.78 Y139.81 E12.81375
G1 X130.78 Y139.61 E12.83025
G1 X131.58 Y138.81 E12.92362
G1 X131.58 Y138.61 E12.94013
G1 X131.78 Y138.41 E12.96347
G1 X131.78 Y138.21 E12.97997
G1 X133.58 Y136.41 E13.19010
G1 X133.58 Y135.05 E13.30259
G0 F12000 X145.44 Y145.43
G1 F2700 X144.77 Y146.16 E13.38414
G1 X144.28 Y146.83 E13.45299
G1 X144.28 Y158.17 E14.38849
G1 X144.77 Y158.84 E14.45733
G1 X145.43 Y159.57 E14.53849
G1 X146.16 Y160.23 E14.61964
G1 X146.94 Y160.81 E14.69999
G1 X147.79 Y161.31 E14.78115
G1 X148.67 Y161.73 E14.86207
G1 X149.60 Y162.06 E14.94314
G1 X150.55 Y162.30 E15.02413
G1 X151.52 Y162.44 E15.10513
G1 X152.50 Y162.49 E15.18594
G1 X153.48 Y162.44 E15.26675
G1 X154.45 Y162.30 E15.34776
G1 X155.40 Y162.06 E15.42874
G1 X156.33 Y161.73 E15.50982
G1 X157.21 Y161.31 E15.59074
G1 X158.06 Y160.81 E15.67190
G1 X158.84 Y160.23 E15.75225
G1 X159.57 Y159.57 E15.83340
G1 X160.23 Y158.84 E15.91456
G1 X160.81 Y158.06 E15.99490
G1 X161.31 Y157.21 E16.07607
G1 X161.73 Y156.33 E16.15699
G1 X162.06 Y155.40 E16.23806
G1 X162.30 Y154.45 E16.31904
G1 X162.44 Y153.48 E16.40005
G1 X162.49 Y152.50 E16.48086
G1 X162.44 Y151.52 E16.56167
G1 X162.30 Y150.55 E16.64268
G1 X162.06 Y149.60 E16.72366
G1 X161.73 Y148.67 E16.80474
G1 X161.31 Y147.79 E16.88565
G1 X160.81 Y146.94 E16.96682
G1 X160.23 Y146.16 E17.04717
G1 X159.56 Y145.43 E17.12873
G1 X158.84 Y144.77 E17.20947
G1 X158.06 Y144.19 E17.28982
G1 X157.21 Y143.69 E17.37098
G1 X156.33 Y143.27 E17.45190
G1 X155.40 Y142.94 E17.53298
G1 X154.45 Y142.70 E17.61396
G1 X153.48 Y142.56 E17.69497
G1 X152.50 Y142.51 E17.77578
G1 X151.52 Y142.56 E17.85659
G1 X150.55 Y142.70 E17.93759
G1 X149.60 Y142.94 E18.01858
G1 X148.67 Y143.27 E18.09965
G1 X147.79 Y143.69 E18.18057
G1 X146.94 Y144.19 E18.26173
G1 X146.16 Y144.77 E18.34208
G1 X145.44 Y145.43 E18.42282
G0 F12000 X145.50 Y145.52
G1 F2700 X145.50 Y128.63 E19.81625
G0 F12000 X144.50 Y128.88
G1 F2700 X144.50 Y146.71 E21.28709
G0 F12000 X146.50 Y144.65
G1 F2700 X146.50 Y128.38 E22.62977
G0 F12000 X147.50 Y128.13
G1 F2700 X147.50 Y143.98 E23.93771
G0 F12000 X148.50 Y143.47
G1 F2700 X148.50 Y127.97 E25.21668
G0 F12000 X149.50 Y127.97
G1 F2700 X149.50 Y143.09 E26.46412
G0 F12000 X150.50 Y142.82
G1 F2700 X150.50 Y127.97 E27.68970
G0 F12000 X151.50 Y127.97
G1 F2700 X151.50 Y142.66 E28.90248
G0 F12000 X152.50 Y142.61
G1 F2700 X152.50 Y127.97 E30.11081
G0 F12000 X153.50 Y127.97
G1 F2700 X153.50 Y142.66 E31.32351
G0 F12000 X154.50 Y142.82
G1 F2700 X154.50 Y127.97 E32.54900
G0 F12000 X155.50 Y127.97
G1 F2700 X155.50 Y143.08 E33.79637
G0 F12000 X156.50 Y143.47
G1 F2700 X156.50 Y127.97 E35.07525
G0 F12000 X157.50 Y128.02
G1 F2700 X157.50 Y143.98 E36.39235
G0 F12000 X158.50 Y144.65
G1 F2700 X158.50 Y128.27 E37.74419
G0 F12000 X159.50 Y128.48
G1 F2700 X159.50 Y145.52 E39.15024
G0 F12000 X160.50 Y146.71
G1 F2700 X160.50 Y128.75 E40.63231
G0 F12000 X161.50 Y129.17
G1 F2700 X161.50 Y148.43 E42.22157
G0 F12000 X161.50 Y156.57
G1 F2700 X161.50 Y175.68 E43.79845
G0 F12000 X160.50 Y176.00
G1 F2700 X160.50 Y158.29 E45.25997
G0 F12000 X159.50 Y159.49
G1 F2700 X159.50 Y176.39 E46.65505
G0 F12000 X158.50 Y176.59
G1 F2700 X158.50 Y160.35 E47.99550
G0 F12000 X157.50 Y161.02
G1 F2700 X157.50 Y176.83 E49.30022
G0 F12000 X156.50 Y176.98
G1 F2700 X156.50 Y161.53 E50.57531
G0 F12000 X155.50 Y161.91
G1 F2700 X155.50 Y177.11 E51.82919
G0 F12000 X154.50 Y177.18
G1 F2700 X154.50 Y162.18 E53.06698
G0 F12000 X153.50 Y162.34
G1 F2700 X153.50 Y177.18 E54.29197
G0 F12000 X152.50 Y177.18
G1 F2700 X152.50 Y162.39 E55.51252
G0 F12000 X151.50 Y162.34
G1 F2700 X151.50 Y177.18 E56.73743
G0 F12000 X150.50 Y177.15
G1 F2700 X150.50 Y162.18 E57.97274
G0 F12000 X149.50 Y161.92
G1 F2700 X149.50 Y177.04 E59.22077
G0 F12000 X148.50 Y176.93
G1 F2700 X148.50 Y161.53 E60.49124
G0 F12000 X147.50 Y161.02
G1 F2700 X147.50 Y176.71 E61.78655
G0 F12000 X146.50 Y176.46
G1 F2700 X146.50 Y160.35 E63.11651
G0 F12000 X145.50 Y159.49
G1 F2700 X145.50 Y176.21 E64.49691
G0 F12000 X144.50 Y175.88
G1 F2700 X144.50 Y158.29 E65.94777
G0 F12000 X133.50 Y168.61
G1 F2700 X133.50 Y134.97 E68.72374
G0 F12000 X134.50 Y134.47
G1 F2700 X134.50 Y169.61 E71.62342
G0 F12000 X135.50 Y170.61
G1 F2700 X135.50 Y133.97 E74.64688
G0 F12000 X136.50 Y133.34
G1 F2700 X136.50 Y171.41 E77.78835
G0 F12000 X137.50 Y172.21
G1 F2700 X137.50 Y132.54 E81.06178
G0 F12000 X138.50 Y131.87
G1 F2700 X138.50 Y173.01 E84.45652
G0 F12000 X139.50 Y173.57
G1 F2700 X139.50 Y131.17 E87.95581
G0 F12000 X140.50 Y130.67
G1 F2700 X140.50 Y174.08 E91.53772
G0 F12000 X141.50 Y174.68
G1 F2700 X141.50 Y130.07 E95.21866
G0 F12000 X142.50 Y129.57
G1 F2700 X142.50 Y175.18 E98.98203
G0 F12000 X143.50 Y175.58
G1 F2700 X143.50 Y129.28 E102.80244
G0 F12000 X132.50 Y137.34
G1 F2700 X132.50 Y167.61 E105.30021
G0 F12000 X131.50 Y166.21
G1 F2700 X131.50 Y138.54 E107.58334
G0 F12000 X130.50 Y139.94
G1 F2700 X130.50 Y164.81 E109.63541
G0 F12000 X129.50 Y163.01
G1 F2700 X129.50 Y141.74 E111.39038
G0 F12000 X128.50 Y144.34
G1 F2700 X128.50 Y160.61 E112.73273
G0 F12000 X162.50 Y175.20
G1 F2700 X162.50 Y129.42 E116.51079
G0 F12000 X163.50 Y129.67
G1 F2700 X163.50 Y174.70 E120.22697
G0 F12000 X164.50 Y174.20
G1 F2700 X164.50 Y129.92 E123.88125
G0 F12000 X165.50 Y130.17
G1 F2700 X165.50 Y173.66 E127.47017
G0 F12000 X166.50 Y173.06
G1 F2700 X166.50 Y131.85 E130.87126
G0 F12000 X167.50 Y132.49
G1 F2700 X167.50 Y172.26 E134.15327
G0 F12000 X168.50 Y171.46
G1 F2700 X168.50 Y133.35 E137.29846
G0 F12000 X169.50 Y134.29
G1 F2700 X169.50 Y170.46 E140.28338
G0 F12000 X170.50 Y169.46
G1 F2700 X170.50 Y135.29 E143.10325
G0 F12000 X171.50 Y136.29
G1 F2700 X171.50 Y168.46 E145.75807
G0 F12000 X172.50 Y167.46
G1 F2700 X172.50 Y137.29 E148.24785
G0 F12000 X173.50 Y138.69
G1 F2700 X173.50 Y166.06 E150.50655
G0 F12000 X174.50 Y164.66
G1 F2700 X174.50 Y140.29 E152.51768
G0 F12000 X175.50 Y142.09
G1 F2700 X175.50 Y162.66 E154.21521
G0 F12000 X176.50 Y160.26
G1 F2700 X176.50 Y144.69 E155.50012
M106 S255
;LAYER:-1
;RAFT
G0 F12000 X176.31 Y144.34 Z0.50
;TYPE:SUPPORT
G1 F7200 X161.08 Y129.12 E155.83853
G0 F12000 X161.87 Y129.34
G1 F7200 X176.10 Y143.58 E156.15506
G0 F12000 X175.71 Y142.61
G1 F7200 X162.62 Y129.53 E156.44592
G0 F12000 X163.38 Y129.72
G1 F7200 X175.10 Y141.45 E156.70668
G0 F12000 X174.31 Y140.08
G1 F7200 X164.13 Y129.91 E156.93287
G0 F12000 X164.88 Y130.09
G1 F7200 X166.13 Y131.34 E156.96056
G0 F12000 X166.19 Y130.83
G1 F7200 X165.64 Y130.28 E156.97275
G0 F12000 X166.94 Y132.15
G1 F7200 X173.10 Y138.31 E157.10980
G0 F12000 X176.50 Y145.11
G1 F7200 X160.06 Y128.67 E157.47528
G0 F12000 X159.36 Y128.53
G1 F7200 X176.71 Y145.88 E157.86093
G0 F12000 X176.91 Y146.64
G1 F7200 X158.65 Y128.39 E158.26674
G0 F12000 X157.90 Y128.20
G1 F7200 X176.91 Y147.21 E158.68931
G0 F12000 X176.91 Y147.77
G1 F7200 X157.18 Y128.04 E159.12789
G0 F12000 X156.61 Y128.04
G1 F7200 X177.10 Y148.54 E159.58349
G0 F12000 X177.10 Y149.10
G1 F7200 X156.04 Y128.04 E160.05167
G0 F12000 X155.48 Y128.04
G1 F7200 X177.10 Y149.67 E160.53241
G0 F12000 X177.10 Y150.24
G1 F7200 X154.91 Y128.04 E161.02574
G0 F12000 X154.35 Y128.04
G1 F7200 X177.10 Y150.80 E161.53165
G0 F12000 X177.10 Y151.37
G1 F7200 X153.78 Y128.04 E162.05012
G0 F12000 X153.22 Y128.04
G1 F7200 X177.10 Y151.93 E162.58118
G0 F12000 X177.10 Y152.50
G1 F7200 X152.65 Y128.04 E163.12481
G0 F12000 X152.09 Y128.04
G1 F7200 X177.10 Y153.06 E163.68101
G0 F12000 X177.10 Y153.63
G1 F7200 X151.52 Y128.04 E164.24979
G0 F12000 X150.95 Y128.04
G1 F7200 X177.10 Y154.19 E164.83115
G0 F12000 X177.10 Y154.76
G1 F7200 X150.39 Y128.04 E165.42507
G0 F12000 X149.82 Y128.04
G1 F7200 X177.10 Y155.33 E166.03157
G0 F12000 X177.10 Y155.89
G1 F7200 X149.26 Y128.04 E166.65065
G0 F12000 X148.69 Y128.04
G1 F7200 X177.10 Y156.46 E167.28230
G0 F12000 X176.91 Y156.82
G1 F7200 X148.13 Y128.05 E167.92188
G0 F12000 X147.68 Y128.16
G1 F7200 X176.91 Y157.39 E168.57152
G0 F12000 X176.91 Y157.95
G1 F7200 X147.23 Y128.28 E169.23119
G0 F12000 X146.78 Y128.39
G1 F7200 X176.82 Y158.43 E169.89900
G0 F12000 X176.71 Y158.89
G1 F7200 X146.32 Y128.51 E170.57435
G0 F12000 X145.87 Y128.62
G1 F7200 X176.55 Y159.30 E171.25637
G0 F12000 X176.50 Y159.82
G1 F7200 X145.42 Y128.73 E171.94738
G0 F12000 X144.97 Y128.85
G1 F7200 X176.39 Y160.26 E172.64583
G0 F12000 X176.31 Y160.75
G1 F7200 X144.51 Y128.96 E173.35251
G0 F12000 X144.13 Y129.14
G1 F7200 X176.12 Y161.13 E174.06363
G0 F12000 X175.94 Y161.51
G1 F7200 X143.73 Y129.31 E174.77962
G0 F12000 X143.28 Y129.42
G1 F7200 X158.19 Y144.33 E175.11111
G0 F12000 X156.84 Y143.54
G1 F7200 X142.82 Y129.53 E175.42260
G0 F12000 X142.42 Y129.69
G1 F7200 X155.86 Y143.13 E175.72133
G0 F12000 X155.04 Y142.88
G1 F7200 X142.04 Y129.88 E176.01020
G0 F12000 X141.67 Y130.07
G1 F7200 X154.30 Y142.71 E176.29109
G0 F12000 X153.64 Y142.61
G1 F7200 X141.29 Y130.26 E176.56565
G0 F12000 X140.91 Y130.45
G1 F7200 X153.03 Y142.56 E176.83495
G0 F12000 X152.44 Y142.54
G1 F7200 X140.60 Y130.70 E177.09803
G0 F12000 X140.23 Y130.89
G1 F7200 X151.90 Y142.56 E177.35753
G0 F12000 X151.37 Y142.61
G1 F7200 X139.85 Y131.08 E177.61373
G0 F12000 X139.47 Y131.27
G1 F7200 X150.88 Y142.68 E177.86735
G0 F12000 X150.40 Y142.77
G1 F7200 X139.19 Y131.55 E178.11659
G0 F12000 X138.85 Y131.78
G1 F7200 X149.95 Y142.88 E178.36333
G0 F12000 X149.51 Y143.00
G1 F7200 X138.47 Y131.97 E178.60859
G0 F12000 X138.10 Y132.16
G1 F7200 X149.09 Y143.15 E178.85295
G0 F12000 X148.67 Y143.30
G1 F7200 X137.76 Y132.38 E179.09559
G0 F12000 X137.48 Y132.67
G1 F7200 X148.29 Y143.48 E179.33596
G0 F12000 X147.91 Y143.66
G1 F7200 X137.16 Y132.92 E179.57473
G0 F12000 X136.81 Y133.13
G1 F7200 X147.54 Y143.87 E179.81332
G0 F12000 X147.19 Y144.08
G1 F7200 X136.53 Y133.42 E180.05035
G0 F12000 X136.23 Y133.69
G1 F7200 X146.85 Y144.30 E180.28625
G0 F12000 X146.52 Y144.54
G1 F7200 X135.86 Y133.88 E180.52334
G0 F12000 X135.48 Y134.06
G1 F7200 X146.20 Y144.78 E180.76159
G0 F12000 X145.90 Y145.05
G1 F7200 X135.10 Y134.25 E181.00161
G0 F12000 X134.72 Y134.44
G1 F7200 X145.60 Y145.32 E181.24340
G0 F12000 X145.32 Y145.60
G1 F7200 X134.35 Y134.63 E181.48733
G0 F12000 X133.97 Y134.82
G1 F7200 X145.05 Y145.90 E181.73366
G0 F12000 X144.78 Y146.20
G1 F7200 X133.59 Y135.01 E181.98244
G0 F12000 X133.54 Y135.53
G1 F7200 X144.54 Y146.52 E182.22690
G0 F12000 X144.31 Y146.85
G1 F7200 X133.54 Y136.09 E182.46611
G0 F12000 X133.42 Y136.53
G1 F7200 X144.31 Y147.42 E182.70818
G0 F12000 X144.31 Y147.98
G1 F7200 X133.13 Y136.81 E182.95654
G0 F12000 X132.85 Y137.09
G1 F7200 X144.31 Y148.55 E183.21118
G0 F12000 X144.31 Y149.11
G1 F7200 X132.57 Y137.38 E183.47212
G0 F12000 X132.28 Y137.66
G1 F7200 X144.31 Y149.68 E183.73934
G0 F12000 X144.31 Y150.25
G1 F7200 X132.00 Y137.94 E184.01286
G0 F12000 X131.75 Y138.25
G1 F7200 X144.31 Y150.81 E184.29207
G0 F12000 X144.31 Y151.38
G1 F7200 X131.54 Y138.62 E184.57575
G0 F12000 X131.35 Y138.99
G1 F7200 X144.31 Y151.94 E184.86367
G0 F12000 X144.31 Y152.51
G1 F7200 X131.07 Y139.27 E185.15787
G0 F12000 X130.79 Y139.56
G1 F7200 X144.31 Y153.07 E185.45835
G0 F12000 X144.31 Y153.64
G1 F7200 X130.61 Y139.94 E185.76291
G0 F12000 X130.42 Y140.32
G1 F7200 X144.31 Y154.21 E186.07152
G0 F12000 X144.31 Y154.77
G1 F7200 X130.24 Y140.71 E186.38421
G0 F12000 X130.06 Y141.09
G1 F7200 X144.31 Y155.34 E186.70096
G0 F12000 X144.31 Y155.90
G1 F7200 X129.88 Y141.47 E187.02176
G0 F12000 X129.59 Y141.75
G1 F7200 X144.31 Y156.47 E187.34886
G0 F12000 X144.31 Y157.03
G1 F7200 X129.41 Y142.14 E187.68003
G0 F12000 X129.23 Y142.52
G1 F7200 X144.31 Y157.60 E188.01525
G0 F12000 X144.33 Y158.19
G1 F7200 X129.04 Y142.90 E188.35510
G0 F12000 X128.94 Y143.37
G1 F7200 X161.24 Y175.66 E189.07297
G0 F12000 X161.67 Y175.53
G1 F7200 X146.81 Y160.67 E189.40330
G0 F12000 X148.16 Y161.46
G1 F7200 X162.05 Y175.34 E189.71199
G0 F12000 X162.43 Y175.15
G1 F7200 X149.14 Y161.87 E190.00738
G0 F12000 X149.96 Y162.12
G1 F7200 X162.80 Y174.96 E190.29289
G0 F12000 X163.18 Y174.78
G1 F7200 X150.69 Y162.29 E190.57042
G0 F12000 X151.36 Y162.39
G1 F7200 X163.56 Y174.59 E190.84161
G0 F12000 X163.93 Y174.40
G1 F7200 X151.97 Y162.44 E191.10752
G0 F12000 X152.56 Y162.46
G1 F7200 X164.31 Y174.21 E191.36874
G0 F12000 X164.69 Y174.02
G1 F7200 X153.10 Y162.43 E191.62636
G0 F12000 X153.62 Y162.39
G1 F7200 X165.07 Y173.83 E191.88072
G0 F12000 X165.43 Y173.63
G1 F7200 X154.12 Y162.32 E192.13209
G0 F12000 X154.60 Y162.23
G1 F7200 X165.75 Y173.39 E192.38013
G0 F12000 X166.13 Y173.20
G1 F7200 X155.05 Y162.12 E192.62650
G0 F12000 X155.49 Y162.00
G1 F7200 X166.47 Y172.98 E192.87062
G0 F12000 X166.76 Y172.70
G1 F7200 X155.91 Y161.85 E193.11176
G0 F12000 X156.32 Y161.70
G1 F7200 X167.13 Y172.50 E193.35193
G0 F12000 X167.42 Y172.23
G1 F7200 X156.71 Y161.52 E193.59011
G0 F12000 X157.09 Y161.34
G1 F7200 X167.71 Y171.95 E193.82602
G0 F12000 X168.06 Y171.74
G1 F7200 X157.46 Y161.13 E194.06178
G0 F12000 X157.81 Y160.92
G1 F7200 X168.37 Y171.48 E194.29660
G0 F12000 X168.65 Y171.20
G1 F7200 X158.15 Y160.70 E194.53005
G0 F12000 X158.48 Y160.46
G1 F7200 X168.94 Y170.92 E194.76256
G0 F12000 X169.22 Y170.63
G1 F7200 X158.80 Y160.22 E194.99414
G0 F12000 X159.10 Y159.95
G1 F7200 X169.50 Y170.35 E195.22539
G0 F12000 X169.78 Y170.07
G1 F7200 X159.40 Y159.68 E195.45632
G0 F12000 X159.68 Y159.40
G1 F7200 X170.07 Y169.78 E195.68724
G0 F12000 X170.35 Y169.50
G1 F7200 X159.95 Y159.10 E195.91850
G0 F12000 X160.22 Y158.80
G1 F7200 X170.63 Y169.22 E196.15011
G0 F12000 X170.92 Y168.94
G1 F7200 X160.46 Y158.48 E196.38264
G0 F12000 X160.70 Y158.15
G1 F7200 X171.20 Y168.65 E196.61611
G0 F12000 X171.48 Y168.37
G1 F7200 X160.92 Y157.81 E196.85094
G0 F12000 X161.13 Y157.45
G1 F7200 X171.76 Y168.09 E197.08733
G0 F12000 X172.05 Y167.81
G1 F7200 X161.33 Y157.09 E197.32550
G0 F12000 X161.52 Y156.71
G1 F7200 X172.33 Y167.52 E197.56590
G0 F12000 X172.61 Y167.24
G1 F7200 X161.70 Y156.32 E197.80854
G0 F12000 X161.85 Y155.91
G1 F7200 X172.90 Y166.96 E198.05415
G0 F12000 X173.08 Y166.57
G1 F7200 X162.00 Y155.49 E198.30047
G0 F12000 X162.12 Y155.05
G1 F7200 X173.31 Y166.23 E198.54914
G0 F12000 X173.54 Y165.91
G1 F7200 X162.23 Y154.59 E198.80060
G0 F12000 X162.32 Y154.12
G1 F7200 X173.83 Y165.62 E199.05643
G0 F12000 X174.01 Y165.24
G1 F7200 X162.39 Y153.62 E199.31471
G0 F12000 X162.43 Y153.10
G1 F7200 X174.19 Y164.86 E199.57612
G0 F12000 X174.47 Y164.58
G1 F7200 X162.46 Y152.56 E199.84324
G0 F12000 X162.44 Y151.97
G1 F7200 X174.66 Y164.19 E200.11493
G0 F12000 X174.84 Y163.81
G1 F7200 X162.39 Y151.36 E200.39173
G0 F12000 X162.29 Y150.69
G1 F7200 X175.02 Y163.43 E200.67480
G0 F12000 X175.21 Y163.04
G1 F7200 X162.12 Y149.96 E200.96570
G0 F12000 X161.87 Y149.14
G1 F7200 X175.39 Y162.66 E201.26636
G0 F12000 X175.57 Y162.28
G1 F7200 X161.46 Y148.16 E201.58020
G0 F12000 X160.67 Y146.81
G1 F7200 X175.75 Y161.90 E201.91555
G0 F12000 X160.79 Y175.78
G1 F7200 X128.75 Y143.74 E202.62781
G0 F12000 X128.69 Y144.25
G1 F7200 X160.41 Y175.96 E203.33278
G0 F12000 X160.03 Y176.15
G1 F7200 X128.51 Y144.63 E204.03343
G0 F12000 X128.35 Y145.03
G1 F7200 X159.60 Y176.29 E204.72827
G0 F12000 X159.13 Y176.38
G1 F7200 X128.25 Y145.50 E205.41485
G0 F12000 X128.15 Y145.97
G1 F7200 X158.66 Y176.48 E206.09315
G0 F12000 X158.19 Y176.57
G1 F7200 X127.98 Y146.37 E206.76470
G0 F12000 X127.95 Y146.90
G1 F7200 X157.74 Y176.69 E207.42697
G0 F12000 X157.29 Y176.80
G1 F7200 X127.95 Y147.46 E208.07920
G0 F12000 X127.95 Y148.03
G1 F7200 X156.79 Y176.87 E208.72039
G0 F12000 X156.29 Y176.93
G1 F7200 X127.95 Y148.59 E209.35039
G0 F12000 X127.95 Y149.16
G1 F7200 X155.78 Y177.00 E209.96921
G0 F12000 X155.28 Y177.06
G1 F7200 X127.95 Y149.72 E210.57685
G0 F12000 X127.95 Y150.29
G1 F7200 X154.76 Y177.10 E211.17289
G0 F12000 X154.19 Y177.10
G1 F7200 X127.95 Y150.86 E211.75637
G0 F12000 X127.95 Y151.42
G1 F7200 X153.63 Y177.10 E212.32727
G0 F12000 X153.06 Y177.10
G1 F7200 X127.95 Y151.99 E212.88559
G0 F12000 X127.95 Y152.55
G1 F7200 X152.50 Y177.10 E213.43133
G0 F12000 X151.93 Y177.10
G1 F7200 X127.95 Y153.12 E213.96450
G0 F12000 X127.95 Y153.68
G1 F7200 X151.36 Y177.10 E214.48509
G0 F12000 X150.80 Y177.10
G1 F7200 X127.95 Y154.25 E214.99311
G0 F12000 X127.95 Y154.82
G1 F7200 X150.17 Y177.04 E215.48709
G0 F12000 X149.53 Y176.97
G1 F7200 X127.95 Y155.38 E215.96692
G0 F12000 X127.95 Y155.95
G1 F7200 X148.89 Y176.90 E216.43261
G0 F12000 X148.26 Y176.82
G1 F7200 X127.95 Y156.51 E216.88415
G0 F12000 X127.95 Y157.08
G1 F7200 X147.50 Y176.63 E217.31890
G0 F12000 X146.75 Y176.45
G1 F7200 X127.95 Y157.64 E217.73688
G0 F12000 X127.95 Y158.21
G1 F7200 X145.99 Y176.26 E218.13809
G0 F12000 X145.24 Y176.07
G1 F7200 X128.15 Y158.97 E218.51808
G0 F12000 X128.34 Y159.74
G1 F7200 X144.29 Y175.69 E218.87252
G0 F12000 X143.55 Y175.51
G1 F7200 X128.54 Y160.51 E219.20606
G0 F12000 X128.75 Y161.27
G1 F7200 X142.63 Y175.16 E219.51468
G0 F12000 X141.50 Y174.59
G1 F7200 X129.35 Y162.44 E219.78480
G0 F12000 X129.94 Y163.60
G1 F7200 X140.17 Y173.82 E220.01200
G0 F12000 X139.03 Y173.26
G1 F7200 X130.75 Y164.97 E220.19626
G0 F12000 X131.75 Y166.53
G1 F7200 X136.90 Y171.69 E220.31089
;LAYER:-1
;RAFT
G0 F12000 X136.70 Y171.54 Z0.70
;TYPE:SUPPORT
G1 F2700 X168.36 Y171.54 E221.30622
G0 F12000 X168.72 Y171.18
G1 F2700 X136.34 Y171.18 E222.32418
G0 F12000 X135.78 Y170.82
G1 F2700 X169.08 Y170.82 E223.37107
G0 F12000 X169.44 Y170.46
G1 F2700 X135.42 Y170.46 E224.44059
G0 F12000 X135.06 Y170.10
G1 F2700 X169.80 Y170.10 E225.53275
G0 F12000 X170.16 Y169.74
G1 F2700 X134.70 Y169.74 E226.64754
G0 F12000 X134.34 Y169.38
G1 F2700 X170.52 Y169.38 E227.78497
G0 F12000 X170.88 Y169.02
G1 F2700 X133.98 Y169.02 E228.94503
G0 F12000 X133.62 Y168.66
G1 F2700 X171.24 Y168.66 E230.12773
G0 F12000 X171.60 Y168.30
G1 F2700 X133.26 Y168.30 E231.33306
G0 F12000 X132.90 Y167.94
G1 F2700 X171.96 Y167.94 E232.56103
G0 F12000 X172.32 Y167.58
G1 F2700 X132.54 Y167.58 E233.81163
G0 F12000 X132.32 Y167.22
G1 F2700 X172.68 Y167.22 E235.08047
G0 F12000 X172.94 Y166.86
G1 F2700 X132.02 Y166.86 E236.36692
G0 F12000 X131.72 Y166.50
G1 F2700 X173.19 Y166.50 E237.67093
G0 F12000 X173.35 Y166.14
G1 F2700 X131.50 Y166.14 E238.98690
G0 F12000 X131.32 Y165.78
G1 F2700 X173.72 Y165.78 E240.31984
G0 F12000 X173.94 Y165.42
G1 F2700 X130.97 Y165.42 E241.67045
G0 F12000 X130.72 Y165.06
G1 F2700 X174.14 Y165.06 E243.03552
G0 F12000 X174.40 Y164.70
G1 F2700 X130.51 Y164.70 E244.41502
G0 F12000 X130.29 Y164.34
G1 F2700 X174.56 Y164.34 E245.80646
G0 F12000 X174.74 Y163.98
G1 F2700 X130.12 Y163.98 E247.20926
G0 F12000 X129.91 Y163.62
G1 F2700 X174.94 Y163.62 E248.62463
G0 F12000 X175.14 Y163.26
G1 F2700 X129.72 Y163.26 E250.05258
G0 F12000 X129.51 Y162.90
G1 F2700 X175.34 Y162.90 E251.49310
G0 F12000 X175.54 Y162.54
G1 F2700 X129.31 Y162.54 E252.94619
G0 F12000 X129.13 Y162.18
G1 F2700 X150.31 Y162.18 E253.61202
G0 F12000 X149.10 Y161.82
G1 F2700 X128.97 Y161.82 E254.24461
G0 F12000 X128.81 Y161.46
G1 F2700 X148.24 Y161.46 E254.85533
G0 F12000 X147.55 Y161.10
G1 F2700 X128.72 Y161.10 E255.44746
G0 F12000 X128.69 Y160.74
G1 F2700 X146.96 Y160.74 E256.02152
G0 F12000 X146.47 Y160.38
G1 F2700 X128.51 Y160.38 E256.58599
G0 F12000 X128.31 Y160.02
G1 F2700 X146.02 Y160.02 E257.14270
G0 F12000 X145.62 Y159.66
G1 F2700 X128.31 Y159.66 E257.68689
G0 F12000 X128.25 Y159.30
G1 F2700 X145.27 Y159.30 E258.22187
G0 F12000 X144.95 Y158.94
G1 F2700 X128.12 Y158.94 E258.75100
G0 F12000 X128.12 Y158.58
G1 F2700 X144.66 Y158.58 E259.27105
G0 F12000 X144.39 Y158.22
G1 F2700 X127.92 Y158.22 E259.78899
G0 F12000 X127.92 Y157.86
G1 F2700 X144.34 Y157.86 E260.30523
G0 F12000 X144.34 Y157.50
G1 F2700 X127.92 Y157.50 E260.82148
G0 F12000 X127.92 Y157.14
G1 F2700 X144.34 Y157.14 E261.33772
G0 F12000 X144.34 Y156.78
G1 F2700 X127.92 Y156.78 E261.85397
G0 F12000 X127.92 Y156.42
G1 F2700 X144.34 Y156.42 E262.37021
G0 F12000 X144.34 Y156.06
G1 F2700 X127.92 Y156.06 E262.88645
G0 F12000 X127.92 Y155.70
G1 F2700 X144.34 Y155.70 E263.40270
G0 F12000 X144.34 Y155.34
G1 F2700 X127.92 Y155.34 E263.91894
G0 F12000 X127.92 Y154.98
G1 F2700 X144.34 Y154.98 E264.43518
G0 F12000 X144.34 Y154.62
G1 F2700 X127.92 Y154.62 E264.95143
G0 F12000 X127.92 Y154.26
G1 F2700 X144.34 Y154.26 E265.46767
G0 F12000 X144.34 Y153.90
G1 F2700 X127.92 Y153.90 E265.98391
G0 F12000 X127.92 Y153.54
G1 F2700 X144.34 Y153.54 E266.50016
G0 F12000 X144.34 Y153.18
G1 F2700 X127.92 Y153.18 E267.01640
G0 F12000 X127.92 Y152.82
G1 F2700 X144.34 Y152.82 E267.53265
G0 F12000 X144.34 Y152.46
G1 F2700 X127.92 Y152.46 E268.04889
G0 F12000 X127.92 Y152.10
G1 F2700 X144.34 Y152.10 E268.56513
G0 F12000 X144.34 Y151.74
G1 F2700 X127.92 Y151.74 E269.08138
G0 F12000 X127.92 Y151.38
G1 F2700 X144.34 Y151.38 E269.59762
G0 F12000 X144.34 Y151.02
G1 F2700 X127.92 Y151.02 E270.11386
G0 F12000 X127.92 Y150.66
G1 F2700 X144.34 Y150.66 E270.63011
G0 F12000 X144.34 Y150.30
G1 F2700 X127.92 Y150.30 E271.14635
G0 F12000 X127.92 Y149.94
G1 F2700 X144.34 Y149.94 E271.66259
G0 F12000 X144.34 Y149.58
G1 F2700 X127.92 Y149.58 E272.17884
G0 F12000 X127.92 Y149.22
G1 F2700 X144.34 Y149.22 E272.69508
G0 F12000 X144.34 Y148.86
G1 F2700 X127.92 Y148.86 E273.21132
G0 F12000 X127.92 Y148.50
G1 F2700 X144.34 Y148.50 E273.72757
G0 F12000 X144.34 Y148.14
G1 F2700 X127.92 Y148.14 E274.24381
G0 F12000 X127.92 Y147.78
G1 F2700 X144.34 Y147.78 E274.76006
G0 F12000 X144.34 Y147.42
G1 F2700 X127.92 Y147.42 E275.27630
G0 F12000 X127.92 Y147.06
G1 F2700 X144.34 Y147.06 E275.79254
G0 F12000 X144.45 Y146.70
G1 F2700 X127.92 Y146.70 E276.31231
G0 F12000 X127.96 Y146.34
G1 F2700 X144.72 Y146.34 E276.83893
G0 F12000 X145.02 Y145.98
G1 F2700 X128.12 Y145.98 E277.37032
G0 F12000 X128.12 Y145.62
G1 F2700 X145.34 Y145.62 E277.91197
G0 F12000 X145.71 Y145.26
G1 F2700 X128.31 Y145.26 E278.45893
G0 F12000 X128.31 Y144.90
G1 F2700 X146.11 Y144.90 E279.01837
G0 F12000 X146.58 Y144.54
G1 F2700 X128.51 Y144.54 E279.58617
G0 F12000 X128.72 Y144.18
G1 F2700 X147.08 Y144.18 E280.16356
G0 F12000 X147.68 Y143.82
G1 F2700 X128.72 Y143.82 E280.75987
G0 F12000 X128.84 Y143.46
G1 F2700 X148.41 Y143.46 E281.37493
G0 F12000 X149.32 Y143.10
G1 F2700 X128.91 Y143.10 E282.01642
G0 F12000 X129.12 Y142.74
G1 F2700 X150.68 Y142.74 E282.69435
G0 F12000 X154.32 Y142.74
G1 F2700 X175.74 Y142.74 E283.36763
G0 F12000 X175.94 Y143.10
G1 F2700 X155.68 Y143.10 E284.00447
G0 F12000 X156.59 Y143.46
G1 F2700 X176.14 Y143.46 E284.61892
G0 F12000 X176.17 Y143.82
G1 F2700 X157.32 Y143.82 E285.21159
G0 F12000 X157.92 Y144.18
G1 F2700 X176.34 Y144.18 E285.79062
G0 F12000 X176.34 Y144.54
G1 F2700 X158.42 Y144.54 E286.35377
G0 F12000 X158.89 Y144.90
G1 F2700 X176.54 Y144.90 E286.90855
G0 F12000 X176.54 Y145.26
G1 F2700 X159.29 Y145.26 E287.45086
G0 F12000 X159.65 Y145.62
G1 F2700 X176.74 Y145.62 E287.98788
G0 F12000 X176.74 Y145.98
G1 F2700 X159.98 Y145.98 E288.51463
G0 F12000 X160.28 Y146.34
G1 F2700 X176.89 Y146.34 E289.03662
G0 F12000 X176.94 Y146.70
G1 F2700 X160.55 Y146.70 E289.55174
G0 F12000 X160.81 Y147.06
G1 F2700 X176.94 Y147.06 E290.05883
G0 F12000 X176.94 Y147.42
G1 F2700 X161.02 Y147.42 E290.55914
G0 F12000 X161.24 Y147.78
G1 F2700 X176.94 Y147.78 E291.05268
G0 F12000 X177.09 Y148.14
G1 F2700 X161.41 Y148.14 E291.54550
G0 F12000 X161.58 Y148.50
G1 F2700 X177.14 Y148.50 E292.03446
G0 F12000 X177.14 Y148.86
G1 F2700 X161.74 Y148.86 E292.51864
G0 F12000 X161.86 Y149.22
G1 F2700 X177.14 Y149.22 E292.99876
G0 F12000 X177.14 Y149.58
G1 F2700 X161.99 Y149.58 E293.47485
G0 F12000 X162.09 Y149.94
G1 F2700 X177.14 Y149.94 E293.94800
G0 F12000 X177.14 Y150.30
G1 F2700 X162.18 Y150.30 E294.41831
G0 F12000 X162.26 Y150.66
G1 F2700 X177.14 Y150.66 E294.88611
G0 F12000 X177.14 Y151.02
G1 F2700 X162.31 Y151.02 E295.35221
G0 F12000 X162.36 Y151.38
G1 F2700 X177.14 Y151.38 E295.81664
G0 F12000 X177.14 Y151.74
G1 F2700 X162.40 Y151.74 E296.28007
G0 F12000 X162.41 Y152.10
G1 F2700 X177.14 Y152.10 E296.74293
G0 F12000 X177.14 Y152.46
G1 F2700 X162.43 Y152.46 E297.20519
G0 F12000 X162.42 Y152.82
G1 F2700 X177.14 Y152.82 E297.66790
G0 F12000 X177.14 Y153.18
G1 F2700 X162.40 Y153.18 E298.13117
G0 F12000 X162.38 Y153.54
G1 F2700 X177.14 Y153.54 E298.59519
G0 F12000 X177.14 Y153.90
G1 F2700 X162.32 Y153.90 E299.06089
G0 F12000 X162.27 Y154.26
G1 F2700 X177.14 Y154.26 E299.52827
G0 F12000 X177.14 Y154.62
G1 F2700 X162.20 Y154.62 E299.99793
G0 F12000 X162.11 Y154.98
G1 F2700 X177.14 Y154.98 E300.47041
G0 F12000 X177.14 Y155.34
G1 F2700 X162.02 Y155.34 E300.94572
G0 F12000 X161.89 Y155.70
G1 F2700 X177.14 Y155.70 E301.42493
G0 F12000 X177.14 Y156.06
G1 F2700 X161.76 Y156.06 E301.90820
G0 F12000 X161.62 Y156.42
G1 F2700 X177.14 Y156.42 E302.39592
G0 F12000 X176.94 Y156.78
G1 F2700 X161.45 Y156.78 E302.88274
G0 F12000 X161.28 Y157.14
G1 F2700 X176.94 Y157.14 E303.37494
G0 F12000 X176.94 Y157.50
G1 F2700 X161.07 Y157.50 E303.87370
G0 F12000 X160.85 Y157.86
G1 F2700 X176.94 Y157.86 E304.37925
G0 F12000 X176.94 Y158.22
G1 F2700 X160.61 Y158.22 E304.89248
G0 F12000 X160.34 Y158.58
G1 F2700 X176.74 Y158.58 E305.40781
G0 F12000 X176.74 Y158.94
G1 F2700 X160.06 Y158.94 E305.93223
G0 F12000 X159.73 Y159.30
G1 F2700 X176.59 Y159.30 E306.46246
G0 F12000 X176.54 Y159.66
G1 F2700 X159.38 Y159.66 E307.00194
G0 F12000 X158.98 Y160.02
G1 F2700 X176.54 Y160.02 E307.55393
G0 F12000 X176.34 Y160.38
G1 F2700 X158.53 Y160.38 E308.11368
G0 F12000 X158.05 Y160.74
G1 F2700 X176.34 Y160.74 E308.68868
G0 F12000 X176.19 Y161.10
G1 F2700 X157.45 Y161.10 E309.27796
G0 F12000 X156.76 Y161.46
G1 F2700 X176.03 Y161.46 E309.88392
G0 F12000 X175.88 Y161.82
G1 F2700 X155.90 Y161.82 E310.51177
G0 F12000 X154.69 Y162.18
G1 F2700 X175.72 Y162.18 E311.17285
G0 F12000 X167.80 Y171.90
G1 F2700 X137.25 Y171.90 E312.13341
G0 F12000 X137.62 Y172.26
G1 F2700 X167.44 Y172.26 E313.07086
G0 F12000 X166.96 Y172.62
G1 F2700 X138.09 Y172.62 E313.97869
G0 F12000 X138.54 Y172.98
G1 F2700 X166.52 Y172.98 E314.85833
G0 F12000 X165.92 Y173.34
G1 F2700 X139.13 Y173.34 E315.70074
G0 F12000 X139.85 Y173.70
G1 F2700 X165.40 Y173.70 E316.50392
G0 F12000 X164.68 Y174.06
G1 F2700 X140.57 Y174.06 E317.26205
G0 F12000 X141.09 Y174.42
G1 F2700 X163.96 Y174.42 E317.98110
G0 F12000 X163.24 Y174.78
G1 F2700 X141.81 Y174.78 E318.65488
G0 F12000 X142.53 Y175.14
G1 F2700 X162.52 Y175.14 E319.28339
G0 F12000 X161.80 Y175.50
G1 F2700 X143.34 Y175.50 E319.86392
G0 F12000 X144.57 Y175.86
G1 F2700 X160.68 Y175.86 E320.37055
G0 F12000 X159.96 Y176.22
G1 F2700 X145.71 Y176.22 E320.81860
G0 F12000 X147.15 Y176.58
G1 F2700 X158.31 Y176.58 E321.16951
G0 F12000 X156.49 Y176.94
G1 F2700 X149.01 Y176.94 E321.40451
G0 F12000 X129.31 Y142.38
G1 F2700 X175.54 Y142.38 E322.85761
G0 F12000 X175.37 Y142.02
G1 F2700 X129.48 Y142.02 E324.30011
G0 F12000 X129.64 Y141.66
G1 F2700 X175.21 Y141.66 E325.73255
G0 F12000 X175.05 Y141.30
G1 F2700 X129.91 Y141.30 E327.15144
G0 F12000 X130.12 Y140.94
G1 F2700 X174.74 Y140.94 E328.55424
G0 F12000 X174.54 Y140.58
G1 F2700 X130.31 Y140.58 E329.94446
G0 F12000 X130.48 Y140.22
G1 F2700 X174.37 Y140.22 E331.32408
G0 F12000 X174.21 Y139.86
G1 F2700 X130.64 Y139.86 E332.69365
G0 F12000 X130.80 Y139.50
G1 F2700 X174.05 Y139.50 E334.05316
G0 F12000 X173.89 Y139.14
G1 F2700 X131.16 Y139.14 E335.39628
G0 F12000 X131.52 Y138.78
G1 F2700 X173.53 Y138.78 E336.71706
G0 F12000 X173.17 Y138.42
G1 F2700 X131.69 Y138.42 E338.02120
G0 F12000 X131.84 Y138.06
G1 F2700 X173.01 Y138.06 E339.31531
G0 F12000 X172.65 Y137.70
G1 F2700 X132.20 Y137.70 E340.58679
G0 F12000 X132.56 Y137.34
G1 F2700 X172.49 Y137.34 E341.84192
G0 F12000 X172.13 Y136.98
G1 F2700 X132.92 Y136.98 E343.07442
G0 F12000 X133.28 Y136.62
G1 F2700 X171.77 Y136.62 E344.28428
G0 F12000 X171.41 Y136.26
G1 F2700 X133.52 Y136.26 E345.47553
G0 F12000 X133.52 Y135.90
G1 F2700 X171.05 Y135.90 E346.65546
G0 F12000 X170.69 Y135.54
G1 F2700 X133.52 Y135.54 E347.82407
G0 F12000 X133.52 Y135.18
G1 F2700 X170.33 Y135.18 E348.98137
G0 F12000 X169.97 Y134.82
G1 F2700 X133.90 Y134.82 E350.11524
G0 F12000 X134.62 Y134.46
G1 F2700 X169.61 Y134.46 E351.21514
G0 F12000 X169.25 Y134.10
G1 F2700 X135.34 Y134.10 E352.28107
G0 F12000 X136.06 Y133.74
G1 F2700 X168.89 Y133.74 E353.31303
G0 F12000 X168.47 Y133.38
G1 F2700 X136.53 Y133.38 E354.31722
G0 F12000 X136.91 Y133.02
G1 F2700 X167.97 Y133.02 E355.29375
G0 F12000 X167.61 Y132.66
G1 F2700 X137.44 Y132.66 E356.24201
G0 F12000 X137.81 Y132.30
G1 F2700 X167.25 Y132.30 E357.16764
G0 F12000 X166.59 Y131.94
G1 F2700 X138.46 Y131.94 E358.05177
G0 F12000 X139.12 Y131.58
G1 F2700 X166.13 Y131.58 E358.90088
G0 F12000 X166.17 Y131.22
G1 F2700 X139.50 Y131.22 E359.73930
G0 F12000 X140.22 Y130.86
G1 F2700 X166.21 Y130.86 E360.55638
G0 F12000 X166.25 Y130.50
G1 F2700 X140.80 Y130.50 E361.35654
G0 F12000 X141.46 Y130.14
G1 F2700 X165.19 Y130.14 E362.10265
G0 F12000 X163.76 Y129.78
G1 F2700 X142.18 Y129.78 E362.78087
G0 F12000 X143.14 Y129.42
G1 F2700 X162.32 Y129.42 E363.38369
G0 F12000 X161.03 Y129.06
G1 F2700 X144.22 Y129.06 E363.91207
G0 F12000 X145.42 Y128.70
G1 F2700 X160.31 Y128.70 E364.38015
G0 F12000 X158.59 Y128.34
G1 F2700 X146.86 Y128.34 E364.74904
;LAYER:-1
;RAFT
G0 F12000 X146.70 Y128.38 Z0.90
;TYPE:SUPPORT
G1 F2700 X146.70 Y144.45 E365.25422
G0 F12000 X147.06 Y144.19
G1 F2700 X147.06 Y128.29 E365.75421
G0 F12000 X147.42 Y128.20
G1 F2700 X147.42 Y143.98 E366.25024
G0 F12000 X147.78 Y143.76
G1 F2700 X147.78 Y128.11 E366.74234
G0 F12000 X148.14 Y128.02
G1 F2700 X148.14 Y143.59 E367.23177
G0 F12000 X148.50 Y143.42
G1 F2700 X148.50 Y128.01 E367.71601
G0 F12000 X148.86 Y128.01
G1 F2700 X148.86 Y143.26 E368.19547
G0 F12000 X149.22 Y143.13
G1 F2700 X149.22 Y128.01 E368.67087
G0 F12000 X149.58 Y128.01
G1 F2700 X149.58 Y143.01 E369.14225
G0 F12000 X149.94 Y142.91
G1 F2700 X149.94 Y128.01 E369.61068
G0 F12000 X150.30 Y128.01
G1 F2700 X150.30 Y142.82 E370.07628
G0 F12000 X150.66 Y142.74
G1 F2700 X150.66 Y128.01 E370.53933
G0 F12000 X151.02 Y128.01
G1 F2700 X151.02 Y142.69 E371.00071
G0 F12000 X151.38 Y142.64
G1 F2700 X151.38 Y128.01 E371.46043
G0 F12000 X151.74 Y128.01
G1 F2700 X151.74 Y142.60 E371.91914
G0 F12000 X152.10 Y142.59
G1 F2700 X152.10 Y128.01 E372.37729
G0 F12000 X152.46 Y128.01
G1 F2700 X152.46 Y142.57 E372.83487
G0 F12000 X152.82 Y142.58
G1 F2700 X152.82 Y128.01 E373.29286
G0 F12000 X153.18 Y128.01
G1 F2700 X153.18 Y142.60 E373.75141
G0 F12000 X153.54 Y142.62
G1 F2700 X153.54 Y128.01 E374.21072
G0 F12000 X153.90 Y128.01
G1 F2700 X153.90 Y142.68 E374.67170
G0 F12000 X154.26 Y142.73
G1 F2700 X154.26 Y128.01 E375.13437
G0 F12000 X154.62 Y128.01
G1 F2700 X154.62 Y142.80 E375.59931
G0 F12000 X154.98 Y142.89
G1 F2700 X154.98 Y128.01 E376.06707
G0 F12000 X155.34 Y128.01
G1 F2700 X155.34 Y142.98 E376.53767
G0 F12000 X155.70 Y143.11
G1 F2700 X155.70 Y128.01 E377.01216
G0 F12000 X156.06 Y128.01
G1 F2700 X156.06 Y143.24 E377.49071
G0 F12000 X156.42 Y143.38
G1 F2700 X156.42 Y128.01 E377.97373
G0 F12000 X156.78 Y128.01
G1 F2700 X156.78 Y143.55 E378.46212
G0 F12000 X157.14 Y143.72
G1 F2700 X157.14 Y128.01 E378.95588
G0 F12000 X157.50 Y128.07
G1 F2700 X157.50 Y143.93 E379.45452
G0 F12000 X157.86 Y144.14
G1 F2700 X157.86 Y128.16 E379.95712
G0 F12000 X158.22 Y128.25
G1 F2700 X158.22 Y144.39 E380.46456
G0 F12000 X158.58 Y144.66
G1 F2700 X158.58 Y128.34 E380.97757
G0 F12000 X158.94 Y128.41
G1 F2700 X158.94 Y144.94 E381.49727
G0 F12000 X159.30 Y145.27
G1 F2700 X159.30 Y128.49 E382.02495
G0 F12000 X159.66 Y128.56
G1 F2700 X159.66 Y145.62 E382.56151
G0 F12000 X160.02 Y146.02
G1 F2700 X160.02 Y128.63 E383.10828
G0 F12000 X160.38 Y128.74
G1 F2700 X160.38 Y146.47 E383.66574
G0 F12000 X160.74 Y146.95
G1 F2700 X160.74 Y128.92 E384.23278
G0 F12000 X161.10 Y129.09
G1 F2700 X161.10 Y147.55 E384.81291
G0 F12000 X161.46 Y148.24
G1 F2700 X161.46 Y129.21 E385.41127
G0 F12000 X161.82 Y129.30
G1 F2700 X161.82 Y149.09 E386.03371
G0 F12000 X162.18 Y150.31
G1 F2700 X162.18 Y129.39 E386.69161
G0 F12000 X162.54 Y129.48
G1 F2700 X162.54 Y175.13 E388.12692
G0 F12000 X162.90 Y174.95
G1 F2700 X162.90 Y129.57 E389.55370
G0 F12000 X163.26 Y129.66
G1 F2700 X163.26 Y174.77 E390.97199
G0 F12000 X163.62 Y174.59
G1 F2700 X163.62 Y129.75 E392.38180
G0 F12000 X163.98 Y129.84
G1 F2700 X163.98 Y174.41 E393.78312
G0 F12000 X164.34 Y174.23
G1 F2700 X164.34 Y129.93 E395.17595
G0 F12000 X164.70 Y130.02
G1 F2700 X164.70 Y174.05 E396.56029
G0 F12000 X165.06 Y173.87
G1 F2700 X165.06 Y130.11 E397.93614
G0 F12000 X165.42 Y130.20
G1 F2700 X165.42 Y173.68 E399.30300
G0 F12000 X165.78 Y173.41
G1 F2700 X165.78 Y130.29 E400.65877
G0 F12000 X166.14 Y130.38
G1 F2700 X166.14 Y131.52 E400.69470
G0 F12000 X166.14 Y131.72
G1 F2700 X166.14 Y173.23 E401.99985
G0 F12000 X166.50 Y173.00
G1 F2700 X166.50 Y131.90 E403.29192
G0 F12000 X166.86 Y132.08
G1 F2700 X166.86 Y172.67 E404.56818
G0 F12000 X167.22 Y172.47
G1 F2700 X167.22 Y132.27 E405.83208
G0 F12000 X167.58 Y132.63
G1 F2700 X167.58 Y172.12 E407.07335
G0 F12000 X167.94 Y171.83
G1 F2700 X167.94 Y132.99 E408.29437
G0 F12000 X168.30 Y133.30
G1 F2700 X168.30 Y171.59 E409.49841
G0 F12000 X168.66 Y171.24
G1 F2700 X168.66 Y133.51 E410.68438
G0 F12000 X169.02 Y133.87
G1 F2700 X169.02 Y170.88 E411.84771
G0 F12000 X169.38 Y170.51
G1 F2700 X169.38 Y134.23 E412.98841
G0 F12000 X169.74 Y134.59
G1 F2700 X169.74 Y170.16 E414.10647
G0 F12000 X170.10 Y169.79
G1 F2700 X170.10 Y134.95 E415.20190
G0 F12000 X170.46 Y135.31
G1 F2700 X170.46 Y169.44 E416.27469
G0 F12000 X170.82 Y169.07
G1 F2700 X170.82 Y135.67 E417.32484
G0 F12000 X171.18 Y136.03
G1 F2700 X171.18 Y168.72 E418.35236
G0 F12000 X171.54 Y168.35
G1 F2700 X171.54 Y136.39 E419.35725
G0 F12000 X171.90 Y136.75
G1 F2700 X171.90 Y168.00 E420.33950
G0 F12000 X172.26 Y167.63
G1 F2700 X172.26 Y137.11 E421.29911
G0 F12000 X172.62 Y137.67
G1 F2700 X172.62 Y167.28 E422.22977
G0 F12000 X172.98 Y166.72
G1 F2700 X172.98 Y138.03 E423.13151
G0 F12000 X173.34 Y138.59
G1 F2700 X173.34 Y166.16 E423.99803
G0 F12000 X173.70 Y165.79
G1 F2700 X173.70 Y138.95 E424.84193
G0 F12000 X174.06 Y139.51
G1 F2700 X174.06 Y165.24 E425.65061
G0 F12000 X174.42 Y164.68
G1 F2700 X174.42 Y140.27 E426.41779
G0 F12000 X174.78 Y141.03
G1 F2700 X174.78 Y163.91 E427.13718
G0 F12000 X175.14 Y163.16
G1 F2700 X175.14 Y141.59 E427.81508
G0 F12000 X175.50 Y142.15
G1 F2700 X175.50 Y162.59 E428.45777
G0 F12000 X175.86 Y161.84
G1 F2700 X175.86 Y142.91 E429.05267
G0 F12000 X176.22 Y143.87
G1 F2700 X176.22 Y161.07 E429.59350
G0 F12000 X176.58 Y159.31
G1 F2700 X176.58 Y145.43 E430.02995
G0 F12000 X176.94 Y147.99
G1 F2700 X176.94 Y156.75 E430.30544
G0 F12000 X162.18 Y154.69
G1 F2700 X162.18 Y175.31 E430.95388
G0 F12000 X161.82 Y175.49
G1 F2700 X161.82 Y155.90 E431.56972
G0 F12000 X161.46 Y156.76
G1 F2700 X161.46 Y175.64 E432.16334
G0 F12000 X161.10 Y175.73
G1 F2700 X161.10 Y157.45 E432.73805
G0 F12000 X160.74 Y158.04
G1 F2700 X160.74 Y175.83 E433.29727
G0 F12000 X160.38 Y176.01
G1 F2700 X160.38 Y158.53 E433.84690
G0 F12000 X160.02 Y158.98
G1 F2700 X160.02 Y176.19 E434.38814
G0 F12000 X159.66 Y176.31
G1 F2700 X159.66 Y159.37 E434.92061
G0 F12000 X159.30 Y159.73
G1 F2700 X159.30 Y176.38 E435.44424
G0 F12000 X158.94 Y176.45
G1 F2700 X158.94 Y160.05 E435.95985
G0 F12000 X158.58 Y160.34
G1 F2700 X158.58 Y176.53 E436.46865
G0 F12000 X158.22 Y176.60
G1 F2700 X158.22 Y160.61 E436.97134
G0 F12000 X157.86 Y160.85
G1 F2700 X157.86 Y176.69 E437.46919
G0 F12000 X157.50 Y176.78
G1 F2700 X157.50 Y161.07 E437.96308
G0 F12000 X157.14 Y161.28
G1 F2700 X157.14 Y176.86 E438.45289
G0 F12000 X156.78 Y176.90
G1 F2700 X156.78 Y161.45 E438.93873
G0 F12000 X156.42 Y161.62
G1 F2700 X156.42 Y176.95 E439.42061
G0 F12000 X156.06 Y176.99
G1 F2700 X156.06 Y161.76 E439.89944
G0 F12000 X155.70 Y161.89
G1 F2700 X155.70 Y177.04 E440.37564
G0 F12000 X155.34 Y177.08
G1 F2700 X155.34 Y162.01 E440.84934
G0 F12000 X154.98 Y162.10
G1 F2700 X154.98 Y177.13 E441.32164
G0 F12000 X154.62 Y177.13
G1 F2700 X154.62 Y162.19 E441.79126
G0 F12000 X154.26 Y162.27
G1 F2700 X154.26 Y177.13 E442.25862
G0 F12000 X153.90 Y177.13
G1 F2700 X153.90 Y162.32 E442.72428
G0 F12000 X153.54 Y162.37
G1 F2700 X153.54 Y177.13 E443.18827
G0 F12000 X153.18 Y177.13
G1 F2700 X153.18 Y162.40 E443.65151
G0 F12000 X152.82 Y162.42
G1 F2700 X152.82 Y177.13 E444.11418
G0 F12000 X152.46 Y177.13
G1 F2700 X152.46 Y162.43 E444.57638
G0 F12000 X152.10 Y162.41
G1 F2700 X152.10 Y177.13 E445.03915
G0 F12000 X151.74 Y177.13
G1 F2700 X151.74 Y162.40 E445.50248
G0 F12000 X151.38 Y162.36
G1 F2700 X151.38 Y177.13 E445.96682
G0 F12000 X151.02 Y177.13
G1 F2700 X151.02 Y162.31 E446.43283
G0 F12000 X150.66 Y162.26
G1 F2700 X150.66 Y177.12 E446.90016
G0 F12000 X150.30 Y177.08
G1 F2700 X150.30 Y162.18 E447.36877
G0 F12000 X149.94 Y162.09
G1 F2700 X149.94 Y177.04 E447.83896
G0 F12000 X149.58 Y177.00
G1 F2700 X149.58 Y161.99 E448.31084
G0 F12000 X149.22 Y161.86
G1 F2700 X149.22 Y176.96 E448.78549
G0 F12000 X148.86 Y176.92
G1 F2700 X148.86 Y161.74 E449.26294
G0 F12000 X148.50 Y161.58
G1 F2700 X148.50 Y176.88 E449.74391
G0 F12000 X148.14 Y176.83
G1 F2700 X148.14 Y161.41 E450.22850
G0 F12000 X147.78 Y161.24
G1 F2700 X147.78 Y176.74 E450.71576
G0 F12000 X147.42 Y176.65
G1 F2700 X147.42 Y161.02 E451.20694
G0 F12000 X147.06 Y160.81
G1 F2700 X147.06 Y176.56 E451.70209
G0 F12000 X146.70 Y176.47
G1 F2700 X146.70 Y160.55 E452.20243
G0 F12000 X146.34 Y160.28
G1 F2700 X146.34 Y176.38 E452.70833
G0 F12000 X145.98 Y176.28
G1 F2700 X145.98 Y159.98 E453.22089
G0 F12000 X145.62 Y159.66
G1 F2700 X145.62 Y176.19 E453.74085
G0 F12000 X145.26 Y176.10
G1 F2700 X145.26 Y159.29 E454.26957
G0 F12000 X144.90 Y158.89
G1 F2700 X144.90 Y176.01 E454.80798
G0 F12000 X144.54 Y175.84
G1 F2700 X144.54 Y158.42 E455.35566
G0 F12000 X144.54 Y146.58
G1 F2700 X144.54 Y128.92 E455.91076
G0 F12000 X144.90 Y128.83
G1 F2700 X144.90 Y146.11 E456.45404
G0 F12000 X145.26 Y145.71
G1 F2700 X145.26 Y128.74 E456.98767
G0 F12000 X145.62 Y128.65
G1 F2700 X145.62 Y145.34 E457.51253
G0 F12000 X145.98 Y145.02
G1 F2700 X145.98 Y128.56 E458.02997
G0 F12000 X146.34 Y128.47
G1 F2700 X146.34 Y144.72 E458.54071
G0 F12000 X137.34 Y132.76
G1 F2700 X137.34 Y171.98 E459.77368
G0 F12000 X136.98 Y171.76
G1 F2700 X136.98 Y132.98 E460.99294
G0 F12000 X136.62 Y133.28
G1 F2700 X136.62 Y171.46 E462.19321
G0 F12000 X136.26 Y171.10
G1 F2700 X136.26 Y133.64 E463.37100
G0 F12000 X135.90 Y133.82
G1 F2700 X135.90 Y170.92 E464.53748
G0 F12000 X135.54 Y170.58
G1 F2700 X135.54 Y134.00 E465.68758
G0 F12000 X135.18 Y134.18
G1 F2700 X135.18 Y170.22 E466.82073
G0 F12000 X134.82 Y169.86
G1 F2700 X134.82 Y134.36 E467.93690
G0 F12000 X134.46 Y134.54
G1 F2700 X134.46 Y169.50 E469.03610
G0 F12000 X134.10 Y169.14
G1 F2700 X134.10 Y134.72 E470.11832
G0 F12000 X133.74 Y134.90
G1 F2700 X133.74 Y168.78 E471.18357
G0 F12000 X133.38 Y168.42
G1 F2700 X133.38 Y136.52 E472.18644
G0 F12000 X133.02 Y136.88
G1 F2700 X133.02 Y168.06 E473.16668
G0 F12000 X132.66 Y167.70
G1 F2700 X132.66 Y137.24 E474.12428
G0 F12000 X132.30 Y137.60
G1 F2700 X132.30 Y167.14 E475.05293
G0 F12000 X131.94 Y166.78
G1 F2700 X131.94 Y137.96 E475.95894
G0 F12000 X131.58 Y138.52
G1 F2700 X131.58 Y166.22 E476.82974
G0 F12000 X131.22 Y165.66
G1 F2700 X131.22 Y139.08 E477.66533
G0 F12000 X130.86 Y139.44
G1 F2700 X130.86 Y165.30 E478.47829
G0 F12000 X130.50 Y164.54
G1 F2700 X130.50 Y140.20 E479.24346
G0 F12000 X130.14 Y140.76
G1 F2700 X130.14 Y164.18 E479.97971
G0 F12000 X129.78 Y163.42
G1 F2700 X129.78 Y141.52 E480.66817
G0 F12000 X129.42 Y142.08
G1 F2700 X129.42 Y162.66 E481.31513
G0 F12000 X129.06 Y161.90
G1 F2700 X129.06 Y142.84 E481.91431
G0 F12000 X128.70 Y144.20
G1 F2700 X128.70 Y160.74 E482.43426
G0 F12000 X128.34 Y160.18
G1 F2700 X128.34 Y144.76 E482.91900
G0 F12000 X127.98 Y146.32
G1 F2700 X127.98 Y158.42 E483.29937
G0 F12000 X137.70 Y172.34
G1 F2700 X137.70 Y132.40 E484.55497
G0 F12000 X138.06 Y132.14
G1 F2700 X138.06 Y172.60 E485.82705
G0 F12000 X138.42 Y172.86
G1 F2700 X138.42 Y131.96 E487.11293
G0 F12000 X138.78 Y131.78
G1 F2700 X138.78 Y173.16 E488.41396
G0 F12000 X139.14 Y173.34
G1 F2700 X139.14 Y131.56 E489.72747
G0 F12000 X139.50 Y131.22
G1 F2700 X139.50 Y173.52 E491.05739
G0 F12000 X139.86 Y173.71
G1 F2700 X139.86 Y131.04 E492.39866
G0 F12000 X140.22 Y130.86
G1 F2700 X140.22 Y173.88 E493.75125
G0 F12000 X140.58 Y174.06
G1 F2700 X140.58 Y130.68 E495.11516
G0 F12000 X140.94 Y130.40
G1 F2700 X140.94 Y174.34 E496.49667
G0 F12000 X141.30 Y174.52
G1 F2700 X141.30 Y130.22 E497.88950
G0 F12000 X141.66 Y130.04
G1 F2700 X141.66 Y174.70 E499.29365
G0 F12000 X142.02 Y174.88
G1 F2700 X142.02 Y129.86 E500.70908
G0 F12000 X142.38 Y129.68
G1 F2700 X142.38 Y175.06 E502.13583
G0 F12000 X142.74 Y175.24
G1 F2700 X142.74 Y129.52 E503.57331
G0 F12000 X143.10 Y129.43
G1 F2700 X143.10 Y175.42 E505.01927
G0 F12000 X143.46 Y175.52
G1 F2700 X143.46 Y129.34 E506.47117
G0 F12000 X143.82 Y129.25
G1 F2700 X143.82 Y175.59 E507.92816
G0 F12000 X144.18 Y175.67
G1 F2700 X144.18 Y129.08 E509.39273
;LAYER:0
G1 F2400 E508.89273
G0 F12000 X147.48 Y135.95 Z1.42
;TYPE:WALL-OUTER
G1 F2400 E509.39273
G1 F2700 X149.04 Y135.56 E509.46871
G1 X150.74 Y135.29 E509.54953
G1 X152.50 Y135.20 E509.63288
G1 X154.20 Y135.28 E509.71301
G1 X155.81 Y135.53 E509.79010
G1 X157.04 Y135.82 E509.84957
G1 X157.53 Y135.95 E509.87325
G1 X159.12 Y136.52 E509.95288
G1 X160.65 Y137.24 E510.03289
G1 X162.11 Y138.12 E510.11333
G1 X163.48 Y139.13 E510.19349
G1 X164.73 Y140.27 E510.27332
G1 X165.87 Y141.52 E510.35314
G1 X166.88 Y142.89 E510.43330
G1 X167.76 Y144.35 E510.51395
G1 X168.48 Y145.88 E510.59375
G1 X169.05 Y147.47 E510.67319
G1 X169.47 Y149.12 E510.75364
G1 X169.69 Y150.65 E510.82619
G1 X169.80 Y152.50 E510.91382
G1 X169.72 Y154.20 E510.99385
G1 X169.47 Y155.88 E511.07384
G1 X169.08 Y157.40 E511.14816
G1 X169.05 Y157.53 E511.15420
G1 X168.48 Y159.12 E511.23373
G1 X167.81 Y160.55 E511.30843
G1 X166.94 Y162.02 E511.38917
G1 X165.93 Y163.39 E511.46921
G1 X164.80 Y164.66 E511.54929
G1 X163.54 Y165.81 E511.62983
G1 X163.48 Y165.87 E511.63390
G1 X162.11 Y166.88 E511.71406
G1 X160.73 Y167.71 E511.79027
G1 X159.20 Y168.44 E511.87004
G1 X157.52 Y169.05 E511.95429
G1 X155.96 Y169.44 E512.03027
G1 X154.26 Y169.71 E512.11109
G1 X152.50 Y169.80 E512.19444
G1 X150.80 Y169.72 E512.27457
G1 X149.12 Y169.47 E512.35457
G1 X147.47 Y169.05 E512.43487
G1 X145.88 Y168.48 E512.51450
G1 X144.35 Y167.76 E512.59447
G1 X142.89 Y166.88 E512.67491
G1 X141.52 Y165.87 E512.75507
G1 X140.27 Y164.73 E512.83489
G1 X139.13 Y163.48 E512.91472
G1 X138.12 Y162.11 E512.99488
G1 X137.24 Y160.65 E513.07553
G1 X136.52 Y159.12 E513.15533
G1 X135.95 Y157.53 E513.23496
G1 X135.53 Y155.88 E513.31522
G1 X135.31 Y154.35 E513.38777
G1 X135.20 Y152.50 E513.47540
G1 X135.28 Y150.80 E513.55542
G1 X135.53 Y149.12 E513.63542
G1 X135.92 Y147.60 E513.70974
G1 X135.95 Y147.47 E513.71582
G1 X136.52 Y145.88 E513.79531
G1 X137.19 Y144.45 E513.87001
G1 X138.06 Y142.98 E513.95075
G1 X139.07 Y141.61 E514.03079
G1 X140.20 Y140.34 E514.11087
G1 X141.46 Y139.19 E514.19141
G1 X141.52 Y139.13 E514.19548
G1 X142.89 Y138.12 E514.27564
G1 X144.27 Y137.29 E514.35184
G1 X145.80 Y136.56 E514.43162
G1 X147.48 Y135.95 E514.51587
G0 F12000 X147.56 Y136.23
G0 X147.99 Y137.67
G0 X148.09 Y137.95
G1 F2700 X146.68 Y138.46 E514.58625
G1 X145.34 Y139.09 E514.65653
G1 X144.06 Y139.86 E514.72688
G1 X142.86 Y140.75 E514.79723
G1 X141.75 Y141.75 E514.86760
G1 X140.75 Y142.86 E514.93798
G1 X139.86 Y144.06 E515.00833
G1 X139.09 Y145.34 E515.07867
G1 X138.46 Y146.68 E515.14896
G1 X137.95 Y148.09 E515.21933
G1 X137.59 Y149.53 E515.28966
G1 X137.37 Y151.01 E515.35998
G1 X137.30 Y152.50 E515.43033
G1 X137.37 Y153.99 E515.50068
G1 X137.59 Y155.47 E515.57100
G1 X137.95 Y156.91 E515.64133
G1 X138.46 Y158.32 E515.71170
G1 X139.09 Y159.66 E515.78199
G1 X139.86 Y160.94 E515.85233
G1 X140.75 Y162.14 E515.92268
G1 X141.75 Y163.25 E515.99306
G1 X142.86 Y164.25 E516.06343
G1 X144.06 Y165.14 E516.13378
G1 X145.34 Y165.91 E516.20413
G1 X146.68 Y166.54 E516.27441
G1 X148.09 Y167.05 E516.34479
G1 X149.53 Y167.41 E516.41511
G1 X151.01 Y167.63 E516.48543
G1 X152.50 Y167.70 E516.55578
G1 X153.99 Y167.63 E516.62613
G1 X155.47 Y167.41 E516.69645
G1 X156.91 Y167.05 E516.76678
G1 X158.32 Y166.54 E516.83715
G1 X159.66 Y165.91 E516.90744
G1 X160.94 Y165.14 E516.97778
G1 X162.14 Y164.25 E517.04813
G1 X163.25 Y163.25 E517.11851
G1 X164.25 Y162.14 E517.18889
G1 X165.14 Y160.94 E517.25924
G1 X165.91 Y159.66 E517.32958
G1 X166.54 Y158.32 E517.39987
G1 X167.05 Y156.91 E517.47024
G1 X167.41 Y155.47 E517.54057
G1 X167.63 Y153.99 E517.61089
G1 X167.70 Y152.50 E517.68124
G1 X167.63 Y151.01 E517.75159
G1 X167.41 Y149.53 E517.82191
G1 X167.05 Y148.09 E517.89223
G1 X166.54 Y146.68 E517.96261
G1 X165.91 Y145.34 E518.03289
G1 X165.14 Y144.06 E518.10324
G1 X164.25 Y142.86 E518.17359
G1 X163.25 Y141.75 E518.24396
G1 X162.14 Y140.75 E518.31434
G1 X160.94 Y139.86 E518.38469
G1 X159.66 Y139.09 E518.45503
G1 X158.32 Y138.46 E518.52532
G1 X156.91 Y137.95 E518.59569
G1 X155.47 Y137.59 E518.66602
G1 X153.99 Y137.37 E518.73634
G1 X152.50 Y137.30 E518.80669
G1 X151.01 Y137.37 E518.87704
G1 X149.53 Y137.59 E518.94736
G1 X148.09 Y137.95 E519.01769
G0 F12000 X148.24 Y137.77
;TYPE:FILL
G1 F2700 X146.81 Y136.34 E519.11312
G0 F12000 X146.39 Y136.49
G1 F2700 X147.80 Y137.90 E519.20739
G0 F12000 X147.39 Y138.05
G1 F2700 X145.97 Y136.64 E519.30155
G0 F12000 X145.58 Y136.81
G1 F2700 X146.97 Y138.20 E519.39412
G0 F12000 X146.56 Y138.36
G1 F2700 X145.20 Y137.00 E519.48482
G0 F12000 X144.82 Y137.18
G1 F2700 X146.18 Y138.54 E519.57545
G0 F12000 X145.79 Y138.72
G1 F2700 X144.44 Y137.36 E519.66602
G0 F12000 X144.07 Y137.57
G1 F2700 X145.41 Y138.90 E519.75505
G0 F12000 X145.04 Y139.10
G1 F2700 X143.72 Y137.78 E519.84328
G0 F12000 X143.37 Y137.99
G1 F2700 X144.69 Y139.32 E519.93158
G0 F12000 X144.34 Y139.53
G1 F2700 X143.01 Y138.21 E520.01981
G0 F12000 X142.68 Y138.44
G1 F2700 X143.98 Y139.74 E520.10634
G0 F12000 X143.66 Y139.98
G1 F2700 X142.36 Y138.68 E520.19283
G0 F12000 X142.03 Y138.92
G1 F2700 X143.33 Y140.22 E520.27940
G0 F12000 X143.01 Y140.46
G1 F2700 X141.71 Y139.16 E520.36593
G0 F12000 X141.41 Y139.43
G1 F2700 X142.69 Y140.71 E520.45156
G0 F12000 X142.39 Y140.98
G1 F2700 X141.11 Y139.70 E520.53719
G0 F12000 X140.82 Y139.97
G1 F2700 X142.10 Y141.25 E520.62262
G0 F12000 X141.80 Y141.52
G1 F2700 X140.52 Y140.24 E520.70791
G0 F12000 X140.23 Y140.51
G1 F2700 X141.52 Y141.80 E520.79365
G0 F12000 X141.25 Y142.10
G1 F2700 X139.96 Y140.81 E520.87928
G0 F12000 X139.70 Y141.11
G1 F2700 X140.98 Y142.39 E520.96484
G0 F12000 X140.71 Y142.69
G1 F2700 X139.43 Y141.41 E521.05027
G0 F12000 X139.16 Y141.71
G1 F2700 X140.46 Y143.01 E521.13697
G0 F12000 X140.22 Y143.33
G1 F2700 X138.92 Y142.03 E521.22356
G0 F12000 X138.69 Y142.36
G1 F2700 X139.98 Y143.66 E521.30999
G0 F12000 X139.74 Y143.98
G1 F2700 X138.45 Y142.69 E521.39626
G0 F12000 X138.21 Y143.02
G1 F2700 X139.53 Y144.34 E521.48435
G0 F12000 X139.32 Y144.69
G1 F2700 X138.00 Y143.37 E521.57252
G0 F12000 X137.78 Y143.72
G1 F2700 X139.10 Y145.04 E521.66062
G0 F12000 X138.91 Y145.41
G1 F2700 X137.57 Y144.08 E521.74935
G0 F12000 X137.36 Y144.44
G1 F2700 X138.72 Y145.79 E521.83998
G0 F12000 X138.54 Y146.18
G1 F2700 X137.18 Y144.81 E521.93101
G0 F12000 X136.99 Y145.20
G1 F2700 X138.36 Y146.56 E522.02198
G0 F12000 X138.20 Y146.97
G1 F2700 X136.81 Y145.58 E522.11474
G0 F12000 X136.63 Y145.97
G1 F2700 X138.05 Y147.39 E522.20951
G0 F12000 X137.91 Y147.81
G1 F2700 X136.48 Y146.38 E522.30431
G0 F12000 X136.34 Y146.80
G1 F2700 X137.77 Y148.24 E522.40008
G0 F12000 X137.66 Y148.69
G1 F2700 X136.19 Y147.22 E522.49831
G0 F12000 X136.05 Y147.65
G1 F2700 X137.55 Y149.14 E522.59818
G0 F12000 X137.44 Y149.60
G1 F2700 X135.93 Y148.10 E522.69865
G0 F12000 X135.82 Y148.55
G1 F2700 X137.37 Y150.10 E522.80182
G0 F12000 X137.29 Y150.59
G1 F2700 X135.71 Y149.00 E522.90765
G0 F12000 X135.62 Y149.48
G1 F2700 X137.23 Y151.09 E523.01489
G0 F12000 X137.20 Y151.63
G1 F2700 X135.55 Y149.97 E523.12526
G0 F12000 X135.48 Y150.47
G1 F2700 X137.18 Y152.17 E523.23867
G0 F12000 X137.17 Y152.73
G1 F2700 X135.42 Y150.97 E523.35568
G0 F12000 X135.39 Y151.51
G1 F2700 X137.20 Y153.32 E523.47645
G0 F12000 X137.23 Y153.92
G1 F2700 X135.36 Y152.05 E523.60100
G0 F12000 X135.35 Y152.60
G1 F2700 X137.32 Y154.57 E523.73244
G0 F12000 X137.42 Y155.24
G1 F2700 X135.38 Y153.20 E523.86823
G0 F12000 X135.42 Y153.80
G1 F2700 X137.57 Y155.96 E524.01184
G0 F12000 X137.76 Y156.71
G1 F2700 X135.46 Y154.41 E524.16523
G0 F12000 X135.56 Y155.07
G1 F2700 X138.03 Y157.55 E524.33035
G0 F12000 X138.36 Y158.44
G1 F2700 X135.66 Y155.74 E524.51095
G0 F12000 X135.83 Y156.48
G1 F2700 X138.87 Y159.52 E524.71392
G0 F12000 X138.73 Y159.59
G0 X139.51 Y160.94
G0 X139.65 Y160.86
G1 F2700 X136.02 Y157.23 E524.95604
G0 F12000 X136.29 Y158.07
G1 F2700 X146.93 Y168.71 E525.66562
G0 F12000 X147.77 Y168.98
G1 F2700 X144.14 Y165.35 E525.90761
G0 F12000 X144.06 Y165.49
G0 X145.41 Y166.27
G0 X145.48 Y166.13
G1 F2700 X148.52 Y169.17 E526.11041
G0 F12000 X149.26 Y169.34
G1 F2700 X146.55 Y166.64 E526.29094
G0 F12000 X147.45 Y166.97
G1 F2700 X149.93 Y169.44 E526.45597
G0 F12000 X150.59 Y169.54
G1 F2700 X148.29 Y167.24 E526.60929
G0 F12000 X149.04 Y167.43
G1 F2700 X151.21 Y169.59 E526.75367
G0 F12000 X151.80 Y169.62
G1 F2700 X149.76 Y167.58 E526.88979
G0 F12000 X150.43 Y167.68
G1 F2700 X152.40 Y169.65 E527.02130
G0 F12000 X152.95 Y169.63
G1 F2700 X151.08 Y167.77 E527.14571
G0 F12000 X151.68 Y167.80
G1 F2700 X153.48 Y169.60 E527.26622
G0 F12000 X154.02 Y169.58
G1 F2700 X152.27 Y167.83 E527.38279
G0 F12000 X152.83 Y167.82
G1 F2700 X154.53 Y169.52 E527.49603
G0 F12000 X155.02 Y169.44
G1 F2700 X153.37 Y167.80 E527.60601
G0 F12000 X153.91 Y167.77
G1 F2700 X155.51 Y169.37 E527.71278
G0 F12000 X156.00 Y169.29
G1 F2700 X154.41 Y167.70 E527.81851
G0 F12000 X154.90 Y167.63
G1 F2700 X156.45 Y169.18 E527.92155
G0 F12000 X156.90 Y169.06
G1 F2700 X155.40 Y167.56 E528.02195
G0 F12000 X155.86 Y167.45
G1 F2700 X157.35 Y168.95 E528.12179
G0 F12000 X157.78 Y168.81
G1 F2700 X156.31 Y167.34 E528.21982
G0 F12000 X156.76 Y167.23
G1 F2700 X158.19 Y168.66 E528.31529
G0 F12000 X158.61 Y168.51
G1 F2700 X157.19 Y167.09 E528.40962
G0 F12000 X157.61 Y166.94
G1 F2700 X159.02 Y168.36 E528.50379
G0 F12000 X159.41 Y168.18
G1 F2700 X158.03 Y166.79 E528.59635
G0 F12000 X158.44 Y166.64
G1 F2700 X159.80 Y168.00 E528.68702
G0 F12000 X160.18 Y167.82
G1 F2700 X158.82 Y166.46 E528.77765
G0 F12000 X159.21 Y166.28
G1 F2700 X160.56 Y167.63 E528.86822
G0 F12000 X160.92 Y167.43
G1 F2700 X159.59 Y166.09 E528.95721
G0 F12000 X159.96 Y165.90
G1 F2700 X161.28 Y167.22 E529.04538
G0 F12000 X161.63 Y167.00
G1 F2700 X160.31 Y165.68 E529.13361
G0 F12000 X160.66 Y165.47
G1 F2700 X161.99 Y166.79 E529.22184
G0 F12000 X162.31 Y166.56
G1 F2700 X161.02 Y165.26 E529.30837
G0 F12000 X161.34 Y165.02
G1 F2700 X162.64 Y166.31 E529.39487
G0 F12000 X162.96 Y166.07
G1 F2700 X161.67 Y164.78 E529.48136
G0 F12000 X161.99 Y164.54
G1 F2700 X163.29 Y165.83 E529.56783
G0 F12000 X163.59 Y165.57
G1 F2700 X162.31 Y164.29 E529.65346
G0 F12000 X162.60 Y164.02
G1 F2700 X163.89 Y165.30 E529.73902
G0 F12000 X164.18 Y165.03
G1 F2700 X162.90 Y163.75 E529.82442
G0 F12000 X163.20 Y163.48
G1 F2700 X164.48 Y164.76 E529.90965
G0 F12000 X164.77 Y164.48
G1 F2700 X163.48 Y163.20 E529.99541
G0 F12000 X163.75 Y162.90
G1 F2700 X165.03 Y164.19 E530.08104
G0 F12000 X165.30 Y163.89
G1 F2700 X164.02 Y162.60 E530.16657
G0 F12000 X164.29 Y162.31
G1 F2700 X165.57 Y163.59 E530.25207
G0 F12000 X165.84 Y163.29
G1 F2700 X164.53 Y161.99 E530.33877
G0 F12000 X164.78 Y161.66
G1 F2700 X166.07 Y162.96 E530.42530
G0 F12000 X166.31 Y162.64
G1 F2700 X165.02 Y161.34 E530.51173
G0 F12000 X165.26 Y161.01
G1 F2700 X166.55 Y162.31 E530.59799
G0 F12000 X166.79 Y161.98
G1 F2700 X165.47 Y160.66 E530.68605
G0 F12000 X165.68 Y160.31
G1 F2700 X167.00 Y161.63 E530.77415
G0 F12000 X167.21 Y161.27
G1 F2700 X165.89 Y159.95 E530.86218
G0 F12000 X166.09 Y159.59
G1 F2700 X167.42 Y160.92 E530.95088
G0 F12000 X167.63 Y160.56
G1 F2700 X166.28 Y159.21 E531.04145
G0 F12000 X166.46 Y158.82
G1 F2700 X167.82 Y160.19 E531.13244
G0 F12000 X168.00 Y159.80
G1 F2700 X166.64 Y158.44 E531.22348
G0 F12000 X166.79 Y158.03
G1 F2700 X168.19 Y159.42 E531.31624
G0 F12000 X168.37 Y159.03
G1 F2700 X166.94 Y157.61 E531.41108
G0 F12000 X167.09 Y157.19
G1 F2700 X168.51 Y158.62 E531.50584
G0 F12000 X168.66 Y158.20
G1 F2700 X167.23 Y156.76 E531.60164
G0 F12000 X167.34 Y156.31
G1 F2700 X168.81 Y157.78 E531.69981
G0 F12000 X168.95 Y157.35
G1 F2700 X167.45 Y155.86 E531.79968
G0 F12000 X167.56 Y155.40
G1 F2700 X169.06 Y156.90 E531.90008
G0 F12000 X169.18 Y156.45
G1 F2700 X167.63 Y154.90 E532.00322
G0 F12000 X167.70 Y154.41
G1 F2700 X169.29 Y156.00 E532.10905
G0 F12000 X169.38 Y155.52
G1 F2700 X167.77 Y153.91 E532.21629
G0 F12000 X167.79 Y153.37
G1 F2700 X169.45 Y155.03 E532.32666
G0 F12000 X169.52 Y154.53
G1 F2700 X167.82 Y152.83 E532.44010
G0 F12000 X167.83 Y152.27
G1 F2700 X169.58 Y154.03 E532.55711
G0 F12000 X169.61 Y153.49
G1 F2700 X167.80 Y151.68 E532.67789
G0 F12000 X167.77 Y151.08
G1 F2700 X169.63 Y152.95 E532.80240
G0 F12000 X169.65 Y152.40
G1 F2700 X167.68 Y150.43 E532.93388
G0 F12000 X167.58 Y149.76
G1 F2700 X169.62 Y151.80 E533.06966
G0 F12000 X169.58 Y151.20
G1 F2700 X167.43 Y149.04 E533.21324
G0 F12000 X167.24 Y148.29
G1 F2700 X169.54 Y150.59 E533.36660
G0 F12000 X169.44 Y149.93
G1 F2700 X166.97 Y147.45 E533.53165
G0 F12000 X166.63 Y146.55
G1 F2700 X169.34 Y149.26 E533.71225
G0 F12000 X169.17 Y148.52
G1 F2700 X166.13 Y145.48 E533.91522
G0 F12000 X166.27 Y145.41
G0 X165.49 Y144.06
G0 X165.35 Y144.14
G1 F2700 X168.98 Y147.77 E534.15731
G0 F12000 X168.71 Y146.93
G1 F2700 X158.07 Y136.29 E534.86702
G0 F12000 X157.23 Y136.02
G1 F2700 X160.86 Y139.65 E535.10897
G0 F12000 X160.94 Y139.51
G0 X159.59 Y138.73
G0 X159.52 Y138.87
G1 F2700 X156.48 Y135.83 E535.31151
G0 F12000 X155.74 Y135.66
G1 F2700 X158.44 Y138.36 E535.49201
G0 F12000 X157.55 Y138.03
G1 F2700 X155.07 Y135.56 E535.65707
G0 F12000 X154.41 Y135.46
G1 F2700 X156.71 Y137.76 E535.81042
G0 F12000 X155.96 Y137.57
G1 F2700 X153.79 Y135.41 E535.95484
G0 F12000 X153.19 Y135.38
G1 F2700 X155.24 Y137.42 E536.09095
G0 F12000 X154.57 Y137.32
G1 F2700 X152.60 Y135.35 E536.22247
G0 F12000 X152.05 Y135.37
G1 F2700 X153.92 Y137.23 E536.34684
G0 F12000 X153.32 Y137.20
G1 F2700 X151.52 Y135.39 E536.46729
G0 F12000 X150.98 Y135.42
G1 F2700 X152.73 Y137.17 E536.58386
G0 F12000 X152.17 Y137.18
G1 F2700 X150.47 Y135.48 E536.69707
G0 F12000 X149.98 Y135.55
G1 F2700 X151.63 Y137.20 E536.80704
G0 F12000 X151.09 Y137.23
G1 F2700 X149.49 Y135.63 E536.91378
G0 F12000 X149.00 Y135.71
G1 F2700 X150.59 Y137.29 E537.01951
G0 F12000 X150.09 Y137.37
G1 F2700 X148.55 Y135.82 E537.12255
G0 F12000 X148.10 Y135.94
G1 F2700 X149.60 Y137.44 E537.22292
G0 F12000 X149.14 Y137.54
G1 F2700 X147.65 Y136.05 E537.32269
G0 F12000 X147.22 Y136.19
G1 F2700 X148.69 Y137.66 E537.42065
G0 F12000 X148.65 Y137.50
G0 X152.50 Y136.90
G0 X158.89 Y136.76
G0 X158.95 Y136.60
G1 F2700 X168.40 Y146.05 E538.05074
G0 F12000 X167.91 Y145.00
G1 F2700 X160.00 Y137.09 E538.57856
G0 F12000 X161.23 Y137.75
G1 F2700 X167.25 Y143.77 E538.98003
G0 F12000 X167.11 Y143.85
G0 X165.94 Y142.12
G0 X166.07 Y142.03
G1 F2700 X162.97 Y138.93 E539.18621
G0 F12000 X162.88 Y139.06
G0 X154.03 Y136.97
G0 X149.46 Y137.20
G0 X145.15 Y138.74
G0 X141.47 Y141.47
G0 X138.74 Y145.15
G0 X137.20 Y149.46
G0 X136.97 Y154.03
G0 X136.76 Y158.89
G0 X136.60 Y158.95
G1 F2700 X146.05 Y168.39 E539.81616
G0 F12000 X145.00 Y167.91
G1 F2700 X137.09 Y160.00 E540.34388
G0 F12000 X137.75 Y161.23
G1 F2700 X143.77 Y167.25 E540.74536
G0 F12000 X143.85 Y167.11
G0 X142.12 Y165.94
G0 X142.02 Y166.07
G1 F2700 X138.93 Y162.97 E540.95153
G0 F12000 X139.62 Y162.46
;LAYER:1
G0 X139.13 Y163.48 Z1.30
;TYPE:WALL-OUTER
G1 F3780 X138.12 Y162.11 E540.97825
G1 X137.24 Y160.65 E541.00498
G1 X136.51 Y159.11 E541.03179
G1 X135.95 Y157.53 E541.05827
G1 X135.53 Y155.88 E541.08502
G1 X135.28 Y154.20 E541.11169
G1 X135.20 Y152.50 E541.13840
G1 X135.28 Y150.80 E541.16511
G1 X135.53 Y149.12 E541.19177
G1 X135.95 Y147.47 E541.21859
G1 X136.52 Y145.88 E541.24507
G1 X137.24 Y144.35 E541.27167
G1 X138.12 Y142.89 E541.29855
G1 X139.13 Y141.52 E541.32527
G1 X140.17 Y140.37 E541.34961
G1 X141.42 Y139.22 E541.37631
G1 X142.78 Y138.20 E541.40310
G1 X144.24 Y137.31 E541.42990
G1 X145.88 Y136.52 E541.45865
G1 X147.47 Y135.95 E541.48520
G1 X149.01 Y135.56 E541.51002
G1 X150.70 Y135.30 E541.53700
G1 X150.80 Y135.28 E541.53861
G1 X152.50 Y135.20 E541.56532
G1 X154.20 Y135.28 E541.59202
G1 X155.79 Y135.52 E541.61729
G1 X156.84 Y135.78 E541.63437
G1 X157.53 Y135.95 E541.64544
G1 X159.12 Y136.52 E541.67198
G1 X160.65 Y137.24 E541.69865
G1 X162.11 Y138.12 E541.72546
G1 X163.48 Y139.13 E541.75218
G1 X164.73 Y140.27 E541.77879
G1 X165.87 Y141.52 E541.80540
G1 X166.88 Y142.89 E541.83212
G1 X167.76 Y144.35 E541.85885
G1 X168.49 Y145.89 E541.88567
G1 X169.05 Y147.47 E541.91208
G1 X169.47 Y149.12 E541.93890
G1 X169.72 Y150.80 E541.96556
G1 X169.80 Y152.50 E541.99227
G1 X169.72 Y154.20 E542.01898
G1 X169.47 Y155.88 E542.04565
G1 X169.05 Y157.53 E542.07240
G1 X168.48 Y159.12 E542.09894
G1 X167.76 Y160.65 E542.12554
G1 X166.88 Y162.11 E542.15243
G1 X165.87 Y163.48 E542.17915
G1 X164.83 Y164.63 E542.20348
G1 X163.58 Y165.78 E542.23018
G1 X162.22 Y166.80 E542.25697
G1 X160.76 Y167.69 E542.28377
G1 X159.12 Y168.48 E542.31253
G1 X157.53 Y169.05 E542.33907
G1 X155.99 Y169.44 E542.36390
G1 X154.30 Y169.70 E542.39088
G1 X154.20 Y169.72 E542.39248
G1 X152.50 Y169.80 E542.41919
G1 X150.80 Y169.72 E542.44590
G1 X149.12 Y169.47 E542.47256
G1 X147.47 Y169.05 E542.49933
G1 X145.88 Y168.48 E542.52588
G1 X144.35 Y167.76 E542.55253
G1 X142.89 Y166.88 E542.57934
G1 X141.52 Y165.87 E542.60606
G1 X140.27 Y164.73 E542.63267
G1 X139.13 Y163.48 E542.65928
G0 F12000 X139.36 Y163.28
G0 X140.51 Y162.32
G0 X140.75 Y162.14
G1 F3780 X141.75 Y163.25 E542.68274
G1 X142.86 Y164.25 E542.70620
G1 X144.06 Y165.14 E542.72965
G1 X145.34 Y165.91 E542.75310
G1 X146.68 Y166.54 E542.77653
G1 X148.09 Y167.05 E542.79998
G1 X149.53 Y167.41 E542.82343
G1 X151.01 Y167.63 E542.84687
G1 X152.50 Y167.70 E542.87032
G1 X153.99 Y167.63 E542.89377
G1 X155.47 Y167.41 E542.91721
G1 X156.91 Y167.05 E542.94065
G1 X158.32 Y166.54 E542.96411
G1 X159.66 Y165.91 E542.98754
G1 X160.94 Y165.14 E543.01098
G1 X162.14 Y164.25 E543.03443
G1 X163.25 Y163.25 E543.05789
G1 X164.25 Y162.14 E543.08135
G1 X165.14 Y160.94 E543.10480
G1 X165.91 Y159.66 E543.12825
G1 X166.54 Y158.32 E543.15168
G1 X167.05 Y156.91 E543.17514
G1 X167.41 Y155.47 E543.19858
G1 X167.63 Y153.99 E543.22202
G1 X167.70 Y152.50 E543.24547
G1 X167.63 Y151.01 E543.26892
G1 X167.41 Y149.53 E543.29236
G1 X167.05 Y148.09 E543.31580
G1 X166.54 Y146.68 E543.33926
G1 X165.91 Y145.34 E543.36269
G1 X165.14 Y144.06 E543.38613
G1 X164.25 Y142.86 E543.40958
G1 X163.25 Y141.75 E543.43304
G1 X162.14 Y140.75 E543.45650
G1 X160.94 Y139.86 E543.47995
G1 X159.66 Y139.09 E543.50340
G1 X158.32 Y138.46 E543.52683
G1 X156.91 Y137.95 E543.55029
G1 X155.47 Y137.59 E543.57373
G1 X153.99 Y137.37 E543.59717
G1 X152.50 Y137.30 E543.62062
G1 X151.01 Y137.37 E543.64407
G1 X149.53 Y137.59 E543.66751
G1 X148.09 Y137.95 E543.69095
G1 X146.68 Y138.46 E543.71441
G1 X145.34 Y139.09 E543.73784
G1 X144.06 Y139.86 E543.76129
G1 X142.86 Y140.75 E543.78474
G1 X141.75 Y141.75 E543.80819
G1 X140.75 Y142.86 E543.83165
G1 X139.86 Y144.06 E543.85510
G1 X139.09 Y145.34 E543.87855
G1 X138.46 Y146.68 E543.90198
G1 X137.95 Y148.09 E543.92544
G1 X137.59 Y149.53 E543.94888
G1 X137.37 Y151.01 E543.97232
G1 X137.30 Y152.50 E543.99577
G1 X137.37 Y153.99 E544.01922
G1 X137.59 Y155.47 E544.04266
G1 X137.95 Y156.91 E544.06610
G1 X138.46 Y158.32 E544.08956
G1 X139.09 Y159.66 E544.11299
G1 X139.86 Y160.94 E544.13644
G1 X140.75 Y162.14 E544.15989
G0 F12000 X140.67 Y162.26
;TYPE:FILL
G1 F3780 X139.38 Y163.54 E544.18846
G0 F12000 X139.65 Y163.84
G1 F3780 X140.93 Y162.56 E544.21703
G0 F12000 X141.20 Y162.85
G1 F3780 X139.92 Y164.14 E544.24559
G0 F12000 X140.19 Y164.43
G1 F3780 X141.47 Y163.15 E544.27417
G0 F12000 X141.75 Y163.44
G1 F3780 X140.46 Y164.72 E544.30278
G0 F12000 X140.76 Y164.99
G1 F3780 X142.05 Y163.71 E544.33139
G0 F12000 X142.34 Y163.97
G1 F3780 X141.06 Y165.26 E544.36000
G0 F12000 X141.35 Y165.53
G1 F3780 X142.64 Y164.24 E544.38861
G0 F12000 X142.96 Y164.49
G1 F3780 X141.66 Y165.79 E544.41749
G0 F12000 X141.98 Y166.03
G1 F3780 X143.28 Y164.74 E544.44634
G0 F12000 X143.60 Y164.98
G1 F3780 X142.31 Y166.28 E544.47521
G0 F12000 X142.63 Y166.52
G1 F3780 X143.93 Y165.22 E544.50406
G0 F12000 X144.28 Y165.43
G1 F3780 X142.96 Y166.76 E544.53347
G0 F12000 X143.31 Y166.97
G1 F3780 X144.63 Y165.65 E544.56292
G0 F12000 X144.99 Y165.86
G1 F3780 X143.66 Y167.18 E544.59235
G0 F12000 X144.01 Y167.39
G1 F3780 X145.34 Y166.06 E544.62192
G0 F12000 X145.73 Y166.25
G1 F3780 X144.37 Y167.61 E544.65216
G0 F12000 X144.75 Y167.79
G1 F3780 X146.11 Y166.43 E544.68249
G0 F12000 X146.50 Y166.61
G1 F3780 X145.13 Y167.97 E544.71283
G0 F12000 X145.52 Y168.15
G1 F3780 X146.90 Y166.77 E544.74361
G0 F12000 X147.32 Y166.92
G1 F3780 X145.90 Y168.34 E544.77514
G0 F12000 X146.31 Y168.49
G1 F3780 X147.74 Y167.07 E544.80673
G0 F12000 X148.16 Y167.21
G1 F3780 X146.73 Y168.64 E544.83850
G0 F12000 X147.15 Y168.79
G1 F3780 X148.61 Y167.32 E544.87109
G0 F12000 X149.07 Y167.43
G1 F3780 X147.57 Y168.93 E544.90439
G0 F12000 X148.02 Y169.04
G1 F3780 X149.52 Y167.54 E544.93772
G0 F12000 X150.01 Y167.62
G1 F3780 X148.47 Y169.16 E544.97195
G0 F12000 X148.93 Y169.27
G1 F3780 X150.51 Y167.69 E545.00707
G0 F12000 X151.00 Y167.76
G1 F3780 X149.40 Y169.36 E545.04265
G0 F12000 X149.89 Y169.44
G1 F3780 X151.54 Y167.79 E545.07927
G0 F12000 X152.08 Y167.82
G1 F3780 X150.38 Y169.51 E545.11690
G0 F12000 X150.88 Y169.58
G1 F3780 X152.63 Y167.83 E545.15567
G0 F12000 X153.22 Y167.80
G1 F3780 X151.42 Y169.60 E545.19571
G0 F12000 X151.96 Y169.63
G1 F3780 X153.82 Y167.77 E545.23701
G0 F12000 X154.46 Y167.70
G1 F3780 X152.50 Y169.66 E545.28063
G0 F12000 X153.09 Y169.63
G1 F3780 X155.12 Y167.60 E545.32577
G0 F12000 X155.83 Y167.46
G1 F3780 X153.69 Y169.60 E545.37334
G0 F12000 X154.30 Y169.56
G1 F3780 X156.58 Y167.27 E545.42415
G0 F12000 X157.40 Y167.02
G1 F3780 X154.97 Y169.45 E545.47826
G0 F12000 X155.64 Y169.35
G1 F3780 X158.28 Y166.70 E545.53708
G0 F12000 X159.34 Y166.21
G1 F3780 X156.35 Y169.20 E545.60355
G0 F12000 X157.10 Y169.01
G1 F3780 X160.62 Y165.49 E545.68180
G0 F12000 X160.71 Y165.63
G0 X160.92 Y167.25
G0 X161.00 Y167.38
G1 F3780 X167.39 Y160.99 E545.82388
G0 F12000 X168.00 Y159.82
G1 F3780 X159.83 Y167.98 E546.00542
G0 F12000 X158.80 Y168.45
G1 F3780 X168.45 Y158.80 E546.21988
G0 F12000 X168.76 Y157.92
G1 F3780 X163.46 Y163.22 E546.33779
G0 F12000 X163.23 Y163.45
G1 F3780 X157.92 Y168.76 E546.45578
G0 F12000 X157.87 Y168.61
G0 X162.53 Y166.19
G0 X162.63 Y166.32
G1 F3780 X166.34 Y162.60 E546.53837
G0 F12000 X166.22 Y162.51
G0 X165.63 Y160.71
G0 X165.49 Y160.62
G1 F3780 X169.01 Y157.10 E546.61658
G0 F12000 X169.20 Y156.35
G1 F3780 X166.21 Y159.34 E546.68298
G0 F12000 X166.70 Y158.28
G1 F3780 X169.36 Y155.63 E546.74201
G0 F12000 X169.46 Y154.96
G1 F3780 X167.02 Y157.40 E546.79619
G0 F12000 X167.27 Y156.58
G1 F3780 X169.56 Y154.30 E546.84696
G0 F12000 X169.60 Y153.69
G1 F3780 X167.46 Y155.83 E546.89448
G0 F12000 X167.60 Y155.12
G1 F3780 X169.63 Y153.09 E546.93957
G0 F12000 X169.66 Y152.50
G1 F3780 X167.70 Y154.46 E546.98317
G0 F12000 X167.77 Y153.82
G1 F3780 X169.63 Y151.96 E547.02443
G0 F12000 X169.60 Y151.42
G1 F3780 X167.80 Y153.22 E547.06443
G0 F12000 X167.83 Y152.63
G1 F3780 X169.58 Y150.88 E547.10319
G0 F12000 X169.51 Y150.38
G1 F3780 X167.82 Y152.08 E547.14077
G0 F12000 X167.79 Y151.54
G1 F3780 X169.44 Y149.89 E547.17734
G0 F12000 X169.36 Y149.40
G1 F3780 X167.76 Y151.00 E547.21288
G0 F12000 X167.69 Y150.51
G1 F3780 X169.27 Y148.93 E547.24798
G0 F12000 X169.16 Y148.47
G1 F3780 X167.62 Y150.01 E547.28220
G0 F12000 X167.55 Y149.52
G1 F3780 X169.04 Y148.02 E547.31550
G0 F12000 X168.93 Y147.57
G1 F3780 X167.43 Y149.07 E547.34877
G0 F12000 X167.32 Y148.61
G1 F3780 X168.79 Y147.15 E547.38135
G0 F12000 X168.64 Y146.73
G1 F3780 X167.21 Y148.16 E547.41311
G0 F12000 X167.07 Y147.73
G1 F3780 X168.49 Y146.31 E547.44465
G0 F12000 X168.34 Y145.90
G1 F3780 X166.92 Y147.32 E547.47613
G0 F12000 X166.77 Y146.90
G1 F3780 X168.15 Y145.52 E547.50690
G0 F12000 X167.97 Y145.13
G1 F3780 X166.61 Y146.50 E547.53718
G0 F12000 X166.43 Y146.11
G1 F3780 X167.79 Y144.75 E547.56750
G0 F12000 X167.60 Y144.37
G1 F3780 X166.25 Y145.73 E547.59772
G0 F12000 X166.06 Y145.34
G1 F3780 X167.39 Y144.02 E547.62726
G0 F12000 X167.18 Y143.66
G1 F3780 X165.86 Y144.99 E547.65667
G0 F12000 X165.65 Y144.63
G1 F3780 X166.97 Y143.31 E547.68608
G0 F12000 X166.76 Y142.96
G1 F3780 X165.44 Y144.28 E547.71546
G0 F12000 X165.22 Y143.93
G1 F3780 X166.51 Y142.63 E547.74428
G0 F12000 X166.27 Y142.31
G1 F3780 X164.98 Y143.60 E547.77311
G0 F12000 X164.74 Y143.28
G1 F3780 X166.03 Y141.98 E547.80193
G0 F12000 X165.79 Y141.66
G1 F3780 X164.50 Y142.95 E547.83077
G0 F12000 X164.24 Y142.64
G1 F3780 X165.53 Y141.35 E547.85934
G0 F12000 X165.26 Y141.06
G1 F3780 X163.97 Y142.34 E547.88793
G0 F12000 X163.71 Y142.05
G1 F3780 X164.99 Y140.76 E547.91652
G0 F12000 X164.72 Y140.46
G1 F3780 X163.44 Y141.75 E547.94509
G0 F12000 X163.15 Y141.47
G1 F3780 X164.44 Y140.19 E547.97369
G0 F12000 X164.14 Y139.92
G1 F3780 X162.85 Y141.20 E548.00230
G0 F12000 X162.55 Y140.94
G1 F3780 X163.84 Y139.65 E548.03091
G0 F12000 X163.54 Y139.38
G1 F3780 X162.26 Y140.67 E548.05952
G0 F12000 X161.94 Y140.42
G1 F3780 X163.23 Y139.12 E548.08839
G0 F12000 X162.91 Y138.88
G1 F3780 X161.61 Y140.18 E548.11724
G0 F12000 X161.29 Y139.94
G1 F3780 X162.58 Y138.64 E548.14610
G0 F12000 X162.26 Y138.40
G1 F3780 X160.96 Y139.71 E548.17506
G0 F12000 X160.60 Y139.49
G1 F3780 X161.93 Y138.17 E548.20449
G0 F12000 X161.57 Y137.96
G1 F3780 X160.25 Y139.28 E548.23392
G0 F12000 X159.89 Y139.07
G1 F3780 X161.22 Y137.75 E548.26336
G0 F12000 X160.87 Y137.53
G1 F3780 X159.52 Y138.87 E548.29317
G0 F12000 X159.14 Y138.69
G1 F3780 X160.50 Y137.33 E548.32352
G0 F12000 X160.12 Y137.15
G1 F3780 X158.76 Y138.51 E548.35385
G0 F12000 X158.37 Y138.33
G1 F3780 X159.74 Y136.96 E548.38419
G0 F12000 X159.35 Y136.78
G1 F3780 X157.96 Y138.18 E548.41525
G0 F12000 X157.54 Y138.03
G1 F3780 X158.96 Y136.61 E548.44686
G0 F12000 X158.55 Y136.46
G1 F3780 X157.12 Y137.88 E548.47847
G0 F12000 X156.69 Y137.75
G1 F3780 X158.13 Y136.31 E548.51055
G0 F12000 X157.71 Y136.16
G1 F3780 X156.23 Y137.64 E548.54343
G0 F12000 X155.78 Y137.53
G1 F3780 X157.28 Y136.03 E548.57675
G0 F12000 X156.82 Y135.92
G1 F3780 X155.31 Y137.43 E548.61036
G0 F12000 X154.82 Y137.36
G1 F3780 X156.37 Y135.81 E548.64481
G0 F12000 X155.91 Y135.69
G1 F3780 X154.33 Y137.28 E548.68011
G0 F12000 X153.82 Y137.23
G1 F3780 X155.44 Y135.61 E548.71604
G0 F12000 X154.94 Y135.54
G1 F3780 X153.28 Y137.20 E548.75300
G0 F12000 X152.74 Y137.17
G1 F3780 X154.45 Y135.46 E548.79098
G0 F12000 X153.94 Y135.41
G1 F3780 X152.17 Y137.18 E548.83019
G0 F12000 X151.58 Y137.21
G1 F3780 X153.40 Y135.38 E548.87065
G0 F12000 X152.86 Y135.36
G1 F3780 X150.98 Y137.24 E548.91240
G0 F12000 X150.31 Y137.34
G1 F3780 X152.30 Y135.35 E548.95653
G0 F12000 X151.70 Y135.38
G1 F3780 X149.65 Y137.43 E549.00219
G0 F12000 X148.92 Y137.60
G1 F3780 X151.11 Y135.41 E549.05093
G0 F12000 X150.48 Y135.48
G1 F3780 X148.16 Y137.79 E549.10237
G0 F12000 X147.30 Y138.09
G1 F3780 X149.81 Y135.58 E549.15804
G0 F12000 X149.14 Y135.68
G1 F3780 X146.38 Y138.45 E549.21948
G0 F12000 X145.30 Y138.96
G1 F3780 X148.40 Y135.86 E549.28834
G0 F12000 X147.64 Y136.05
G1 F3780 X143.86 Y139.83 E549.37242
G0 F12000 X143.77 Y139.70
G0 X143.60 Y138.05
G0 X143.52 Y137.91
G1 F3780 X137.89 Y143.54 E549.49745
G0 F12000 X137.17 Y144.82
G1 F3780 X144.80 Y137.19 E549.66704
G0 F12000 X145.89 Y136.67
G1 F3780 X136.67 Y145.89 E549.87216
G0 F12000 X136.34 Y146.78
G1 F3780 X146.78 Y136.34 E550.10426
G0 F12000 X146.84 Y136.49
G0 X141.69 Y139.40
G0 X141.59 Y139.27
G1 F3780 X139.20 Y141.66 E550.15744
G0 F12000 X139.33 Y141.76
G0 X139.70 Y143.77
G0 X139.83 Y143.86
G1 F3780 X136.05 Y147.64 E550.24149
G0 F12000 X135.86 Y148.40
G1 F3780 X138.96 Y145.30 E550.31031
G0 F12000 X138.45 Y146.38
G1 F3780 X135.67 Y149.15 E550.37199
G0 F12000 X135.57 Y149.81
G1 F3780 X138.08 Y147.30 E550.42781
G0 F12000 X137.79 Y148.16
G1 F3780 X135.47 Y150.48 E550.47925
G0 F12000 X135.41 Y151.11
G1 F3780 X137.60 Y148.92 E550.52795
G0 F12000 X137.43 Y149.65
G1 F3780 X135.38 Y151.70 E550.57356
G0 F12000 X135.35 Y152.30
G1 F3780 X137.33 Y150.32 E550.61764
G0 F12000 X137.24 Y150.98
G1 F3780 X135.36 Y152.86 E550.65936
G0 F12000 X135.39 Y153.40
G1 F3780 X137.20 Y151.58 E550.69978
G0 F12000 X137.18 Y152.17
G1 F3780 X135.41 Y153.94 E550.73897
G0 F12000 X135.46 Y154.45
G1 F3780 X137.17 Y152.74 E550.77691
G0 F12000 X137.20 Y153.28
G1 F3780 X135.54 Y154.94 E550.81384
G0 F12000 X135.61 Y155.43
G1 F3780 X137.22 Y153.82 E550.84973
G0 F12000 X137.28 Y154.33
G1 F3780 X135.69 Y155.92 E550.88511
G0 F12000 X135.80 Y156.37
G1 F3780 X137.35 Y154.82 E550.91958
G0 F12000 X137.43 Y155.31
G1 F3780 X135.92 Y156.82 E550.95318
G0 F12000 X136.03 Y157.28
G1 F3780 X137.53 Y155.78 E550.98646
G0 F12000 X137.64 Y156.23
G1 F3780 X136.16 Y157.71 E551.01930
G0 F12000 X136.31 Y158.13
G1 F3780 X137.75 Y156.69 E551.05133
G0 F12000 X137.88 Y157.12
G1 F3780 X136.46 Y158.54 E551.08290
G0 F12000 X136.61 Y158.96
G1 F3780 X138.03 Y157.54 E551.11449
G0 F12000 X138.18 Y157.96
G1 F3780 X136.78 Y159.35 E551.14550
G0 F12000 X136.97 Y159.74
G1 F3780 X138.33 Y158.37 E551.17580
G0 F12000 X138.51 Y158.76
G1 F3780 X137.15 Y160.12 E551.20611
G0 F12000 X137.33 Y160.50
G1 F3780 X138.69 Y159.14 E551.23641
G0 F12000 X138.87 Y159.53
G1 F3780 X137.53 Y160.86 E551.26617
G0 F12000 X137.75 Y161.22
G1 F3780 X139.07 Y159.90 E551.29558
G0 F12000 X139.28 Y160.25
G1 F3780 X137.96 Y161.57 E551.32497
G0 F12000 X138.17 Y161.93
G1 F3780 X139.49 Y160.60 E551.35437
G0 F12000 X139.70 Y160.96
G1 F3780 X138.40 Y162.26 E551.38331
G0 F12000 X138.64 Y162.58
G1 F3780 X139.94 Y161.29 E551.41215
G0 F12000 X140.18 Y161.61
G1 F3780 X138.88 Y162.91 E551.44098
G0 F12000 X139.12 Y163.23
G1 F3780 X140.42 Y161.94 E551.46981
G0 F12000 X139.73 Y162.45
;LAYER:2
G0 X140.75 Y162.14 Z1.40
;TYPE:WALL-OUTER
G1 F4920 X141.75 Y163.25 E551.49327
G1 X142.86 Y164.25 E551.51673
G1 X144.06 Y165.14 E551.54018
G1 X145.34 Y165.91 E551.56363
G1 X146.68 Y166.54 E551.58706
G1 X148.09 Y167.05 E551.61051
G1 X149.53 Y167.41 E551.63396
G1 X151.01 Y167.63 E551.65740
G1 X152.50 Y167.70 E551.68085
G1 X153.99 Y167.63 E551.70430
G1 X155.47 Y167.41 E551.72774
G1 X156.91 Y167.05 E551.75118
G1 X158.32 Y166.54 E551.77464
G1 X159.66 Y165.91 E551.79806
G1 X160.94 Y165.14 E551.82151
G1 X162.14 Y164.25 E551.84496
G1 X163.25 Y163.25 E551.86842
G1 X164.25 Y162.14 E551.89188
G1 X165.14 Y160.94 E551.91533
G1 X165.91 Y159.66 E551.93878
G1 X166.54 Y158.32 E551.96221
G1 X167.05 Y156.91 E551.98566
G1 X167.41 Y155.47 E552.00911
G1 X167.63 Y153.99 E552.03255
G1 X167.70 Y152.50 E552.05600
G1 X167.63 Y151.01 E552.07945
G1 X167.41 Y149.53 E552.10289
G1 X167.05 Y148.09 E552.12633
G1 X166.54 Y146.68 E552.14979
G1 X165.91 Y145.34 E552.17322
G1 X165.14 Y144.06 E552.19666
G1 X164.25 Y142.86 E552.22011
G1 X163.25 Y141.75 E552.24357
G1 X162.14 Y140.75 E552.26703
G1 X160.94 Y139.86 E552.29048
G1 X159.66 Y139.09 E552.31393
G1 X158.32 Y138.46 E552.33736
G1 X156.91 Y137.95 E552.36082
G1 X155.47 Y137.59 E552.38426
G1 X153.99 Y137.37 E552.40770
G1 X152.50 Y137.30 E552.43115
G1 X151.01 Y137.37 E552.45460
G1 X149.53 Y137.59 E552.47804
G1 X148.09 Y137.95 E552.50148
G1 X146.68 Y138.46 E552.52494
G1 X145.34 Y139.09 E552.54837
G1 X144.06 Y139.86 E552.57181
G1 X142.86 Y140.75 E552.59526
G1 X141.75 Y141.75 E552.61872
G1 X140.75 Y142.86 E552.64218
G1 X139.86 Y144.06 E552.66563
G1 X139.09 Y145.34 E552.68908
G1 X138.46 Y146.68 E552.71251
G1 X137.95 Y148.09 E552.73597
G1 X137.59 Y149.53 E552.75941
G1 X137.37 Y151.01 E552.78285
G1 X137.30 Y152.50 E552.80630
G1 X137.37 Y153.99 E552.82975
G1 X137.59 Y155.47 E552.85319
G1 X137.95 Y156.91 E552.87663
G1 X138.46 Y158.32 E552.90009
G1 X139.09 Y159.66 E552.92352
G1 X139.86 Y160.94 E552.94697
G1 X140.75 Y162.14 E552.97042
G0 F12000 X140.51 Y162.32
G0 X139.36 Y163.28
G0 X139.13 Y163.48
G1 F4920 X138.12 Y162.11 E552.99714
G1 X137.24 Y160.65 E553.02402
G1 X136.52 Y159.12 E553.05062
G1 X135.95 Y157.52 E553.07720
G1 X135.53 Y155.88 E553.10387
G1 X135.28 Y154.20 E553.13058
G1 X135.20 Y152.50 E553.15729
G1 X135.28 Y150.80 E553.18400
G1 X135.53 Y149.12 E553.21071
G1 X135.95 Y147.48 E553.23738
G1 X136.52 Y145.88 E553.26396
G1 X137.24 Y144.35 E553.29056
G1 X138.12 Y142.89 E553.31745
G1 X139.13 Y141.52 E553.34416
G1 X140.27 Y140.27 E553.37077
G1 X141.52 Y139.13 E553.39738
G1 X142.89 Y138.12 E553.42410
G1 X144.35 Y137.24 E553.45091
G1 X145.88 Y136.52 E553.47758
G1 X147.48 Y135.95 E553.50417
G1 X148.97 Y135.57 E553.52840
G1 X150.67 Y135.31 E553.55541
G1 X150.81 Y135.28 E553.55757
G1 X152.37 Y135.21 E553.58213
G1 X152.50 Y135.20 E553.58426
G1 X154.20 Y135.28 E553.61095
G1 X155.88 Y135.53 E553.63766
G1 X157.52 Y135.95 E553.66434
G1 X159.12 Y136.52 E553.69092
G1 X160.65 Y137.24 E553.71759
G1 X162.11 Y138.12 E553.74440
G1 X163.48 Y139.13 E553.77112
G1 X164.73 Y140.27 E553.79773
G1 X165.87 Y141.52 E553.82434
G1 X166.88 Y142.89 E553.85105
G1 X167.76 Y144.35 E553.87794
G1 X168.48 Y145.88 E553.90454
G1 X169.05 Y147.48 E553.93112
G1 X169.47 Y149.12 E553.95779
G1 X169.72 Y150.80 E553.98450
G1 X169.80 Y152.50 E554.01121
G1 X169.72 Y154.20 E554.03792
G1 X169.47 Y155.88 E554.06463
G1 X169.05 Y157.52 E554.09130
G1 X168.48 Y159.12 E554.11788
G1 X167.76 Y160.65 E554.14448
G1 X166.88 Y162.11 E554.17137
G1 X165.87 Y163.48 E554.19808
G1 X164.73 Y164.73 E554.22469
G1 X163.48 Y165.87 E554.25130
G1 X162.11 Y166.88 E554.27802
G1 X160.65 Y167.76 E554.30483
G1 X159.12 Y168.48 E554.33150
G1 X157.52 Y169.05 E554.35808
G1 X156.03 Y169.43 E554.38232
G1 X154.33 Y169.69 E554.40933
G1 X154.19 Y169.72 E554.41149
G1 X152.63 Y169.79 E554.43605
G1 X152.50 Y169.80 E554.43818
G1 X150.87 Y169.72 E554.46385
G1 X150.80 Y169.72 E554.46487
G1 X149.12 Y169.47 E554.49158
G1 X147.62 Y169.09 E554.51593
G1 X147.48 Y169.05 E554.51824
G1 X145.88 Y168.48 E554.54485
G1 X144.35 Y167.76 E554.57151
G1 X142.89 Y166.88 E554.59832
G1 X141.52 Y165.87 E554.62504
G1 X140.27 Y164.73 E554.65165
G1 X139.13 Y163.48 E554.67826
G0 F12000 X138.93 Y162.97
;TYPE:FILL
G1 F4920 X142.02 Y166.07 E554.74698
G0 F12000 X142.12 Y165.94
G0 X143.85 Y167.11
G0 X143.77 Y167.25
G1 F4920 X137.75 Y161.23 E554.88080
G0 F12000 X137.09 Y160.00
G1 F4920 X145.00 Y167.91 E555.05671
G0 F12000 X146.05 Y168.39
G1 F4920 X136.60 Y158.95 E555.26670
G0 F12000 X136.29 Y158.07
G1 F4920 X146.93 Y168.71 E555.50322
G0 F12000 X147.77 Y168.98
G1 F4920 X144.14 Y165.35 E555.58390
G0 F12000 X144.06 Y165.49
G0 X145.41 Y166.27
G0 X145.48 Y166.13
G1 F4920 X148.52 Y169.17 E555.65153
G0 F12000 X149.26 Y169.34
G1 F4920 X146.55 Y166.64 E555.71171
G0 F12000 X147.45 Y166.97
G1 F4920 X149.93 Y169.44 E555.76672
G0 F12000 X150.59 Y169.54
G1 F4920 X148.29 Y167.24 E555.81783
G0 F12000 X149.04 Y167.43
G1 F4920 X151.21 Y169.59 E555.86596
G0 F12000 X151.80 Y169.62
G1 F4920 X149.76 Y167.58 E555.91133
G0 F12000 X150.43 Y167.68
G1 F4920 X152.40 Y169.65 E555.95517
G0 F12000 X152.95 Y169.63
G1 F4920 X151.08 Y167.77 E555.99666
G0 F12000 X151.68 Y167.80
G1 F4920 X153.49 Y169.61 E556.03690
G0 F12000 X154.03 Y169.58
G1 F4920 X152.27 Y167.83 E556.07588
G0 F12000 X152.83 Y167.82
G1 F4920 X154.53 Y169.52 E556.11357
G0 F12000 X155.02 Y169.44
G1 F4920 X153.37 Y167.80 E556.15016
G0 F12000 X153.91 Y167.77
G1 F4920 X155.51 Y169.37 E556.18564
G0 F12000 X155.99 Y169.29
G1 F4920 X154.41 Y167.70 E556.22085
G0 F12000 X154.90 Y167.63
G1 F4920 X156.45 Y169.18 E556.25520
G0 F12000 X156.90 Y169.06
G1 F4920 X155.40 Y167.56 E556.28869
G0 F12000 X155.86 Y167.45
G1 F4920 X157.35 Y168.95 E556.32199
G0 F12000 X157.78 Y168.81
G1 F4920 X156.31 Y167.34 E556.35471
G0 F12000 X156.76 Y167.23
G1 F4920 X158.20 Y168.66 E556.38664
G0 F12000 X158.62 Y168.51
G1 F4920 X157.19 Y167.09 E556.41822
G0 F12000 X157.61 Y166.94
G1 F4920 X159.03 Y168.37 E556.44979
G0 F12000 X159.42 Y168.19
G1 F4920 X158.03 Y166.79 E556.48070
G0 F12000 X158.44 Y166.64
G1 F4920 X159.80 Y168.00 E556.51100
G0 F12000 X160.19 Y167.82
G1 F4920 X158.82 Y166.46 E556.54132
G0 F12000 X159.21 Y166.28
G1 F4920 X160.57 Y167.64 E556.57164
G0 F12000 X160.92 Y167.43
G1 F4920 X159.59 Y166.09 E556.60131
G0 F12000 X159.96 Y165.90
G1 F4920 X161.28 Y167.22 E556.63072
G0 F12000 X161.63 Y167.00
G1 F4920 X160.31 Y165.68 E556.66013
G0 F12000 X160.66 Y165.47
G1 F4920 X161.99 Y166.79 E556.68954
G0 F12000 X162.31 Y166.56
G1 F4920 X161.02 Y165.26 E556.71838
G0 F12000 X161.34 Y165.02
G1 F4920 X162.64 Y166.31 E556.74722
G0 F12000 X162.96 Y166.07
G1 F4920 X161.67 Y164.78 E556.77605
G0 F12000 X161.99 Y164.54
G1 F4920 X163.29 Y165.83 E556.80487
G0 F12000 X163.59 Y165.57
G1 F4920 X162.31 Y164.29 E556.83346
G0 F12000 X162.60 Y164.02
G1 F4920 X163.89 Y165.31 E556.86204
G0 F12000 X164.19 Y165.04
G1 F4920 X162.90 Y163.75 E556.89062
G0 F12000 X163.20 Y163.48
G1 F4920 X164.49 Y164.77 E556.91920
G0 F12000 X164.77 Y164.49
G1 F4920 X163.48 Y163.20 E556.94781
G0 F12000 X163.75 Y162.90
G1 F4920 X165.04 Y164.19 E556.97642
G0 F12000 X165.31 Y163.89
G1 F4920 X164.02 Y162.60 E557.00503
G0 F12000 X164.29 Y162.31
G1 F4920 X165.57 Y163.59 E557.03364
G0 F12000 X165.83 Y163.29
G1 F4920 X164.53 Y161.99 E557.06250
G0 F12000 X164.78 Y161.66
G1 F4920 X166.07 Y162.96 E557.09137
G0 F12000 X166.32 Y162.64
G1 F4920 X165.02 Y161.34 E557.12025
G0 F12000 X165.26 Y161.01
G1 F4920 X166.56 Y162.31 E557.14912
G0 F12000 X166.79 Y161.99
G1 F4920 X165.47 Y160.66 E557.17857
G0 F12000 X165.68 Y160.31
G1 F4920 X167.01 Y161.63 E557.20800
G0 F12000 X167.22 Y161.28
G1 F4920 X165.89 Y159.95 E557.23743
G0 F12000 X166.09 Y159.59
G1 F4920 X167.43 Y160.92 E557.26712
G0 F12000 X167.64 Y160.57
G1 F4920 X166.28 Y159.21 E557.29746
G0 F12000 X166.46 Y158.82
G1 F4920 X167.82 Y160.19 E557.32782
G0 F12000 X168.00 Y159.80
G1 F4920 X166.64 Y158.44 E557.35816
G0 F12000 X166.79 Y158.03
G1 F4920 X168.19 Y159.42 E557.38909
G0 F12000 X168.37 Y159.03
G1 F4920 X166.94 Y157.61 E557.42070
G0 F12000 X167.09 Y157.19
G1 F4920 X168.51 Y158.62 E557.45231
G0 F12000 X168.66 Y158.20
G1 F4920 X167.23 Y156.76 E557.48424
G0 F12000 X167.34 Y156.31
G1 F4920 X168.81 Y157.78 E557.51696
G0 F12000 X168.95 Y157.35
G1 F4920 X167.45 Y155.86 E557.55028
G0 F12000 X167.56 Y155.40
G1 F4920 X169.06 Y156.90 E557.58377
G0 F12000 X169.18 Y156.45
G1 F4920 X167.63 Y154.90 E557.61814
G0 F12000 X167.70 Y154.41
G1 F4920 X169.29 Y156.00 E557.65342
G0 F12000 X169.38 Y155.52
G1 F4920 X167.77 Y153.91 E557.68917
G0 F12000 X167.79 Y153.37
G1 F4920 X169.45 Y155.03 E557.72596
G0 F12000 X169.52 Y154.53
G1 F4920 X167.82 Y152.83 E557.76377
G0 F12000 X167.83 Y152.27
G1 F4920 X169.58 Y154.03 E557.80278
G0 F12000 X169.61 Y153.49
G1 F4920 X167.80 Y151.68 E557.84306
G0 F12000 X167.77 Y151.08
G1 F4920 X169.64 Y152.95 E557.88458
G0 F12000 X169.65 Y152.40
G1 F4920 X167.68 Y150.43 E557.92845
G0 F12000 X167.58 Y149.76
G1 F4920 X169.62 Y151.80 E557.97387
G0 F12000 X169.59 Y151.21
G1 F4920 X167.43 Y149.04 E558.02201
G0 F12000 X167.24 Y148.29
G1 F4920 X169.54 Y150.59 E558.07316
G0 F12000 X169.44 Y149.93
G1 F4920 X166.97 Y147.45 E558.12820
G0 F12000 X166.63 Y146.55
G1 F4920 X169.34 Y149.26 E558.18842
G0 F12000 X169.17 Y148.52
G1 F4920 X166.13 Y145.48 E558.25610
G0 F12000 X166.27 Y145.41
G0 X165.49 Y144.06
G0 X165.35 Y144.14
G1 F4920 X168.98 Y147.77 E558.33682
G0 F12000 X168.71 Y146.93
G1 F4920 X158.07 Y136.29 E558.57339
G0 F12000 X157.23 Y136.02
G1 F4920 X160.86 Y139.65 E558.65406
G0 F12000 X160.94 Y139.51
G0 X159.59 Y138.73
G0 X159.52 Y138.87
G1 F4920 X156.48 Y135.83 E558.72171
G0 F12000 X155.74 Y135.66
G1 F4920 X158.44 Y138.36 E558.78190
G0 F12000 X157.55 Y138.03
G1 F4920 X155.07 Y135.56 E558.83692
G0 F12000 X154.41 Y135.46
G1 F4920 X156.71 Y137.76 E558.88806
G0 F12000 X155.96 Y137.57
G1 F4920 X153.79 Y135.41 E558.93620
G0 F12000 X153.19 Y135.38
G1 F4920 X155.24 Y137.42 E558.98157
G0 F12000 X154.57 Y137.32
G1 F4920 X152.60 Y135.35 E559.02540
G0 F12000 X152.05 Y135.36
G1 F4920 X153.92 Y137.23 E559.06690
G0 F12000 X153.32 Y137.20
G1 F4920 X151.51 Y135.39 E559.10711
G0 F12000 X150.97 Y135.42
G1 F4920 X152.73 Y137.17 E559.14609
G0 F12000 X152.17 Y137.18
G1 F4920 X150.47 Y135.48 E559.18378
G0 F12000 X149.98 Y135.56
G1 F4920 X151.63 Y137.20 E559.22037
G0 F12000 X151.09 Y137.23
G1 F4920 X149.49 Y135.63 E559.25585
G0 F12000 X149.00 Y135.71
G1 F4920 X150.59 Y137.29 E559.29106
G0 F12000 X150.09 Y137.37
G1 F4920 X148.55 Y135.82 E559.32541
G0 F12000 X148.10 Y135.93
G1 F4920 X149.60 Y137.44 E559.35890
G0 F12000 X149.14 Y137.54
G1 F4920 X147.64 Y136.05 E559.39219
G0 F12000 X147.22 Y136.19
G1 F4920 X148.69 Y137.66 E559.42491
G0 F12000 X148.24 Y137.77
G1 F4920 X146.80 Y136.34 E559.45682
G0 F12000 X146.38 Y136.49
G1 F4920 X147.80 Y137.90 E559.48838
G0 F12000 X147.39 Y138.05
G1 F4920 X145.97 Y136.63 E559.51993
G0 F12000 X145.58 Y136.81
G1 F4920 X146.97 Y138.20 E559.55083
G0 F12000 X146.56 Y138.36
G1 F4920 X145.20 Y136.99 E559.58114
G0 F12000 X144.81 Y137.18
G1 F4920 X146.18 Y138.54 E559.61147
G0 F12000 X145.79 Y138.72
G1 F4920 X144.43 Y137.36 E559.64179
G0 F12000 X144.07 Y137.57
G1 F4920 X145.41 Y138.90 E559.67147
G0 F12000 X145.04 Y139.10
G1 F4920 X143.72 Y137.78 E559.70089
G0 F12000 X143.37 Y137.99
G1 F4920 X144.69 Y139.32 E559.73032
G0 F12000 X144.34 Y139.53
G1 F4920 X143.01 Y138.21 E559.75973
G0 F12000 X142.68 Y138.44
G1 F4920 X143.98 Y139.74 E559.78857
G0 F12000 X143.66 Y139.98
G1 F4920 X142.36 Y138.68 E559.81741
G0 F12000 X142.03 Y138.92
G1 F4920 X143.33 Y140.22 E559.84626
G0 F12000 X143.01 Y140.46
G1 F4920 X141.71 Y139.16 E559.87510
G0 F12000 X141.41 Y139.43
G1 F4920 X142.69 Y140.71 E559.90367
G0 F12000 X142.39 Y140.98
G1 F4920 X141.11 Y139.69 E559.93227
G0 F12000 X140.81 Y139.96
G1 F4920 X142.10 Y141.25 E559.96086
G0 F12000 X141.80 Y141.52
G1 F4920 X140.51 Y140.23 E559.98944
G0 F12000 X140.23 Y140.51
G1 F4920 X141.52 Y141.80 E560.01805
G0 F12000 X141.25 Y142.10
G1 F4920 X139.96 Y140.81 E560.04666
G0 F12000 X139.69 Y141.11
G1 F4920 X140.98 Y142.39 E560.07527
G0 F12000 X140.71 Y142.69
G1 F4920 X139.42 Y141.40 E560.10388
G0 F12000 X139.16 Y141.71
G1 F4920 X140.46 Y143.01 E560.13276
G0 F12000 X140.22 Y143.33
G1 F4920 X138.92 Y142.03 E560.16164
G0 F12000 X138.68 Y142.36
G1 F4920 X139.98 Y143.66 E560.19051
G0 F12000 X139.74 Y143.98
G1 F4920 X138.44 Y142.68 E560.21939
G0 F12000 X138.20 Y143.01
G1 F4920 X139.53 Y144.34 E560.24883
G0 F12000 X139.32 Y144.69
G1 F4920 X137.99 Y143.37 E560.27829
G0 F12000 X137.78 Y143.72
G1 F4920 X139.10 Y145.04 E560.30773
G0 F12000 X138.91 Y145.41
G1 F4920 X137.57 Y144.07 E560.33743
G0 F12000 X137.36 Y144.43
G1 F4920 X138.72 Y145.79 E560.36780
G0 F12000 X138.54 Y146.18
G1 F4920 X137.18 Y144.81 E560.39817
G0 F12000 X136.99 Y145.20
G1 F4920 X138.36 Y146.56 E560.42850
G0 F12000 X138.20 Y146.97
G1 F4920 X136.81 Y145.58 E560.45942
G0 F12000 X136.63 Y145.97
G1 F4920 X138.05 Y147.39 E560.49101
G0 F12000 X137.91 Y147.81
G1 F4920 X136.48 Y146.38 E560.52261
G0 F12000 X136.34 Y146.80
G1 F4920 X137.77 Y148.24 E560.55453
G0 F12000 X137.66 Y148.69
G1 F4920 X136.19 Y147.22 E560.58728
G0 F12000 X136.05 Y147.65
G1 F4920 X137.55 Y149.14 E560.62057
G0 F12000 X137.44 Y149.60
G1 F4920 X135.93 Y148.10 E560.65405
G0 F12000 X135.82 Y148.55
G1 F4920 X137.37 Y150.10 E560.68844
G0 F12000 X137.29 Y150.59
G1 F4920 X135.71 Y149.00 E560.72372
G0 F12000 X135.62 Y149.48
G1 F4920 X137.23 Y151.09 E560.75947
G0 F12000 X137.20 Y151.63
G1 F4920 X135.55 Y149.97 E560.79626
G0 F12000 X135.48 Y150.47
G1 F4920 X137.18 Y152.17 E560.83406
G0 F12000 X137.17 Y152.73
G1 F4920 X135.42 Y150.97 E560.87307
G0 F12000 X135.39 Y151.51
G1 F4920 X137.20 Y153.32 E560.91335
G0 F12000 X137.23 Y153.92
G1 F4920 X135.36 Y152.05 E560.95488
G0 F12000 X135.34 Y152.60
G1 F4920 X137.32 Y154.57 E560.99875
G0 F12000 X137.42 Y155.24
G1 F4920 X135.38 Y153.19 E561.04417
G0 F12000 X135.41 Y153.79
G1 F4920 X137.57 Y155.96 E561.09232
G0 F12000 X137.76 Y156.71
G1 F4920 X135.46 Y154.41 E561.14348
G0 F12000 X135.56 Y155.07
G1 F4920 X138.03 Y157.55 E561.19855
G0 F12000 X138.36 Y158.44
G1 F4920 X135.65 Y155.74 E561.25877
G0 F12000 X135.83 Y156.47
G1 F4920 X138.87 Y159.52 E561.32644
G0 F12000 X138.73 Y159.59
G0 X139.51 Y160.94
G0 X139.65 Y160.86
G1 F4920 X136.02 Y157.23 E561.40714
G0 F12000 X136.17 Y157.19
G0 X137.57 Y147.97
G0 X139.53 Y143.83
G0 X142.60 Y140.44
G0 X146.53 Y138.09
G0 X150.97 Y136.97
G0 X155.54 Y137.20
G0 X158.89 Y136.76
G0 X158.95 Y136.60
G1 F4920 X168.40 Y146.05 E561.61717
G0 F12000 X167.91 Y145.00
G1 F4920 X160.00 Y137.09 E561.79311
G0 F12000 X161.23 Y137.75
G1 F4920 X167.25 Y143.77 E561.92694
G0 F12000 X167.11 Y143.85
G0 X165.94 Y142.12
G0 X166.07 Y142.03
G1 F4920 X162.97 Y138.93 E561.99566
G0 F12000 X162.46 Y139.62
;LAYER:3
G0 X163.48 Y139.13 Z1.50
;TYPE:WALL-OUTER
G1 F6060 X164.70 Y140.24 E562.02164
G1 X165.87 Y141.53 E562.04897
G1 X166.88 Y142.89 E562.07559
G1 X167.76 Y144.35 E562.10247
G1 X168.48 Y145.88 E562.12908
G1 X169.05 Y147.47 E562.15556
G1 X169.47 Y149.12 E562.18237
G1 X169.72 Y150.80 E562.20904
G1 X169.80 Y152.50 E562.23575
G1 X169.72 Y154.20 E562.26245
G1 X169.47 Y155.88 E562.28912
G1 X169.05 Y157.53 E562.31587
G1 X168.48 Y159.12 E562.34242
G1 X167.76 Y160.65 E562.36902
G1 X166.88 Y162.11 E562.39590
G1 X165.87 Y163.48 E562.42262
G1 X164.73 Y164.73 E562.44923
G1 X163.48 Y165.87 E562.47584
G1 X162.27 Y166.76 E562.49942
G1 X162.12 Y166.88 E562.50244
G1 X160.65 Y167.76 E562.52937
G1 X159.12 Y168.48 E562.55604
G1 X157.53 Y169.05 E562.58258
G1 X155.88 Y169.47 E562.60934
G1 X154.20 Y169.72 E562.63600
G1 X152.50 Y169.80 E562.66265
G1 X150.80 Y169.72 E562.68942
G1 X149.12 Y169.47 E562.71613
G1 X147.47 Y169.05 E562.74282
G1 X145.89 Y168.49 E562.76933
G1 X144.35 Y167.76 E562.79613
G1 X142.89 Y166.88 E562.82286
G1 X141.52 Y165.87 E562.84958
G1 X140.29 Y164.76 E562.87561
G1 X139.13 Y163.47 E562.90290
G1 X138.12 Y162.11 E562.92952
G1 X137.24 Y160.65 E562.95640
G1 X136.52 Y159.12 E562.98300
G1 X135.95 Y157.53 E563.00954
G1 X135.53 Y155.88 E563.03630
G1 X135.28 Y154.20 E563.06296
G1 X135.20 Y152.50 E563.08967
G1 X135.28 Y150.80 E563.11638
G1 X135.53 Y149.12 E563.14304
G1 X135.95 Y147.47 E563.16986
G1 X136.52 Y145.88 E563.19634
G1 X137.24 Y144.35 E563.22294
G1 X138.12 Y142.89 E563.24982
G1 X139.13 Y141.52 E563.27654
G1 X140.27 Y140.27 E563.30315
G1 X141.52 Y139.13 E563.32976
G1 X142.73 Y138.24 E563.35335
G1 X142.88 Y138.12 E563.35637
G1 X144.35 Y137.24 E563.38329
G1 X145.88 Y136.52 E563.40996
G1 X147.47 Y135.95 E563.43651
G1 X149.12 Y135.53 E563.46326
G1 X150.80 Y135.28 E563.48993
G1 X152.50 Y135.20 E563.51657
G1 X154.20 Y135.28 E563.54334
G1 X155.74 Y135.51 E563.56782
G1 X155.88 Y135.53 E563.57004
G1 X157.52 Y135.95 E563.59673
G1 X159.12 Y136.52 E563.62331
G1 X160.65 Y137.24 E563.64998
G1 X162.11 Y138.12 E563.67679
G1 X163.48 Y139.13 E563.70351
G0 F12000 X163.28 Y139.36
G0 X162.32 Y140.51
G0 X162.14 Y140.75
G1 F6060 X160.94 Y139.86 E563.72696
G1 X159.66 Y139.09 E563.75041
G1 X158.32 Y138.46 E563.77384
G1 X156.91 Y137.95 E563.79729
G1 X155.47 Y137.59 E563.82074
G1 X153.99 Y137.37 E563.84418
G1 X152.50 Y137.30 E563.86763
G1 X151.01 Y137.37 E563.89108
G1 X149.53 Y137.59 E563.91452
G1 X148.09 Y137.95 E563.93796
G1 X146.68 Y138.46 E563.96142
G1 X145.34 Y139.09 E563.98485
G1 X144.06 Y139.86 E564.00829
G1 X142.86 Y140.75 E564.03174
G1 X141.75 Y141.75 E564.05520
G1 X140.75 Y142.86 E564.07866
G1 X139.86 Y144.06 E564.10211
G1 X139.09 Y145.34 E564.12556
G1 X138.46 Y146.68 E564.14899
G1 X137.95 Y148.09 E564.17245
G1 X137.59 Y149.53 E564.19589
G1 X137.37 Y151.01 E564.21933
G1 X137.30 Y152.50 E564.24278
G1 X137.37 Y153.99 E564.26623
G1 X137.59 Y155.47 E564.28967
G1 X137.95 Y156.91 E564.31311
G1 X138.46 Y158.32 E564.33657
G1 X139.09 Y159.66 E564.36000
G1 X139.86 Y160.94 E564.38344
G1 X140.75 Y162.14 E564.40689
G1 X141.75 Y163.25 E564.43035
G1 X142.86 Y164.25 E564.45381
G1 X144.06 Y165.14 E564.47726
G1 X145.34 Y165.91 E564.50071
G1 X146.68 Y166.54 E564.52414
G1 X148.09 Y167.05 E564.54760
G1 X149.53 Y167.41 E564.57104
G1 X151.01 Y167.63 E564.59448
G1 X152.50 Y167.70 E564.61793
G1 X153.99 Y167.63 E564.64138
G1 X155.47 Y167.41 E564.66482
G1 X156.91 Y167.05 E564.68826
G1 X158.32 Y166.54 E564.71172
G1 X159.66 Y165.91 E564.73515
G1 X160.94 Y165.14 E564.75860
G1 X162.14 Y164.25 E564.78205
G1 X163.25 Y163.25 E564.80550
G1 X164.25 Y162.14 E564.82896
G1 X165.14 Y160.94 E564.85241
G1 X165.91 Y159.66 E564.87586
G1 X166.54 Y158.32 E564.89929
G1 X167.05 Y156.91 E564.92275
G1 X167.41 Y155.47 E564.94619
G1 X167.63 Y153.99 E564.96963
G1 X167.70 Y152.50 E564.99308
G1 X167.63 Y151.01 E565.01653
G1 X167.41 Y149.53 E565.03997
G1 X167.05 Y148.09 E565.06341
G1 X166.54 Y146.68 E565.08687
G1 X165.91 Y145.34 E565.11030
G1 X165.14 Y144.06 E565.13375
G1 X164.25 Y142.86 E565.15720
G1 X163.25 Y141.75 E565.18066
G1 X162.14 Y140.75 E565.20411
G0 F12000 X162.26 Y140.67
;TYPE:FILL
G1 F6060 X163.54 Y139.38 E565.23272
G0 F12000 X163.84 Y139.65
G1 F6060 X162.55 Y140.94 E565.26133
G0 F12000 X162.85 Y141.20
G1 F6060 X164.14 Y139.92 E565.28994
G0 F12000 X164.44 Y140.19
G1 F6060 X163.15 Y141.47 E565.31854
G0 F12000 X163.44 Y141.75
G1 F6060 X164.72 Y140.47 E565.34704
G0 F12000 X164.99 Y140.76
G1 F6060 X163.71 Y142.05 E565.37556
G0 F12000 X163.97 Y142.34
G1 F6060 X165.26 Y141.06 E565.40410
G0 F12000 X165.53 Y141.36
G1 F6060 X164.24 Y142.64 E565.43264
G0 F12000 X164.50 Y142.95
G1 F6060 X165.79 Y141.66 E565.46149
G0 F12000 X166.03 Y141.98
G1 F6060 X164.74 Y143.28 E565.49034
G0 F12000 X164.98 Y143.60
G1 F6060 X166.28 Y142.31 E565.51919
G0 F12000 X166.51 Y142.63
G1 F6060 X165.22 Y143.93 E565.54801
G0 F12000 X165.44 Y144.28
G1 F6060 X166.76 Y142.96 E565.57739
G0 F12000 X166.97 Y143.31
G1 F6060 X165.65 Y144.63 E565.60680
G0 F12000 X165.86 Y144.99
G1 F6060 X167.18 Y143.66 E565.63621
G0 F12000 X167.39 Y144.02
G1 F6060 X166.06 Y145.34 E565.66575
G0 F12000 X166.25 Y145.73
G1 F6060 X167.60 Y144.37 E565.69598
G0 F12000 X167.79 Y144.75
G1 F6060 X166.43 Y146.11 E565.72630
G0 F12000 X166.61 Y146.50
G1 F6060 X167.97 Y145.13 E565.75661
G0 F12000 X168.15 Y145.52
G1 F6060 X166.77 Y146.90 E565.78739
G0 F12000 X166.92 Y147.32
G1 F6060 X168.34 Y145.90 E565.81886
G0 F12000 X168.49 Y146.31
G1 F6060 X167.07 Y147.73 E565.85041
G0 F12000 X167.21 Y148.16
G1 F6060 X168.64 Y146.73 E565.88216
G0 F12000 X168.79 Y147.15
G1 F6060 X167.32 Y148.61 E565.91474
G0 F12000 X167.43 Y149.07
G1 F6060 X168.93 Y147.57 E565.94802
G0 F12000 X169.04 Y148.02
G1 F6060 X167.55 Y149.52 E565.98132
G0 F12000 X167.62 Y150.01
G1 F6060 X169.16 Y148.47 E566.01553
G0 F12000 X169.27 Y148.93
G1 F6060 X167.69 Y150.51 E566.05063
G0 F12000 X167.76 Y151.00
G1 F6060 X169.36 Y149.40 E566.08618
G0 F12000 X169.44 Y149.89
G1 F6060 X167.79 Y151.54 E566.12275
G0 F12000 X167.82 Y152.08
G1 F6060 X169.51 Y150.38 E566.16033
G0 F12000 X169.58 Y150.88
G1 F6060 X167.83 Y152.63 E566.19909
G0 F12000 X167.80 Y153.22
G1 F6060 X169.60 Y151.42 E566.23909
G0 F12000 X169.63 Y151.96
G1 F6060 X167.77 Y153.82 E566.28035
G0 F12000 X167.70 Y154.46
G1 F6060 X169.66 Y152.50 E566.32394
G0 F12000 X169.63 Y153.09
G1 F6060 X167.60 Y155.12 E566.36904
G0 F12000 X167.46 Y155.83
G1 F6060 X169.60 Y153.69 E566.41655
G0 F12000 X169.56 Y154.30
G1 F6060 X167.27 Y156.58 E566.46733
G0 F12000 X167.02 Y157.40
G1 F6060 X169.46 Y154.96 E566.52151
G0 F12000 X169.36 Y155.63
G1 F6060 X166.70 Y158.28 E566.58053
G0 F12000 X166.21 Y159.34
G1 F6060 X169.20 Y156.35 E566.64693
G0 F12000 X169.01 Y157.10
G1 F6060 X165.49 Y160.62 E566.72515
G0 F12000 X165.63 Y160.71
G0 X167.25 Y160.91
G0 X167.39 Y160.99
G1 F6060 X160.99 Y167.39 E566.86743
G0 F12000 X159.82 Y168.00
G1 F6060 X168.00 Y159.82 E567.04930
G0 F12000 X168.45 Y158.80
G1 F6060 X158.80 Y168.45 E567.26379
G0 F12000 X157.92 Y168.76
G1 F6060 X163.23 Y163.45 E567.38180
G0 F12000 X163.46 Y163.22
G1 F6060 X168.76 Y157.92 E567.49971
G0 F12000 X168.61 Y157.87
G0 X166.22 Y162.51
G0 X166.34 Y162.60
G1 F6060 X162.60 Y166.34 E567.58289
G0 F12000 X162.51 Y166.22
G0 X160.71 Y165.63
G0 X160.62 Y165.49
G1 F6060 X157.10 Y169.01 E567.66114
G0 F12000 X156.35 Y169.20
G1 F6060 X159.34 Y166.21 E567.72759
G0 F12000 X158.28 Y166.70
G1 F6060 X155.62 Y169.36 E567.78666
G0 F12000 X154.96 Y169.46
G1 F6060 X157.40 Y167.02 E567.84089
G0 F12000 X156.58 Y167.27
G1 F6060 X154.30 Y169.56 E567.89170
G0 F12000 X153.69 Y169.60
G1 F6060 X155.83 Y167.46 E567.93926
G0 F12000 X155.12 Y167.60
G1 F6060 X153.09 Y169.63 E567.98442
G0 F12000 X152.50 Y169.66
G1 F6060 X154.46 Y167.70 E568.02804
G0 F12000 X153.82 Y167.77
G1 F6060 X151.96 Y169.63 E568.06934
G0 F12000 X151.42 Y169.60
G1 F6060 X153.22 Y167.80 E568.10938
G0 F12000 X152.63 Y167.83
G1 F6060 X150.88 Y169.58 E568.14815
G0 F12000 X150.38 Y169.51
G1 F6060 X152.08 Y167.82 E568.18578
G0 F12000 X151.54 Y167.79
G1 F6060 X149.89 Y169.44 E568.22240
G0 F12000 X149.40 Y169.36
G1 F6060 X151.00 Y167.76 E568.25799
G0 F12000 X150.51 Y167.69
G1 F6060 X148.93 Y169.27 E568.29313
G0 F12000 X148.47 Y169.16
G1 F6060 X150.01 Y167.62 E568.32739
G0 F12000 X149.52 Y167.54
G1 F6060 X148.02 Y169.04 E568.36075
G0 F12000 X147.57 Y168.93
G1 F6060 X149.07 Y167.43 E568.39407
G0 F12000 X148.61 Y167.32
G1 F6060 X147.15 Y168.79 E568.42667
G0 F12000 X146.73 Y168.64
G1 F6060 X148.16 Y167.21 E568.45845
G0 F12000 X147.74 Y167.07
G1 F6060 X146.31 Y168.49 E568.49004
G0 F12000 X145.90 Y168.34
G1 F6060 X147.32 Y166.92 E568.52154
G0 F12000 X146.90 Y166.77
G1 F6060 X145.52 Y168.15 E568.55232
G0 F12000 X145.13 Y167.97
G1 F6060 X146.50 Y166.61 E568.58265
G0 F12000 X146.11 Y166.43
G1 F6060 X144.75 Y167.79 E568.61297
G0 F12000 X144.37 Y167.61
G1 F6060 X145.73 Y166.25 E568.64321
G0 F12000 X145.34 Y166.06
G1 F6060 X144.01 Y167.39 E568.67278
G0 F12000 X143.66 Y167.18
G1 F6060 X144.99 Y165.86 E568.70219
G0 F12000 X144.63 Y165.65
G1 F6060 X143.31 Y166.97 E568.73163
G0 F12000 X142.96 Y166.76
G1 F6060 X144.28 Y165.43 E568.76104
G0 F12000 X143.93 Y165.22
G1 F6060 X142.63 Y166.52 E568.78990
G0 F12000 X142.31 Y166.28
G1 F6060 X143.60 Y164.98 E568.81876
G0 F12000 X143.28 Y164.74
G1 F6060 X141.98 Y166.03 E568.84762
G0 F12000 X141.66 Y165.79
G1 F6060 X142.96 Y164.49 E568.87649
G0 F12000 X142.64 Y164.24
G1 F6060 X141.35 Y165.53 E568.90508
G0 F12000 X141.06 Y165.26
G1 F6060 X142.34 Y163.97 E568.93368
G0 F12000 X142.05 Y163.71
G1 F6060 X140.76 Y164.99 E568.96227
G0 F12000 X140.46 Y164.72
G1 F6060 X141.75 Y163.44 E568.99086
G0 F12000 X141.47 Y163.15
G1 F6060 X140.19 Y164.43 E569.01938
G0 F12000 X139.92 Y164.13
G1 F6060 X141.20 Y162.85 E569.04790
G0 F12000 X140.93 Y162.56
G1 F6060 X139.65 Y163.84 E569.07644
G0 F12000 X139.38 Y163.54
G1 F6060 X140.67 Y162.26 E569.10501
G0 F12000 X140.42 Y161.94
G1 F6060 X139.12 Y163.23 E569.13384
