;-- START GCODE --
;Sliced for Type A Machines Series 1
;Sliced at: Sat 27-06-2015 11:03:27
;Basic settings: Layer height: 0.1 Walls: 0.8 Fill: 9
;Print Speed: 130 Support: 0
;Retraction Speed: 40 Retraction Distance: 0.5
;Print time: #P_TIME#
;Filament used: #F_AMNT#m #F_WGHT#g
;Filament cost: #F_COST#
M106 S255	 ;start with the fan on
G21        ;metric values
G90        ;absolute positioning
M106 S255    ;start with the fan on
G28     ;move to endstops
G29		;allows for auto-levelling
G1 X150 Y5  Z15.0 F12000 ;center and move the platform down 15mm
M109 S220 ;Heat To temp
G92 E0                  ;zero the extruded length
G1 F200 E30              ;extrude 30mm of feed stock
G92 E0                  ;zero the extruded length again
G1 X175 Y25  Z0 F12000 ;remove bugger
G1 X220 F12000 ;remove bugger
G1 X150 Y150  Z15 F12000 ;recenter and begin
G1 F12000

;Layer count: 129
;LAYER:0
M106 S255
G0 F12000 X147.42 Y147.42 Z0.30
;TYPE:SKIRT
G1 F2700 X147.08 Y147.79 E0.02387
G1 X147.08 Y157.21 E0.46800
G1 X147.42 Y157.58 E0.49187
G1 X147.94 Y158.06 E0.52528
G1 X148.50 Y158.48 E0.55828
G1 X149.12 Y158.84 E0.59191
G1 X149.75 Y159.14 E0.62499
G1 X150.41 Y159.38 E0.65821
G1 X151.09 Y159.55 E0.69116
G1 X151.81 Y159.66 E0.72534
G1 X152.50 Y159.69 E0.75806
G1 X153.19 Y159.66 E0.79078
G1 X153.91 Y159.55 E0.82496
G1 X154.59 Y159.38 E0.85791
G1 X155.25 Y159.14 E0.89113
G1 X155.88 Y158.84 E0.92420
G1 X156.50 Y158.48 E0.95783
G1 X157.06 Y158.06 E0.99083
G1 X157.58 Y157.58 E1.02425
G1 X158.06 Y157.06 E1.05767
G1 X158.48 Y156.50 E1.09067
G1 X158.84 Y155.88 E1.12430
G1 X159.14 Y155.25 E1.15737
G1 X159.38 Y154.59 E1.19059
G1 X159.55 Y153.91 E1.22354
G1 X159.66 Y153.19 E1.25772
G1 X159.69 Y152.50 E1.29063
G1 X159.66 Y151.81 E1.32316
G1 X159.55 Y151.09 E1.35734
G1 X159.38 Y150.41 E1.39029
G1 X159.14 Y149.75 E1.42351
G1 X158.84 Y149.12 E1.45659
G1 X158.48 Y148.50 E1.49021
G1 X158.06 Y147.94 E1.52322
G1 X157.58 Y147.42 E1.55663
G1 X157.06 Y146.94 E1.59005
G1 X156.50 Y146.52 E1.62305
G1 X155.88 Y146.16 E1.65668
G1 X155.25 Y145.86 E1.68976
G1 X154.59 Y145.62 E1.72297
G1 X153.91 Y145.45 E1.75593
G1 X153.19 Y145.34 E1.79010
G1 X152.50 Y145.31 E1.82283
G1 X151.81 Y145.34 E1.85555
G1 X151.09 Y145.45 E1.88973
G1 X150.41 Y145.62 E1.92268
G1 X149.75 Y145.86 E1.95590
G1 X149.12 Y146.16 E1.98897
G1 X148.50 Y146.52 E2.02260
G1 X147.94 Y146.94 E2.05560
G1 X147.42 Y147.42 E2.08902
G0 F12000 X147.13 Y147.13
G1 F2700 X146.68 Y147.64 E2.12110
G1 X146.68 Y157.36 E2.57975
G1 X147.13 Y157.87 E2.61183
G1 X147.69 Y158.37 E2.64722
G1 X148.28 Y158.81 E2.68208
G1 X148.92 Y159.19 E2.71694
G1 X149.60 Y159.52 E2.75284
G1 X150.29 Y159.76 E2.78721
G1 X151.02 Y159.94 E2.82249
G1 X151.76 Y160.05 E2.85782
G1 X152.50 Y160.09 E2.89285
G1 X153.24 Y160.05 E2.92788
G1 X153.98 Y159.94 E2.96321
G1 X154.71 Y159.76 E2.99849
G1 X155.40 Y159.52 E3.03286
G1 X156.08 Y159.19 E3.06876
G1 X156.72 Y158.81 E3.10362
G1 X157.31 Y158.37 E3.13848
G1 X157.87 Y157.87 E3.17387
G1 X158.37 Y157.31 E3.20926
G1 X158.81 Y156.72 E3.24411
G1 X159.19 Y156.08 E3.27897
G1 X159.52 Y155.40 E3.31487
G1 X159.76 Y154.71 E3.34924
G1 X159.94 Y153.98 E3.38452
G1 X160.05 Y153.24 E3.41985
G1 X160.09 Y152.50 E3.45507
G1 X160.05 Y151.76 E3.48992
G1 X159.94 Y151.02 E3.52524
G1 X159.76 Y150.29 E3.56053
G1 X159.52 Y149.60 E3.59489
G1 X159.19 Y148.92 E3.63080
G1 X158.81 Y148.28 E3.66565
G1 X158.37 Y147.69 E3.70051
G1 X157.87 Y147.13 E3.73590
G1 X157.31 Y146.63 E3.77129
G1 X156.72 Y146.19 E3.80615
G1 X156.08 Y145.81 E3.84100
G1 X155.40 Y145.48 E3.87691
G1 X154.71 Y145.24 E3.91127
G1 X153.98 Y145.06 E3.94656
G1 X153.24 Y144.95 E3.98188
G1 X152.50 Y144.91 E4.01692
G1 X151.76 Y144.95 E4.05195
G1 X151.02 Y145.06 E4.08728
G1 X150.29 Y145.24 E4.12256
G1 X149.60 Y145.48 E4.15693
G1 X148.92 Y145.81 E4.19283
G1 X148.28 Y146.19 E4.22769
G1 X147.69 Y146.63 E4.26255
G1 X147.13 Y147.13 E4.29793
G0 F12000 X146.85 Y146.85
G1 F2700 X146.33 Y147.43 E4.33463
G1 X146.28 Y147.50 E4.33867
G1 X146.28 Y157.50 E4.81071
G1 X146.33 Y157.57 E4.81476
G1 X146.85 Y158.15 E4.85145
G1 X147.43 Y158.67 E4.88814
G1 X148.06 Y159.15 E4.92563
G1 X148.73 Y159.55 E4.96228
G1 X149.44 Y159.88 E4.99928
G1 X150.18 Y160.15 E5.03649
G1 X150.94 Y160.34 E5.07343
G1 X151.72 Y160.45 E5.11047
G1 X152.50 Y160.49 E5.14730
G1 X153.28 Y160.45 E5.18413
G1 X154.06 Y160.34 E5.22117
G1 X154.82 Y160.15 E5.25811
G1 X155.56 Y159.88 E5.29533
G1 X156.27 Y159.55 E5.33233
G1 X156.94 Y159.15 E5.36898
G1 X157.57 Y158.67 E5.40646
G1 X158.15 Y158.15 E5.44315
G1 X158.67 Y157.57 E5.47984
G1 X159.15 Y156.94 E5.51733
G1 X159.55 Y156.27 E5.55398
G1 X159.88 Y155.56 E5.59098
G1 X160.15 Y154.82 E5.62819
G1 X160.34 Y154.06 E5.66513
G1 X160.45 Y153.28 E5.70217
G1 X160.49 Y152.50 E5.73919
G1 X160.45 Y151.72 E5.77583
G1 X160.34 Y150.94 E5.81287
G1 X160.15 Y150.18 E5.84981
G1 X159.88 Y149.44 E5.88703
G1 X159.55 Y148.73 E5.92403
G1 X159.15 Y148.06 E5.96068
G1 X158.67 Y147.43 E5.99816
G1 X158.15 Y146.85 E6.03485
G1 X157.57 Y146.33 E6.07154
G1 X156.94 Y145.85 E6.10902
G1 X156.27 Y145.45 E6.14568
G1 X155.56 Y145.12 E6.18268
G1 X154.82 Y144.85 E6.21989
G1 X154.06 Y144.66 E6.25683
G1 X153.28 Y144.55 E6.29387
G1 X152.50 Y144.51 E6.33070
G1 X151.72 Y144.55 E6.36753
G1 X150.94 Y144.66 E6.40457
G1 X150.18 Y144.85 E6.44151
G1 X149.44 Y145.12 E6.47873
G1 X148.73 Y145.45 E6.51573
G1 X148.06 Y145.85 E6.55238
G1 X147.43 Y146.33 E6.58986
G1 X146.85 Y146.85 E6.62655
G0 F12000 X146.57 Y146.57
G1 F2700 X146.01 Y147.18 E6.66565
G1 X145.88 Y147.36 E6.67623
G1 X145.88 Y157.64 E7.16091
G1 X146.01 Y157.82 E7.17149
G1 X146.57 Y158.43 E7.21058
G1 X147.18 Y158.99 E7.24968
G1 X147.84 Y159.48 E7.28810
G1 X148.54 Y159.90 E7.32710
G1 X149.29 Y160.25 E7.36608
G1 X150.06 Y160.53 E7.40465
G1 X150.86 Y160.73 E7.44334
G1 X151.68 Y160.85 E7.48272
G1 X152.50 Y160.89 E7.52125
G1 X153.32 Y160.85 E7.55978
G1 X154.14 Y160.73 E7.59915
G1 X154.94 Y160.53 E7.63784
G1 X155.71 Y160.25 E7.67642
G1 X156.46 Y159.90 E7.71540
G1 X157.16 Y159.48 E7.75439
G1 X157.82 Y158.99 E7.79282
G1 X158.43 Y158.43 E7.83191
G1 X158.99 Y157.82 E7.87100
G1 X159.48 Y157.16 E7.90943
G1 X159.90 Y156.46 E7.94843
G1 X160.25 Y155.71 E7.98741
G1 X160.53 Y154.94 E8.02598
G1 X160.73 Y154.14 E8.06467
G1 X160.85 Y153.32 E8.10405
G1 X160.89 Y152.50 E8.14276
G1 X160.85 Y151.68 E8.18110
G1 X160.73 Y150.86 E8.22048
G1 X160.53 Y150.06 E8.25917
G1 X160.25 Y149.29 E8.29774
G1 X159.90 Y148.54 E8.33673
G1 X159.48 Y147.84 E8.37572
G1 X158.99 Y147.18 E8.41415
G1 X158.43 Y146.57 E8.45324
G1 X157.82 Y146.01 E8.49233
G1 X157.16 Y145.52 E8.53076
G1 X156.46 Y145.10 E8.56975
G1 X155.71 Y144.75 E8.60874
G1 X154.94 Y144.47 E8.64731
G1 X154.14 Y144.27 E8.68600
G1 X153.32 Y144.15 E8.72538
G1 X152.50 Y144.11 E8.76390
G1 X151.68 Y144.15 E8.80243
G1 X150.86 Y144.27 E8.84181
G1 X150.06 Y144.47 E8.88050
G1 X149.29 Y144.75 E8.91907
G1 X148.54 Y145.10 E8.95805
G1 X147.84 Y145.52 E8.99705
G1 X147.18 Y146.01 E9.03548
G1 X146.57 Y146.57 E9.07457
G0 F12000 X146.28 Y146.28
G1 F2700 X145.70 Y146.93 E9.11563
G1 X145.48 Y147.23 E9.13326
G1 X145.48 Y157.77 E9.63039
G1 X145.70 Y158.07 E9.64802
G1 X146.28 Y158.72 E9.68908
G1 X146.93 Y159.30 E9.73014
G1 X147.61 Y159.81 E9.77026
G1 X148.36 Y160.25 E9.81127
G1 X149.14 Y160.62 E9.85202
G1 X149.94 Y160.91 E9.89219
G1 X150.78 Y161.12 E9.93317
G1 X151.65 Y161.25 E9.97421
G1 X152.50 Y161.29 E10.01458
G1 X153.35 Y161.25 E10.05495
G1 X154.22 Y161.12 E10.09599
G1 X155.06 Y160.91 E10.13697
G1 X155.86 Y160.62 E10.17714
G1 X156.64 Y160.25 E10.21789
G1 X157.39 Y159.81 E10.25890
G1 X158.07 Y159.30 E10.29902
G1 X158.72 Y158.72 E10.34008
G1 X159.30 Y158.07 E10.38114
G1 X159.81 Y157.39 E10.42126
G1 X160.25 Y156.64 E10.46227
G1 X160.62 Y155.86 E10.50302
G1 X160.91 Y155.06 E10.54319
G1 X161.12 Y154.22 E10.58417
G1 X161.25 Y153.35 E10.62521
G1 X161.29 Y152.50 E10.66572
G1 X161.25 Y151.65 E10.70595
G1 X161.12 Y150.78 E10.74699
G1 X160.91 Y149.94 E10.78797
G1 X160.62 Y149.14 E10.82814
G1 X160.25 Y148.36 E10.86889
G1 X159.81 Y147.61 E10.90990
G1 X159.30 Y146.93 E10.95002
G1 X158.72 Y146.28 E10.99108
G1 X158.07 Y145.70 E11.03214
G1 X157.39 Y145.19 E11.07226
G1 X156.64 Y144.75 E11.11327
G1 X155.86 Y144.38 E11.15402
G1 X155.06 Y144.09 E11.19419
G1 X154.22 Y143.88 E11.23517
G1 X153.35 Y143.75 E11.27621
G1 X152.50 Y143.71 E11.31658
G1 X151.65 Y143.75 E11.35695
G1 X150.78 Y143.88 E11.39799
G1 X149.94 Y144.09 E11.43897
G1 X149.14 Y144.38 E11.47914
G1 X148.36 Y144.75 E11.51989
G1 X147.61 Y145.19 E11.56090
G1 X146.93 Y145.70 E11.60102
G1 X146.28 Y146.28 E11.64208
G0 F12000 X146.00 Y146.00
G1 F2700 X145.40 Y146.67 E11.68448
G1 X145.08 Y147.10 E11.70979
G1 X145.08 Y157.90 E12.21937
G1 X145.40 Y158.33 E12.24469
G1 X146.00 Y159.00 E12.28708
G1 X146.67 Y159.60 E12.32948
G1 X147.39 Y160.14 E12.37199
G1 X148.17 Y160.61 E12.41476
G1 X148.99 Y161.00 E12.45749
G1 X149.83 Y161.30 E12.49966
G1 X150.71 Y161.52 E12.54248
G1 X151.60 Y161.65 E12.58477
G1 X152.50 Y161.69 E12.62741
G1 X153.40 Y161.65 E12.67004
G1 X154.29 Y161.52 E12.71233
G1 X155.17 Y161.30 E12.75515
G1 X156.01 Y161.00 E12.79732
G1 X156.83 Y160.61 E12.84006
G1 X157.61 Y160.14 E12.88282
G1 X158.33 Y159.60 E12.92533
G1 X159.00 Y159.00 E12.96773
G1 X159.60 Y158.33 E13.01013
G1 X160.14 Y157.61 E13.05263
G1 X160.61 Y156.83 E13.09540
G1 X161.00 Y156.01 E13.13814
G1 X161.30 Y155.17 E13.18030
G1 X161.52 Y154.29 E13.22313
G1 X161.65 Y153.40 E13.26541
G1 X161.69 Y152.50 E13.30819
G1 X161.65 Y151.60 E13.35069
G1 X161.52 Y150.71 E13.39297
G1 X161.30 Y149.83 E13.43580
G1 X161.00 Y148.99 E13.47796
G1 X160.61 Y148.17 E13.52070
G1 X160.14 Y147.39 E13.56346
G1 X159.60 Y146.67 E13.60597
G1 X159.00 Y146.00 E13.64837
G1 X158.33 Y145.40 E13.69077
G1 X157.61 Y144.86 E13.73328
G1 X156.83 Y144.39 E13.77604
G1 X156.01 Y144.00 E13.81878
G1 X155.17 Y143.70 E13.86095
G1 X154.29 Y143.48 E13.90377
G1 X153.40 Y143.35 E13.94606
G1 X152.50 Y143.31 E13.98869
G1 X151.60 Y143.35 E14.03133
G1 X150.71 Y143.48 E14.07362
G1 X149.83 Y143.70 E14.11644
G1 X148.99 Y144.00 E14.15861
G1 X148.17 Y144.39 E14.20134
G1 X147.39 Y144.86 E14.24411
G1 X146.67 Y145.40 E14.28662
G1 X146.00 Y146.00 E14.32902
G0 F12000 X145.72 Y145.72
G1 F2700 X145.09 Y146.41 E14.37338
G1 X144.68 Y146.97 E14.40574
G1 X144.68 Y158.03 E14.92777
G1 X145.09 Y158.59 E14.96013
G1 X145.72 Y159.28 E15.00450
G1 X146.41 Y159.91 E15.04887
G1 X147.18 Y160.48 E15.09373
G1 X147.97 Y160.96 E15.13747
G1 X148.83 Y161.37 E15.18234
G1 X149.71 Y161.68 E15.22612
G1 X150.63 Y161.91 E15.27079
G1 X151.57 Y162.05 E15.31569
G1 X152.50 Y162.09 E15.35965
G1 X153.43 Y162.05 E15.40361
G1 X154.37 Y161.91 E15.44851
G1 X155.29 Y161.68 E15.49319
G1 X156.17 Y161.37 E15.53697
G1 X157.03 Y160.96 E15.58183
G1 X157.82 Y160.48 E15.62557
G1 X158.59 Y159.91 E15.67044
G1 X159.28 Y159.28 E15.71480
G1 X159.91 Y158.59 E15.75917
G1 X160.48 Y157.82 E15.80404
G1 X160.96 Y157.03 E15.84778
G1 X161.37 Y156.17 E15.89264
G1 X161.68 Y155.29 E15.93642
G1 X161.91 Y154.37 E15.98110
G1 X162.05 Y153.43 E16.02600
G1 X162.09 Y152.50 E16.07010
G1 X162.05 Y151.57 E16.11392
G1 X161.91 Y150.63 E16.15882
G1 X161.68 Y149.71 E16.20349
G1 X161.37 Y148.83 E16.24727
G1 X160.96 Y147.97 E16.29214
G1 X160.48 Y147.18 E16.33588
G1 X159.91 Y146.41 E16.38074
G1 X159.28 Y145.72 E16.42511
G1 X158.59 Y145.09 E16.46948
G1 X157.82 Y144.52 E16.51434
G1 X157.03 Y144.04 E16.55808
G1 X156.17 Y143.63 E16.60295
G1 X155.29 Y143.32 E16.64673
G1 X154.37 Y143.09 E16.69140
G1 X153.43 Y142.95 E16.73630
G1 X152.50 Y142.91 E16.78026
G1 X151.57 Y142.95 E16.82422
G1 X150.63 Y143.09 E16.86912
G1 X149.71 Y143.32 E16.91380
G1 X148.83 Y143.63 E16.95758
G1 X147.97 Y144.04 E17.00244
G1 X147.18 Y144.52 E17.04618
G1 X146.41 Y145.09 E17.09105
G1 X145.72 Y145.72 E17.13542
G0 F12000 X145.44 Y145.43
G1 F2700 X144.77 Y146.16 E17.18202
G1 X144.28 Y146.83 E17.22136
G1 X144.28 Y158.17 E17.75593
G1 X144.77 Y158.84 E17.79527
G1 X145.43 Y159.57 E17.84164
G1 X146.16 Y160.23 E17.88802
G1 X146.94 Y160.81 E17.93393
G1 X147.79 Y161.31 E17.98031
G1 X148.67 Y161.73 E18.02655
G1 X149.60 Y162.06 E18.07288
G1 X150.55 Y162.30 E18.11915
G1 X151.52 Y162.44 E18.16544
G1 X152.50 Y162.49 E18.21162
G1 X153.48 Y162.44 E18.25780
G1 X154.45 Y162.30 E18.30409
G1 X155.40 Y162.06 E18.35036
G1 X156.33 Y161.73 E18.39669
G1 X157.21 Y161.31 E18.44293
G1 X158.06 Y160.81 E18.48931
G1 X158.84 Y160.23 E18.53522
G1 X159.57 Y159.57 E18.58160
G1 X160.23 Y158.84 E18.62797
G1 X160.81 Y158.06 E18.67388
G1 X161.31 Y157.21 E18.72026
G1 X161.73 Y156.33 E18.76650
G1 X162.06 Y155.40 E18.81283
G1 X162.30 Y154.45 E18.85911
G1 X162.44 Y153.48 E18.90540
G1 X162.49 Y152.50 E18.95171
G1 X162.44 Y151.52 E18.99775
G1 X162.30 Y150.55 E19.04404
G1 X162.06 Y149.60 E19.09032
G1 X161.73 Y148.67 E19.13664
G1 X161.31 Y147.79 E19.18288
G1 X160.81 Y146.94 E19.22926
G1 X160.23 Y146.16 E19.27518
G1 X159.56 Y145.43 E19.32178
G1 X158.84 Y144.77 E19.36792
G1 X158.06 Y144.19 E19.41383
G1 X157.21 Y143.69 E19.46021
G1 X156.33 Y143.27 E19.50645
G1 X155.40 Y142.94 E19.55278
G1 X154.45 Y142.70 E19.59906
G1 X153.48 Y142.56 E19.64535
G1 X152.50 Y142.51 E19.69152
G1 X151.52 Y142.56 E19.73770
G1 X150.55 Y142.70 E19.78399
G1 X149.60 Y142.94 E19.83027
G1 X148.67 Y143.27 E19.87660
G1 X147.79 Y143.69 E19.92283
G1 X146.94 Y144.19 E19.96921
G1 X146.16 Y144.77 E20.01513
G1 X145.44 Y145.43 E20.06127
G0 F12000 X145.15 Y145.15
G1 F2700 X144.47 Y145.91 E20.10931
G1 X143.88 Y146.70 E20.15599
G1 X143.88 Y152.27 E20.41885
G1 X142.88 Y152.27 E20.46600
G1 X142.88 Y152.47 E20.47543
G1 X143.88 Y152.47 E20.52259
G1 X143.88 Y158.30 E20.79733
G1 X144.47 Y159.09 E20.84401
G1 X145.15 Y159.85 E20.89206
G1 X145.91 Y160.53 E20.94010
G1 X146.72 Y161.14 E20.98807
G1 X147.61 Y161.67 E21.03665
G1 X148.52 Y162.10 E21.08440
G1 X149.48 Y162.44 E21.13233
G1 X150.48 Y162.69 E21.18094
G1 X151.48 Y162.84 E21.22889
G1 X152.50 Y162.90 E21.27687
G1 X153.52 Y162.84 E21.32484
G1 X154.52 Y162.69 E21.37280
G1 X155.52 Y162.44 E21.42140
G1 X156.48 Y162.10 E21.46933
G1 X157.39 Y161.67 E21.51709
G1 X158.28 Y161.14 E21.56567
G1 X159.09 Y160.53 E21.61363
G1 X159.85 Y159.85 E21.66168
G1 X160.53 Y159.09 E21.70972
G1 X161.14 Y158.28 E21.75769
G1 X161.67 Y157.39 E21.80627
G1 X162.10 Y156.48 E21.85402
G1 X162.44 Y155.52 E21.90195
G1 X162.69 Y154.52 E21.95056
G1 X162.84 Y153.52 E21.99851
G1 X162.90 Y152.50 E22.04658
G1 X162.84 Y151.48 E22.09446
G1 X162.69 Y150.48 E22.14242
G1 X162.44 Y149.48 E22.19102
G1 X162.10 Y148.52 E22.23895
G1 X161.67 Y147.61 E22.28671
G1 X161.14 Y146.72 E22.33529
G1 X160.53 Y145.91 E22.38325
G1 X159.85 Y145.15 E22.43130
G1 X159.09 Y144.47 E22.47934
G1 X158.28 Y143.86 E22.52731
G1 X157.39 Y143.33 E22.57589
G1 X156.48 Y142.90 E22.62364
G1 X155.52 Y142.56 E22.67157
G1 X154.52 Y142.31 E22.72018
G1 X153.52 Y142.16 E22.76813
G1 X152.50 Y142.10 E22.81611
G1 X151.48 Y142.16 E22.86408
G1 X150.48 Y142.31 E22.91204
G1 X149.48 Y142.56 E22.96064
G1 X148.52 Y142.90 E23.00857
G1 X147.61 Y143.33 E23.05633
G1 X146.72 Y143.86 E23.10491
G1 X145.91 Y144.47 E23.15287
G1 X145.15 Y145.15 E23.20092
G0 F12000 X144.87 Y144.87
G1 F2700 X144.16 Y145.65 E23.25096
G1 X143.53 Y146.50 E23.30082
G1 X143.48 Y146.59 E23.30532
G1 X143.48 Y151.87 E23.55473
G1 X142.48 Y151.87 E23.60189
G1 X142.48 Y152.87 E23.64905
G1 X143.48 Y152.87 E23.69620
G1 X143.48 Y158.41 E23.95750
G1 X143.53 Y158.50 E23.96201
G1 X144.16 Y159.35 E24.01186
G1 X144.87 Y160.13 E24.06190
G1 X145.65 Y160.84 E24.11195
G1 X146.50 Y161.47 E24.16180
G1 X147.41 Y162.02 E24.21172
G1 X148.38 Y162.48 E24.26211
G1 X149.36 Y162.83 E24.31120
G1 X150.39 Y163.09 E24.36161
G1 X151.45 Y163.24 E24.41176
G1 X152.50 Y163.29 E24.46152
G1 X153.55 Y163.24 E24.51129
G1 X154.61 Y163.09 E24.56144
G1 X155.64 Y162.83 E24.61185
G1 X156.62 Y162.48 E24.66093
G1 X157.59 Y162.02 E24.71133
G1 X158.50 Y161.47 E24.76124
G1 X159.35 Y160.84 E24.81110
G1 X160.13 Y160.13 E24.86114
G1 X160.84 Y159.35 E24.91119
G1 X161.47 Y158.50 E24.96104
G1 X162.02 Y157.59 E25.01096
G1 X162.48 Y156.62 E25.06135
G1 X162.83 Y155.64 E25.11044
G1 X163.09 Y154.61 E25.16084
G1 X163.24 Y153.55 E25.21099
G1 X163.29 Y152.50 E25.26085
G1 X163.24 Y151.45 E25.31053
G1 X163.09 Y150.39 E25.36068
G1 X162.83 Y149.36 E25.41108
G1 X162.48 Y148.38 E25.46017
G1 X162.02 Y147.41 E25.51057
G1 X161.47 Y146.50 E25.56048
G1 X160.84 Y145.65 E25.61034
G1 X160.13 Y144.87 E25.66038
G1 X159.35 Y144.16 E25.71042
G1 X158.50 Y143.53 E25.76028
G1 X157.59 Y142.98 E25.81019
G1 X156.62 Y142.52 E25.86059
G1 X155.64 Y142.17 E25.90968
G1 X154.61 Y141.91 E25.96008
G1 X153.55 Y141.76 E26.01023
G1 X152.50 Y141.71 E26.06000
G1 X151.45 Y141.76 E26.10976
G1 X150.39 Y141.91 E26.15992
G1 X149.36 Y142.17 E26.21032
G1 X148.38 Y142.52 E26.25941
G1 X147.41 Y142.98 E26.30980
G1 X146.50 Y143.53 E26.35972
G1 X145.65 Y144.16 E26.40957
G1 X144.87 Y144.87 E26.45962
G0 F12000 X144.58 Y144.58
G1 F2700 X143.85 Y145.40 E26.51126
G1 X143.19 Y146.28 E26.56297
G1 X143.08 Y146.47 E26.57391
G1 X143.08 Y151.47 E26.80965
G1 X142.08 Y151.47 E26.85680
G1 X142.08 Y153.27 E26.94169
G1 X143.08 Y153.27 E26.98884
G1 X143.08 Y158.53 E27.23646
G1 X143.19 Y158.72 E27.24740
G1 X143.85 Y159.60 E27.29911
G1 X144.58 Y160.42 E27.35076
G1 X145.40 Y161.15 E27.40240
G1 X146.28 Y161.81 E27.45412
G1 X147.23 Y162.38 E27.50651
G1 X148.22 Y162.84 E27.55800
G1 X149.25 Y163.21 E27.60953
G1 X150.32 Y163.48 E27.66174
G1 X151.41 Y163.64 E27.71371
G1 X152.50 Y163.70 E27.76522
G1 X153.59 Y163.64 E27.81673
G1 X154.68 Y163.48 E27.86870
G1 X155.75 Y163.21 E27.92091
G1 X156.78 Y162.84 E27.97244
G1 X157.77 Y162.38 E28.02393
G1 X158.72 Y161.81 E28.07632
G1 X159.60 Y161.15 E28.12804
G1 X160.42 Y160.42 E28.17968
G1 X161.15 Y159.60 E28.23133
G1 X161.81 Y158.72 E28.28304
G1 X162.38 Y157.77 E28.33543
G1 X162.84 Y156.78 E28.38692
G1 X163.21 Y155.75 E28.43846
G1 X163.48 Y154.68 E28.49067
G1 X163.64 Y153.59 E28.54263
G1 X163.70 Y152.50 E28.59424
G1 X163.64 Y151.41 E28.64565
G1 X163.48 Y150.32 E28.69762
G1 X163.21 Y149.25 E28.74983
G1 X162.84 Y148.22 E28.80137
G1 X162.38 Y147.23 E28.85286
G1 X161.81 Y146.28 E28.90525
G1 X161.15 Y145.40 E28.95696
G1 X160.42 Y144.58 E29.00861
G1 X159.60 Y143.85 E29.06025
G1 X158.72 Y143.19 E29.11196
G1 X157.77 Y142.62 E29.16435
G1 X156.78 Y142.16 E29.21584
G1 X155.75 Y141.79 E29.26738
G1 X154.68 Y141.52 E29.31959
G1 X153.59 Y141.36 E29.37156
G1 X152.50 Y141.30 E29.42307
G1 X151.41 Y141.36 E29.47458
G1 X150.32 Y141.52 E29.52654
G1 X149.25 Y141.79 E29.57876
G1 X148.22 Y142.16 E29.63029
G1 X147.23 Y142.62 E29.68178
G1 X146.28 Y143.19 E29.73417
G1 X145.40 Y143.85 E29.78588
G1 X144.58 Y144.58 E29.83753
G0 F12000 X144.30 Y144.30
G1 F2700 X143.53 Y145.15 E29.89155
G1 X142.86 Y146.06 E29.94487
G1 X142.68 Y146.36 E29.96158
G1 X142.68 Y151.07 E30.18379
G1 X141.68 Y151.07 E30.23094
G1 X141.68 Y153.67 E30.35355
G1 X142.68 Y153.67 E30.40071
G1 X142.68 Y158.64 E30.63480
G1 X142.86 Y158.94 E30.65150
G1 X143.53 Y159.85 E30.70483
G1 X144.30 Y160.70 E30.75885
G1 X145.15 Y161.47 E30.81287
G1 X146.06 Y162.14 E30.86619
G1 X147.03 Y162.72 E30.91966
G1 X148.06 Y163.21 E30.97362
G1 X149.14 Y163.60 E31.02730
G1 X150.24 Y163.87 E31.08068
G1 X151.36 Y164.04 E31.13436
G1 X152.50 Y164.10 E31.18813
G1 X153.64 Y164.04 E31.24191
G1 X154.76 Y163.87 E31.29559
G1 X155.86 Y163.60 E31.34897
G1 X156.94 Y163.21 E31.40265
G1 X157.97 Y162.72 E31.45661
G1 X158.94 Y162.14 E31.51008
G1 X159.85 Y161.47 E31.56340
G1 X160.70 Y160.70 E31.61742
G1 X161.47 Y159.85 E31.67144
G1 X162.14 Y158.94 E31.72476
G1 X162.72 Y157.97 E31.77823
G1 X163.21 Y156.94 E31.83219
G1 X163.60 Y155.86 E31.88587
G1 X163.87 Y154.76 E31.93925
G1 X164.04 Y153.64 E31.99293
G1 X164.10 Y152.50 E32.04680
G1 X164.04 Y151.36 E32.10049
G1 X163.87 Y150.24 E32.15417
G1 X163.60 Y149.14 E32.20754
G1 X163.21 Y148.06 E32.26122
G1 X162.72 Y147.03 E32.31518
G1 X162.14 Y146.06 E32.36865
G1 X161.47 Y145.15 E32.42197
G1 X160.70 Y144.30 E32.47599
G1 X159.85 Y143.53 E32.53001
G1 X158.94 Y142.86 E32.58334
G1 X157.97 Y142.28 E32.63680
G1 X156.94 Y141.79 E32.69076
G1 X155.86 Y141.40 E32.74444
G1 X154.76 Y141.13 E32.79782
G1 X153.64 Y140.96 E32.85150
G1 X152.50 Y140.90 E32.90528
G1 X151.36 Y140.96 E32.95906
G1 X150.24 Y141.13 E33.01274
G1 X149.14 Y141.40 E33.06612
G1 X148.06 Y141.79 E33.11980
G1 X147.03 Y142.28 E33.17376
G1 X146.06 Y142.86 E33.22722
G1 X145.15 Y143.53 E33.28055
G1 X144.30 Y144.30 E33.33457
G0 F12000 X144.02 Y144.02
G1 F2700 X143.22 Y144.89 E33.39025
G1 X142.53 Y145.84 E33.44557
G1 X142.28 Y146.25 E33.46854
G1 X142.28 Y150.67 E33.67702
G1 X141.28 Y150.67 E33.72417
G1 X141.28 Y154.07 E33.88451
G1 X142.28 Y154.07 E33.93167
G1 X142.28 Y158.75 E34.15203
G1 X142.53 Y159.16 E34.17500
G1 X143.22 Y160.11 E34.23031
G1 X144.02 Y160.98 E34.28600
G1 X144.89 Y161.78 E34.34169
G1 X145.84 Y162.47 E34.39700
G1 X146.85 Y163.08 E34.45273
G1 X147.90 Y163.58 E34.50773
G1 X149.03 Y163.98 E34.56393
G1 X150.15 Y164.26 E34.61870
G1 X151.33 Y164.44 E34.67501
G1 X152.50 Y164.50 E34.73011
G1 X153.67 Y164.44 E34.78521
G1 X154.85 Y164.26 E34.84152
G1 X155.97 Y163.98 E34.89629
G1 X157.10 Y163.58 E34.95249
G1 X158.15 Y163.08 E35.00749
G1 X159.16 Y162.47 E35.06322
G1 X160.11 Y161.78 E35.11853
G1 X160.98 Y160.98 E35.17422
G1 X161.78 Y160.11 E35.22991
G1 X162.47 Y159.16 E35.28522
G1 X163.08 Y158.15 E35.34095
G1 X163.58 Y157.10 E35.39594
G1 X163.98 Y155.97 E35.45215
G1 X164.26 Y154.85 E35.50692
G1 X164.44 Y153.67 E35.56323
G1 X164.50 Y152.50 E35.61842
G1 X164.44 Y151.33 E35.67343
G1 X164.26 Y150.15 E35.72974
G1 X163.98 Y149.03 E35.78451
G1 X163.58 Y147.90 E35.84071
G1 X163.08 Y146.85 E35.89571
G1 X162.47 Y145.84 E35.95144
G1 X161.78 Y144.89 E36.00675
G1 X160.98 Y144.02 E36.06244
G1 X160.11 Y143.22 E36.11813
G1 X159.16 Y142.53 E36.17344
G1 X158.15 Y141.92 E36.22917
G1 X157.10 Y141.42 E36.28416
G1 X155.97 Y141.02 E36.34037
G1 X154.85 Y140.74 E36.39514
G1 X153.67 Y140.56 E36.45145
G1 X152.50 Y140.50 E36.50655
G1 X151.33 Y140.56 E36.56165
G1 X150.15 Y140.74 E36.61796
G1 X149.03 Y141.02 E36.67273
G1 X147.90 Y141.42 E36.72893
G1 X146.85 Y141.92 E36.78392
G1 X145.84 Y142.53 E36.83965
G1 X144.89 Y143.22 E36.89497
G1 X144.02 Y144.02 E36.95066
G0 F12000 X143.73 Y143.73
G1 F2700 X142.92 Y144.63 E37.00798
G1 X142.19 Y145.61 E37.06535
G1 X141.88 Y146.14 E37.09444
G1 X141.88 Y150.27 E37.28934
G1 X140.88 Y150.27 E37.33649
G1 X140.88 Y154.47 E37.53455
G1 X141.88 Y154.47 E37.58171
G1 X141.88 Y158.86 E37.78849
G1 X142.19 Y159.39 E37.81757
G1 X142.92 Y160.37 E37.87495
G1 X143.73 Y161.27 E37.93227
G1 X144.63 Y162.08 E37.98959
G1 X145.61 Y162.81 E38.04697
G1 X146.65 Y163.43 E38.10424
G1 X147.76 Y163.95 E38.16189
G1 X148.90 Y164.36 E38.21924
G1 X150.08 Y164.66 E38.27626
G1 X151.29 Y164.84 E38.33389
G1 X152.50 Y164.90 E38.39121
G1 X153.71 Y164.84 E38.44853
G1 X154.92 Y164.66 E38.50617
G1 X156.10 Y164.36 E38.56318
G1 X157.24 Y163.95 E38.62053
G1 X158.35 Y163.43 E38.67818
G1 X159.39 Y162.81 E38.73546
G1 X160.37 Y162.08 E38.79283
G1 X161.27 Y161.27 E38.85015
G1 X162.08 Y160.37 E38.90748
G1 X162.81 Y159.39 E38.96485
G1 X163.43 Y158.35 E39.02213
G1 X163.95 Y157.24 E39.07978
G1 X164.36 Y156.10 E39.13713
G1 X164.66 Y154.92 E39.19414
G1 X164.84 Y153.71 E39.25178
G1 X164.90 Y152.50 E39.30914
G1 X164.84 Y151.29 E39.36642
G1 X164.66 Y150.08 E39.42405
G1 X164.36 Y148.90 E39.48107
G1 X163.95 Y147.76 E39.53842
G1 X163.43 Y146.65 E39.59607
G1 X162.81 Y145.61 E39.65334
G1 X162.08 Y144.63 E39.71072
G1 X161.27 Y143.73 E39.76804
G1 X160.37 Y142.92 E39.82536
G1 X159.39 Y142.19 E39.88274
G1 X158.35 Y141.57 E39.94001
G1 X157.24 Y141.05 E39.99766
G1 X156.10 Y140.64 E40.05501
G1 X154.92 Y140.34 E40.11203
G1 X153.71 Y140.16 E40.16966
G1 X152.50 Y140.10 E40.22698
G1 X151.29 Y140.16 E40.28430
G1 X150.08 Y140.34 E40.34194
G1 X148.90 Y140.64 E40.39895
G1 X147.76 Y141.05 E40.45630
G1 X146.65 Y141.57 E40.51395
G1 X145.61 Y142.19 E40.57123
G1 X144.63 Y142.92 E40.62860
G1 X143.73 Y143.73 E40.68593
G0 F12000 X143.45 Y143.45
G1 F2700 X142.61 Y144.38 E40.74522
G1 X141.86 Y145.39 E40.80434
G1 X141.48 Y146.03 E40.83958
G1 X141.48 Y149.87 E41.02080
G1 X140.48 Y149.87 E41.06796
G1 X140.48 Y154.87 E41.30374
G1 X141.48 Y154.87 E41.35090
G1 X141.48 Y158.97 E41.54401
G1 X141.86 Y159.61 E41.57925
G1 X142.61 Y160.62 E41.63837
G1 X143.45 Y161.55 E41.69766
G1 X144.38 Y162.39 E41.75695
G1 X145.39 Y163.14 E41.81608
G1 X146.47 Y163.79 E41.87555
G1 X147.61 Y164.32 E41.93472
G1 X148.78 Y164.75 E41.99367
G1 X150.00 Y165.05 E42.05297
G1 X151.25 Y165.24 E42.11232
G1 X152.50 Y165.30 E42.17144
G1 X153.75 Y165.24 E42.23055
G1 X155.00 Y165.05 E42.28990
G1 X156.22 Y164.75 E42.34920
G1 X157.39 Y164.32 E42.40815
G1 X158.53 Y163.79 E42.46732
G1 X159.61 Y163.14 E42.52679
G1 X160.62 Y162.39 E42.58592
G1 X161.55 Y161.55 E42.64521
G1 X162.39 Y160.62 E42.70450
G1 X163.14 Y159.61 E42.76363
G1 X163.79 Y158.53 E42.82310
G1 X164.32 Y157.39 E42.88227
G1 X164.75 Y156.22 E42.94122
G1 X165.05 Y155.00 E43.00052
G1 X165.24 Y153.75 E43.05987
G1 X165.30 Y152.50 E43.11903
G1 X165.24 Y151.25 E43.17810
G1 X165.05 Y150.00 E43.23745
G1 X164.75 Y148.78 E43.29675
G1 X164.32 Y147.61 E43.35570
G1 X163.79 Y146.47 E43.41486
G1 X163.14 Y145.39 E43.47434
G1 X162.39 Y144.38 E43.53347
G1 X161.55 Y143.45 E43.59276
G1 X160.62 Y142.61 E43.65205
G1 X159.61 Y141.86 E43.71117
G1 X158.53 Y141.21 E43.77065
G1 X157.39 Y140.68 E43.82982
G1 X156.22 Y140.25 E43.88876
G1 X155.00 Y139.95 E43.94807
G1 X153.75 Y139.76 E44.00741
G1 X152.50 Y139.70 E44.06653
G1 X151.25 Y139.76 E44.12564
G1 X150.00 Y139.95 E44.18499
G1 X148.78 Y140.25 E44.24429
G1 X147.61 Y140.68 E44.30324
G1 X146.47 Y141.21 E44.36241
G1 X145.39 Y141.86 E44.42189
G1 X144.38 Y142.61 E44.48101
G1 X143.45 Y143.45 E44.54030
G0 F12000 X143.17 Y143.17
G1 F2700 X142.30 Y144.13 E44.60130
G1 X141.52 Y145.18 E44.66305
G1 X141.08 Y145.92 E44.70379
G1 X141.08 Y149.47 E44.87139
G1 X140.08 Y149.47 E44.91854
G1 X140.08 Y154.87 E45.17319
G1 X139.53 Y154.87 E45.19908
G1 X139.56 Y155.08 E45.20895
G1 X139.61 Y155.27 E45.21833
G1 X141.08 Y155.27 E45.28765
G1 X141.08 Y159.08 E45.46713
G1 X141.52 Y159.82 E45.50787
G1 X142.30 Y160.87 E45.56962
G1 X143.17 Y161.83 E45.63062
G1 X144.13 Y162.70 E45.69161
G1 X145.18 Y163.48 E45.75337
G1 X146.27 Y164.13 E45.81335
G1 X147.45 Y164.69 E45.87512
G1 X148.67 Y165.13 E45.93608
G1 X149.92 Y165.44 E45.99674
G1 X151.21 Y165.63 E46.05829
G1 X152.50 Y165.70 E46.11920
G1 X153.79 Y165.63 E46.18011
G1 X155.08 Y165.44 E46.24165
G1 X156.33 Y165.13 E46.30232
G1 X157.55 Y164.69 E46.36328
G1 X158.73 Y164.13 E46.42504
G1 X159.82 Y163.48 E46.48503
G1 X160.87 Y162.70 E46.54679
G1 X161.83 Y161.83 E46.60778
G1 X162.70 Y160.87 E46.66877
G1 X163.48 Y159.82 E46.73053
G1 X164.13 Y158.73 E46.79051
G1 X164.69 Y157.55 E46.85228
G1 X165.13 Y156.33 E46.91324
G1 X165.44 Y155.08 E46.97390
G1 X165.63 Y153.79 E47.03545
G1 X165.70 Y152.50 E47.09641
G1 X165.63 Y151.21 E47.15727
G1 X165.44 Y149.92 E47.21882
G1 X165.13 Y148.67 E47.27948
G1 X164.69 Y147.45 E47.34044
G1 X164.13 Y146.27 E47.40221
G1 X163.48 Y145.18 E47.46219
G1 X162.70 Y144.13 E47.52395
G1 X161.83 Y143.17 E47.58494
G1 X160.87 Y142.30 E47.64594
G1 X159.82 Y141.52 E47.70769
G1 X158.73 Y140.87 E47.76768
G1 X157.55 Y140.31 E47.82944
G1 X156.33 Y139.87 E47.89040
G1 X155.08 Y139.56 E47.95107
G1 X153.79 Y139.37 E48.01262
G1 X152.50 Y139.30 E48.07352
G1 X151.21 Y139.37 E48.13443
G1 X149.92 Y139.56 E48.19598
G1 X148.67 Y139.87 E48.25664
G1 X147.45 Y140.31 E48.31760
G1 X146.27 Y140.87 E48.37937
G1 X145.18 Y141.52 E48.43935
G1 X144.13 Y142.30 E48.50111
G1 X143.17 Y143.17 E48.56210
G0 F12000 X142.88 Y142.88
G1 F2700 X141.99 Y143.87 E48.62507
G1 X141.19 Y144.94 E48.68790
G1 X140.68 Y145.81 E48.73549
G1 X140.68 Y149.07 E48.88941
G1 X139.68 Y149.07 E48.93656
G1 X139.68 Y154.47 E49.19121
G1 X139.06 Y154.47 E49.22012
G1 X139.16 Y155.16 E49.25258
G1 X139.29 Y155.67 E49.27782
G1 X140.68 Y155.67 E49.34299
G1 X140.68 Y159.19 E49.50879
G1 X141.19 Y160.06 E49.55638
G1 X141.99 Y161.13 E49.61921
G1 X142.88 Y162.12 E49.68217
G1 X143.87 Y163.01 E49.74514
G1 X144.94 Y163.81 E49.80797
G1 X146.09 Y164.49 E49.87106
G1 X147.29 Y165.06 E49.93377
G1 X148.55 Y165.51 E49.99684
G1 X149.84 Y165.84 E50.05964
G1 X151.17 Y166.03 E50.12290
G1 X152.50 Y166.10 E50.18560
G1 X153.83 Y166.03 E50.24831
G1 X155.16 Y165.84 E50.31157
G1 X156.45 Y165.51 E50.37437
G1 X157.71 Y165.06 E50.43744
G1 X158.91 Y164.49 E50.50015
G1 X160.06 Y163.81 E50.56324
G1 X161.13 Y163.01 E50.62607
G1 X162.12 Y162.12 E50.68903
G1 X163.01 Y161.13 E50.75200
G1 X163.81 Y160.06 E50.81483
G1 X164.49 Y158.91 E50.87792
G1 X165.06 Y157.71 E50.94063
G1 X165.51 Y156.45 E51.00370
G1 X165.84 Y155.16 E51.06650
G1 X166.03 Y153.83 E51.12976
G1 X166.10 Y152.50 E51.19251
G1 X166.03 Y151.17 E51.25517
G1 X165.84 Y149.84 E51.31843
G1 X165.51 Y148.55 E51.38123
G1 X165.06 Y147.29 E51.44430
G1 X164.49 Y146.09 E51.50701
G1 X163.81 Y144.94 E51.57010
G1 X163.01 Y143.87 E51.63293
G1 X162.12 Y142.88 E51.69590
G1 X161.13 Y141.99 E51.75886
G1 X160.06 Y141.19 E51.82169
G1 X158.91 Y140.51 E51.88478
G1 X157.71 Y139.94 E51.94749
G1 X156.45 Y139.49 E52.01056
G1 X155.16 Y139.16 E52.07336
G1 X153.83 Y138.97 E52.13663
G1 X152.50 Y138.90 E52.19933
G1 X151.17 Y138.97 E52.26203
G1 X149.84 Y139.16 E52.32529
G1 X148.55 Y139.49 E52.38809
G1 X147.29 Y139.94 E52.45116
G1 X146.09 Y140.51 E52.51387
G1 X144.94 Y141.19 E52.57696
G1 X143.87 Y141.99 E52.63979
G1 X142.88 Y142.88 E52.70276
G0 F12000 X142.60 Y142.60
G1 F2700 X141.68 Y143.62 E52.76773
G1 X140.86 Y144.72 E52.83225
G1 X140.28 Y145.70 E52.88601
G1 X140.28 Y148.67 E53.02626
G1 X139.04 Y148.67 E53.08431
G1 X138.90 Y149.27 E53.11347
G1 X139.28 Y149.27 E53.13144
G1 X139.28 Y154.07 E53.35779
G1 X138.60 Y154.07 E53.38972
G1 X138.77 Y155.23 E53.44483
G1 X138.98 Y156.07 E53.48586
G1 X140.28 Y156.07 E53.54688
G1 X140.28 Y159.30 E53.69901
G1 X140.86 Y160.28 E53.75277
G1 X141.68 Y161.38 E53.81729
G1 X142.60 Y162.40 E53.88226
G1 X143.62 Y163.32 E53.94723
G1 X144.72 Y164.14 E54.01175
G1 X145.90 Y164.84 E54.07662
G1 X147.14 Y165.43 E54.14127
G1 X148.44 Y165.90 E54.20638
G1 X149.77 Y166.23 E54.27098
G1 X151.12 Y166.43 E54.33553
G1 X152.50 Y166.50 E54.40050
G1 X153.88 Y166.43 E54.46547
G1 X155.23 Y166.23 E54.53002
G1 X156.56 Y165.90 E54.59462
G1 X157.86 Y165.43 E54.65972
G1 X159.10 Y164.84 E54.72438
G1 X160.28 Y164.14 E54.78925
G1 X161.38 Y163.32 E54.85377
G1 X162.40 Y162.40 E54.91873
G1 X163.32 Y161.38 E54.98370
G1 X164.14 Y160.28 E55.04822
G1 X164.84 Y159.10 E55.11309
G1 X165.43 Y157.86 E55.17775
G1 X165.90 Y156.56 E55.24285
G1 X166.23 Y155.23 E55.30745
G1 X166.43 Y153.88 E55.37200
G1 X166.50 Y152.50 E55.43697
G1 X166.43 Y151.12 E55.50194
G1 X166.23 Y149.77 E55.56649
G1 X165.90 Y148.44 E55.63109
G1 X165.43 Y147.14 E55.69620
G1 X164.84 Y145.90 E55.76085
G1 X164.14 Y144.72 E55.82572
G1 X163.32 Y143.62 E55.89024
G1 X162.40 Y142.60 E55.95521
G1 X161.38 Y141.68 E56.02018
G1 X160.28 Y140.86 E56.08470
G1 X159.10 Y140.16 E56.14957
G1 X157.86 Y139.57 E56.21422
G1 X156.56 Y139.10 E56.27933
G1 X155.23 Y138.77 E56.34393
G1 X153.88 Y138.57 E56.40848
G1 X152.50 Y138.50 E56.47345
G1 X151.12 Y138.57 E56.53841
G1 X149.77 Y138.77 E56.60297
G1 X148.44 Y139.10 E56.66756
G1 X147.14 Y139.57 E56.73267
G1 X145.90 Y140.16 E56.79732
G1 X144.72 Y140.86 E56.86219
G1 X143.62 Y141.68 E56.92671
G1 X142.60 Y142.60 E56.99168
G0 F12000 X142.32 Y142.32
G1 F2700 X141.37 Y143.37 E57.05832
G1 X140.53 Y144.50 E57.12513
G1 X139.88 Y145.59 E57.18482
G1 X139.88 Y148.27 E57.31139
G1 X138.74 Y148.27 E57.36510
G1 X138.72 Y148.32 E57.36739
G1 X138.38 Y149.67 E57.43322
G1 X138.88 Y149.67 E57.45651
G1 X138.88 Y153.67 E57.64514
G1 X138.16 Y153.67 E57.67895
G1 X138.17 Y153.90 E57.68976
G1 X138.38 Y155.31 E57.75698
G1 X138.67 Y156.47 E57.81341
G1 X139.88 Y156.47 E57.87033
G1 X139.88 Y159.27 E58.00237
G1 X139.80 Y159.27 E58.00614
G1 X139.80 Y159.28 E58.00671
G1 X140.53 Y160.50 E58.07327
G1 X141.37 Y161.63 E58.14008
G1 X142.32 Y162.68 E58.20672
G1 X143.37 Y163.63 E58.27336
G1 X144.50 Y164.47 E58.34017
G1 X145.72 Y165.20 E58.40673
G1 X146.99 Y165.80 E58.47316
G1 X148.32 Y166.28 E58.53988
G1 X149.69 Y166.62 E58.60633
G1 X151.10 Y166.83 E58.67354
G1 X152.50 Y166.90 E58.73979
G1 X153.90 Y166.83 E58.80603
G1 X155.31 Y166.62 E58.87325
G1 X156.68 Y166.28 E58.93970
G1 X158.01 Y165.80 E59.00642
G1 X159.28 Y165.20 E59.07284
G1 X160.50 Y164.47 E59.13940
G1 X161.63 Y163.63 E59.20622
G1 X162.68 Y162.68 E59.27285
G1 X163.63 Y161.63 E59.33949
G1 X164.47 Y160.50 E59.40630
G1 X165.20 Y159.28 E59.47286
G1 X165.80 Y158.01 E59.53929
G1 X166.28 Y156.68 E59.60601
G1 X166.62 Y155.31 E59.67246
G1 X166.83 Y153.90 E59.73967
G1 X166.90 Y152.50 E59.80592
G1 X166.83 Y151.10 E59.87216
G1 X166.62 Y149.69 E59.93938
G1 X166.28 Y148.32 E60.00583
G1 X165.80 Y146.99 E60.07255
G1 X165.20 Y145.72 E60.13897
G1 X164.47 Y144.50 E60.20553
G1 X163.63 Y143.37 E60.27235
G1 X162.68 Y142.32 E60.33898
G1 X161.63 Y141.37 E60.40562
G1 X160.50 Y140.53 E60.47243
G1 X159.28 Y139.80 E60.53899
G1 X158.01 Y139.20 E60.60542
G1 X156.68 Y138.72 E60.67214
G1 X155.31 Y138.38 E60.73859
G1 X153.90 Y138.17 E60.80580
G1 X152.50 Y138.10 E60.87205
G1 X151.10 Y138.17 E60.93829
G1 X149.69 Y138.38 E61.00551
G1 X148.32 Y138.72 E61.07196
G1 X146.99 Y139.20 E61.13868
G1 X145.72 Y139.80 E61.20510
G1 X144.50 Y140.53 E61.27166
G1 X143.37 Y141.37 E61.33848
G1 X142.32 Y142.32 E61.40511
G0 F12000 X142.03 Y142.03
G1 F2700 X141.06 Y143.11 E61.47339
G1 X140.20 Y144.28 E61.54198
G1 X139.45 Y145.53 E61.61061
G1 X139.28 Y145.87 E61.62882
G1 X139.48 Y145.87 E61.63787
G1 X139.48 Y147.87 E61.73218
G1 X138.46 Y147.87 E61.78033
G1 X138.34 Y148.19 E61.79641
G1 X137.99 Y149.61 E61.86533
G1 X137.92 Y150.07 E61.88731
G1 X138.48 Y150.07 E61.91362
G1 X138.48 Y153.27 E62.06452
G1 X137.74 Y153.27 E62.09928
G1 X137.77 Y153.95 E62.13129
G1 X137.99 Y155.39 E62.19970
G1 X138.34 Y156.80 E62.26843
G1 X138.37 Y156.87 E62.27208
G1 X139.48 Y156.87 E62.32447
G1 X139.48 Y158.87 E62.41879
G1 X139.16 Y158.87 E62.43350
G1 X139.45 Y159.47 E62.46487
G1 X140.20 Y160.72 E62.53350
G1 X141.06 Y161.89 E62.60209
G1 X142.03 Y162.97 E62.67037
G1 X143.11 Y163.94 E62.73864
G1 X144.28 Y164.80 E62.80724
G1 X145.53 Y165.55 E62.87587
G1 X146.84 Y166.18 E62.94469
G1 X148.20 Y166.66 E63.01256
G1 X149.61 Y167.01 E63.08129
G1 X151.05 Y167.23 E63.14970
G1 X152.50 Y167.30 E63.21826
G1 X153.95 Y167.23 E63.28682
G1 X155.39 Y167.01 E63.35523
G1 X156.80 Y166.66 E63.42396
G1 X158.16 Y166.18 E63.49182
G1 X159.47 Y165.55 E63.56065
G1 X160.72 Y164.80 E63.62928
G1 X161.89 Y163.94 E63.69788
G1 X162.97 Y162.97 E63.76615
G1 X163.94 Y161.89 E63.83443
G1 X164.80 Y160.72 E63.90302
G1 X165.55 Y159.47 E63.97165
G1 X166.18 Y158.15 E64.04059
G1 X166.66 Y156.80 E64.10835
G1 X167.01 Y155.39 E64.17707
G1 X167.23 Y153.95 E64.24549
G1 X167.30 Y152.50 E64.31405
G1 X167.23 Y151.05 E64.38260
G1 X167.01 Y149.61 E64.45102
G1 X166.66 Y148.19 E64.51994
G1 X166.18 Y146.85 E64.58751
G1 X165.55 Y145.53 E64.65644
G1 X164.80 Y144.28 E64.72507
G1 X163.94 Y143.11 E64.79367
G1 X162.97 Y142.03 E64.86194
G1 X161.89 Y141.06 E64.93021
G1 X160.72 Y140.20 E64.99881
G1 X159.47 Y139.45 E65.06744
G1 X158.16 Y138.82 E65.13627
G1 X156.80 Y138.34 E65.20414
G1 X155.39 Y137.99 E65.27286
G1 X153.95 Y137.77 E65.34127
G1 X152.50 Y137.70 E65.40983
G1 X151.05 Y137.77 E65.47839
G1 X149.61 Y137.99 E65.54680
G1 X148.20 Y138.34 E65.61553
G1 X146.84 Y138.82 E65.68340
G1 X145.53 Y139.45 E65.75223
G1 X144.28 Y140.20 E65.82086
G1 X143.11 Y141.06 E65.88945
G1 X142.03 Y142.03 E65.95772
G0 F12000 X138.38 Y138.40
G1 F2700 X138.38 Y138.02 E65.97588
G1 X139.14 Y137.63 E66.01635
G1 X139.74 Y137.03 E66.05630
G1 X140.14 Y136.83 E66.07745
G1 X140.74 Y136.24 E66.11740
G1 X141.94 Y135.63 E66.18073
G1 X142.34 Y135.24 E66.20734
G1 X143.54 Y134.63 E66.27067
G1 X143.74 Y134.44 E66.28394
G1 X144.36 Y134.12 E66.31659
G1 X145.22 Y133.91 E66.35854
G1 X145.73 Y133.74 E66.38374
G1 X146.16 Y133.53 E66.40641
G1 X148.76 Y132.87 E66.53294
G1 X156.69 Y132.87 E66.90652
G1 X157.59 Y133.10 E66.95027
G1 X158.67 Y133.31 E67.00234
G1 X159.49 Y133.72 E67.04551
G1 X160.96 Y134.09 E67.11692
G1 X160.94 Y134.25 E67.12451
G1 X162.11 Y134.84 E67.18613
G1 X162.31 Y135.03 E67.19940
G1 X162.71 Y135.24 E67.22056
G1 X163.11 Y135.63 E67.24717
G1 X164.31 Y136.24 E67.31050
G1 X165.31 Y137.23 E67.37712
G1 X165.71 Y137.44 E67.39827
G1 X167.68 Y139.40 E67.52942
G1 X167.68 Y139.60 E67.53890
G1 X168.28 Y140.20 E67.57888
G1 X168.28 Y140.40 E67.58836
G1 X169.08 Y141.20 E67.64167
G1 X169.08 Y141.40 E67.65115
G1 X169.28 Y141.60 E67.66446
G1 X169.28 Y141.80 E67.67394
G1 X169.48 Y142.00 E67.68724
G1 X169.48 Y142.20 E67.69672
G1 X169.68 Y142.40 E67.71002
G1 X169.68 Y142.60 E67.71950
G1 X169.88 Y142.80 E67.73281
G1 X169.88 Y143.00 E67.74229
G1 X170.28 Y143.40 E67.76893
G1 X170.28 Y143.60 E67.77841
G1 X170.48 Y143.80 E67.79171
G1 X170.48 Y144.00 E67.80119
G1 X170.68 Y144.20 E67.81450
G1 X170.68 Y144.40 E67.82397
G1 X170.88 Y144.60 E67.83728
G1 X170.88 Y144.80 E67.84676
G1 X171.08 Y145.00 E67.86006
G1 X171.08 Y145.20 E67.86954
G1 X171.28 Y145.40 E67.88285
G1 X171.28 Y145.80 E67.90176
G1 X171.48 Y146.00 E67.91506
G1 X171.48 Y146.60 E67.94340
G1 X171.68 Y146.80 E67.95671
G1 X171.68 Y147.40 E67.98505
G1 X171.88 Y147.60 E67.99835
G1 X171.88 Y148.20 E68.02669
G1 X172.08 Y148.40 E68.04000
G1 X172.08 Y150.00 E68.11550
G1 X172.28 Y150.20 E68.12880
G1 X172.28 Y154.55 E68.33375
G1 X172.08 Y154.75 E68.34705
G1 X172.08 Y156.35 E68.42255
G1 X171.88 Y156.55 E68.43585
G1 X171.88 Y157.15 E68.46420
G1 X171.68 Y157.35 E68.47750
G1 X171.68 Y158.15 E68.51527
G1 X171.48 Y158.35 E68.52858
G1 X171.48 Y158.95 E68.55692
G1 X171.28 Y159.15 E68.57022
G1 X171.28 Y159.35 E68.57970
G1 X171.08 Y159.55 E68.59301
G1 X171.08 Y159.75 E68.60249
G1 X170.88 Y159.95 E68.61579
G1 X170.88 Y160.15 E68.62527
G1 X170.68 Y160.35 E68.63857
G1 X170.68 Y160.55 E68.64805
G1 X170.48 Y160.75 E68.66136
G1 X170.48 Y160.95 E68.67084
G1 X170.28 Y161.15 E68.68414
G1 X170.28 Y161.35 E68.69362
G1 X170.08 Y161.55 E68.70692
G1 X170.08 Y161.75 E68.71640
G1 X169.88 Y161.95 E68.72971
G1 X169.88 Y162.15 E68.73919
G1 X169.68 Y162.35 E68.75249
G1 X169.68 Y162.55 E68.76197
G1 X169.28 Y162.95 E68.78861
G1 X169.28 Y163.15 E68.79809
G1 X169.08 Y163.35 E68.81139
G1 X169.08 Y163.55 E68.82087
G1 X168.48 Y164.15 E68.86085
G1 X168.48 Y164.35 E68.87033
G1 X168.08 Y164.75 E68.89697
G1 X168.08 Y164.95 E68.90645
G1 X165.31 Y167.71 E69.09095
G1 X164.91 Y167.91 E69.11210
G1 X164.31 Y168.51 E69.15205
G1 X163.91 Y168.71 E69.17320
G1 X163.51 Y169.11 E69.19981
G1 X162.71 Y169.51 E69.24206
G1 X162.51 Y169.71 E69.25533
G1 X159.89 Y171.02 E69.39342
G1 X159.09 Y171.22 E69.43226
G1 X158.27 Y171.63 E69.47549
G1 X157.18 Y171.85 E69.52786
G1 X156.34 Y172.06 E69.56869
G1 X154.63 Y172.27 E69.64996
G1 X151.03 Y172.27 E69.82000
G1 X149.12 Y172.06 E69.91058
G1 X146.56 Y171.42 E70.03478
G1 X145.78 Y171.03 E70.07601
G1 X144.78 Y170.83 E70.12400
G1 X143.74 Y170.31 E70.17879
G1 X143.54 Y170.11 E70.19206
G1 X141.54 Y169.11 E70.29757
G1 X141.14 Y168.71 E70.32418
G1 X140.74 Y168.51 E70.34533
G1 X140.14 Y167.91 E70.38528
G1 X139.74 Y167.71 E70.40643
G1 X139.14 Y167.11 E70.44638
G1 X138.74 Y166.91 E70.46753
G1 X137.18 Y165.35 E70.57200
G1 X137.18 Y165.15 E70.58148
G1 X136.58 Y164.55 E70.62146
G1 X136.58 Y164.35 E70.63094
G1 X136.18 Y163.95 E70.65758
G1 X136.18 Y163.75 E70.66706
G1 X135.58 Y163.15 E70.70704
G1 X135.58 Y162.95 E70.71652
G1 X135.38 Y162.75 E70.72982
G1 X135.38 Y162.55 E70.73930
G1 X134.98 Y162.15 E70.76594
G1 X134.98 Y161.95 E70.77542
G1 X134.78 Y161.75 E70.78873
G1 X134.78 Y161.55 E70.79820
G1 X134.58 Y161.35 E70.81151
G1 X134.58 Y161.15 E70.82099
G1 X134.38 Y160.95 E70.83429
G1 X134.38 Y160.75 E70.84377
G1 X134.18 Y160.55 E70.85708
G1 X134.18 Y160.35 E70.86655
G1 X133.98 Y160.15 E70.87986
G1 X133.98 Y159.95 E70.88934
G1 X133.78 Y159.75 E70.90264
G1 X133.78 Y159.55 E70.91212
G1 X133.58 Y159.35 E70.92543
G1 X133.58 Y158.75 E70.95377
G1 X133.38 Y158.55 E70.96707
G1 X133.38 Y158.35 E70.97655
G1 X133.18 Y158.15 E70.98985
G1 X133.18 Y157.35 E71.02763
G1 X132.98 Y157.15 E71.04093
G1 X132.98 Y156.55 E71.06927
G1 X132.78 Y156.35 E71.08258
G1 X132.78 Y148.40 E71.45729
G1 X132.98 Y148.20 E71.47059
G1 X132.98 Y147.60 E71.49893
G1 X133.18 Y147.40 E71.51224
G1 X133.18 Y146.80 E71.54058
G1 X133.38 Y146.60 E71.55388
G1 X133.38 Y146.40 E71.56336
G1 X133.58 Y146.20 E71.57667
G1 X133.58 Y145.60 E71.60501
G1 X133.78 Y145.40 E71.61831
G1 X133.78 Y145.00 E71.63722
G1 X133.98 Y144.80 E71.65053
G1 X133.98 Y144.60 E71.66001
G1 X134.18 Y144.40 E71.67331
G1 X134.18 Y144.20 E71.68279
G1 X134.38 Y144.00 E71.69610
G1 X134.38 Y143.80 E71.70557
G1 X134.78 Y143.40 E71.73222
G1 X134.78 Y143.20 E71.74170
G1 X134.98 Y143.00 E71.75500
G1 X134.98 Y142.80 E71.76448
G1 X135.18 Y142.60 E71.77778
G1 X135.18 Y142.40 E71.78726
G1 X135.38 Y142.20 E71.80057
G1 X135.38 Y142.00 E71.81004
G1 X135.58 Y141.80 E71.82335
G1 X135.58 Y141.60 E71.83283
G1 X136.38 Y140.80 E71.88615
G1 X136.38 Y140.60 E71.89563
G1 X136.58 Y140.40 E71.90893
G1 X136.58 Y140.20 E71.91841
G1 X138.38 Y138.40 E72.03842
G0 F12000 X137.98 Y138.24
G1 F2700 X137.98 Y137.77 E72.06039
G1 X138.91 Y137.31 E72.10947
G1 X139.51 Y136.71 E72.14941
G1 X139.91 Y136.50 E72.17057
G1 X140.51 Y135.91 E72.21051
G1 X141.71 Y135.31 E72.27385
G1 X142.11 Y134.91 E72.30046
G1 X143.31 Y134.31 E72.36379
G1 X143.51 Y134.11 E72.37706
G1 X144.22 Y133.75 E72.41485
G1 X145.12 Y133.52 E72.45827
G1 X145.57 Y133.37 E72.48108
G1 X146.02 Y133.15 E72.50468
G1 X148.72 Y132.47 E72.63559
G1 X156.74 Y132.47 E73.01379
G1 X157.68 Y132.71 E73.05963
G1 X158.80 Y132.93 E73.11358
G1 X159.63 Y133.35 E73.15727
G1 X161.40 Y133.79 E73.24306
G1 X161.37 Y134.02 E73.25398
G1 X162.35 Y134.51 E73.30548
G1 X162.54 Y134.71 E73.31875
G1 X162.95 Y134.91 E73.33990
G1 X163.34 Y135.31 E73.36651
G1 X164.55 Y135.91 E73.42984
G1 X165.54 Y136.91 E73.49647
G1 X165.95 Y137.11 E73.51762
G1 X168.08 Y139.24 E73.65964
G1 X168.08 Y139.44 E73.66911
G1 X168.68 Y140.03 E73.70910
G1 X168.68 Y140.24 E73.71857
G1 X169.48 Y141.03 E73.77189
G1 X169.48 Y141.24 E73.78137
G1 X169.68 Y141.44 E73.79468
G1 X169.68 Y141.64 E73.80415
G1 X169.88 Y141.84 E73.81746
G1 X169.88 Y142.04 E73.82694
G1 X170.08 Y142.24 E73.84024
G1 X170.08 Y142.44 E73.84972
G1 X170.28 Y142.63 E73.86303
G1 X170.28 Y142.84 E73.87250
G1 X170.68 Y143.24 E73.89915
G1 X170.68 Y143.44 E73.90863
G1 X170.88 Y143.63 E73.92193
G1 X170.88 Y143.84 E73.93141
G1 X171.08 Y144.03 E73.94471
G1 X171.08 Y144.24 E73.95419
G1 X171.28 Y144.44 E73.96750
G1 X171.28 Y144.64 E73.97698
G1 X171.48 Y144.84 E73.99028
G1 X171.48 Y145.04 E73.99976
G1 X171.68 Y145.24 E74.01306
G1 X171.68 Y145.64 E74.03197
G1 X171.88 Y145.84 E74.04528
G1 X171.88 Y146.44 E74.07362
G1 X172.08 Y146.63 E74.08692
G1 X172.08 Y147.24 E74.11527
G1 X172.28 Y147.44 E74.12857
G1 X172.28 Y148.04 E74.15691
G1 X172.48 Y148.24 E74.17022
G1 X172.48 Y149.84 E74.24571
G1 X172.68 Y150.03 E74.25902
G1 X172.68 Y154.71 E74.47962
G1 X172.48 Y154.91 E74.49292
G1 X172.48 Y156.51 E74.56842
G1 X172.28 Y156.71 E74.58173
G1 X172.28 Y157.31 E74.61007
G1 X172.08 Y157.51 E74.62337
G1 X172.08 Y158.31 E74.66115
G1 X171.88 Y158.51 E74.67445
G1 X171.88 Y159.11 E74.70279
G1 X171.68 Y159.31 E74.71610
G1 X171.68 Y159.51 E74.72558
G1 X171.48 Y159.71 E74.73888
G1 X171.48 Y159.91 E74.74836
G1 X171.28 Y160.11 E74.76166
G1 X171.28 Y160.31 E74.77114
G1 X171.08 Y160.51 E74.78445
G1 X171.08 Y160.71 E74.79393
G1 X170.88 Y160.91 E74.80723
G1 X170.88 Y161.11 E74.81671
G1 X170.68 Y161.31 E74.83001
G1 X170.68 Y161.51 E74.83949
G1 X170.48 Y161.71 E74.85280
G1 X170.48 Y161.91 E74.86228
G1 X170.28 Y162.11 E74.87558
G1 X170.28 Y162.31 E74.88506
G1 X170.08 Y162.51 E74.89836
G1 X170.08 Y162.71 E74.90784
G1 X169.68 Y163.11 E74.93448
G1 X169.68 Y163.31 E74.94396
G1 X169.48 Y163.51 E74.95727
G1 X169.48 Y163.71 E74.96675
G1 X168.88 Y164.31 E75.00673
G1 X168.88 Y164.51 E75.01621
G1 X168.48 Y164.91 E75.04285
G1 X168.48 Y165.11 E75.05233
G1 X165.55 Y168.04 E75.24770
G1 X165.15 Y168.24 E75.26885
G1 X164.55 Y168.84 E75.30880
G1 X164.15 Y169.04 E75.32995
G1 X163.75 Y169.44 E75.35656
G1 X162.94 Y169.84 E75.39880
G1 X162.75 Y170.04 E75.41207
G1 X160.03 Y171.40 E75.55531
G1 X159.23 Y171.60 E75.59405
G1 X158.40 Y172.01 E75.63783
G1 X157.28 Y172.24 E75.69201
G1 X156.41 Y172.45 E75.73382
G1 X154.66 Y172.67 E75.81737
G1 X151.00 Y172.67 E75.98963
G1 X149.05 Y172.46 E76.08253
G1 X146.42 Y171.80 E76.21009
G1 X145.65 Y171.41 E76.25090
G1 X144.65 Y171.22 E76.29883
G1 X143.51 Y170.64 E76.35921
G1 X143.31 Y170.44 E76.37248
G1 X141.31 Y169.44 E76.47799
G1 X140.91 Y169.04 E76.50460
G1 X140.51 Y168.84 E76.52575
G1 X139.91 Y168.24 E76.56570
G1 X139.51 Y168.04 E76.58685
G1 X138.91 Y167.44 E76.62680
G1 X138.51 Y167.24 E76.64795
G1 X136.78 Y165.51 E76.76329
G1 X136.78 Y165.31 E76.77277
G1 X136.18 Y164.71 E76.81275
G1 X136.18 Y164.51 E76.82223
G1 X135.78 Y164.11 E76.84887
G1 X135.78 Y163.91 E76.85835
G1 X135.18 Y163.31 E76.89833
G1 X135.18 Y163.11 E76.90781
G1 X134.98 Y162.91 E76.92112
G1 X134.98 Y162.71 E76.93059
G1 X134.58 Y162.31 E76.95724
G1 X134.58 Y162.11 E76.96671
G1 X134.38 Y161.91 E76.98002
G1 X134.38 Y161.71 E76.98950
G1 X134.18 Y161.51 E77.00280
G1 X134.18 Y161.31 E77.01228
G1 X133.98 Y161.11 E77.02559
G1 X133.98 Y160.91 E77.03506
G1 X133.78 Y160.71 E77.04837
G1 X133.78 Y160.51 E77.05785
G1 X133.58 Y160.31 E77.07115
G1 X133.58 Y160.11 E77.08063
G1 X133.38 Y159.91 E77.09394
G1 X133.38 Y159.71 E77.10341
G1 X133.18 Y159.51 E77.11672
G1 X133.18 Y158.91 E77.14506
G1 X132.98 Y158.71 E77.15837
G1 X132.98 Y158.51 E77.16784
G1 X132.78 Y158.31 E77.18115
G1 X132.78 Y157.51 E77.21892
G1 X132.58 Y157.31 E77.23223
G1 X132.58 Y156.71 E77.26057
G1 X132.38 Y156.51 E77.27387
G1 X132.38 Y148.24 E77.66424
G1 X132.58 Y148.04 E77.67754
G1 X132.58 Y147.44 E77.70588
G1 X132.78 Y147.24 E77.71919
G1 X132.78 Y146.63 E77.74753
G1 X132.98 Y146.44 E77.76083
G1 X132.98 Y146.24 E77.77031
G1 X133.18 Y146.04 E77.78362
G1 X133.18 Y145.44 E77.81196
G1 X133.38 Y145.24 E77.82526
G1 X133.38 Y144.84 E77.84417
G1 X133.58 Y144.64 E77.85748
G1 X133.58 Y144.44 E77.86696
G1 X133.78 Y144.24 E77.88026
G1 X133.78 Y144.03 E77.88974
G1 X133.98 Y143.84 E77.90305
G1 X133.98 Y143.63 E77.91252
G1 X134.38 Y143.24 E77.93917
G1 X134.38 Y143.03 E77.94865
G1 X134.58 Y142.84 E77.96195
G1 X134.58 Y142.63 E77.97143
G1 X134.78 Y142.44 E77.98473
G1 X134.78 Y142.24 E77.99421
G1 X134.98 Y142.04 E78.00752
G1 X134.98 Y141.84 E78.01700
G1 X135.18 Y141.64 E78.03030
G1 X135.18 Y141.44 E78.03978
G1 X135.98 Y140.64 E78.09310
G1 X135.98 Y140.44 E78.10258
G1 X136.18 Y140.24 E78.11588
G1 X136.18 Y140.03 E78.12536
G1 X137.98 Y138.24 E78.24537
G0 F12000 X137.58 Y138.07
G1 F2700 X137.58 Y137.52 E78.27116
G1 X138.67 Y136.98 E78.32884
G1 X139.27 Y136.38 E78.36879
G1 X139.67 Y136.18 E78.38982
G1 X140.27 Y135.58 E78.42990
G1 X141.47 Y134.98 E78.49310
G1 X141.87 Y134.58 E78.51984
G1 X143.07 Y133.98 E78.58305
G1 X143.27 Y133.78 E78.59645
G1 X144.08 Y133.37 E78.63935
G1 X145.00 Y133.14 E78.68384
G1 X145.43 Y133.00 E78.70506
G1 X145.88 Y132.77 E78.72921
G1 X148.67 Y132.07 E78.86453
G1 X156.78 Y132.07 E79.24735
G1 X157.75 Y132.31 E79.29421
G1 X158.93 Y132.55 E79.35111
G1 X159.77 Y132.97 E79.39527
G1 X161.83 Y133.49 E79.49549
G1 X161.80 Y133.78 E79.50973
G1 X162.58 Y134.18 E79.55111
G1 X162.78 Y134.38 E79.56451
G1 X163.18 Y134.58 E79.58554
G1 X163.58 Y134.98 E79.61228
G1 X164.78 Y135.58 E79.67548
G1 X165.78 Y136.58 E79.74224
G1 X166.18 Y136.78 E79.76327
G1 X168.48 Y139.07 E79.91619
G1 X168.48 Y139.27 E79.92562
G1 X169.08 Y139.87 E79.96563
G1 X169.08 Y140.07 E79.97506
G1 X169.88 Y140.87 E80.02842
G1 X169.88 Y141.07 E80.03785
G1 X170.08 Y141.27 E80.05119
G1 X170.08 Y141.47 E80.06062
G1 X170.28 Y141.67 E80.07396
G1 X170.28 Y141.87 E80.08339
G1 X170.48 Y142.07 E80.09673
G1 X170.48 Y142.27 E80.10616
G1 X170.68 Y142.47 E80.11949
G1 X170.68 Y142.67 E80.12893
G1 X171.08 Y143.07 E80.15560
G1 X171.08 Y143.27 E80.16503
G1 X171.28 Y143.47 E80.17837
G1 X171.28 Y143.67 E80.18780
G1 X171.48 Y143.87 E80.20114
G1 X171.48 Y144.07 E80.21057
G1 X171.68 Y144.27 E80.22391
G1 X171.68 Y144.47 E80.23334
G1 X171.88 Y144.67 E80.24668
G1 X171.88 Y144.87 E80.25611
G1 X172.08 Y145.07 E80.26945
G1 X172.08 Y145.47 E80.28831
G1 X172.28 Y145.67 E80.30165
G1 X172.28 Y146.27 E80.32994
G1 X172.48 Y146.47 E80.34328
G1 X172.48 Y147.07 E80.37158
G1 X172.68 Y147.27 E80.38491
G1 X172.68 Y147.87 E80.41321
G1 X172.88 Y148.07 E80.42655
G1 X172.88 Y149.67 E80.50200
G1 X173.08 Y149.87 E80.51534
G1 X173.08 Y154.88 E80.75150
G1 X172.88 Y155.08 E80.76484
G1 X172.88 Y156.68 E80.84029
G1 X172.68 Y156.88 E80.85363
G1 X172.68 Y157.48 E80.88192
G1 X172.48 Y157.68 E80.89526
G1 X172.48 Y158.48 E80.93298
G1 X172.28 Y158.68 E80.94632
G1 X172.28 Y159.28 E80.97462
G1 X172.08 Y159.48 E80.98795
G1 X172.08 Y159.68 E80.99739
G1 X171.88 Y159.88 E81.01072
G1 X171.88 Y160.08 E81.02015
G1 X171.68 Y160.28 E81.03349
G1 X171.68 Y160.48 E81.04292
G1 X171.48 Y160.68 E81.05626
G1 X171.48 Y160.88 E81.06569
G1 X171.28 Y161.08 E81.07903
G1 X171.28 Y161.28 E81.08846
G1 X171.08 Y161.48 E81.10180
G1 X171.08 Y161.68 E81.11123
G1 X170.88 Y161.88 E81.12457
G1 X170.88 Y162.08 E81.13400
G1 X170.68 Y162.28 E81.14734
G1 X170.68 Y162.48 E81.15677
G1 X170.48 Y162.68 E81.17011
G1 X170.48 Y162.88 E81.17954
G1 X170.08 Y163.28 E81.20622
G1 X170.08 Y163.48 E81.21565
G1 X169.88 Y163.68 E81.22899
G1 X169.88 Y163.88 E81.23842
G1 X169.28 Y164.48 E81.27843
G1 X169.28 Y164.68 E81.28786
G1 X168.88 Y165.08 E81.31454
G1 X168.88 Y165.28 E81.32397
G1 X165.78 Y168.37 E81.53024
G1 X165.38 Y168.57 E81.55127
G1 X164.78 Y169.17 E81.59135
G1 X164.38 Y169.37 E81.61238
G1 X163.98 Y169.77 E81.63912
G1 X163.18 Y170.17 E81.68123
G1 X162.98 Y170.37 E81.69464
G1 X160.17 Y171.78 E81.84300
G1 X159.37 Y171.98 E81.88189
G1 X158.53 Y172.40 E81.92596
G1 X157.34 Y172.63 E81.98315
G1 X156.49 Y172.85 E82.02471
G1 X154.68 Y173.07 E82.11059
G1 X150.98 Y173.07 E82.28507
G1 X148.97 Y172.85 E82.38029
G1 X146.28 Y172.18 E82.51116
G1 X145.52 Y171.80 E82.55133
G1 X144.52 Y171.60 E82.59947
G1 X143.27 Y170.97 E82.66542
G1 X143.07 Y170.77 E82.67882
G1 X141.07 Y169.77 E82.78420
G1 X140.67 Y169.37 E82.81095
G1 X140.27 Y169.17 E82.83197
G1 X139.67 Y168.57 E82.87205
G1 X139.27 Y168.37 E82.89308
G1 X138.67 Y167.77 E82.93316
G1 X138.27 Y167.57 E82.95419
G1 X136.38 Y165.68 E83.08043
G1 X136.38 Y165.48 E83.08986
G1 X135.78 Y164.88 E83.12988
G1 X135.78 Y164.68 E83.13931
G1 X135.38 Y164.28 E83.16598
G1 X135.38 Y164.08 E83.17542
G1 X134.78 Y163.48 E83.21543
G1 X134.78 Y163.28 E83.22486
G1 X134.58 Y163.08 E83.23820
G1 X134.58 Y162.88 E83.24763
G1 X134.18 Y162.48 E83.27431
G1 X134.18 Y162.28 E83.28374
G1 X133.98 Y162.08 E83.29708
G1 X133.98 Y161.88 E83.30651
G1 X133.78 Y161.68 E83.31985
G1 X133.78 Y161.48 E83.32928
G1 X133.58 Y161.28 E83.34261
G1 X133.58 Y161.08 E83.35205
G1 X133.38 Y160.88 E83.36538
G1 X133.38 Y160.68 E83.37482
G1 X133.18 Y160.48 E83.38815
G1 X133.18 Y160.28 E83.39759
G1 X132.98 Y160.08 E83.41092
G1 X132.98 Y159.88 E83.42035
G1 X132.78 Y159.68 E83.43369
G1 X132.78 Y159.08 E83.46199
G1 X132.58 Y158.88 E83.47532
G1 X132.58 Y158.68 E83.48476
G1 X132.38 Y158.48 E83.49809
G1 X132.38 Y157.68 E83.53582
G1 X132.18 Y157.48 E83.54916
G1 X132.18 Y156.88 E83.57745
G1 X131.98 Y156.68 E83.59079
G1 X131.98 Y148.07 E83.99672
G1 X132.18 Y147.87 E84.01006
G1 X132.18 Y147.27 E84.03835
G1 X132.38 Y147.07 E84.05169
G1 X132.38 Y146.47 E84.07998
G1 X132.58 Y146.27 E84.09332
G1 X132.58 Y146.07 E84.10275
G1 X132.78 Y145.87 E84.11609
G1 X132.78 Y145.27 E84.14438
G1 X132.98 Y145.07 E84.15772
G1 X132.98 Y144.67 E84.17658
G1 X133.18 Y144.47 E84.18992
G1 X133.18 Y144.27 E84.19935
G1 X133.38 Y144.07 E84.21269
G1 X133.38 Y143.87 E84.22212
G1 X133.58 Y143.67 E84.23546
G1 X133.58 Y143.47 E84.24489
G1 X133.98 Y143.07 E84.27157
G1 X133.98 Y142.87 E84.28100
G1 X134.18 Y142.67 E84.29434
G1 X134.18 Y142.47 E84.30377
G1 X134.38 Y142.27 E84.31711
G1 X134.38 Y142.07 E84.32654
G1 X134.58 Y141.87 E84.33988
G1 X134.58 Y141.67 E84.34931
G1 X134.78 Y141.47 E84.36265
G1 X134.78 Y141.27 E84.37208
G1 X135.58 Y140.47 E84.42543
G1 X135.58 Y140.27 E84.43486
G1 X135.78 Y140.07 E84.44820
G1 X135.78 Y139.87 E84.45763
G1 X137.58 Y138.07 E84.57767
G0 F12000 X137.18 Y137.90
G1 F2700 X137.18 Y137.28 E84.60733
G1 X138.43 Y136.65 E84.67353
G1 X139.03 Y136.05 E84.71355
G1 X139.43 Y135.85 E84.73457
G1 X140.03 Y135.25 E84.77465
G1 X141.23 Y134.65 E84.83786
G1 X141.63 Y134.25 E84.86460
G1 X142.83 Y133.65 E84.92781
G1 X143.03 Y133.45 E84.94121
G1 X143.94 Y132.99 E84.98923
G1 X144.89 Y132.76 E85.03527
G1 X145.27 Y132.63 E85.05410
G1 X145.74 Y132.39 E85.07913
G1 X148.62 Y131.67 E85.21884
G1 X156.83 Y131.67 E85.60628
G1 X157.84 Y131.93 E85.65528
G1 X159.06 Y132.17 E85.71400
G1 X159.91 Y132.59 E85.75858
G1 X162.27 Y133.18 E85.87329
G1 X162.23 Y133.55 E85.89085
G1 X162.82 Y133.85 E85.92211
G1 X163.02 Y134.05 E85.93551
G1 X163.42 Y134.25 E85.95654
G1 X163.82 Y134.65 E85.98328
G1 X165.02 Y135.25 E86.04649
G1 X166.02 Y136.25 E86.11324
G1 X166.42 Y136.45 E86.13427
G1 X168.88 Y138.90 E86.29806
G1 X168.88 Y139.10 E86.30749
G1 X169.48 Y139.70 E86.34751
G1 X169.48 Y139.90 E86.35694
G1 X170.28 Y140.70 E86.41029
G1 X170.28 Y140.90 E86.41972
G1 X170.48 Y141.10 E86.43306
G1 X170.48 Y141.30 E86.44249
G1 X170.68 Y141.50 E86.45583
G1 X170.68 Y141.70 E86.46526
G1 X170.88 Y141.90 E86.47860
G1 X170.88 Y142.10 E86.48803
G1 X171.08 Y142.30 E86.50137
G1 X171.08 Y142.50 E86.51080
G1 X171.48 Y142.90 E86.53747
G1 X171.48 Y143.10 E86.54691
G1 X171.68 Y143.30 E86.56024
G1 X171.68 Y143.50 E86.56968
G1 X171.88 Y143.70 E86.58301
G1 X171.88 Y143.90 E86.59245
G1 X172.08 Y144.10 E86.60578
G1 X172.08 Y144.30 E86.61521
G1 X172.28 Y144.50 E86.62855
G1 X172.28 Y144.70 E86.63798
G1 X172.48 Y144.90 E86.65132
G1 X172.48 Y145.30 E86.67018
G1 X172.68 Y145.50 E86.68352
G1 X172.68 Y146.10 E86.71182
G1 X172.88 Y146.30 E86.72516
G1 X172.88 Y146.90 E86.75345
G1 X173.08 Y147.10 E86.76679
G1 X173.08 Y147.70 E86.79508
G1 X173.28 Y147.90 E86.80842
G1 X173.28 Y149.50 E86.88387
G1 X173.48 Y149.70 E86.89721
G1 X173.48 Y155.04 E87.14903
G1 X173.28 Y155.24 E87.16237
G1 X173.28 Y156.84 E87.23782
G1 X173.08 Y157.04 E87.25115
G1 X173.08 Y157.64 E87.27945
G1 X172.88 Y157.84 E87.29279
G1 X172.88 Y158.64 E87.33051
G1 X172.68 Y158.84 E87.34385
G1 X172.68 Y159.44 E87.37214
G1 X172.48 Y159.64 E87.38548
G1 X172.48 Y159.84 E87.39491
G1 X172.28 Y160.04 E87.40825
G1 X172.28 Y160.24 E87.41768
G1 X172.08 Y160.44 E87.43102
G1 X172.08 Y160.64 E87.44045
G1 X171.88 Y160.84 E87.45379
G1 X171.88 Y161.04 E87.46322
G1 X171.68 Y161.24 E87.47656
G1 X171.68 Y161.44 E87.48599
G1 X171.48 Y161.64 E87.49933
G1 X171.48 Y161.84 E87.50876
G1 X171.28 Y162.04 E87.52210
G1 X171.28 Y162.24 E87.53153
G1 X171.08 Y162.44 E87.54487
G1 X171.08 Y162.64 E87.55430
G1 X170.88 Y162.84 E87.56764
G1 X170.88 Y163.04 E87.57707
G1 X170.48 Y163.44 E87.60375
G1 X170.48 Y163.64 E87.61318
G1 X170.28 Y163.84 E87.62651
G1 X170.28 Y164.04 E87.63595
G1 X169.68 Y164.64 E87.67596
G1 X169.68 Y164.84 E87.68539
G1 X169.28 Y165.24 E87.71207
G1 X169.28 Y165.44 E87.72150
G1 X166.02 Y168.70 E87.93864
G1 X165.62 Y168.90 E87.95967
G1 X165.02 Y169.50 E87.99975
G1 X164.62 Y169.70 E88.02077
G1 X164.22 Y170.10 E88.04752
G1 X163.42 Y170.50 E88.08963
G1 X163.22 Y170.70 E88.10304
G1 X160.31 Y172.16 E88.25650
G1 X159.51 Y172.35 E88.29535
G1 X158.66 Y172.78 E88.33995
G1 X157.44 Y173.02 E88.39895
G1 X156.56 Y173.24 E88.44149
G1 X154.71 Y173.47 E88.52965
G1 X150.96 Y173.47 E88.70634
G1 X148.90 Y173.25 E88.80389
G1 X146.14 Y172.56 E88.93811
G1 X145.39 Y172.18 E88.97788
G1 X144.39 Y171.98 E89.02596
G1 X143.03 Y171.30 E89.09750
G1 X142.83 Y171.10 E89.11090
G1 X140.83 Y170.10 E89.21629
G1 X140.43 Y169.70 E89.24303
G1 X140.03 Y169.50 E89.26406
G1 X139.43 Y168.90 E89.30414
G1 X139.03 Y168.70 E89.32516
G1 X138.43 Y168.10 E89.36524
G1 X138.03 Y167.90 E89.38627
G1 X135.98 Y165.84 E89.52338
G1 X135.98 Y165.64 E89.53282
G1 X135.38 Y165.04 E89.57283
G1 X135.38 Y164.84 E89.58226
G1 X134.98 Y164.44 E89.60894
G1 X134.98 Y164.24 E89.61837
G1 X134.38 Y163.64 E89.65838
G1 X134.38 Y163.44 E89.66781
G1 X134.18 Y163.24 E89.68115
G1 X134.18 Y163.04 E89.69058
G1 X133.78 Y162.64 E89.71726
G1 X133.78 Y162.44 E89.72669
G1 X133.58 Y162.24 E89.74003
G1 X133.58 Y162.04 E89.74946
G1 X133.38 Y161.84 E89.76280
G1 X133.38 Y161.64 E89.77223
G1 X133.18 Y161.44 E89.78557
G1 X133.18 Y161.24 E89.79500
G1 X132.98 Y161.04 E89.80834
G1 X132.98 Y160.84 E89.81777
G1 X132.78 Y160.64 E89.83111
G1 X132.78 Y160.44 E89.84054
G1 X132.58 Y160.24 E89.85388
G1 X132.58 Y160.04 E89.86331
G1 X132.38 Y159.84 E89.87665
G1 X132.38 Y159.24 E89.90494
G1 X132.18 Y159.04 E89.91828
G1 X132.18 Y158.84 E89.92771
G1 X131.98 Y158.64 E89.94105
G1 X131.98 Y157.84 E89.97877
G1 X131.78 Y157.64 E89.99211
G1 X131.78 Y157.04 E90.02040
G1 X131.58 Y156.84 E90.03374
G1 X131.58 Y147.90 E90.45533
G1 X131.78 Y147.70 E90.46866
G1 X131.78 Y147.10 E90.49696
G1 X131.98 Y146.90 E90.51030
G1 X131.98 Y146.30 E90.53859
G1 X132.18 Y146.10 E90.55193
G1 X132.18 Y145.90 E90.56136
G1 X132.38 Y145.70 E90.57470
G1 X132.38 Y145.10 E90.60299
G1 X132.58 Y144.90 E90.61633
G1 X132.58 Y144.50 E90.63519
G1 X132.78 Y144.30 E90.64853
G1 X132.78 Y144.10 E90.65796
G1 X132.98 Y143.90 E90.67130
G1 X132.98 Y143.70 E90.68073
G1 X133.18 Y143.50 E90.69407
G1 X133.18 Y143.30 E90.70350
G1 X133.58 Y142.90 E90.73018
G1 X133.58 Y142.70 E90.73961
G1 X133.78 Y142.50 E90.75295
G1 X133.78 Y142.30 E90.76238
G1 X133.98 Y142.10 E90.77572
G1 X133.98 Y141.90 E90.78515
G1 X134.18 Y141.70 E90.79849
G1 X134.18 Y141.50 E90.80792
G1 X134.38 Y141.30 E90.82126
G1 X134.38 Y141.10 E90.83069
G1 X135.18 Y140.30 E90.88404
G1 X135.18 Y140.10 E90.89347
G1 X135.38 Y139.90 E90.90681
G1 X135.38 Y139.70 E90.91624
G1 X137.18 Y137.90 E91.03628
G0 F12000 X136.78 Y137.74
G1 F2700 X136.78 Y137.03 E91.06976
G1 X138.19 Y136.32 E91.14450
G1 X138.79 Y135.72 E91.18455
G1 X139.19 Y135.52 E91.20560
G1 X139.79 Y134.92 E91.24565
G1 X141.00 Y134.32 E91.30891
G1 X141.40 Y133.92 E91.33559
G1 X142.59 Y133.32 E91.39882
G1 X142.79 Y133.12 E91.41222
G1 X143.80 Y132.62 E91.46539
G1 X144.78 Y132.37 E91.51260
G1 X145.12 Y132.26 E91.52969
G1 X145.60 Y132.02 E91.55525
G1 X148.57 Y131.27 E91.69934
G1 X156.88 Y131.27 E92.09149
G1 X157.94 Y131.54 E92.14258
G1 X159.19 Y131.79 E92.20312
G1 X160.05 Y132.22 E92.24811
G1 X162.71 Y132.88 E92.37730
G1 X162.66 Y133.32 E92.39818
G1 X163.06 Y133.52 E92.41931
G1 X163.26 Y133.72 E92.43271
G1 X163.66 Y133.92 E92.45376
G1 X164.06 Y134.32 E92.48044
G1 X165.26 Y134.92 E92.54371
G1 X166.26 Y135.92 E92.61043
G1 X166.66 Y136.12 E92.63148
G1 X169.28 Y138.74 E92.80610
G1 X169.28 Y138.94 E92.81554
G1 X169.88 Y139.54 E92.85555
G1 X169.88 Y139.74 E92.86498
G1 X170.68 Y140.54 E92.91833
G1 X170.68 Y140.74 E92.92776
G1 X170.88 Y140.94 E92.94110
G1 X170.88 Y141.14 E92.95053
G1 X171.08 Y141.34 E92.96387
G1 X171.08 Y141.54 E92.97330
G1 X171.28 Y141.74 E92.98664
G1 X171.28 Y141.94 E92.99607
G1 X171.48 Y142.14 E93.00941
G1 X171.48 Y142.34 E93.01884
G1 X171.88 Y142.74 E93.04552
G1 X171.88 Y142.94 E93.05495
G1 X172.08 Y143.14 E93.06829
G1 X172.08 Y143.34 E93.07772
G1 X172.28 Y143.54 E93.09106
G1 X172.28 Y143.74 E93.10049
G1 X172.48 Y143.94 E93.11383
G1 X172.48 Y144.14 E93.12326
G1 X172.68 Y144.34 E93.13660
G1 X172.68 Y144.54 E93.14603
G1 X172.88 Y144.74 E93.15937
G1 X172.88 Y145.14 E93.17823
G1 X173.08 Y145.34 E93.19157
G1 X173.08 Y145.94 E93.21986
G1 X173.28 Y146.14 E93.23320
G1 X173.28 Y146.74 E93.26149
G1 X173.48 Y146.94 E93.27483
G1 X173.48 Y147.54 E93.30312
G1 X173.68 Y147.74 E93.31646
G1 X173.68 Y149.34 E93.39191
G1 X173.88 Y149.54 E93.40525
G1 X173.88 Y155.21 E93.67273
G1 X173.68 Y155.41 E93.68606
G1 X173.68 Y157.01 E93.76152
G1 X173.48 Y157.21 E93.77485
G1 X173.48 Y157.81 E93.80315
G1 X173.28 Y158.01 E93.81649
G1 X173.28 Y158.81 E93.85421
G1 X173.08 Y159.01 E93.86755
G1 X173.08 Y159.61 E93.89584
G1 X172.88 Y159.81 E93.90918
G1 X172.88 Y160.01 E93.91861
G1 X172.68 Y160.21 E93.93195
G1 X172.68 Y160.41 E93.94138
G1 X172.48 Y160.61 E93.95472
G1 X172.48 Y160.81 E93.96415
G1 X172.28 Y161.01 E93.97749
G1 X172.28 Y161.21 E93.98692
G1 X172.08 Y161.41 E94.00026
G1 X172.08 Y161.61 E94.00969
G1 X171.88 Y161.81 E94.02303
G1 X171.88 Y162.01 E94.03246
G1 X171.68 Y162.21 E94.04580
G1 X171.68 Y162.41 E94.05523
G1 X171.48 Y162.61 E94.06857
G1 X171.48 Y162.81 E94.07800
G1 X171.28 Y163.01 E94.09134
G1 X171.28 Y163.21 E94.10077
G1 X170.88 Y163.61 E94.12744
G1 X170.88 Y163.81 E94.13688
G1 X170.68 Y164.01 E94.15021
G1 X170.68 Y164.21 E94.15965
G1 X170.08 Y164.81 E94.19966
G1 X170.08 Y165.01 E94.20909
G1 X169.68 Y165.41 E94.23577
G1 X169.68 Y165.61 E94.24520
G1 X166.26 Y169.03 E94.47318
G1 X165.86 Y169.23 E94.49423
G1 X165.26 Y169.83 E94.53427
G1 X164.86 Y170.03 E94.55532
G1 X164.46 Y170.43 E94.58203
G1 X163.66 Y170.83 E94.62421
G1 X163.46 Y171.03 E94.63755
G1 X160.45 Y172.53 E94.79618
G1 X159.65 Y172.73 E94.83487
G1 X158.79 Y173.16 E94.88007
G1 X157.53 Y173.41 E94.94089
G1 X156.64 Y173.64 E94.98435
G1 X154.73 Y173.87 E95.07484
G1 X150.94 Y173.87 E95.25375
G1 X148.83 Y173.64 E95.35362
G1 X146.00 Y172.93 E95.49120
G1 X145.26 Y172.56 E95.53058
G1 X144.26 Y172.36 E95.57857
G1 X142.79 Y171.63 E95.65571
G1 X142.59 Y171.43 E95.66905
G1 X140.59 Y170.43 E95.77450
G1 X140.19 Y170.03 E95.80120
G1 X139.79 Y169.83 E95.82225
G1 X139.19 Y169.23 E95.86230
G1 X138.79 Y169.03 E95.88335
G1 X138.19 Y168.43 E95.92339
G1 X137.79 Y168.23 E95.94444
G1 X135.58 Y166.01 E96.09239
G1 X135.58 Y165.81 E96.10182
G1 X134.98 Y165.21 E96.14184
G1 X134.98 Y165.01 E96.15127
G1 X134.58 Y164.61 E96.17795
G1 X134.58 Y164.41 E96.18738
G1 X133.98 Y163.81 E96.22739
G1 X133.98 Y163.61 E96.23682
G1 X133.78 Y163.41 E96.25016
G1 X133.78 Y163.21 E96.25959
G1 X133.38 Y162.81 E96.28627
G1 X133.38 Y162.61 E96.29570
G1 X133.18 Y162.41 E96.30904
G1 X133.18 Y162.21 E96.31847
G1 X132.98 Y162.01 E96.33181
G1 X132.98 Y161.81 E96.34124
G1 X132.78 Y161.61 E96.35458
G1 X132.78 Y161.41 E96.36401
G1 X132.58 Y161.21 E96.37735
G1 X132.58 Y161.01 E96.38678
G1 X132.38 Y160.81 E96.40012
G1 X132.38 Y160.61 E96.40955
G1 X132.18 Y160.41 E96.42288
G1 X132.18 Y160.21 E96.43232
G1 X131.98 Y160.01 E96.44565
G1 X131.98 Y159.41 E96.47395
G1 X131.78 Y159.21 E96.48729
G1 X131.78 Y159.01 E96.49672
G1 X131.58 Y158.81 E96.51006
G1 X131.58 Y158.01 E96.54778
G1 X131.38 Y157.81 E96.56112
G1 X131.38 Y157.21 E96.58941
G1 X131.18 Y157.01 E96.60275
G1 X131.18 Y147.74 E97.03999
G1 X131.38 Y147.54 E97.05333
G1 X131.38 Y146.94 E97.08162
G1 X131.58 Y146.74 E97.09496
G1 X131.58 Y146.14 E97.12326
G1 X131.78 Y145.94 E97.13659
G1 X131.78 Y145.74 E97.14603
G1 X131.98 Y145.54 E97.15936
G1 X131.98 Y144.94 E97.18766
G1 X132.18 Y144.74 E97.20100
G1 X132.18 Y144.34 E97.21986
G1 X132.38 Y144.14 E97.23320
G1 X132.38 Y143.94 E97.24263
G1 X132.58 Y143.74 E97.25597
G1 X132.58 Y143.54 E97.26540
G1 X132.78 Y143.34 E97.27874
G1 X132.78 Y143.14 E97.28817
G1 X133.18 Y142.74 E97.31484
G1 X133.18 Y142.54 E97.32427
G1 X133.38 Y142.34 E97.33761
G1 X133.38 Y142.14 E97.34704
G1 X133.58 Y141.94 E97.36038
G1 X133.58 Y141.74 E97.36981
G1 X133.78 Y141.54 E97.38315
G1 X133.78 Y141.34 E97.39258
G1 X133.98 Y141.14 E97.40592
G1 X133.98 Y140.94 E97.41535
G1 X134.78 Y140.14 E97.46870
G1 X134.78 Y139.94 E97.47814
G1 X134.98 Y139.74 E97.49147
G1 X134.98 Y139.54 E97.50090
G1 X136.78 Y137.74 E97.62095
G0 F12000 X136.38 Y137.57
G1 F2700 X136.38 Y136.78 E97.65830
G1 X137.96 Y135.99 E97.74162
G1 X138.56 Y135.39 E97.78167
G1 X138.96 Y135.19 E97.80271
G1 X139.56 Y134.59 E97.84276
G1 X140.76 Y133.99 E97.90603
G1 X141.16 Y133.59 E97.93270
G1 X142.36 Y132.99 E97.99593
G1 X142.56 Y132.79 E98.00933
G1 X143.66 Y132.24 E98.06763
G1 X144.67 Y131.99 E98.11638
G1 X144.96 Y131.89 E98.13104
G1 X145.47 Y131.64 E98.15755
G1 X148.52 Y130.87 E98.30601
G1 X156.93 Y130.87 E98.70279
G1 X158.02 Y131.15 E98.75577
G1 X159.32 Y131.41 E98.81833
G1 X160.19 Y131.84 E98.86386
G1 X163.14 Y132.58 E99.00746
G1 X163.08 Y133.09 E99.03166
G1 X163.29 Y133.19 E99.04273
G1 X163.49 Y133.39 E99.05607
G1 X163.89 Y133.59 E99.07716
G1 X164.29 Y133.99 E99.10384
G1 X165.49 Y134.59 E99.16710
G1 X166.50 Y135.59 E99.23383
G1 X166.89 Y135.79 E99.25487
G1 X169.68 Y138.57 E99.44041
G1 X169.68 Y138.77 E99.44984
G1 X170.28 Y139.37 E99.48985
G1 X170.28 Y139.57 E99.49924
G1 X171.08 Y140.37 E99.55262
G1 X171.08 Y140.57 E99.56205
G1 X171.28 Y140.77 E99.57539
G1 X171.28 Y140.97 E99.58482
G1 X171.48 Y141.17 E99.59816
G1 X171.48 Y141.37 E99.60759
G1 X171.68 Y141.57 E99.62093
G1 X171.68 Y141.77 E99.63036
G1 X171.88 Y141.97 E99.64370
G1 X171.88 Y142.17 E99.65313
G1 X172.28 Y142.57 E99.67981
G1 X172.28 Y142.77 E99.68924
G1 X172.48 Y142.97 E99.70258
G1 X172.48 Y143.17 E99.71201
G1 X172.68 Y143.37 E99.72535
G1 X172.68 Y143.57 E99.73478
G1 X172.88 Y143.77 E99.74812
G1 X172.88 Y143.97 E99.75755
G1 X173.08 Y144.17 E99.77088
G1 X173.08 Y144.37 E99.78032
G1 X173.28 Y144.57 E99.79365
G1 X173.28 Y144.97 E99.81252
G1 X173.48 Y145.17 E99.82585
G1 X173.48 Y145.77 E99.85415
G1 X173.68 Y145.97 E99.86749
G1 X173.68 Y146.57 E99.89578
G1 X173.88 Y146.77 E99.90912
G1 X173.88 Y147.37 E99.93741
G1 X174.08 Y147.57 E99.95075
G1 X174.08 Y149.17 E100.02620
G1 X174.28 Y149.37 E100.03954
G1 X174.28 Y155.38 E100.32258
G1 X174.08 Y155.57 E100.33592
G1 X174.08 Y157.18 E100.41137
G1 X173.88 Y157.38 E100.42470
G1 X173.88 Y157.97 E100.45300
G1 X173.68 Y158.18 E100.46634
G1 X173.68 Y158.97 E100.50406
G1 X173.48 Y159.18 E100.51740
G1 X173.48 Y159.78 E100.54569
G1 X173.28 Y159.97 E100.55903
G1 X173.28 Y160.18 E100.56846
G1 X173.08 Y160.38 E100.58180
G1 X173.08 Y160.57 E100.59123
G1 X172.88 Y160.78 E100.60457
G1 X172.88 Y160.97 E100.61400
G1 X172.68 Y161.18 E100.62734
G1 X172.68 Y161.38 E100.63677
G1 X172.48 Y161.57 E100.65011
G1 X172.48 Y161.78 E100.65954
G1 X172.28 Y161.97 E100.67288
G1 X172.28 Y162.18 E100.68231
G1 X172.08 Y162.38 E100.69565
G1 X172.08 Y162.57 E100.70508
G1 X171.88 Y162.78 E100.71842
G1 X171.88 Y162.97 E100.72785
G1 X171.68 Y163.18 E100.74119
G1 X171.68 Y163.38 E100.75062
G1 X171.28 Y163.78 E100.77730
G1 X171.28 Y163.97 E100.78673
G1 X171.08 Y164.18 E100.80006
G1 X171.08 Y164.38 E100.80950
G1 X170.48 Y164.97 E100.84951
G1 X170.48 Y165.18 E100.85894
G1 X170.08 Y165.57 E100.88562
G1 X170.08 Y165.78 E100.89505
G1 X166.49 Y169.36 E101.13393
G1 X166.09 Y169.56 E101.15498
G1 X165.49 Y170.16 E101.19503
G1 X165.09 Y170.36 E101.21607
G1 X164.69 Y170.76 E101.24278
G1 X163.89 Y171.16 E101.28496
G1 X163.69 Y171.36 E101.29830
G1 X160.59 Y172.91 E101.46206
G1 X159.79 Y173.11 E101.50089
G1 X158.93 Y173.54 E101.54642
G1 X157.62 Y173.80 E101.60926
G1 X156.71 Y174.03 E101.65346
G1 X154.76 Y174.27 E101.74627
G1 X150.91 Y174.27 E101.92745
G1 X148.76 Y174.03 E102.02960
G1 X145.86 Y173.31 E102.17047
G1 X145.13 Y172.94 E102.20934
G1 X144.13 Y172.74 E102.25742
G1 X142.56 Y171.96 E102.34015
G1 X142.36 Y171.76 E102.35349
G1 X140.36 Y170.76 E102.45894
G1 X139.96 Y170.36 E102.48565
G1 X139.56 Y170.16 E102.50669
G1 X138.96 Y169.56 E102.54674
G1 X138.56 Y169.36 E102.56779
G1 X137.96 Y168.76 E102.60784
G1 X137.56 Y168.56 E102.62888
G1 X135.18 Y166.18 E102.78774
G1 X135.18 Y165.97 E102.79717
G1 X134.58 Y165.38 E102.83719
G1 X134.58 Y165.18 E102.84662
G1 X134.18 Y164.78 E102.87329
G1 X134.18 Y164.57 E102.88272
G1 X133.58 Y163.97 E102.92274
G1 X133.58 Y163.78 E102.93217
G1 X133.38 Y163.57 E102.94551
G1 X133.38 Y163.38 E102.95494
G1 X132.98 Y162.97 E102.98161
G1 X132.98 Y162.78 E102.99105
G1 X132.78 Y162.57 E103.00438
G1 X132.78 Y162.38 E103.01382
G1 X132.58 Y162.18 E103.02715
G1 X132.58 Y161.97 E103.03659
G1 X132.38 Y161.78 E103.04992
G1 X132.38 Y161.57 E103.05935
G1 X132.18 Y161.38 E103.07269
G1 X132.18 Y161.18 E103.08212
G1 X131.98 Y160.97 E103.09546
G1 X131.98 Y160.78 E103.10489
G1 X131.78 Y160.57 E103.11823
G1 X131.78 Y160.38 E103.12766
G1 X131.58 Y160.18 E103.14100
G1 X131.58 Y159.57 E103.16930
G1 X131.38 Y159.38 E103.18263
G1 X131.38 Y159.18 E103.19206
G1 X131.18 Y158.97 E103.20540
G1 X131.18 Y158.18 E103.24313
G1 X130.98 Y157.97 E103.25647
G1 X130.98 Y157.38 E103.28476
G1 X130.78 Y157.18 E103.29810
G1 X130.78 Y147.57 E103.75090
G1 X130.98 Y147.37 E103.76424
G1 X130.98 Y146.77 E103.79253
G1 X131.18 Y146.57 E103.80587
G1 X131.18 Y145.97 E103.83416
G1 X131.38 Y145.77 E103.84750
G1 X131.38 Y145.57 E103.85693
G1 X131.58 Y145.37 E103.87027
G1 X131.58 Y144.77 E103.89857
G1 X131.78 Y144.57 E103.91190
G1 X131.78 Y144.17 E103.93077
G1 X131.98 Y143.97 E103.94411
G1 X131.98 Y143.77 E103.95354
G1 X132.18 Y143.57 E103.96687
G1 X132.18 Y143.37 E103.97631
G1 X132.38 Y143.17 E103.98964
G1 X132.38 Y142.97 E103.99908
G1 X132.78 Y142.57 E104.02575
G1 X132.78 Y142.37 E104.03518
G1 X132.98 Y142.17 E104.04852
G1 X132.98 Y141.97 E104.05795
G1 X133.18 Y141.77 E104.07129
G1 X133.18 Y141.57 E104.08072
G1 X133.38 Y141.37 E104.09406
G1 X133.38 Y141.17 E104.10349
G1 X133.58 Y140.97 E104.11683
G1 X133.58 Y140.77 E104.12626
G1 X134.38 Y139.97 E104.17965
G1 X134.38 Y139.77 E104.18903
G1 X134.58 Y139.57 E104.20237
G1 X134.58 Y139.37 E104.21180
G1 X136.38 Y137.57 E104.33188
G0 F12000 X135.98 Y137.41
G1 F2700 X135.98 Y136.53 E104.37314
G1 X137.72 Y135.66 E104.46515
G1 X138.32 Y135.06 E104.50513
G1 X138.72 Y134.86 E104.52633
G1 X139.32 Y134.26 E104.56624
G1 X140.52 Y133.66 E104.62961
G1 X140.92 Y133.26 E104.65619
G1 X142.12 Y132.66 E104.71963
G1 X142.32 Y132.46 E104.73283
G1 X143.53 Y131.86 E104.79625
G1 X144.55 Y131.60 E104.84603
G1 X144.81 Y131.52 E104.85905
G1 X145.33 Y131.26 E104.88617
G1 X148.47 Y130.47 E105.03901
G1 X156.98 Y130.47 E105.44041
G1 X158.10 Y130.75 E105.49461
G1 X159.46 Y131.02 E105.55991
G1 X160.33 Y131.46 E105.60597
G1 X163.58 Y132.27 E105.76395
G1 X163.51 Y132.85 E105.79147
G1 X163.53 Y132.86 E105.79238
G1 X163.73 Y133.06 E105.80565
G1 X164.13 Y133.26 E105.82681
G1 X164.53 Y133.66 E105.85338
G1 X165.73 Y134.26 E105.91676
G1 X166.73 Y135.26 E105.98335
G1 X167.13 Y135.46 E106.00454
G1 X170.08 Y138.41 E106.20094
G1 X170.08 Y138.61 E106.21037
G1 X170.68 Y139.21 E106.25039
G1 X170.68 Y139.41 E106.25987
G1 X171.48 Y140.21 E106.31318
G1 X171.48 Y140.41 E106.32262
G1 X171.68 Y140.61 E106.33595
G1 X171.68 Y140.81 E106.34539
G1 X171.88 Y141.01 E106.35872
G1 X171.88 Y141.21 E106.36816
G1 X172.08 Y141.41 E106.38149
G1 X172.08 Y141.61 E106.39092
G1 X172.28 Y141.81 E106.40426
G1 X172.28 Y142.01 E106.41369
G1 X172.68 Y142.41 E106.44037
G1 X172.68 Y142.61 E106.44980
G1 X172.88 Y142.81 E106.46314
G1 X172.88 Y143.01 E106.47257
G1 X173.08 Y143.21 E106.48591
G1 X173.08 Y143.41 E106.49534
G1 X173.28 Y143.61 E106.50868
G1 X173.28 Y143.81 E106.51811
G1 X173.48 Y144.01 E106.53145
G1 X173.48 Y144.21 E106.54088
G1 X173.68 Y144.41 E106.55422
G1 X173.68 Y144.81 E106.57308
G1 X173.88 Y145.01 E106.58642
G1 X173.88 Y145.61 E106.61471
G1 X174.08 Y145.81 E106.62805
G1 X174.08 Y146.41 E106.65634
G1 X174.28 Y146.61 E106.66968
G1 X174.28 Y147.21 E106.69798
G1 X174.48 Y147.41 E106.71131
G1 X174.48 Y149.01 E106.78677
G1 X174.68 Y149.21 E106.80010
G1 X174.68 Y155.54 E107.09880
G1 X174.48 Y155.74 E107.11213
G1 X174.48 Y157.34 E107.18759
G1 X174.28 Y157.54 E107.20092
G1 X174.28 Y158.14 E107.22922
G1 X174.08 Y158.34 E107.24256
G1 X174.08 Y159.14 E107.28028
G1 X173.88 Y159.34 E107.29362
G1 X173.88 Y159.94 E107.32191
G1 X173.68 Y160.14 E107.33525
G1 X173.68 Y160.34 E107.34468
G1 X173.48 Y160.54 E107.35802
G1 X173.48 Y160.74 E107.36745
G1 X173.28 Y160.94 E107.38079
G1 X173.28 Y161.14 E107.39022
G1 X173.08 Y161.34 E107.40356
G1 X173.08 Y161.54 E107.41299
G1 X172.88 Y161.74 E107.42633
G1 X172.88 Y161.94 E107.43576
G1 X172.68 Y162.14 E107.44910
G1 X172.68 Y162.34 E107.45853
G1 X172.48 Y162.54 E107.47187
G1 X172.48 Y162.74 E107.48130
G1 X172.28 Y162.94 E107.49464
G1 X172.28 Y163.14 E107.50407
G1 X172.08 Y163.34 E107.51741
G1 X172.08 Y163.54 E107.52684
G1 X171.68 Y163.94 E107.55351
G1 X171.68 Y164.14 E107.56295
G1 X171.48 Y164.34 E107.57628
G1 X171.48 Y164.54 E107.58572
G1 X170.88 Y165.14 E107.62573
G1 X170.88 Y165.34 E107.63516
G1 X170.48 Y165.74 E107.66184
G1 X170.48 Y165.94 E107.67127
G1 X166.73 Y169.69 E107.92102
G1 X166.33 Y169.89 E107.94222
G1 X165.73 Y170.49 E107.98213
G1 X165.33 Y170.69 E108.00333
G1 X164.93 Y171.09 E108.02990
G1 X164.13 Y171.49 E108.07214
G1 X163.93 Y171.69 E108.08542
G1 X161.94 Y172.68 E108.19033
G1 X160.73 Y173.29 E108.25432
G1 X159.93 Y173.49 E108.29310
G1 X159.06 Y173.92 E108.33910
G1 X157.71 Y174.19 E108.40383
G1 X156.78 Y174.42 E108.44892
G1 X154.78 Y174.67 E108.54403
G1 X150.89 Y174.67 E108.72742
G1 X148.69 Y174.43 E108.83189
G1 X145.72 Y173.69 E108.97613
G1 X145.00 Y173.32 E109.01455
G1 X144.00 Y173.12 E109.06254
G1 X142.32 Y172.29 E109.15091
G1 X142.12 Y172.09 E109.16415
G1 X140.12 Y171.09 E109.26970
G1 X139.72 Y170.69 E109.29627
G1 X139.32 Y170.49 E109.31747
G1 X138.72 Y169.89 E109.35738
G1 X138.32 Y169.69 E109.37858
G1 X137.72 Y169.09 E109.41849
G1 X137.32 Y168.89 E109.43969
G1 X134.78 Y166.34 E109.60941
G1 X134.78 Y166.14 E109.61884
G1 X134.18 Y165.54 E109.65886
G1 X134.18 Y165.34 E109.66829
G1 X133.78 Y164.94 E109.69496
G1 X133.78 Y164.74 E109.70440
G1 X133.18 Y164.14 E109.74441
G1 X133.18 Y163.94 E109.75384
G1 X132.98 Y163.74 E109.76718
G1 X132.98 Y163.54 E109.77661
G1 X132.58 Y163.14 E109.80329
G1 X132.58 Y162.94 E109.81272
G1 X132.38 Y162.74 E109.82606
G1 X132.38 Y162.54 E109.83549
G1 X132.18 Y162.34 E109.84883
G1 X132.18 Y162.14 E109.85826
G1 X131.98 Y161.94 E109.87160
G1 X131.98 Y161.74 E109.88103
G1 X131.78 Y161.54 E109.89436
G1 X131.78 Y161.34 E109.90380
G1 X131.58 Y161.14 E109.91713
G1 X131.58 Y160.94 E109.92657
G1 X131.38 Y160.74 E109.93990
G1 X131.38 Y160.54 E109.94933
G1 X131.18 Y160.34 E109.96267
G1 X131.18 Y159.74 E109.99097
G1 X130.98 Y159.54 E110.00430
G1 X130.98 Y159.34 E110.01374
G1 X130.78 Y159.14 E110.02707
G1 X130.78 Y158.34 E110.06480
G1 X130.58 Y158.14 E110.07814
G1 X130.58 Y157.54 E110.10643
G1 X130.38 Y157.34 E110.11977
G1 X130.38 Y147.41 E110.58823
G1 X130.58 Y147.21 E110.60157
G1 X130.58 Y146.61 E110.62986
G1 X130.78 Y146.41 E110.64320
G1 X130.78 Y145.81 E110.67149
G1 X130.98 Y145.61 E110.68483
G1 X130.98 Y145.41 E110.69426
G1 X131.18 Y145.21 E110.70760
G1 X131.18 Y144.61 E110.73589
G1 X131.38 Y144.41 E110.74923
G1 X131.38 Y144.01 E110.76810
G1 X131.58 Y143.81 E110.78143
G1 X131.58 Y143.61 E110.79086
G1 X131.78 Y143.41 E110.80420
G1 X131.78 Y143.21 E110.81363
G1 X131.98 Y143.01 E110.82697
G1 X131.98 Y142.81 E110.83640
G1 X132.38 Y142.41 E110.86308
G1 X132.38 Y142.21 E110.87251
G1 X132.58 Y142.01 E110.88585
G1 X132.58 Y141.81 E110.89528
G1 X132.78 Y141.61 E110.90862
G1 X132.78 Y141.41 E110.91805
G1 X132.98 Y141.21 E110.93139
G1 X132.98 Y141.01 E110.94082
G1 X133.18 Y140.81 E110.95416
G1 X133.18 Y140.61 E110.96359
G1 X133.98 Y139.81 E111.01691
G1 X133.98 Y139.61 E111.02639
G1 X134.18 Y139.41 E111.03972
G1 X134.18 Y139.21 E111.04916
G1 X135.98 Y137.41 E111.16916
G0 F12000 X135.58 Y137.24
G1 F2700 X135.58 Y136.29 E111.21425
G1 X137.49 Y135.33 E111.31486
G1 X138.08 Y134.73 E111.35484
G1 X138.49 Y134.53 E111.37598
G1 X139.08 Y133.93 E111.41596
G1 X140.28 Y133.33 E111.47922
G1 X140.68 Y132.93 E111.50590
G1 X141.88 Y132.33 E111.56921
G1 X142.09 Y132.13 E111.58255
G1 X143.38 Y131.48 E111.65107
G1 X144.44 Y131.22 E111.70236
G1 X144.66 Y131.15 E111.71310
G1 X145.19 Y130.88 E111.74102
G1 X148.42 Y130.07 E111.89823
G1 X157.03 Y130.07 E112.30430
G1 X158.19 Y130.36 E112.36064
G1 X159.59 Y130.64 E112.42777
G1 X160.47 Y131.08 E112.47421
G1 X164.02 Y131.97 E112.64672
G1 X163.93 Y132.70 E112.68131
G1 X163.97 Y132.73 E112.68358
G1 X164.37 Y132.93 E112.70467
G1 X164.77 Y133.33 E112.73134
G1 X165.97 Y133.93 E112.79461
G1 X166.97 Y134.93 E112.86127
G1 X167.37 Y135.13 E112.88240
G1 X170.48 Y138.24 E113.08967
G1 X170.48 Y138.44 E113.09910
G1 X171.08 Y139.04 E113.13912
G1 X171.08 Y139.24 E113.14855
G1 X171.88 Y140.04 E113.20190
G1 X171.88 Y140.24 E113.21133
G1 X172.08 Y140.44 E113.22467
G1 X172.08 Y140.64 E113.23410
G1 X172.28 Y140.84 E113.24744
G1 X172.28 Y141.04 E113.25687
G1 X172.48 Y141.24 E113.27021
G1 X172.48 Y141.44 E113.27964
G1 X172.68 Y141.64 E113.29298
G1 X172.68 Y141.84 E113.30241
G1 X173.08 Y142.24 E113.32909
G1 X173.08 Y142.44 E113.33852
G1 X173.28 Y142.64 E113.35186
G1 X173.28 Y142.84 E113.36129
G1 X173.48 Y143.04 E113.37462
G1 X173.48 Y143.24 E113.38406
G1 X173.68 Y143.44 E113.39739
G1 X173.68 Y143.64 E113.40683
G1 X173.88 Y143.84 E113.42016
G1 X173.88 Y144.04 E113.42959
G1 X174.08 Y144.24 E113.44293
G1 X174.08 Y144.64 E113.46180
G1 X174.28 Y144.84 E113.47513
G1 X174.28 Y145.44 E113.50343
G1 X174.48 Y145.64 E113.51677
G1 X174.48 Y146.24 E113.54506
G1 X174.68 Y146.44 E113.55840
G1 X174.68 Y147.04 E113.58669
G1 X174.88 Y147.24 E113.60003
G1 X174.88 Y148.84 E113.67548
G1 X175.08 Y149.04 E113.68882
G1 X175.08 Y155.71 E114.00317
G1 X174.88 Y155.91 E114.01651
G1 X174.88 Y157.51 E114.09196
G1 X174.68 Y157.71 E114.10530
G1 X174.68 Y158.31 E114.13359
G1 X174.48 Y158.51 E114.14693
G1 X174.48 Y159.31 E114.18465
G1 X174.28 Y159.51 E114.19799
G1 X174.28 Y160.11 E114.22629
G1 X174.08 Y160.31 E114.23962
G1 X174.08 Y160.51 E114.24906
G1 X173.88 Y160.71 E114.26239
G1 X173.88 Y160.91 E114.27182
G1 X173.68 Y161.11 E114.28516
G1 X173.68 Y161.31 E114.29459
G1 X173.48 Y161.51 E114.30793
G1 X173.48 Y161.71 E114.31736
G1 X173.28 Y161.91 E114.33070
G1 X173.28 Y162.11 E114.34013
G1 X173.08 Y162.31 E114.35347
G1 X173.08 Y162.51 E114.36290
G1 X172.88 Y162.71 E114.37624
G1 X172.88 Y162.91 E114.38567
G1 X172.68 Y163.11 E114.39901
G1 X172.68 Y163.31 E114.40844
G1 X172.48 Y163.51 E114.42178
G1 X172.48 Y163.71 E114.43121
G1 X172.08 Y164.11 E114.45789
G1 X172.08 Y164.31 E114.46732
G1 X171.88 Y164.51 E114.48066
G1 X171.88 Y164.71 E114.49009
G1 X171.28 Y165.31 E114.53010
G1 X171.28 Y165.51 E114.53953
G1 X170.88 Y165.91 E114.56621
G1 X170.88 Y166.11 E114.57564
G1 X166.97 Y170.01 E114.83627
G1 X166.57 Y170.22 E114.85740
G1 X165.97 Y170.81 E114.89738
G1 X165.57 Y171.01 E114.91851
G1 X165.17 Y171.41 E114.94515
G1 X164.37 Y171.81 E114.98733
G1 X164.17 Y172.01 E115.00067
G1 X162.12 Y173.04 E115.10865
G1 X160.87 Y173.66 E115.17474
G1 X160.07 Y173.86 E115.21343
G1 X159.19 Y174.31 E115.25993
G1 X157.80 Y174.58 E115.32653
G1 X156.86 Y174.82 E115.37251
G1 X154.81 Y175.07 E115.46994
G1 X150.87 Y175.07 E115.65555
G1 X148.62 Y174.82 E115.76235
G1 X145.58 Y174.06 E115.90994
G1 X144.86 Y173.70 E115.94790
G1 X143.87 Y173.50 E115.99589
G1 X142.08 Y172.62 E116.08982
G1 X141.88 Y172.41 E116.10315
G1 X139.88 Y171.41 E116.20860
G1 X139.49 Y171.01 E116.23524
G1 X139.08 Y170.81 E116.25638
G1 X138.49 Y170.22 E116.29636
G1 X138.08 Y170.01 E116.31749
G1 X137.49 Y169.41 E116.35747
G1 X137.08 Y169.22 E116.37860
G1 X134.38 Y166.51 E116.55920
G1 X134.38 Y166.31 E116.56863
G1 X133.78 Y165.71 E116.60864
G1 X133.78 Y165.51 E116.61807
G1 X133.38 Y165.11 E116.64475
G1 X133.38 Y164.91 E116.65418
G1 X132.78 Y164.31 E116.69419
G1 X132.78 Y164.11 E116.70363
G1 X132.58 Y163.91 E116.71696
G1 X132.58 Y163.71 E116.72640
G1 X132.18 Y163.31 E116.75307
G1 X132.18 Y163.11 E116.76250
G1 X131.98 Y162.91 E116.77584
G1 X131.98 Y162.71 E116.78527
G1 X131.78 Y162.51 E116.79861
G1 X131.78 Y162.31 E116.80804
G1 X131.58 Y162.11 E116.82138
G1 X131.58 Y161.91 E116.83081
G1 X131.38 Y161.71 E116.84415
G1 X131.38 Y161.51 E116.85358
G1 X131.18 Y161.31 E116.86692
G1 X131.18 Y161.11 E116.87635
G1 X130.98 Y160.91 E116.88969
G1 X130.98 Y160.71 E116.89912
G1 X130.78 Y160.51 E116.91246
G1 X130.78 Y159.91 E116.94075
G1 X130.58 Y159.71 E116.95409
G1 X130.58 Y159.51 E116.96352
G1 X130.38 Y159.31 E116.97686
G1 X130.38 Y158.51 E117.01459
G1 X130.18 Y158.31 E117.02792
G1 X130.18 Y157.71 E117.05622
G1 X129.98 Y157.51 E117.06956
G1 X129.98 Y147.24 E117.55367
G1 X130.18 Y147.04 E117.56701
G1 X130.18 Y146.44 E117.59530
G1 X130.38 Y146.24 E117.60864
G1 X130.38 Y145.64 E117.63693
G1 X130.58 Y145.44 E117.65027
G1 X130.58 Y145.24 E117.65970
G1 X130.78 Y145.04 E117.67304
G1 X130.78 Y144.44 E117.70134
G1 X130.98 Y144.24 E117.71467
G1 X130.98 Y143.84 E117.73354
G1 X131.18 Y143.64 E117.74687
G1 X131.18 Y143.44 E117.75631
G1 X131.38 Y143.24 E117.76964
G1 X131.38 Y143.04 E117.77908
G1 X131.58 Y142.84 E117.79241
G1 X131.58 Y142.64 E117.80184
G1 X131.98 Y142.24 E117.82852
G1 X131.98 Y142.04 E117.83795
G1 X132.18 Y141.84 E117.85129
G1 X132.18 Y141.64 E117.86072
G1 X132.38 Y141.44 E117.87406
G1 X132.38 Y141.24 E117.88349
G1 X132.58 Y141.04 E117.89683
G1 X132.58 Y140.84 E117.90626
G1 X132.78 Y140.64 E117.91960
G1 X132.78 Y140.44 E117.92903
G1 X133.58 Y139.64 E117.98238
G1 X133.58 Y139.44 E117.99181
G1 X133.78 Y139.24 E118.00515
G1 X133.78 Y139.04 E118.01458
G1 X135.58 Y137.24 E118.13459
G0 F12000 X135.18 Y137.08
G1 F2700 X135.18 Y136.04 E118.18354
G1 X137.25 Y135.00 E118.29280
G1 X137.85 Y134.41 E118.33268
G1 X138.25 Y134.21 E118.35377
G1 X138.85 Y133.60 E118.39379
G1 X140.05 Y133.00 E118.45712
G1 X140.45 Y132.60 E118.48373
G1 X141.65 Y132.00 E118.54706
G1 X141.85 Y131.80 E118.56040
G1 X143.25 Y131.11 E118.63408
G1 X144.32 Y130.84 E118.68644
G1 X144.51 Y130.77 E118.69569
G1 X145.05 Y130.51 E118.72403
G1 X148.37 Y129.67 E118.88562
G1 X157.08 Y129.67 E119.29636
G1 X158.28 Y129.97 E119.35459
G1 X159.72 Y130.26 E119.42374
G1 X160.61 Y130.71 E119.47071
G1 X164.45 Y131.67 E119.65755
G1 X164.36 Y132.48 E119.69627
G1 X164.60 Y132.60 E119.70920
G1 X165.00 Y133.00 E119.73581
G1 X166.21 Y133.60 E119.79914
G1 X167.21 Y134.60 E119.86583
G1 X167.60 Y134.81 E119.88692
G1 X170.88 Y138.08 E120.10506
G1 X170.88 Y138.28 E120.11449
G1 X171.48 Y138.88 E120.15451
G1 X171.48 Y139.08 E120.16394
G1 X172.28 Y139.88 E120.21729
G1 X172.28 Y140.08 E120.22672
G1 X172.48 Y140.28 E120.24006
G1 X172.48 Y140.48 E120.24949
G1 X172.68 Y140.68 E120.26283
G1 X172.68 Y140.88 E120.27226
G1 X172.88 Y141.08 E120.28560
G1 X172.88 Y141.28 E120.29503
G1 X173.08 Y141.48 E120.30837
G1 X173.08 Y141.68 E120.31780
G1 X173.48 Y142.08 E120.34448
G1 X173.48 Y142.28 E120.35391
G1 X173.68 Y142.48 E120.36725
G1 X173.68 Y142.68 E120.37668
G1 X173.88 Y142.88 E120.39002
G1 X173.88 Y143.08 E120.39945
G1 X174.08 Y143.28 E120.41279
G1 X174.08 Y143.48 E120.42222
G1 X174.28 Y143.68 E120.43555
G1 X174.28 Y143.88 E120.44499
G1 X174.48 Y144.08 E120.45832
G1 X174.48 Y144.48 E120.47719
G1 X174.68 Y144.68 E120.49053
G1 X174.68 Y145.28 E120.51882
G1 X174.88 Y145.48 E120.53216
G1 X174.88 Y146.08 E120.56045
G1 X175.08 Y146.28 E120.57379
G1 X175.08 Y146.88 E120.60208
G1 X175.28 Y147.08 E120.61542
G1 X175.28 Y148.68 E120.69087
G1 X175.48 Y148.88 E120.70421
G1 X175.48 Y155.87 E121.03412
G1 X175.28 Y156.07 E121.04746
G1 X175.28 Y157.67 E121.12291
G1 X175.08 Y157.87 E121.13625
G1 X175.08 Y158.47 E121.16454
G1 X174.88 Y158.67 E121.17788
G1 X174.88 Y159.47 E121.21561
G1 X174.68 Y159.67 E121.22894
G1 X174.68 Y160.27 E121.25724
G1 X174.48 Y160.47 E121.27058
G1 X174.48 Y160.67 E121.28001
G1 X174.28 Y160.87 E121.29335
G1 X174.28 Y161.07 E121.30278
G1 X174.08 Y161.27 E121.31612
G1 X174.08 Y161.47 E121.32555
G1 X173.88 Y161.67 E121.33889
G1 X173.88 Y161.87 E121.34832
G1 X173.68 Y162.07 E121.36165
G1 X173.68 Y162.27 E121.37109
G1 X173.48 Y162.47 E121.38442
G1 X173.48 Y162.67 E121.39386
G1 X173.28 Y162.87 E121.40719
G1 X173.28 Y163.07 E121.41662
G1 X173.08 Y163.27 E121.42996
G1 X173.08 Y163.47 E121.43939
G1 X172.88 Y163.67 E121.45273
G1 X172.88 Y163.87 E121.46216
G1 X172.48 Y164.27 E121.48884
G1 X172.48 Y164.47 E121.49827
G1 X172.28 Y164.67 E121.51161
G1 X172.28 Y164.87 E121.52104
G1 X171.68 Y165.47 E121.56105
G1 X171.68 Y165.67 E121.57049
G1 X171.28 Y166.07 E121.59716
G1 X171.28 Y166.27 E121.60659
G1 X167.21 Y170.34 E121.87809
G1 X166.81 Y170.54 E121.89918
G1 X166.21 Y171.14 E121.93919
G1 X165.81 Y171.34 E121.96028
G1 X165.41 Y171.74 E121.98696
G1 X164.60 Y172.14 E122.02920
G1 X164.41 Y172.34 E122.04247
G1 X162.30 Y173.40 E122.15351
G1 X161.01 Y174.04 E122.22167
G1 X160.21 Y174.24 E122.26045
G1 X159.32 Y174.69 E122.30735
G1 X157.89 Y174.97 E122.37602
G1 X156.93 Y175.21 E122.42272
G1 X154.83 Y175.47 E122.52243
G1 X150.85 Y175.47 E122.71026
G1 X148.55 Y175.22 E122.81938
G1 X145.44 Y174.44 E122.97027
G1 X144.73 Y174.09 E123.00787
G1 X143.74 Y173.89 E123.05581
G1 X141.85 Y172.94 E123.15535
G1 X141.65 Y172.74 E123.16862
G1 X139.65 Y171.74 E123.27413
G1 X139.25 Y171.34 E123.30081
G1 X138.85 Y171.14 E123.32190
G1 X138.25 Y170.54 E123.36191
G1 X137.85 Y170.34 E123.38300
G1 X137.25 Y169.74 E123.42301
G1 X136.85 Y169.54 E123.44410
G1 X133.98 Y166.67 E123.63557
G1 X133.98 Y166.47 E123.64500
G1 X133.38 Y165.87 E123.68502
G1 X133.38 Y165.67 E123.69445
G1 X132.98 Y165.27 E123.72112
G1 X132.98 Y165.07 E123.73055
G1 X132.38 Y164.47 E123.77057
G1 X132.38 Y164.27 E123.78000
G1 X132.18 Y164.07 E123.79334
G1 X132.18 Y163.87 E123.80277
G1 X131.78 Y163.47 E123.82945
G1 X131.78 Y163.27 E123.83888
G1 X131.58 Y163.07 E123.85221
G1 X131.58 Y162.87 E123.86165
G1 X131.38 Y162.67 E123.87498
G1 X131.38 Y162.47 E123.88442
G1 X131.18 Y162.27 E123.89775
G1 X131.18 Y162.07 E123.90718
G1 X130.98 Y161.87 E123.92052
G1 X130.98 Y161.67 E123.92995
G1 X130.78 Y161.47 E123.94329
G1 X130.78 Y161.27 E123.95272
G1 X130.58 Y161.07 E123.96606
G1 X130.58 Y160.87 E123.97549
G1 X130.38 Y160.67 E123.98883
G1 X130.38 Y160.07 E124.01713
G1 X130.18 Y159.87 E124.03046
G1 X130.18 Y159.67 E124.03989
G1 X129.98 Y159.47 E124.05323
G1 X129.98 Y158.67 E124.09096
G1 X129.78 Y158.47 E124.10430
G1 X129.78 Y157.87 E124.13259
G1 X129.58 Y157.67 E124.14593
G1 X129.58 Y147.08 E124.64560
G1 X129.78 Y146.88 E124.65894
G1 X129.78 Y146.28 E124.68724
G1 X129.98 Y146.08 E124.70057
G1 X129.98 Y145.48 E124.72887
G1 X130.18 Y145.28 E124.74221
G1 X130.18 Y145.08 E124.75164
G1 X130.38 Y144.88 E124.76498
G1 X130.38 Y144.28 E124.79327
G1 X130.58 Y144.08 E124.80661
G1 X130.58 Y143.68 E124.82547
G1 X130.78 Y143.48 E124.83881
G1 X130.78 Y143.28 E124.84824
G1 X130.98 Y143.08 E124.86158
G1 X130.98 Y142.88 E124.87101
G1 X131.18 Y142.68 E124.88435
G1 X131.18 Y142.48 E124.89378
G1 X131.58 Y142.08 E124.92046
G1 X131.58 Y141.88 E124.92989
G1 X131.78 Y141.68 E124.94323
G1 X131.78 Y141.48 E124.95266
G1 X131.98 Y141.28 E124.96599
G1 X131.98 Y141.08 E124.97543
G1 X132.18 Y140.88 E124.98876
G1 X132.18 Y140.68 E124.99820
G1 X132.38 Y140.48 E125.01153
G1 X132.38 Y140.28 E125.02096
G1 X133.18 Y139.48 E125.07432
G1 X133.18 Y139.28 E125.08375
G1 X133.38 Y139.08 E125.09709
G1 X133.38 Y138.88 E125.10652
G1 X135.18 Y137.08 E125.22656
G0 F12000 X134.78 Y136.91
G1 F2700 X134.78 Y135.79 E125.27933
G1 X137.01 Y134.68 E125.39713
G1 X137.61 Y134.08 E125.43708
G1 X138.01 Y133.88 E125.45817
G1 X138.61 Y133.28 E125.49818
G1 X139.81 Y132.68 E125.56145
G1 X140.21 Y132.28 E125.58813
G1 X141.41 Y131.68 E125.65140
G1 X141.61 Y131.47 E125.66480
G1 X143.11 Y130.73 E125.74359
G1 X144.22 Y130.45 E125.79761
G1 X144.35 Y130.41 E125.80436
G1 X144.91 Y130.13 E125.83357
G1 X148.32 Y129.27 E125.99957
G1 X157.13 Y129.27 E126.41493
G1 X158.39 Y129.59 E126.47617
G1 X159.85 Y129.88 E126.54628
G1 X160.75 Y130.33 E126.59356
G1 X164.89 Y131.36 E126.79499
G1 X164.79 Y132.25 E126.83704
G1 X164.84 Y132.28 E126.83984
G1 X165.24 Y132.68 E126.86652
G1 X166.44 Y133.28 E126.92979
G1 X167.44 Y134.28 E126.99648
G1 X167.84 Y134.48 E127.01757
G1 X171.28 Y137.91 E127.24658
G1 X171.28 Y138.11 E127.25601
G1 X171.88 Y138.71 E127.29603
G1 X171.88 Y138.91 E127.30546
G1 X172.68 Y139.71 E127.35881
G1 X172.68 Y139.91 E127.36824
G1 X172.88 Y140.11 E127.38158
G1 X172.88 Y140.31 E127.39101
G1 X173.08 Y140.51 E127.40435
G1 X173.08 Y140.71 E127.41378
G1 X173.28 Y140.91 E127.42712
G1 X173.28 Y141.11 E127.43655
G1 X173.48 Y141.31 E127.44989
G1 X173.48 Y141.51 E127.45932
G1 X173.88 Y141.91 E127.48599
G1 X173.88 Y142.11 E127.49543
G1 X174.08 Y142.31 E127.50876
G1 X174.08 Y142.51 E127.51820
G1 X174.28 Y142.71 E127.53153
G1 X174.28 Y142.91 E127.54097
G1 X174.48 Y143.11 E127.55430
G1 X174.48 Y143.31 E127.56373
G1 X174.68 Y143.51 E127.57707
G1 X174.68 Y143.71 E127.58650
G1 X174.88 Y143.91 E127.59984
G1 X174.88 Y144.31 E127.61870
G1 X175.08 Y144.51 E127.63204
G1 X175.08 Y145.11 E127.66034
G1 X175.28 Y145.31 E127.67368
G1 X175.28 Y145.91 E127.70197
G1 X175.48 Y146.11 E127.71531
G1 X175.48 Y146.71 E127.74360
G1 X175.68 Y146.91 E127.75694
G1 X175.68 Y148.51 E127.83239
G1 X175.88 Y148.71 E127.84573
G1 X175.88 Y156.04 E128.19130
G1 X175.68 Y156.24 E128.20463
G1 X175.68 Y157.84 E128.28008
G1 X175.48 Y158.04 E128.29342
G1 X175.48 Y158.64 E128.32172
G1 X175.28 Y158.84 E128.33505
G1 X175.28 Y159.64 E128.37278
G1 X175.08 Y159.84 E128.38612
G1 X175.08 Y160.44 E128.41441
G1 X174.88 Y160.64 E128.42775
G1 X174.88 Y160.84 E128.43718
G1 X174.68 Y161.04 E128.45052
G1 X174.68 Y161.24 E128.45995
G1 X174.48 Y161.44 E128.47329
G1 X174.48 Y161.64 E128.48272
G1 X174.28 Y161.84 E128.49606
G1 X174.28 Y162.04 E128.50549
G1 X174.08 Y162.24 E128.51883
G1 X174.08 Y162.44 E128.52826
G1 X173.88 Y162.64 E128.54160
G1 X173.88 Y162.84 E128.55103
G1 X173.68 Y163.04 E128.56437
G1 X173.68 Y163.24 E128.57380
G1 X173.48 Y163.44 E128.58714
G1 X173.48 Y163.64 E128.59657
G1 X173.28 Y163.84 E128.60991
G1 X173.28 Y164.04 E128.61934
G1 X172.88 Y164.44 E128.64601
G1 X172.88 Y164.64 E128.65545
G1 X172.68 Y164.84 E128.66878
G1 X172.68 Y165.04 E128.67821
G1 X172.08 Y165.64 E128.71823
G1 X172.08 Y165.84 E128.72766
G1 X171.68 Y166.24 E128.75434
G1 X171.68 Y166.44 E128.76377
G1 X167.44 Y170.67 E129.04613
G1 X167.04 Y170.87 E129.06722
G1 X166.44 Y171.47 E129.10724
G1 X166.04 Y171.67 E129.12833
G1 X165.64 Y172.07 E129.15500
G1 X164.84 Y172.47 E129.19718
G1 X164.64 Y172.67 E129.21052
G1 X161.15 Y174.42 E129.39484
G1 X160.35 Y174.62 E129.43373
G1 X159.45 Y175.07 E129.48099
G1 X157.98 Y175.36 E129.55148
G1 X157.00 Y175.60 E129.59910
G1 X154.86 Y175.87 E129.70114
G1 X150.83 Y175.87 E129.89118
G1 X148.48 Y175.61 E130.00263
G1 X145.31 Y174.82 E130.15688
G1 X144.60 Y174.47 E130.19390
G1 X143.60 Y174.27 E130.24193
G1 X141.61 Y173.27 E130.34706
G1 X141.41 Y173.07 E130.36040
G1 X139.41 Y172.07 E130.46585
G1 X139.01 Y171.67 E130.49252
G1 X138.61 Y171.47 E130.51361
G1 X138.01 Y170.87 E130.55363
G1 X137.61 Y170.67 E130.57471
G1 X137.01 Y170.07 E130.61473
G1 X136.61 Y169.87 E130.63582
G1 X133.58 Y166.84 E130.83816
G1 X133.58 Y166.64 E130.84759
G1 X132.98 Y166.04 E130.88760
G1 X132.98 Y165.84 E130.89703
G1 X132.58 Y165.44 E130.92371
G1 X132.58 Y165.24 E130.93314
G1 X131.98 Y164.64 E130.97315
G1 X131.98 Y164.44 E130.98259
G1 X131.78 Y164.24 E130.99592
G1 X131.78 Y164.04 E131.00535
G1 X131.38 Y163.64 E131.03203
G1 X131.38 Y163.44 E131.04146
G1 X131.18 Y163.24 E131.05480
G1 X131.18 Y163.04 E131.06423
G1 X130.98 Y162.84 E131.07757
G1 X130.98 Y162.64 E131.08700
G1 X130.78 Y162.44 E131.10034
G1 X130.78 Y162.24 E131.10977
G1 X130.58 Y162.04 E131.12311
G1 X130.58 Y161.84 E131.13254
G1 X130.38 Y161.64 E131.14588
G1 X130.38 Y161.44 E131.15531
G1 X130.18 Y161.24 E131.16865
G1 X130.18 Y161.04 E131.17808
G1 X129.98 Y160.84 E131.19142
G1 X129.98 Y160.24 E131.21971
G1 X129.78 Y160.04 E131.23305
G1 X129.78 Y159.84 E131.24248
G1 X129.58 Y159.64 E131.25582
G1 X129.58 Y158.84 E131.29354
G1 X129.38 Y158.64 E131.30688
G1 X129.38 Y158.04 E131.33518
G1 X129.18 Y157.84 E131.34851
G1 X129.18 Y146.91 E131.86385
G1 X129.38 Y146.71 E131.87718
G1 X129.38 Y146.11 E131.90548
G1 X129.58 Y145.91 E131.91882
G1 X129.58 Y145.31 E131.94711
G1 X129.78 Y145.11 E131.96045
G1 X129.78 Y144.91 E131.96988
G1 X129.98 Y144.71 E131.98322
G1 X129.98 Y144.11 E132.01151
G1 X130.18 Y143.91 E132.02485
G1 X130.18 Y143.51 E132.04371
G1 X130.38 Y143.31 E132.05705
G1 X130.38 Y143.11 E132.06648
G1 X130.58 Y142.91 E132.07982
G1 X130.58 Y142.71 E132.08925
G1 X130.78 Y142.51 E132.10259
G1 X130.78 Y142.31 E132.11202
G1 X131.18 Y141.91 E132.13870
G1 X131.18 Y141.71 E132.14813
G1 X131.38 Y141.51 E132.16147
G1 X131.38 Y141.31 E132.17090
G1 X131.58 Y141.11 E132.18424
G1 X131.58 Y140.91 E132.19367
G1 X131.78 Y140.71 E132.20701
G1 X131.78 Y140.51 E132.21644
G1 X131.98 Y140.31 E132.22978
G1 X131.98 Y140.11 E132.23921
G1 X132.78 Y139.31 E132.29256
G1 X132.78 Y139.11 E132.30199
G1 X132.98 Y138.91 E132.31533
G1 X132.98 Y138.71 E132.32476
G1 X134.78 Y136.91 E132.44480
G0 F12000 X134.38 Y136.74
G1 F2700 X134.38 Y135.54 E132.50139
G1 X136.77 Y134.35 E132.62780
G1 X137.37 Y133.75 E132.66775
G1 X137.77 Y133.55 E132.68884
G1 X138.37 Y132.95 E132.72885
G1 X139.57 Y132.35 E132.79212
G1 X139.97 Y131.95 E132.81879
G1 X141.17 Y131.35 E132.88206
G1 X141.37 Y131.15 E132.89547
G1 X142.97 Y130.35 E132.97938
G1 X144.11 Y130.06 E133.03514
G1 X144.20 Y130.04 E133.03927
G1 X144.77 Y129.75 E133.06940
G1 X148.27 Y128.87 E133.23978
G1 X157.18 Y128.87 E133.65977
G1 X158.46 Y129.19 E133.72218
G1 X159.98 Y129.50 E133.79507
G1 X160.88 Y129.95 E133.84278
G1 X165.33 Y131.06 E134.05870
G1 X165.21 Y132.08 E134.10706
G1 X165.48 Y132.35 E134.12493
G1 X166.68 Y132.95 E134.18820
G1 X167.68 Y133.95 E134.25489
G1 X168.08 Y134.15 E134.27598
G1 X171.68 Y137.74 E134.51586
G1 X171.68 Y137.94 E134.52529
G1 X172.28 Y138.54 E134.56531
G1 X172.28 Y138.74 E134.57474
G1 X173.08 Y139.54 E134.62809
G1 X173.08 Y139.74 E134.63752
G1 X173.28 Y139.94 E134.65086
G1 X173.28 Y140.14 E134.66029
G1 X173.48 Y140.34 E134.67363
G1 X173.48 Y140.54 E134.68306
G1 X173.68 Y140.74 E134.69640
G1 X173.68 Y140.94 E134.70583
G1 X173.88 Y141.14 E134.71917
G1 X173.88 Y141.34 E134.72860
G1 X174.28 Y141.74 E134.75528
G1 X174.28 Y141.94 E134.76471
G1 X174.48 Y142.14 E134.77805
G1 X174.48 Y142.34 E134.78748
G1 X174.68 Y142.54 E134.80082
G1 X174.68 Y142.74 E134.81025
G1 X174.88 Y142.94 E134.82359
G1 X174.88 Y143.14 E134.83302
G1 X175.08 Y143.34 E134.84636
G1 X175.08 Y143.54 E134.85579
G1 X175.28 Y143.74 E134.86912
G1 X175.28 Y144.14 E134.88799
G1 X175.48 Y144.34 E134.90133
G1 X175.48 Y144.94 E134.92962
G1 X175.68 Y145.14 E134.94296
G1 X175.68 Y145.74 E134.97125
G1 X175.88 Y145.94 E134.98459
G1 X175.88 Y146.54 E135.01288
G1 X176.08 Y146.74 E135.02622
G1 X176.08 Y148.34 E135.10167
G1 X176.28 Y148.54 E135.11501
G1 X176.28 Y156.20 E135.47623
G1 X176.08 Y156.40 E135.48957
G1 X176.08 Y158.00 E135.56502
G1 X175.88 Y158.20 E135.57836
G1 X175.88 Y158.80 E135.60666
G1 X175.68 Y159.00 E135.61999
G1 X175.68 Y159.80 E135.65772
G1 X175.48 Y160.00 E135.67106
G1 X175.48 Y160.60 E135.69935
G1 X175.28 Y160.80 E135.71269
G1 X175.28 Y161.00 E135.72212
G1 X175.08 Y161.20 E135.73546
G1 X175.08 Y161.40 E135.74489
G1 X174.88 Y161.60 E135.75823
G1 X174.88 Y161.80 E135.76766
G1 X174.68 Y162.00 E135.78100
G1 X174.68 Y162.20 E135.79043
G1 X174.48 Y162.40 E135.80377
G1 X174.48 Y162.60 E135.81320
G1 X174.28 Y162.80 E135.82654
G1 X174.28 Y163.00 E135.83597
G1 X174.08 Y163.20 E135.84931
G1 X174.08 Y163.40 E135.85874
G1 X173.88 Y163.60 E135.87208
G1 X173.88 Y163.80 E135.88151
G1 X173.68 Y164.00 E135.89485
G1 X173.68 Y164.20 E135.90428
G1 X173.28 Y164.60 E135.93095
G1 X173.28 Y164.80 E135.94038
G1 X173.08 Y165.00 E135.95372
G1 X173.08 Y165.20 E135.96315
G1 X172.48 Y165.80 E136.00317
G1 X172.48 Y166.00 E136.01260
G1 X172.08 Y166.40 E136.03927
G1 X172.08 Y166.60 E136.04871
G1 X167.68 Y171.00 E136.34194
G1 X167.28 Y171.20 E136.36303
G1 X166.68 Y171.80 E136.40305
G1 X166.28 Y172.00 E136.42414
G1 X165.88 Y172.40 E136.45081
G1 X165.08 Y172.80 E136.49299
G1 X164.88 Y173.00 E136.50633
G1 X162.66 Y174.11 E136.62348
G1 X161.28 Y174.80 E136.69579
G1 X160.49 Y175.00 E136.73463
G1 X159.58 Y175.45 E136.78236
G1 X158.05 Y175.75 E136.85579
G1 X157.08 Y176.00 E136.90328
G1 X154.88 Y176.27 E137.00760
G1 X150.81 Y176.27 E137.19986
G1 X148.41 Y176.01 E137.31363
G1 X145.16 Y175.20 E137.47124
G1 X144.47 Y174.85 E137.50776
G1 X143.47 Y174.65 E137.55580
G1 X141.37 Y173.60 E137.66652
G1 X141.17 Y173.40 E137.67986
G1 X139.17 Y172.40 E137.78530
G1 X138.77 Y172.00 E137.81198
G1 X138.37 Y171.80 E137.83307
G1 X137.77 Y171.20 E137.87308
G1 X137.37 Y171.00 E137.89417
G1 X136.77 Y170.40 E137.93419
G1 X136.37 Y170.20 E137.95527
G1 X133.18 Y167.00 E138.16848
G1 X133.18 Y166.80 E138.17791
G1 X132.58 Y166.20 E138.21793
G1 X132.58 Y166.00 E138.22736
G1 X132.18 Y165.60 E138.25404
G1 X132.18 Y165.40 E138.26347
G1 X131.58 Y164.80 E138.30348
G1 X131.58 Y164.60 E138.31291
G1 X131.38 Y164.40 E138.32625
G1 X131.38 Y164.20 E138.33568
G1 X130.98 Y163.80 E138.36236
G1 X130.98 Y163.60 E138.37179
G1 X130.78 Y163.40 E138.38513
G1 X130.78 Y163.20 E138.39456
G1 X130.58 Y163.00 E138.40790
G1 X130.58 Y162.80 E138.41733
G1 X130.38 Y162.60 E138.43067
G1 X130.38 Y162.40 E138.44010
G1 X130.18 Y162.20 E138.45344
G1 X130.18 Y162.00 E138.46287
G1 X129.98 Y161.80 E138.47621
G1 X129.98 Y161.60 E138.48564
G1 X129.78 Y161.40 E138.49897
G1 X129.78 Y161.20 E138.50841
G1 X129.58 Y161.00 E138.52174
G1 X129.58 Y160.40 E138.55004
G1 X129.38 Y160.20 E138.56338
G1 X129.38 Y160.00 E138.57281
G1 X129.18 Y159.80 E138.58615
G1 X129.18 Y159.00 E138.62387
G1 X128.98 Y158.80 E138.63721
G1 X128.98 Y158.20 E138.66550
G1 X128.78 Y158.00 E138.67884
G1 X128.78 Y146.74 E139.20983
G1 X128.98 Y146.54 E139.22317
G1 X128.98 Y145.94 E139.25146
G1 X129.18 Y145.74 E139.26480
G1 X129.18 Y145.14 E139.29309
G1 X129.38 Y144.94 E139.30643
G1 X129.38 Y144.74 E139.31586
G1 X129.58 Y144.54 E139.32920
G1 X129.58 Y143.94 E139.35750
G1 X129.78 Y143.74 E139.37083
G1 X129.78 Y143.34 E139.38970
G1 X129.98 Y143.14 E139.40303
G1 X129.98 Y142.94 E139.41247
G1 X130.18 Y142.74 E139.42580
G1 X130.18 Y142.54 E139.43524
G1 X130.38 Y142.34 E139.44857
G1 X130.38 Y142.14 E139.45800
G1 X130.78 Y141.74 E139.48468
G1 X130.78 Y141.54 E139.49411
G1 X130.98 Y141.34 E139.50745
G1 X130.98 Y141.14 E139.51688
G1 X131.18 Y140.94 E139.53022
G1 X131.18 Y140.74 E139.53965
G1 X131.38 Y140.54 E139.55299
G1 X131.38 Y140.34 E139.56242
G1 X131.58 Y140.14 E139.57576
G1 X131.58 Y139.94 E139.58519
G1 X132.38 Y139.14 E139.63854
G1 X132.38 Y138.94 E139.64797
G1 X132.58 Y138.74 E139.66131
G1 X132.58 Y138.54 E139.67074
G1 X134.38 Y136.74 E139.79079
G0 F12000 X133.98 Y136.58
G1 F2700 X133.98 Y135.30 E139.85124
G1 X136.54 Y134.02 E139.98623
G1 X137.14 Y133.42 E140.02618
G1 X137.53 Y133.22 E140.04721
G1 X138.14 Y132.62 E140.08729
G1 X139.34 Y132.02 E140.15049
G1 X139.74 Y131.62 E140.17723
G1 X140.94 Y131.02 E140.24044
G1 X141.14 Y130.82 E140.25391
G1 X142.83 Y129.97 E140.34297
G1 X143.99 Y129.68 E140.39956
G1 X144.05 Y129.66 E140.40229
G1 X144.63 Y129.37 E140.43298
G1 X148.22 Y128.47 E140.60773
G1 X157.23 Y128.47 E141.03237
G1 X158.55 Y128.81 E141.09678
G1 X160.11 Y129.12 E141.17161
G1 X161.02 Y129.57 E141.21967
G1 X165.76 Y130.76 E141.45017
G1 X165.63 Y131.93 E141.50594
G1 X165.72 Y132.02 E141.51174
G1 X166.92 Y132.62 E141.57494
G1 X167.92 Y133.62 E141.64170
G1 X168.32 Y133.82 E141.66273
G1 X172.08 Y137.58 E141.91351
G1 X172.08 Y137.78 E141.92295
G1 X172.68 Y138.38 E141.96296
G1 X172.68 Y138.58 E141.97239
G1 X173.48 Y139.38 E142.02574
G1 X173.48 Y139.58 E142.03518
G1 X173.68 Y139.78 E142.04851
G1 X173.68 Y139.98 E142.05794
G1 X173.88 Y140.18 E142.07128
G1 X173.88 Y140.38 E142.08071
G1 X174.08 Y140.58 E142.09405
G1 X174.08 Y140.78 E142.10348
G1 X174.28 Y140.98 E142.11682
G1 X174.28 Y141.18 E142.12625
G1 X174.68 Y141.58 E142.15293
G1 X174.68 Y141.78 E142.16236
G1 X174.88 Y141.98 E142.17570
G1 X174.88 Y142.18 E142.18513
G1 X175.08 Y142.38 E142.19847
G1 X175.08 Y142.58 E142.20790
G1 X175.28 Y142.78 E142.22124
G1 X175.28 Y142.98 E142.23067
G1 X175.48 Y143.18 E142.24401
G1 X175.48 Y143.38 E142.25344
G1 X175.68 Y143.58 E142.26678
G1 X175.68 Y143.98 E142.28564
G1 X175.88 Y144.18 E142.29898
G1 X175.88 Y144.78 E142.32727
G1 X176.08 Y144.98 E142.34061
G1 X176.08 Y145.58 E142.36890
G1 X176.28 Y145.78 E142.38224
G1 X176.28 Y146.38 E142.41054
G1 X176.48 Y146.58 E142.42387
G1 X176.48 Y148.18 E142.49932
G1 X176.68 Y148.38 E142.51266
G1 X176.68 Y156.37 E142.88945
G1 X176.48 Y156.57 E142.90279
G1 X176.48 Y158.17 E142.97824
G1 X176.28 Y158.37 E142.99157
G1 X176.28 Y158.97 E143.01987
G1 X176.08 Y159.17 E143.03321
G1 X176.08 Y159.97 E143.07093
G1 X175.88 Y160.17 E143.08427
G1 X175.88 Y160.77 E143.11256
G1 X175.68 Y160.97 E143.12590
G1 X175.68 Y161.17 E143.13533
G1 X175.48 Y161.37 E143.14867
G1 X175.48 Y161.57 E143.15810
G1 X175.28 Y161.77 E143.17144
G1 X175.28 Y161.97 E143.18087
G1 X175.08 Y162.17 E143.19421
G1 X175.08 Y162.37 E143.20364
G1 X174.88 Y162.57 E143.21698
G1 X174.88 Y162.77 E143.22641
G1 X174.68 Y162.97 E143.23975
G1 X174.68 Y163.17 E143.24918
G1 X174.48 Y163.37 E143.26252
G1 X174.48 Y163.57 E143.27195
G1 X174.28 Y163.77 E143.28529
G1 X174.28 Y163.97 E143.29472
G1 X174.08 Y164.17 E143.30806
G1 X174.08 Y164.37 E143.31749
G1 X173.68 Y164.77 E143.34417
G1 X173.68 Y164.97 E143.35360
G1 X173.48 Y165.17 E143.36694
G1 X173.48 Y165.37 E143.37637
G1 X172.88 Y165.97 E143.41638
G1 X172.88 Y166.17 E143.42581
G1 X172.48 Y166.57 E143.45249
G1 X172.48 Y166.77 E143.46192
G1 X167.92 Y171.33 E143.76606
G1 X167.52 Y171.53 E143.78709
G1 X166.92 Y172.13 E143.82717
G1 X166.52 Y172.33 E143.84819
G1 X166.12 Y172.73 E143.87494
G1 X165.32 Y173.13 E143.91705
G1 X165.12 Y173.33 E143.93046
G1 X162.84 Y174.47 E144.05071
G1 X161.43 Y175.17 E144.12502
G1 X160.62 Y175.37 E144.16391
G1 X159.71 Y175.83 E144.21208
G1 X158.14 Y176.15 E144.28753
G1 X157.15 Y176.39 E144.33575
G1 X154.91 Y176.67 E144.44239
G1 X150.78 Y176.67 E144.63687
G1 X148.34 Y176.40 E144.75297
G1 X145.03 Y175.57 E144.91388
G1 X144.34 Y175.23 E144.94994
G1 X143.34 Y175.03 E144.99802
G1 X141.14 Y173.93 E145.11433
