;-- START GCODE --
;Sliced for Type A Machines Series 1
;Sliced at: Tue 07-07-2015 00:37:45
;Basic settings: Layer height: 0.1 Walls: 0.8 Fill: 9
;Print Speed: 130 Support: 0
;Retraction Speed: 40 Retraction Distance: 0.5
;Print time: #P_TIME#
;Filament used: #F_AMNT#m #F_WGHT#g
;Filament cost: #F_COST#
M106 S255	 ;start with the fan on
G21        ;metric values
G90        ;absolute positioning
M106 S255    ;start with the fan on
G28     ;move to endstops
G29		;allows for auto-levelling
G1 X150 Y5  Z15.0 F12000 ;center and move the platform down 15mm
M109 S220 ;Heat To temp
G92 E0                  ;zero the extruded length
G1 F200 E30              ;extrude 30mm of feed stock
G92 E0                  ;zero the extruded length again
G1 X175 Y25  Z0 F12000 ;remove bugger
G1 X220 F12000 ;remove bugger
G1 X150 Y150  Z15 F12000 ;recenter and begin
G1 F12000

;Layer count: 135
;LAYER:0
M106 S255
G0 F12000 X127.08 Y136.30 Z0.30
;TYPE:SKIRT
G1 F2700 X177.90 Y136.30 E2.39647
G1 X176.74 Y148.09 E2.95494
G1 X176.66 Y148.91 E2.99404
G1 X175.50 Y152.76 E3.18361
G1 X175.25 Y153.55 E3.22276
G1 X173.36 Y157.09 E3.41200
G1 X172.96 Y157.82 E3.45098
G1 X170.43 Y160.90 E3.63882
G1 X169.90 Y161.53 E3.67800
G1 X166.83 Y164.06 E3.86571
G1 X166.21 Y164.57 E3.90375
G1 X162.72 Y166.43 E4.08980
G1 X161.96 Y166.85 E4.13070
G1 X158.15 Y168.01 E4.31879
G1 X158.15 Y168.01 E4.31883
G1 X157.33 Y168.26 E4.35912
G1 X153.34 Y168.65 E4.54842
G1 X152.51 Y168.74 E4.58776
G1 X148.51 Y168.34 E4.77701
G1 X147.69 Y168.26 E4.81602
G1 X143.84 Y167.09 E5.00558
G1 X143.05 Y166.85 E5.04463
G1 X139.51 Y164.96 E5.23392
G1 X138.78 Y164.56 E5.27294
G1 X135.71 Y162.03 E5.46078
G1 X135.07 Y161.50 E5.49996
G1 X132.54 Y158.43 E5.68766
G1 X132.03 Y157.81 E5.72564
G1 X130.17 Y154.33 E5.91174
G1 X129.75 Y153.57 E5.95264
G1 X128.58 Y149.70 E6.14320
G1 X128.34 Y148.93 E6.18111
G1 X127.94 Y144.92 E6.37098
G1 X127.95 Y144.92 E6.37103
G1 X127.08 Y136.30 E6.77970
G0 F12000 X127.53 Y136.70
G1 F2700 X177.46 Y136.70 E9.13453
G1 X176.35 Y148.05 E9.67220
G1 X176.27 Y148.83 E9.70940
G1 X175.11 Y152.64 E9.89709
G1 X174.88 Y153.40 E9.93438
G1 X173.00 Y156.90 E10.12174
G1 X172.63 Y157.59 E10.15888
G1 X170.12 Y160.64 E10.34488
G1 X169.62 Y161.25 E10.38218
G1 X166.60 Y163.72 E10.56614
G1 X165.98 Y164.24 E10.60438
G1 X162.51 Y166.10 E10.78991
G1 X161.81 Y166.48 E10.82762
G1 X157.98 Y167.64 E11.01612
G1 X157.98 Y167.64 E11.01617
G1 X157.25 Y167.87 E11.05228
G1 X153.29 Y168.26 E11.24020
G1 X152.50 Y168.34 E11.27722
G1 X148.55 Y167.95 E11.46453
G1 X147.77 Y167.87 E11.50174
G1 X143.96 Y166.71 E11.68933
G1 X143.21 Y166.48 E11.72656
G1 X139.70 Y164.61 E11.91394
G1 X139.01 Y164.23 E11.95115
G1 X135.96 Y161.73 E12.13714
G1 X135.35 Y161.22 E12.17445
G1 X132.88 Y158.21 E12.35840
G1 X132.36 Y157.58 E12.39658
G1 X130.48 Y154.07 E12.58428
G1 X130.12 Y153.41 E12.61986
G1 X128.96 Y149.58 E12.80846
G1 X128.96 Y149.58 E12.80850
G1 X128.73 Y148.85 E12.84461
G1 X128.34 Y144.88 E13.03263
G1 X128.34 Y144.88 E13.03268
G1 X127.53 Y136.70 E13.42049
G0 F12000 X127.97 Y137.10
G1 F2700 X177.02 Y137.10 E15.73364
G1 X175.95 Y148.01 E16.25046
G1 X175.87 Y148.75 E16.28586
G1 X174.73 Y152.53 E16.47163
G1 X174.51 Y153.24 E16.50703
G1 X172.65 Y156.71 E16.69253
G1 X172.29 Y157.37 E16.72780
G1 X169.82 Y160.39 E16.91199
G1 X169.34 Y160.97 E16.94745
G1 X166.32 Y163.44 E17.13150
G1 X165.76 Y163.91 E17.16599
G1 X162.34 Y165.73 E17.34857
G1 X161.65 Y166.11 E17.38556
G1 X157.87 Y167.26 E17.57217
G1 X157.17 Y167.47 E17.60643
G1 X153.26 Y167.86 E17.79195
G1 X152.50 Y167.93 E17.82759
G1 X148.59 Y167.55 E18.01300
G1 X147.85 Y167.47 E18.04836
G1 X144.08 Y166.33 E18.23409
G1 X143.36 Y166.11 E18.26944
G1 X139.89 Y164.25 E18.45490
G1 X139.23 Y163.90 E18.49027
G1 X136.21 Y161.42 E18.67446
G1 X135.64 Y160.94 E18.70992
G1 X133.16 Y157.92 E18.89397
G1 X132.69 Y157.36 E18.92840
G1 X130.84 Y153.88 E19.11418
G1 X130.49 Y153.25 E19.14805
G1 X129.34 Y149.47 E19.33466
G1 X129.13 Y148.77 E19.36898
G1 X128.74 Y144.84 E19.55505
G1 X127.97 Y137.10 E19.92206
G0 F12000 X128.41 Y137.50
G1 F2700 X176.58 Y137.50 E22.19357
G1 X175.55 Y147.97 E22.68958
G1 X175.48 Y148.68 E22.72309
G1 X174.35 Y152.41 E22.90699
G1 X174.14 Y153.09 E22.94052
G1 X172.30 Y156.52 E23.12410
G1 X171.96 Y157.14 E23.15753
G1 X169.51 Y160.13 E23.33991
G1 X169.05 Y160.68 E23.37350
G1 X166.06 Y163.13 E23.55577
G1 X165.53 Y163.57 E23.58843
G1 X162.15 Y165.38 E23.76929
G1 X161.50 Y165.74 E23.80434
G1 X157.75 Y166.87 E23.98898
G1 X157.09 Y167.08 E24.02147
G1 X153.21 Y167.46 E24.20556
G1 X152.50 Y167.53 E24.23883
G1 X148.63 Y167.15 E24.42240
G1 X147.93 Y167.08 E24.45586
G1 X144.19 Y165.95 E24.63971
G1 X143.52 Y165.74 E24.67319
G1 X140.08 Y163.90 E24.85678
G1 X139.46 Y163.56 E24.89027
G1 X136.47 Y161.11 E25.07265
G1 X135.92 Y160.65 E25.10624
G1 X133.47 Y157.67 E25.28851
G1 X133.03 Y157.13 E25.32110
G1 X131.22 Y153.75 E25.50201
G1 X130.86 Y153.10 E25.53706
G1 X129.73 Y149.35 E25.72175
G1 X129.52 Y148.69 E25.75429
G1 X129.14 Y144.81 E25.93842
G1 X128.41 Y137.50 E26.28462
G0 F12000 X128.85 Y137.90
G1 F2700 X176.14 Y137.90 E28.51449
G1 X175.15 Y147.93 E28.98970
G1 X175.09 Y148.60 E29.02132
G1 X173.97 Y152.29 E29.20330
G1 X173.77 Y152.93 E29.23500
G1 X171.95 Y156.33 E29.41671
G1 X171.63 Y156.92 E29.44826
G1 X169.20 Y159.88 E29.62886
G1 X168.77 Y160.40 E29.66058
G1 X165.84 Y162.80 E29.83937
G1 X165.31 Y163.24 E29.87189
G1 X161.90 Y165.06 E30.05397
G1 X161.34 Y165.37 E30.08413
G1 X157.63 Y166.49 E30.26680
G1 X157.01 Y166.68 E30.29751
G1 X153.17 Y167.06 E30.47966
G1 X152.50 Y167.13 E30.51108
G1 X148.67 Y166.75 E30.69276
G1 X148.00 Y166.69 E30.72441
G1 X144.31 Y165.56 E30.90635
G1 X143.67 Y165.37 E30.93794
G1 X140.27 Y163.55 E31.11967
G1 X139.68 Y163.23 E31.15129
G1 X136.72 Y160.80 E31.33189
G1 X136.21 Y160.37 E31.36361
G1 X133.78 Y157.41 E31.54405
G1 X133.36 Y156.91 E31.57485
G1 X131.54 Y153.51 E31.75682
G1 X131.23 Y152.94 E31.78714
G1 X130.11 Y149.24 E31.96986
G1 X129.91 Y148.61 E32.00058
G1 X129.54 Y144.77 E32.18282
G1 X128.85 Y137.90 E32.50822
G0 F12000 X129.29 Y138.30
G1 F2700 X175.70 Y138.30 E34.69644
G1 X174.75 Y147.89 E35.15081
G1 X174.69 Y148.52 E35.18062
G1 X173.58 Y152.17 E35.36068
G1 X173.40 Y152.78 E35.39051
G1 X171.60 Y156.14 E35.57032
G1 X171.29 Y156.69 E35.60005
G1 X168.89 Y159.62 E35.77878
G1 X168.49 Y160.11 E35.80868
G1 X165.56 Y162.51 E35.98728
G1 X165.08 Y162.91 E36.01638
G1 X161.71 Y164.71 E36.19651
G1 X161.19 Y165.00 E36.22489
G1 X157.55 Y166.10 E36.40386
G1 X156.93 Y166.29 E36.43453
G1 X153.13 Y166.66 E36.61478
G1 X152.50 Y166.73 E36.64440
G1 X148.71 Y166.35 E36.82419
G1 X148.08 Y166.29 E36.85395
G1 X144.43 Y165.18 E37.03396
G1 X143.83 Y165.00 E37.06373
G1 X140.46 Y163.20 E37.24359
G1 X139.91 Y162.90 E37.27336
G1 X136.98 Y160.49 E37.45209
G1 X136.49 Y160.09 E37.48199
G1 X134.09 Y157.16 E37.66059
G1 X133.69 Y156.69 E37.68962
G1 X131.89 Y153.32 E37.86969
G1 X131.60 Y152.79 E37.89822
G1 X130.49 Y149.12 E38.07898
G1 X130.49 Y149.12 E38.07903
G1 X130.31 Y148.53 E38.10796
G1 X129.94 Y144.73 E38.28826
G1 X129.29 Y138.30 E38.59285
G0 F12000 X129.74 Y138.70
G1 F2700 X175.25 Y138.70 E40.73939
G1 X174.36 Y147.85 E41.17295
G1 X174.30 Y148.44 E41.20086
G1 X173.20 Y152.06 E41.37904
G1 X173.03 Y152.62 E41.40700
G1 X171.25 Y155.95 E41.58491
G1 X170.96 Y156.47 E41.61281
G1 X168.58 Y159.37 E41.78976
G1 X168.20 Y159.83 E41.81776
G1 X165.30 Y162.20 E41.99457
G1 X164.86 Y162.57 E42.02183
G1 X161.53 Y164.35 E42.20008
G1 X161.03 Y164.62 E42.22669
G1 X157.40 Y165.73 E42.40548
G1 X156.85 Y165.90 E42.43259
G1 X153.09 Y166.27 E42.61090
G1 X152.50 Y166.33 E42.63867
G1 X148.75 Y165.96 E42.81656
G1 X148.16 Y165.90 E42.84447
G1 X144.55 Y164.80 E43.02261
G1 X143.98 Y164.62 E43.05051
G1 X140.65 Y162.85 E43.22845
G1 X140.13 Y162.56 E43.25639
G1 X137.23 Y160.18 E43.43334
G1 X136.78 Y159.80 E43.46133
G1 X134.40 Y156.91 E43.63815
G1 X134.03 Y156.46 E43.66535
G1 X132.25 Y153.13 E43.84353
G1 X131.97 Y152.63 E43.87027
G1 X130.87 Y149.00 E44.04909
G1 X130.70 Y148.45 E44.07624
G1 X130.33 Y144.69 E44.25460
G1 X129.74 Y138.70 E44.53838
G0 F12000 X130.18 Y139.10
G1 F2700 X174.81 Y139.10 E46.64328
G1 X173.96 Y147.81 E47.05599
G1 X173.90 Y148.36 E47.08206
G1 X172.82 Y151.94 E47.25833
G1 X172.65 Y152.47 E47.28445
G1 X170.89 Y155.76 E47.46048
G1 X170.63 Y156.24 E47.48650
G1 X168.27 Y159.11 E47.66161
G1 X167.92 Y159.54 E47.68777
G1 X165.05 Y161.90 E47.86281
G1 X164.63 Y162.24 E47.88823
G1 X161.34 Y164.00 E48.06456
G1 X160.87 Y164.25 E48.08946
G1 X157.29 Y165.34 E48.26627
G1 X156.77 Y165.50 E48.29159
G1 X153.05 Y165.87 E48.46801
G1 X152.50 Y165.92 E48.49389
G1 X148.79 Y165.56 E48.66993
G1 X148.24 Y165.50 E48.69599
G1 X144.66 Y164.42 E48.87222
G1 X144.14 Y164.25 E48.89824
G1 X140.84 Y162.50 E49.07430
G1 X140.36 Y162.23 E49.10036
G1 X137.49 Y159.88 E49.27547
G1 X137.06 Y159.52 E49.30162
G1 X134.71 Y156.65 E49.47667
G1 X134.36 Y156.24 E49.50205
G1 X132.60 Y152.94 E49.67830
G1 X132.34 Y152.48 E49.70330
G1 X131.26 Y148.89 E49.88016
G1 X131.10 Y148.37 E49.90548
G1 X130.73 Y144.65 E50.08194
G1 X130.18 Y139.10 E50.34492
G0 F12000 X130.62 Y139.50
G1 F2700 X174.37 Y139.50 E52.40818
G1 X173.56 Y147.77 E52.80009
G1 X173.51 Y148.28 E52.82432
G1 X172.44 Y151.82 E52.99865
G1 X172.28 Y152.31 E53.02290
G1 X170.54 Y155.57 E53.19706
G1 X170.30 Y156.02 E53.22120
G1 X167.97 Y158.86 E53.39450
G1 X167.64 Y159.26 E53.41881
G1 X164.82 Y161.57 E53.59080
G1 X164.41 Y161.91 E53.61565
G1 X161.19 Y163.63 E53.78788
G1 X160.72 Y163.88 E53.81321
G1 X157.17 Y164.96 E53.98805
G1 X156.69 Y165.11 E54.01155
G1 X153.01 Y165.47 E54.18607
G1 X152.50 Y165.52 E54.21015
G1 X148.83 Y165.16 E54.38424
G1 X148.32 Y165.11 E54.40847
G1 X144.78 Y164.04 E54.58275
G1 X144.29 Y163.88 E54.60695
G1 X141.03 Y162.14 E54.78114
G1 X140.58 Y161.90 E54.80533
G1 X137.74 Y159.57 E54.97863
G1 X137.34 Y159.24 E55.00294
G1 X135.03 Y156.42 E55.17493
G1 X134.70 Y156.01 E55.19975
G1 X132.95 Y152.75 E55.37407
G1 X132.72 Y152.32 E55.39731
G1 X131.64 Y148.77 E55.57219
G1 X131.49 Y148.29 E55.59575
G1 X131.13 Y144.61 E55.77026
G1 X130.62 Y139.50 E56.01244
G0 F12000 X131.06 Y139.90
G1 F2700 X173.93 Y139.90 E58.03406
G1 X173.16 Y147.73 E58.40512
G1 X173.11 Y148.20 E58.42749
G1 X172.05 Y151.70 E58.59996
G1 X171.91 Y152.16 E58.62232
G1 X170.19 Y155.38 E58.79458
G1 X169.96 Y155.79 E58.81688
G1 X167.66 Y158.60 E58.98838
G1 X167.35 Y158.97 E59.01081
G1 X164.54 Y161.28 E59.18220
G1 X164.19 Y161.57 E59.20407
G1 X160.96 Y163.30 E59.37656
G1 X160.56 Y163.51 E59.39790
G1 X157.05 Y164.58 E59.57081
G1 X156.61 Y164.71 E59.59254
G1 X152.97 Y165.07 E59.76512
G1 X152.50 Y165.12 E59.78735
G1 X148.87 Y164.76 E59.95960
G1 X148.40 Y164.71 E59.98192
G1 X144.90 Y163.65 E60.15434
G1 X144.44 Y163.51 E60.17670
G1 X141.22 Y161.79 E60.34896
G1 X140.81 Y161.56 E60.37128
G1 X138.00 Y159.26 E60.54278
G1 X137.63 Y158.95 E60.56521
G1 X135.32 Y156.14 E60.73660
G1 X135.03 Y155.79 E60.75840
G1 X133.31 Y152.56 E60.93083
G1 X133.09 Y152.16 E60.95227
G1 X132.02 Y148.66 E61.12523
G1 X131.89 Y148.21 E61.14701
G1 X131.53 Y144.57 E61.31958
G1 X131.06 Y139.90 E61.54095
G0 F12000 X131.50 Y140.30
G1 F2700 X173.49 Y140.30 E63.52093
G1 X172.76 Y147.69 E63.87120
G1 X172.72 Y148.12 E63.89167
G1 X171.67 Y151.59 E64.06222
G1 X171.54 Y152.00 E64.08275
G1 X169.84 Y155.19 E64.25314
G1 X169.63 Y155.57 E64.27361
G1 X167.35 Y158.35 E64.44325
G1 X167.07 Y158.69 E64.46381
G1 X164.29 Y160.97 E64.63343
G1 X163.96 Y161.24 E64.65346
G1 X160.81 Y162.93 E64.82225
G1 X160.41 Y163.14 E64.84363
G1 X156.96 Y164.19 E65.01344
G1 X156.53 Y164.32 E65.03453
G1 X152.93 Y164.68 E65.20517
G1 X152.50 Y164.72 E65.22555
G1 X148.91 Y164.36 E65.39590
G1 X148.47 Y164.32 E65.41642
G1 X145.01 Y163.27 E65.58692
G1 X144.60 Y163.14 E65.60741
G1 X141.41 Y161.44 E65.77775
G1 X141.03 Y161.23 E65.79828
G1 X138.25 Y158.95 E65.96792
G1 X137.91 Y158.67 E65.98849
G1 X135.63 Y155.89 E66.15810
G1 X135.36 Y155.56 E66.17809
G1 X133.66 Y152.38 E66.34862
G1 X133.46 Y152.01 E66.36829
G1 X132.41 Y148.54 E66.53934
G1 X132.28 Y148.13 E66.55924
G1 X131.93 Y144.53 E66.72996
G1 X131.50 Y140.30 E66.93048
G0 F12000 X131.94 Y140.70
G1 F2700 X173.05 Y140.70 E68.86877
G1 X172.37 Y147.65 E69.19819
G1 X172.33 Y148.05 E69.21686
G1 X171.29 Y151.47 E69.38548
G1 X171.17 Y151.85 E69.40415
G1 X169.49 Y155.00 E69.57263
G1 X169.30 Y155.34 E69.59124
G1 X167.04 Y158.10 E69.75908
G1 X166.79 Y158.40 E69.77780
G1 X164.05 Y160.65 E69.94470
G1 X163.74 Y160.91 E69.96382
G1 X160.61 Y162.57 E70.13089
G1 X160.25 Y162.77 E70.15034
G1 X156.82 Y163.81 E70.31932
G1 X156.46 Y163.93 E70.33744
G1 X152.89 Y164.28 E70.50623
G1 X152.50 Y164.32 E70.52476
G1 X148.95 Y163.97 E70.69322
G1 X148.55 Y163.93 E70.71184
G1 X145.13 Y162.89 E70.88043
G1 X144.75 Y162.77 E70.89909
G1 X141.60 Y161.09 E71.06754
G1 X141.26 Y160.90 E71.08620
G1 X138.50 Y158.64 E71.25404
G1 X138.20 Y158.39 E71.27276
G1 X135.94 Y155.64 E71.44056
G1 X135.70 Y155.34 E71.45871
G1 X134.03 Y152.22 E71.62582
G1 X133.83 Y151.85 E71.64528
G1 X132.79 Y148.42 E71.81434
G1 X132.67 Y148.06 E71.83247
G1 X132.32 Y144.49 E72.00125
G1 X131.94 Y140.70 E72.18096
G0 F12000 X132.39 Y141.10
G1 F2700 X172.61 Y141.10 E74.07761
G1 X171.97 Y147.61 E74.38623
G1 X171.93 Y147.97 E74.40300
G1 X170.91 Y151.35 E74.56975
G1 X170.80 Y151.69 E74.58655
G1 X169.13 Y154.81 E74.75311
G1 X168.96 Y155.12 E74.76989
G1 X166.73 Y157.84 E74.93592
G1 X166.50 Y158.12 E74.95276
G1 X163.79 Y160.34 E75.11795
G1 X163.51 Y160.57 E75.13516
G1 X160.40 Y162.24 E75.30191
G1 X160.10 Y162.40 E75.31799
G1 X156.71 Y163.43 E75.48505
G1 X156.38 Y163.53 E75.50139
G1 X152.85 Y163.88 E75.66824
G1 X152.50 Y163.91 E75.68492
G1 X148.99 Y163.57 E75.85148
G1 X148.63 Y163.53 E75.86826
G1 X145.25 Y162.51 E76.03496
G1 X144.91 Y162.40 E76.05174
G1 X141.79 Y160.74 E76.21835
G1 X141.48 Y160.56 E76.23512
G1 X138.76 Y158.33 E76.40115
G1 X138.49 Y158.10 E76.41800
G1 X136.26 Y155.40 E76.58319
G1 X136.03 Y155.12 E76.60037
G1 X134.36 Y152.00 E76.76708
G1 X134.20 Y151.70 E76.78320
G1 X133.17 Y148.31 E76.95034
G1 X133.07 Y147.97 E76.96669
G1 X132.72 Y144.45 E77.13353
G1 X132.39 Y141.10 E77.29244
G0 F12000 X132.83 Y141.50
G1 F2700 X172.17 Y141.50 E79.14745
G1 X171.57 Y147.57 E79.43522
G1 X171.54 Y147.89 E79.45014
G1 X170.52 Y151.23 E79.61497
G1 X170.43 Y151.54 E79.62993
G1 X168.78 Y154.62 E79.79464
G1 X168.63 Y154.89 E79.80954
G1 X166.42 Y157.59 E79.97376
G1 X166.22 Y157.83 E79.98873
G1 X163.53 Y160.04 E80.15291
G1 X163.29 Y160.24 E80.16751
G1 X160.23 Y161.87 E80.33116
G1 X159.94 Y162.03 E80.34669
G1 X156.59 Y163.05 E80.51178
G1 X156.29 Y163.14 E80.52635
G1 X152.82 Y163.48 E80.69106
G1 X152.50 Y163.51 E80.70608
G1 X149.03 Y163.17 E80.87080
G1 X148.71 Y163.14 E80.88568
G1 X145.37 Y162.12 E81.05050
G1 X145.06 Y162.03 E81.06542
G1 X141.98 Y160.38 E81.23014
G1 X141.71 Y160.23 E81.24504
G1 X139.01 Y158.02 E81.40927
G1 X138.77 Y157.82 E81.42423
G1 X136.56 Y155.13 E81.58842
G1 X136.36 Y154.89 E81.60302
G1 X134.72 Y151.81 E81.76783
G1 X134.57 Y151.54 E81.78218
G1 X133.55 Y148.19 E81.94735
G1 X133.46 Y147.90 E81.96188
G1 X133.12 Y144.41 E82.12682
G1 X132.83 Y141.50 E82.26492
G0 F12000 X133.27 Y141.90
G1 F2700 X171.72 Y141.90 E84.07830
G1 X171.17 Y147.53 E84.34526
G1 X171.14 Y147.81 E84.35834
G1 X170.14 Y151.12 E84.52126
G1 X170.06 Y151.38 E84.53434
G1 X168.43 Y154.43 E84.69717
G1 X168.30 Y154.67 E84.71019
G1 X166.11 Y157.33 E84.87260
G1 X165.94 Y157.55 E84.88573
G1 X163.27 Y159.73 E85.04810
G1 X163.06 Y159.90 E85.06090
G1 X160.04 Y161.52 E85.22279
G1 X159.78 Y161.66 E85.23638
G1 X156.49 Y162.66 E85.39885
G1 X156.22 Y162.74 E85.41228
G1 X152.78 Y163.08 E85.57510
G1 X152.50 Y163.11 E85.58823
G1 X149.07 Y162.77 E85.75104
G1 X148.79 Y162.74 E85.76412
G1 X145.49 Y161.74 E85.92700
G1 X145.22 Y161.66 E85.94008
G1 X142.18 Y160.03 E86.10288
G1 X141.93 Y159.90 E86.11595
G1 X139.27 Y157.72 E86.27836
G1 X139.06 Y157.54 E86.29148
G1 X136.87 Y154.88 E86.45386
G1 X136.70 Y154.67 E86.46661
G1 X135.07 Y151.62 E86.62955
G1 X134.94 Y151.39 E86.64213
G1 X133.94 Y148.07 E86.80533
G1 X133.86 Y147.82 E86.81808
G1 X133.52 Y144.38 E86.98108
G1 X133.27 Y141.90 E87.09837
G0 F12000 X133.71 Y142.30
G1 F2700 X171.28 Y142.30 E88.87006
G1 X170.77 Y147.50 E89.11622
G1 X170.75 Y147.73 E89.12740
G1 X169.76 Y151.00 E89.28844
G1 X169.69 Y151.23 E89.29966
G1 X168.08 Y154.24 E89.46057
G1 X167.97 Y154.44 E89.47179
G1 X165.81 Y157.08 E89.63239
G1 X165.65 Y157.26 E89.64361
G1 X163.02 Y159.42 E89.80417
G1 X163.02 Y159.42 E89.80424
G1 X162.84 Y159.57 E89.81525
G1 X159.83 Y161.18 E89.97629
G1 X159.63 Y161.29 E89.98703
G1 X156.36 Y162.28 E90.14827
G1 X156.14 Y162.35 E90.15918
G1 X152.74 Y162.68 E90.32015
G1 X152.50 Y162.71 E90.33143
G1 X149.10 Y162.37 E90.49235
G1 X148.87 Y162.35 E90.50353
G1 X145.60 Y161.36 E90.66453
G1 X145.38 Y161.29 E90.67574
G1 X142.37 Y159.68 E90.83667
G1 X142.16 Y159.57 E90.84790
G1 X139.52 Y157.41 E91.00850
G1 X139.34 Y157.25 E91.01971
G1 X137.18 Y154.62 E91.18028
G1 X137.18 Y154.62 E91.18034
G1 X137.03 Y154.44 E91.19133
G1 X135.42 Y151.43 E91.35230
G1 X135.31 Y151.23 E91.36313
G1 X134.32 Y147.96 E91.52440
G1 X134.25 Y147.74 E91.53535
G1 X133.92 Y144.34 E91.69641
G1 X133.71 Y142.30 E91.79291
G0 F12000 X134.16 Y142.70
G1 F2700 X170.84 Y142.70 E93.52295
G1 X170.38 Y147.46 E93.74827
G1 X170.35 Y147.65 E93.75760
G1 X169.38 Y150.88 E93.91676
G1 X169.32 Y151.07 E93.92609
G1 X167.73 Y154.05 E94.08514
G1 X167.63 Y154.22 E94.09449
G1 X165.50 Y156.82 E94.25324
G1 X165.37 Y156.98 E94.26262
G1 X162.77 Y159.11 E94.42138
G1 X162.62 Y159.24 E94.43059
G1 X159.64 Y160.83 E94.58970
G1 X159.47 Y160.92 E94.59873
G1 X156.24 Y161.90 E94.75800
G1 X156.06 Y161.96 E94.76713
G1 X152.70 Y162.29 E94.92620
G1 X152.50 Y162.31 E94.93558
G1 X149.15 Y161.97 E95.09461
G1 X148.95 Y161.96 E95.10395
G1 X145.72 Y160.98 E95.26306
G1 X145.53 Y160.92 E95.27239
G1 X142.56 Y159.33 E95.43144
G1 X142.38 Y159.23 E95.44081
G1 X139.78 Y157.10 E95.59956
G1 X139.62 Y156.97 E95.60894
G1 X137.49 Y154.37 E95.76770
G1 X137.37 Y154.22 E95.77691
G1 X135.77 Y151.24 E95.93600
G1 X135.68 Y151.07 E95.94503
G1 X134.70 Y147.84 E96.10434
G1 X134.65 Y147.66 E96.11347
G1 X134.31 Y144.30 E96.27263
G1 X134.16 Y142.70 E96.34832
G0 F12000 X134.60 Y143.10
G1 F2700 X170.40 Y143.10 E98.03673
G1 X169.98 Y147.42 E98.24124
G1 X169.96 Y147.57 E98.24873
G1 X168.99 Y150.76 E98.40592
G1 X168.95 Y150.92 E98.41342
G1 X167.38 Y153.86 E98.57057
G1 X167.30 Y154.00 E98.57807
G1 X165.19 Y156.57 E98.73501
G1 X165.09 Y156.69 E98.74255
G1 X162.52 Y158.80 E98.89923
G1 X162.52 Y158.80 E98.89930
G1 X162.39 Y158.90 E98.90693
G1 X159.45 Y160.47 E99.06417
G1 X159.32 Y160.55 E99.07143
G1 X156.12 Y161.51 E99.22872
G1 X155.98 Y161.56 E99.23608
G1 X152.66 Y161.89 E99.39321
G1 X152.50 Y161.90 E99.40074
G1 X149.18 Y161.58 E99.55792
G1 X149.03 Y161.56 E99.56541
G1 X145.84 Y160.59 E99.72256
G1 X145.69 Y160.55 E99.73006
G1 X142.75 Y158.98 E99.88723
G1 X142.61 Y158.90 E99.89473
G1 X140.03 Y156.79 E100.05167
G1 X139.91 Y156.69 E100.05921
G1 X137.80 Y154.12 E100.21589
G1 X137.80 Y154.12 E100.21595
G1 X137.70 Y153.99 E100.22359
G1 X136.13 Y151.06 E100.38077
G1 X136.05 Y150.92 E100.38807
G1 X135.09 Y147.73 E100.54541
G1 X135.04 Y147.58 E100.55276
G1 X134.71 Y144.26 E100.70998
G1 X134.60 Y143.10 E100.76486
G0 F12000 X135.04 Y143.50
G1 F2700 X169.96 Y143.50 E102.41163
G1 X169.58 Y147.38 E102.59529
G1 X169.57 Y147.50 E102.60093
G1 X168.61 Y150.65 E102.75625
G1 X168.58 Y150.76 E102.76188
G1 X167.02 Y153.66 E102.91712
G1 X166.97 Y153.77 E102.92277
G1 X164.88 Y156.31 E103.07791
G1 X164.80 Y156.41 E103.08357
G1 X162.26 Y158.49 E103.23871
G1 X162.17 Y158.57 E103.24433
G1 X159.26 Y160.12 E103.39959
G1 X159.16 Y160.18 E103.40507
G1 X156.01 Y161.13 E103.56025
G1 X155.90 Y161.17 E103.56598
G1 X152.50 Y161.50 E103.72695
G1 X149.10 Y161.17 E103.88782
G1 X145.95 Y160.21 E104.04309
G1 X145.84 Y160.18 E104.04873
G1 X142.94 Y158.62 E104.20398
G1 X142.83 Y158.57 E104.20963
G1 X140.29 Y156.48 E104.36478
G1 X140.19 Y156.40 E104.37043
G1 X138.11 Y153.86 E104.52557
G1 X138.03 Y153.77 E104.53116
G1 X136.48 Y150.87 E104.68642
G1 X136.42 Y150.76 E104.69191
G1 X135.47 Y147.61 E104.84732
G1 X135.43 Y147.50 E104.85290
G1 X135.11 Y144.22 E105.00818
G1 X135.04 Y143.50 E105.04225
G0 F12000 X135.48 Y143.90
G1 F2700 X169.52 Y143.90 E106.64738
G1 X169.17 Y147.42 E106.81399
G1 X168.23 Y150.53 E106.96744
G1 X168.21 Y150.61 E106.97119
G1 X166.67 Y153.47 E107.12455
G1 X166.63 Y153.54 E107.12833
G1 X164.57 Y156.06 E107.28166
G1 X164.52 Y156.12 E107.28544
G1 X162.01 Y158.18 E107.43880
G1 X161.94 Y158.24 E107.44259
G1 X159.07 Y159.77 E107.59596
G1 X159.01 Y159.81 E107.59968
G1 X155.89 Y160.75 E107.75303
G1 X155.82 Y160.77 E107.75684
G1 X152.50 Y161.10 E107.91401
G1 X149.18 Y160.77 E108.07115
G1 X146.07 Y159.83 E108.22455
G1 X146.00 Y159.81 E108.22830
G1 X143.13 Y158.27 E108.38168
G1 X143.06 Y158.23 E108.38546
G1 X140.54 Y156.17 E108.53879
G1 X140.48 Y156.12 E108.54257
G1 X138.42 Y153.61 E108.69593
G1 X138.37 Y153.54 E108.69972
G1 X136.83 Y150.68 E108.85307
G1 X136.79 Y150.61 E108.85679
G1 X135.85 Y147.49 E109.01023
G1 X135.83 Y147.42 E109.01399
G1 X135.48 Y143.90 E109.18064
G0 F12000 X136.36 Y144.70
;TYPE:WALL-INNER
G1 F2700 X168.64 Y144.70 E110.70250
G1 X168.38 Y147.26 E110.82366
G1 X167.47 Y150.29 E110.97325
G1 X165.97 Y153.09 E111.12285
G1 X163.96 Y155.55 E111.27270
G1 X161.50 Y157.57 E111.42264
G1 X158.70 Y159.06 E111.57241
G1 X155.66 Y159.98 E111.72206
G1 X152.50 Y160.30 E111.87176
G1 X149.34 Y159.99 E112.02149
G1 X146.31 Y159.06 E112.17091
G1 X143.51 Y157.57 E112.32063
G1 X141.05 Y155.55 E112.47051
G1 X139.03 Y153.10 E112.62032
G1 X137.54 Y150.30 E112.77007
G1 X136.62 Y147.26 E112.91977
G1 X136.36 Y144.70 E113.04103
G0 F12000 X135.92 Y144.30
;TYPE:WALL-OUTER
G1 F2700 X169.08 Y144.30 E114.60447
G1 X168.78 Y147.34 E114.74852
G1 X167.85 Y150.41 E114.89990
G1 X167.83 Y150.45 E114.90193
G1 X166.32 Y153.28 E115.05326
G1 X166.30 Y153.32 E115.05503
G1 X164.26 Y155.80 E115.20672
G1 X164.24 Y155.84 E115.20867
G1 X161.75 Y157.88 E115.36025
G1 X161.72 Y157.90 E115.36233
G1 X158.89 Y159.41 E115.51372
G1 X158.85 Y159.44 E115.51566
G1 X155.78 Y160.37 E115.66714
G1 X152.50 Y160.70 E115.82241
G1 X149.26 Y160.38 E115.97594
G1 X146.19 Y159.45 E116.12728
G1 X146.15 Y159.43 E116.12931
G1 X143.31 Y157.92 E116.28076
G1 X143.28 Y157.90 E116.28243
G1 X140.80 Y155.86 E116.43418
G1 X140.76 Y155.84 E116.43606
G1 X138.73 Y153.35 E116.58764
G1 X138.70 Y153.32 E116.58972
G1 X137.19 Y150.49 E116.74109
G1 X137.16 Y150.45 E116.74303
G1 X136.23 Y147.38 E116.89456
G1 X136.22 Y147.34 E116.89644
G1 X135.92 Y144.30 E117.04039
G0 F12000 X136.64 Y144.84
;TYPE:FILL
G1 F2700 X151.89 Y160.09 E118.05761
G0 F12000 X152.51 Y160.15
G1 F2700 X137.20 Y144.84 E119.07870
G0 F12000 X137.77 Y144.84
G1 F2700 X153.03 Y160.10 E120.09646
G0 F12000 X153.54 Y160.05
G1 F2700 X138.34 Y144.84 E121.11082
G0 F12000 X138.90 Y144.84
G1 F2700 X154.06 Y160.00 E122.12177
G0 F12000 X154.57 Y159.95
G1 F2700 X139.47 Y144.84 E123.12939
G0 F12000 X140.03 Y144.84
G1 F2700 X155.09 Y159.90 E124.13361
G0 F12000 X155.60 Y159.85
G1 F2700 X140.60 Y144.84 E125.13443
G0 F12000 X141.16 Y144.84
G1 F2700 X156.04 Y159.72 E126.12685
G0 F12000 X156.48 Y159.59
G1 F2700 X141.73 Y144.84 E127.11042
G0 F12000 X142.29 Y144.84
G1 F2700 X156.91 Y159.46 E128.08520
G0 F12000 X157.35 Y159.33
G1 F2700 X142.86 Y144.84 E129.05124
G0 F12000 X143.43 Y144.84
G1 F2700 X157.78 Y159.19 E130.00851
G0 F12000 X158.21 Y159.06
G1 F2700 X143.99 Y144.84 E130.95694
G0 F12000 X144.56 Y144.84
G1 F2700 X158.65 Y158.93 E131.89657
G0 F12000 X159.01 Y158.73
G1 F2700 X145.12 Y144.84 E132.82303
G0 F12000 X145.69 Y144.84
G1 F2700 X159.38 Y158.54 E133.73639
G0 F12000 X159.75 Y158.34
G1 F2700 X146.25 Y144.84 E134.63657
G0 F12000 X146.82 Y144.84
G1 F2700 X160.12 Y158.14 E135.52361
G0 F12000 X160.49 Y157.94
G1 F2700 X147.39 Y144.84 E136.39755
G0 F12000 X147.95 Y144.84
G1 F2700 X160.86 Y157.75 E137.25832
G0 F12000 X161.23 Y157.55
G1 F2700 X148.52 Y144.84 E138.10595
G0 F12000 X149.08 Y144.84
G1 F2700 X161.57 Y157.32 E138.93851
G0 F12000 X161.88 Y157.07
G1 F2700 X149.65 Y144.84 E139.75410
G0 F12000 X150.21 Y144.84
G1 F2700 X162.19 Y156.81 E140.55271
G0 F12000 X162.50 Y156.56
G1 F2700 X150.78 Y144.84 E141.33432
G0 F12000 X151.35 Y144.84
G1 F2700 X162.81 Y156.31 E142.09892
G0 F12000 X163.12 Y156.05
G1 F2700 X151.91 Y144.84 E142.84652
G0 F12000 X152.48 Y144.84
G1 F2700 X163.43 Y155.80 E143.57714
G0 F12000 X163.74 Y155.54
G1 F2700 X153.04 Y144.84 E144.29073
G0 F12000 X153.61 Y144.84
G1 F2700 X164.02 Y155.25 E144.98497
G0 F12000 X164.27 Y154.94
G1 F2700 X154.17 Y144.84 E145.65847
G0 F12000 X154.74 Y144.84
G1 F2700 X164.53 Y154.63 E146.31124
G0 F12000 X164.78 Y154.32
G1 F2700 X155.31 Y144.84 E146.94329
G0 F12000 X155.87 Y144.84
G1 F2700 X165.04 Y154.01 E147.55464
G0 F12000 X165.29 Y153.70
G1 F2700 X156.44 Y144.84 E148.14521
G0 F12000 X157.00 Y144.84
G1 F2700 X165.55 Y153.38 E148.71501
G0 F12000 X165.80 Y153.07
G1 F2700 X157.57 Y144.84 E149.26414
G0 F12000 X158.13 Y144.84
G1 F2700 X166.01 Y152.72 E149.78943
G0 F12000 X166.21 Y152.35
G1 F2700 X158.70 Y144.84 E150.29013
G0 F12000 X159.26 Y144.84
G1 F2700 X166.41 Y151.98 E150.76630
G0 F12000 X166.60 Y151.61
G1 F2700 X159.83 Y144.84 E151.21786
G0 F12000 X160.40 Y144.84
G1 F2700 X166.80 Y151.24 E151.64484
G0 F12000 X167.00 Y150.87
G1 F2700 X160.96 Y144.84 E152.04725
G0 F12000 X161.53 Y144.84
G1 F2700 X167.19 Y150.51 E152.42508
G0 F12000 X167.37 Y150.12
G1 F2700 X162.09 Y144.84 E152.77708
G0 F12000 X162.66 Y144.84
G1 F2700 X167.50 Y149.68 E153.10009
G0 F12000 X167.63 Y149.25
G1 F2700 X163.22 Y144.84 E153.39419
G0 F12000 X163.79 Y144.84
G1 F2700 X167.77 Y148.82 E153.65935
G0 F12000 X167.90 Y148.38
G1 F2700 X164.36 Y144.84 E153.89553
G0 F12000 X164.92 Y144.84
G1 F2700 X168.03 Y147.95 E154.10281
G0 F12000 X168.16 Y147.51
G1 F2700 X165.49 Y144.84 E154.28114
G0 F12000 X166.05 Y144.84
G1 F2700 X168.26 Y147.05 E154.42862
G0 F12000 X168.31 Y146.54
G1 F2700 X166.62 Y144.84 E154.54173
G0 F12000 X167.19 Y144.84
G1 F2700 X168.37 Y146.02 E154.62046
G0 F12000 X168.42 Y145.51
G1 F2700 X167.75 Y144.84 E154.66484
G0 F12000 X168.32 Y144.84
G1 F2700 X168.47 Y144.99 E154.67484
G0 F12000 X151.26 Y160.03
G1 F2700 X136.57 Y145.34 E155.65499
G0 F12000 X136.63 Y145.96
G1 F2700 X150.64 Y159.97 E156.58918
G0 F12000 X150.01 Y159.91
G1 F2700 X136.69 Y146.59 E157.47743
G0 F12000 X136.75 Y147.22
G1 F2700 X149.38 Y159.85 E158.31976
G0 F12000 X148.57 Y159.61
G1 F2700 X136.99 Y148.02 E159.09223
G0 F12000 X137.24 Y148.84
G1 F2700 X147.76 Y159.36 E159.79411
G0 F12000 X146.95 Y159.11
G1 F2700 X137.48 Y149.65 E160.42543
G0 F12000 X137.84 Y150.57
G1 F2700 X146.03 Y158.76 E160.97175
G0 F12000 X144.81 Y158.11
G1 F2700 X138.49 Y151.78 E161.39364
G0 F12000 X139.14 Y153.00
G1 F2700 X143.60 Y157.46 E161.69107
;LAYER:1
G0 F12000 X143.50 Y157.57 Z0.40
;TYPE:WALL-INNER
G1 F3900 X141.05 Y155.55 E161.74102
G1 X139.03 Y153.10 E161.79097
G1 X137.54 Y150.30 E161.84083
G1 X136.62 Y147.28 E161.89036
G1 X136.62 Y147.26 E161.89078
G1 X136.37 Y144.70 E161.93116
G1 X168.64 Y144.70 E162.43843
G1 X168.39 Y147.23 E162.47837
G1 X168.38 Y147.26 E162.47886
G1 X167.47 Y150.27 E162.52832
G1 X167.46 Y150.30 E162.52873
G1 X165.97 Y153.10 E162.57863
G1 X163.95 Y155.55 E162.62858
G1 X161.50 Y157.57 E162.67852
G1 X158.70 Y159.06 E162.72839
G1 X155.68 Y159.98 E162.77791
G1 X155.66 Y159.99 E162.77832
G1 X152.52 Y160.29 E162.82782
G1 X152.50 Y160.30 E162.82825
G1 X149.37 Y159.99 E162.87761
G1 X149.34 Y159.99 E162.87810
G1 X146.33 Y159.07 E162.92759
G1 X146.31 Y159.06 E162.92796
G1 X143.50 Y157.57 E162.97786
G0 F12000 X143.28 Y157.90
;TYPE:WALL-OUTER
G1 F3900 X140.76 Y155.84 E163.02907
G1 X138.70 Y153.32 E163.08028
G1 X137.16 Y150.45 E163.13134
G1 X136.24 Y147.40 E163.18150
G1 X136.22 Y147.34 E163.18250
G1 X135.92 Y144.30 E163.23049
G1 X169.08 Y144.30 E163.75164
G1 X168.79 Y147.27 E163.79858
G1 X168.78 Y147.34 E163.79965
G1 X167.85 Y150.39 E163.84974
G1 X167.83 Y150.46 E163.85080
G1 X166.30 Y153.32 E163.90185
G1 X164.24 Y155.84 E163.95306
G1 X161.72 Y157.90 E164.00427
G1 X158.85 Y159.44 E164.05534
G1 X155.74 Y160.38 E164.10645
G1 X152.56 Y160.69 E164.15662
G1 X152.50 Y160.70 E164.15765
G1 X149.33 Y160.39 E164.20773
G1 X149.26 Y160.38 E164.20881
G1 X146.15 Y159.44 E164.25993
G1 X143.28 Y157.90 E164.31099
G0 F12000 X143.71 Y157.52
;TYPE:FILL
G1 F3900 X156.39 Y144.84 E164.59282
G0 F12000 X156.95 Y144.84
G1 F3900 X144.08 Y157.72 E164.87903
G0 F12000 X144.45 Y157.91
G1 F3900 X157.52 Y144.84 E165.16962
G0 F12000 X158.08 Y144.84
G1 F3900 X144.81 Y158.11 E165.46460
G0 F12000 X145.18 Y158.31
G1 F3900 X158.65 Y144.84 E165.76397
G0 F12000 X159.22 Y144.84
G1 F3900 X145.55 Y158.50 E166.06772
G0 F12000 X145.92 Y158.70
G1 F3900 X159.78 Y144.84 E166.37584
G0 F12000 X160.35 Y144.84
G1 F3900 X146.29 Y158.90 E166.68835
G0 F12000 X146.71 Y159.04
G1 F3900 X160.91 Y144.84 E167.00404
G0 F12000 X161.48 Y144.84
G1 F3900 X147.15 Y159.17 E167.32266
G0 F12000 X147.58 Y159.30
G1 F3900 X162.04 Y144.84 E167.64421
G0 F12000 X162.61 Y144.84
G1 F3900 X148.01 Y159.44 E167.96868
G0 F12000 X148.45 Y159.57
G1 F3900 X163.18 Y144.84 E168.29607
G0 F12000 X163.74 Y144.84
G1 F3900 X148.88 Y159.70 E168.62639
G0 F12000 X149.31 Y159.83
G1 F3900 X164.31 Y144.84 E168.95964
G0 F12000 X164.87 Y144.84
G1 F3900 X149.82 Y159.89 E169.29421
G0 F12000 X150.34 Y159.94
G1 F3900 X165.44 Y144.84 E169.62992
G0 F12000 X166.00 Y144.84
G1 F3900 X150.85 Y159.99 E169.96675
G0 F12000 X151.37 Y160.04
G1 F3900 X166.57 Y144.84 E170.30471
G0 F12000 X167.13 Y144.84
G1 F3900 X151.88 Y160.09 E170.64380
G0 F12000 X152.40 Y160.14
G1 F3900 X167.70 Y144.84 E170.98401
G0 F12000 X168.27 Y144.84
G1 F3900 X153.00 Y160.10 E171.32335
G0 F12000 X153.63 Y160.04
G1 F3900 X168.44 Y145.23 E171.65265
G0 F12000 X168.38 Y145.86
G1 F3900 X154.26 Y159.98 E171.96664
G0 F12000 X154.88 Y159.92
G1 F3900 X168.32 Y146.48 E172.26530
G0 F12000 X168.26 Y147.11
G1 F3900 X155.51 Y159.86 E172.54867
G0 F12000 X156.29 Y159.64
G1 F3900 X168.05 Y147.88 E172.81007
G0 F12000 X167.80 Y148.70
G1 F3900 X157.10 Y159.40 E173.04798
G0 F12000 X157.91 Y159.15
G1 F3900 X167.56 Y149.51 E173.26238
G0 F12000 X167.27 Y150.36
G1 F3900 X158.76 Y158.87 E173.45152
G0 F12000 X159.98 Y158.22
G1 F3900 X166.62 Y151.58 E173.59915
G0 F12000 X165.97 Y152.79
G1 F3900 X161.19 Y157.57 E173.70528
G0 F12000 X155.82 Y144.84
G1 F3900 X143.38 Y157.28 E173.98187
G0 F12000 X143.07 Y157.03
G1 F3900 X155.25 Y144.84 E174.25279
G0 F12000 X154.69 Y144.84
G1 F3900 X142.76 Y156.77 E174.51805
G0 F12000 X142.45 Y156.52
G1 F3900 X154.12 Y144.84 E174.77765
G0 F12000 X153.56 Y144.84
G1 F3900 X142.14 Y156.26 E175.03156
G0 F12000 X141.82 Y156.01
G1 F3900 X152.99 Y144.84 E175.27983
G0 F12000 X152.43 Y144.84
G1 F3900 X141.51 Y155.75 E175.52243
G0 F12000 X141.20 Y155.50
G1 F3900 X151.86 Y144.84 E175.75936
G0 F12000 X151.30 Y144.84
G1 F3900 X140.94 Y155.20 E175.98960
G0 F12000 X140.68 Y154.89
G1 F3900 X150.73 Y144.84 E176.21293
G0 F12000 X150.16 Y144.84
G1 F3900 X140.43 Y154.57 E176.42934
G0 F12000 X140.17 Y154.26
G1 F3900 X149.60 Y144.84 E176.63886
G0 F12000 X149.03 Y144.84
G1 F3900 X139.92 Y153.95 E176.84146
G0 F12000 X139.66 Y153.64
G1 F3900 X148.47 Y144.84 E177.03715
G0 F12000 X147.90 Y144.84
G1 F3900 X139.41 Y153.33 E177.22593
G0 F12000 X139.16 Y153.02
G1 F3900 X147.34 Y144.84 E177.40780
G0 F12000 X146.77 Y144.84
G1 F3900 X138.96 Y152.65 E177.58150
G0 F12000 X138.76 Y152.29
G1 F3900 X146.20 Y144.84 E177.74701
G0 F12000 X145.64 Y144.84
G1 F3900 X138.56 Y151.92 E177.90435
G0 F12000 X138.36 Y151.55
G1 F3900 X145.07 Y144.84 E178.05349
G0 F12000 X144.51 Y144.84
G1 F3900 X138.17 Y151.18 E178.19443
G0 F12000 X137.97 Y150.81
G1 F3900 X143.94 Y144.84 E178.32720
G0 F12000 X143.38 Y144.84
G1 F3900 X137.77 Y150.44 E178.45177
G0 F12000 X137.60 Y150.04
G1 F3900 X142.81 Y144.84 E178.56748
G0 F12000 X142.25 Y144.84
G1 F3900 X137.47 Y149.61 E178.67354
G0 F12000 X137.34 Y149.18
G1 F3900 X141.68 Y144.84 E178.76993
G0 F12000 X141.11 Y144.84
G1 F3900 X137.21 Y148.74 E178.85667
G0 F12000 X137.08 Y148.31
G1 F3900 X140.55 Y144.84 E178.93375
G0 F12000 X139.98 Y144.84
G1 F3900 X136.95 Y147.87 E179.00119
G0 F12000 X136.82 Y147.44
G1 F3900 X139.42 Y144.84 E179.05894
G0 F12000 X138.85 Y144.84
G1 F3900 X136.73 Y146.96 E179.10615
G0 F12000 X136.68 Y146.45
G1 F3900 X138.28 Y144.84 E179.14191
G0 F12000 X137.72 Y144.84
G1 F3900 X136.63 Y145.93 E179.16620
G0 F12000 X136.58 Y145.42
G1 F3900 X137.15 Y144.84 E179.17903
G0 F12000 X136.59 Y144.84
G1 F3900 X136.53 Y144.90 E179.18043
;LAYER:2
G0 F12000 X136.36 Y144.70 Z0.50
;TYPE:WALL-INNER
G1 F5220 X168.64 Y144.70 E179.68771
G1 X168.39 Y147.21 E179.72733
G1 X168.38 Y147.26 E179.72815
G1 X167.48 Y150.25 E179.77724
G1 X167.47 Y150.30 E179.77800
G1 X165.99 Y153.06 E179.82718
G1 X165.97 Y153.10 E179.82791
G1 X163.95 Y155.55 E179.87786
G1 X161.50 Y157.57 E179.92781
G1 X158.74 Y159.04 E179.97686
G1 X158.70 Y159.06 E179.97766
G1 X155.71 Y159.97 E180.02680
G1 X155.66 Y159.99 E180.02758
G1 X152.55 Y160.29 E180.07672
G1 X152.50 Y160.30 E180.07751
G1 X149.39 Y159.99 E180.12657
G1 X149.34 Y159.99 E180.12739
G1 X146.35 Y159.08 E180.17650
G1 X146.31 Y159.06 E180.17722
G1 X143.55 Y157.59 E180.22642
G1 X143.50 Y157.57 E180.22718
G1 X141.05 Y155.55 E180.27709
G1 X139.03 Y153.10 E180.32704
G1 X137.56 Y150.34 E180.37612
G1 X137.54 Y150.30 E180.37689
G1 X136.63 Y147.31 E180.42605
G1 X136.62 Y147.26 E180.42682
G1 X136.36 Y144.70 E180.46724
G0 F12000 X135.92 Y144.30
;TYPE:WALL-OUTER
G1 F5220 X169.08 Y144.30 E180.98839
G1 X168.78 Y147.34 E181.03640
G1 X167.84 Y150.45 E181.08754
G1 X166.30 Y153.32 E181.13860
G1 X164.24 Y155.84 E181.18981
G1 X161.72 Y157.90 E181.24102
G1 X158.85 Y159.44 E181.29209
G1 X155.74 Y160.38 E181.34321
G1 X152.50 Y160.70 E181.39438
G1 X149.26 Y160.38 E181.44556
G1 X146.15 Y159.44 E181.49668
G1 X143.28 Y157.90 E181.54775
G1 X140.76 Y155.84 E181.59896
G1 X138.70 Y153.32 E181.65017
G1 X137.16 Y150.45 E181.70123
G1 X136.22 Y147.34 E181.75236
G1 X135.92 Y144.30 E181.80038
G0 F12000 X136.64 Y144.84
;TYPE:FILL
G1 F5220 X151.89 Y160.09 E182.13948
G0 F12000 X152.51 Y160.15
G1 F5220 X137.20 Y144.84 E182.47985
G0 F12000 X137.77 Y144.84
G1 F5220 X153.03 Y160.10 E182.81910
G0 F12000 X153.55 Y160.05
G1 F5220 X138.34 Y144.84 E183.15724
G0 F12000 X138.90 Y144.84
G1 F5220 X154.06 Y160.00 E183.49424
G0 F12000 X154.57 Y159.95
G1 F5220 X139.47 Y144.84 E183.83011
G0 F12000 X140.03 Y144.84
G1 F5220 X155.09 Y159.90 E184.16485
G0 F12000 X155.60 Y159.85
G1 F5220 X140.60 Y144.84 E184.49847
G0 F12000 X141.16 Y144.84
G1 F5220 X156.04 Y159.72 E184.82925
G0 F12000 X156.48 Y159.59
G1 F5220 X141.73 Y144.84 E185.15711
G0 F12000 X142.29 Y144.84
G1 F5220 X156.91 Y159.46 E185.48204
G0 F12000 X157.35 Y159.33
G1 F5220 X142.86 Y144.84 E185.80405
G0 F12000 X143.43 Y144.84
G1 F5220 X157.78 Y159.19 E186.12314
G0 F12000 X158.22 Y159.06
G1 F5220 X143.99 Y144.84 E186.43932
G0 F12000 X144.56 Y144.84
G1 F5220 X158.65 Y158.93 E186.75255
G0 F12000 X159.02 Y158.73
G1 F5220 X145.12 Y144.84 E187.06142
G0 F12000 X145.69 Y144.84
G1 F5220 X159.38 Y158.54 E187.36588
G0 F12000 X159.75 Y158.34
G1 F5220 X146.25 Y144.84 E187.66595
G0 F12000 X146.82 Y144.84
G1 F5220 X160.12 Y158.14 E187.96166
G0 F12000 X160.49 Y157.94
G1 F5220 X147.39 Y144.84 E188.25298
G0 F12000 X147.95 Y144.84
G1 F5220 X160.86 Y157.75 E188.53991
G0 F12000 X161.23 Y157.55
G1 F5220 X148.52 Y144.84 E188.82248
G0 F12000 X149.08 Y144.84
G1 F5220 X161.57 Y157.32 E189.10000
G0 F12000 X161.88 Y157.07
G1 F5220 X149.65 Y144.84 E189.37186
G0 F12000 X150.21 Y144.84
G1 F5220 X162.19 Y156.81 E189.63807
G0 F12000 X162.50 Y156.56
G1 F5220 X150.78 Y144.84 E189.89860
G0 F12000 X151.35 Y144.84
G1 F5220 X162.81 Y156.31 E190.15346
G0 F12000 X163.12 Y156.05
G1 F5220 X151.91 Y144.84 E190.40266
G0 F12000 X152.48 Y144.84
G1 F5220 X163.43 Y155.79 E190.64619
G0 F12000 X163.74 Y155.54
G1 F5220 X153.04 Y144.84 E190.88405
G0 F12000 X153.61 Y144.84
G1 F5220 X164.02 Y155.25 E191.11545
G0 F12000 X164.27 Y154.94
G1 F5220 X154.17 Y144.84 E191.33994
G0 F12000 X154.74 Y144.84
G1 F5220 X164.53 Y154.63 E191.55753
G0 F12000 X164.78 Y154.32
G1 F5220 X155.31 Y144.84 E191.76821
G0 F12000 X155.87 Y144.84
G1 F5220 X165.04 Y154.01 E191.97200
G0 F12000 X165.29 Y153.70
G1 F5220 X156.44 Y144.84 E192.16887
G0 F12000 X157.00 Y144.84
G1 F5220 X165.55 Y153.38 E192.35881
G0 F12000 X165.80 Y153.07
G1 F5220 X157.57 Y144.84 E192.54188
G0 F12000 X158.13 Y144.84
G1 F5220 X166.01 Y152.72 E192.71699
G0 F12000 X166.21 Y152.35
G1 F5220 X158.70 Y144.84 E192.88391
G0 F12000 X159.26 Y144.84
G1 F5220 X166.41 Y151.98 E193.04265
G0 F12000 X166.60 Y151.61
G1 F5220 X159.83 Y144.84 E193.19318
G0 F12000 X160.40 Y144.84
G1 F5220 X166.80 Y151.24 E193.33552
G0 F12000 X167.00 Y150.88
G1 F5220 X160.96 Y144.84 E193.46968
G0 F12000 X161.53 Y144.84
G1 F5220 X167.19 Y150.51 E193.59563
G0 F12000 X167.37 Y150.12
G1 F5220 X162.09 Y144.84 E193.71300
G0 F12000 X162.66 Y144.84
G1 F5220 X167.50 Y149.69 E193.82071
G0 F12000 X167.64 Y149.25
G1 F5220 X163.22 Y144.84 E193.91877
G0 F12000 X163.79 Y144.84
G1 F5220 X167.77 Y148.82 E194.00718
G0 F12000 X167.90 Y148.38
G1 F5220 X164.36 Y144.84 E194.08593
G0 F12000 X164.92 Y144.84
G1 F5220 X168.03 Y147.95 E194.15504
G0 F12000 X168.16 Y147.51
G1 F5220 X165.49 Y144.84 E194.21450
G0 F12000 X166.05 Y144.84
G1 F5220 X168.26 Y147.05 E194.26366
G0 F12000 X168.31 Y146.54
G1 F5220 X166.62 Y144.84 E194.30136
G0 F12000 X167.19 Y144.84
G1 F5220 X168.37 Y146.02 E194.32760
G0 F12000 X168.42 Y145.51
G1 F5220 X167.75 Y144.84 E194.34240
G0 F12000 X168.32 Y144.84
G1 F5220 X168.47 Y144.99 E194.34573
G0 F12000 X151.26 Y160.03
G1 F5220 X136.57 Y145.34 E194.67246
G0 F12000 X136.63 Y145.96
G1 F5220 X150.64 Y159.97 E194.98387
G0 F12000 X150.01 Y159.91
G1 F5220 X136.69 Y146.59 E195.27995
G0 F12000 X136.75 Y147.22
G1 F5220 X149.38 Y159.85 E195.56072
G0 F12000 X148.57 Y159.61
G1 F5220 X136.99 Y148.02 E195.81819
G0 F12000 X137.24 Y148.84
G1 F5220 X147.76 Y159.36 E196.05214
G0 F12000 X146.95 Y159.11
G1 F5220 X137.48 Y149.65 E196.26258
G0 F12000 X137.83 Y150.56
G1 F5220 X146.03 Y158.76 E196.44478
G0 F12000 X144.81 Y158.11
G1 F5220 X138.49 Y151.78 E196.58543
G0 F12000 X139.14 Y153.00
G1 F5220 X143.60 Y157.46 E196.68459
;LAYER:3
G0 F12000 X143.51 Y157.57 Z0.60
;TYPE:WALL-INNER
G1 F6480 X141.10 Y155.60 E196.73343
G1 X141.05 Y155.55 E196.73455
G1 X139.08 Y153.16 E196.78333
G1 X139.03 Y153.10 E196.78447
G1 X137.57 Y150.36 E196.83324
G1 X137.54 Y150.30 E196.83441
G1 X136.64 Y147.33 E196.88315
G1 X136.62 Y147.26 E196.88434
G1 X136.36 Y144.70 E196.92472
G1 X168.64 Y144.70 E197.43201
G1 X168.38 Y147.26 E197.47244
G1 X167.49 Y150.23 E197.52116
G1 X167.46 Y150.30 E197.52237
G1 X166.00 Y153.03 E197.57106
G1 X165.97 Y153.09 E197.57216
G1 X164.00 Y155.50 E197.62100
G1 X163.95 Y155.55 E197.62212
G1 X161.55 Y157.52 E197.67091
G1 X161.50 Y157.57 E197.67205
G1 X158.76 Y159.03 E197.72082
G1 X158.70 Y159.06 E197.72199
G1 X155.73 Y159.96 E197.77072
G1 X155.66 Y159.99 E197.77191
G1 X152.50 Y160.30 E197.82177
G1 X149.34 Y159.99 E197.87168
G1 X146.38 Y159.09 E197.92038
G1 X146.30 Y159.06 E197.92159
G1 X143.57 Y157.60 E197.97031
G1 X143.51 Y157.57 E197.97139
G0 F12000 X143.28 Y157.90
;TYPE:WALL-OUTER
G1 F6480 X140.76 Y155.84 E198.02261
G1 X138.70 Y153.32 E198.07382
G1 X137.16 Y150.45 E198.12488
G1 X136.22 Y147.34 E198.17601
G1 X135.92 Y144.30 E198.22403
G1 X169.08 Y144.30 E198.74517
G1 X168.78 Y147.34 E198.79319
G1 X167.84 Y150.45 E198.84432
G1 X166.30 Y153.32 E198.89539
G1 X164.24 Y155.84 E198.94660
G1 X161.72 Y157.90 E198.99781
G1 X158.85 Y159.44 E199.04888
G1 X155.74 Y160.38 E199.10000
G1 X152.50 Y160.70 E199.15117
G1 X149.26 Y160.38 E199.20235
G1 X146.15 Y159.44 E199.25347
G1 X143.28 Y157.90 E199.30453
G0 F12000 X143.71 Y157.52
;TYPE:FILL
G1 F6480 X156.39 Y144.84 E199.58638
G0 F12000 X156.95 Y144.84
G1 F6480 X144.08 Y157.72 E199.87259
G0 F12000 X144.45 Y157.91
G1 F6480 X157.52 Y144.84 E200.16318
G0 F12000 X158.08 Y144.84
G1 F6480 X144.81 Y158.11 E200.45815
G0 F12000 X145.18 Y158.31
G1 F6480 X158.65 Y144.84 E200.75751
G0 F12000 X159.22 Y144.84
G1 F6480 X145.55 Y158.50 E201.06124
G0 F12000 X145.92 Y158.70
G1 F6480 X159.78 Y144.84 E201.36935
G0 F12000 X160.35 Y144.84
G1 F6480 X146.29 Y158.90 E201.68185
G0 F12000 X146.71 Y159.04
G1 F6480 X160.91 Y144.84 E201.99754
G0 F12000 X161.48 Y144.84
G1 F6480 X147.15 Y159.17 E202.31614
G0 F12000 X147.58 Y159.30
G1 F6480 X162.04 Y144.84 E202.63768
G0 F12000 X162.61 Y144.84
G1 F6480 X148.01 Y159.44 E202.96215
G0 F12000 X148.45 Y159.57
G1 F6480 X163.18 Y144.84 E203.28955
G0 F12000 X163.74 Y144.84
G1 F6480 X148.88 Y159.70 E203.61986
G0 F12000 X149.31 Y159.83
G1 F6480 X164.31 Y144.84 E203.95311
G0 F12000 X164.87 Y144.84
G1 F6480 X149.82 Y159.89 E204.28769
G0 F12000 X150.34 Y159.94
G1 F6480 X165.44 Y144.84 E204.62339
G0 F12000 X166.00 Y144.84
G1 F6480 X150.85 Y159.99 E204.96021
G0 F12000 X151.37 Y160.04
G1 F6480 X166.57 Y144.84 E205.29817
G0 F12000 X167.13 Y144.84
G1 F6480 X151.88 Y160.09 E205.63726
G0 F12000 X152.40 Y160.14
G1 F6480 X167.70 Y144.84 E205.97746
G0 F12000 X168.27 Y144.84
G1 F6480 X153.00 Y160.10 E206.31680
G0 F12000 X153.63 Y160.04
G1 F6480 X168.44 Y145.23 E206.64611
G0 F12000 X168.38 Y145.86
G1 F6480 X154.26 Y159.98 E206.96011
G0 F12000 X154.88 Y159.92
G1 F6480 X168.32 Y146.48 E207.25878
G0 F12000 X168.26 Y147.11
G1 F6480 X155.51 Y159.86 E207.54216
G0 F12000 X156.29 Y159.65
G1 F6480 X168.05 Y147.88 E207.80365
G0 F12000 X167.80 Y148.70
G1 F6480 X157.10 Y159.40 E208.04160
G0 F12000 X157.91 Y159.16
G1 F6480 X167.56 Y149.51 E208.25606
G0 F12000 X167.27 Y150.36
G1 F6480 X158.77 Y158.86 E208.44501
G0 F12000 X159.98 Y158.22
G1 F6480 X166.62 Y151.58 E208.59258
G0 F12000 X165.97 Y152.79
G1 F6480 X161.19 Y157.57 E208.69874
G0 F12000 X155.82 Y144.84
G1 F6480 X143.38 Y157.28 E208.97534
G0 F12000 X143.07 Y157.03
G1 F6480 X155.25 Y144.84 E209.24626
G0 F12000 X154.69 Y144.84
G1 F6480 X142.76 Y156.77 E209.51153
G0 F12000 X142.45 Y156.52
G1 F6480 X154.12 Y144.84 E209.77113
G0 F12000 X153.56 Y144.84
G1 F6480 X142.13 Y156.26 E210.02507
G0 F12000 X141.82 Y156.01
G1 F6480 X152.99 Y144.84 E210.27333
G0 F12000 X152.43 Y144.84
G1 F6480 X141.51 Y155.75 E210.51594
G0 F12000 X141.20 Y155.50
G1 F6480 X151.86 Y144.84 E210.75289
G0 F12000 X151.30 Y144.84
G1 F6480 X140.94 Y155.20 E210.98313
G0 F12000 X140.68 Y154.89
G1 F6480 X150.73 Y144.84 E211.20645
G0 F12000 X150.16 Y144.84
G1 F6480 X140.43 Y154.57 E211.42286
G0 F12000 X140.17 Y154.26
G1 F6480 X149.60 Y144.84 E211.63237
G0 F12000 X149.03 Y144.84
G1 F6480 X139.92 Y153.95 E211.83497
G0 F12000 X139.66 Y153.64
G1 F6480 X148.47 Y144.84 E212.03065
G0 F12000 X147.90 Y144.84
G1 F6480 X139.41 Y153.33 E212.21943
G0 F12000 X139.16 Y153.02
G1 F6480 X147.34 Y144.84 E212.40129
G0 F12000 X146.77 Y144.84
G1 F6480 X138.96 Y152.65 E212.57497
G0 F12000 X138.76 Y152.28
G1 F6480 X146.20 Y144.84 E212.74048
G0 F12000 X145.64 Y144.84
G1 F6480 X138.56 Y151.92 E212.89779
G0 F12000 X138.37 Y151.55
G1 F6480 X145.07 Y144.84 E213.04690
G0 F12000 X144.51 Y144.84
G1 F6480 X138.17 Y151.18 E213.18781
G0 F12000 X137.97 Y150.81
G1 F6480 X143.94 Y144.84 E213.32055
G0 F12000 X143.38 Y144.84
G1 F6480 X137.77 Y150.44 E213.44507
G0 F12000 X137.60 Y150.04
G1 F6480 X142.81 Y144.84 E213.56078
G0 F12000 X142.25 Y144.84
G1 F6480 X137.47 Y149.61 E213.66685
G0 F12000 X137.34 Y149.18
G1 F6480 X141.68 Y144.84 E213.76326
G0 F12000 X141.11 Y144.84
G1 F6480 X137.21 Y148.74 E213.85000
G0 F12000 X137.08 Y148.31
G1 F6480 X140.55 Y144.84 E213.92711
G0 F12000 X139.98 Y144.84
G1 F6480 X136.95 Y147.87 E213.99455
G0 F12000 X136.82 Y147.44
G1 F6480 X139.42 Y144.84 E214.05235
G0 F12000 X138.85 Y144.84
G1 F6480 X136.73 Y146.96 E214.09958
G0 F12000 X136.68 Y146.45
G1 F6480 X138.28 Y144.84 E214.13533
G0 F12000 X137.72 Y144.84
G1 F6480 X136.63 Y145.93 E214.15963
G0 F12000 X136.58 Y145.42
G1 F6480 X137.15 Y144.84 E214.17246
G0 F12000 X136.59 Y144.84
G1 F6480 X136.53 Y144.90 E214.17386
;LAYER:4
G0 F12000 X136.36 Y144.70 Z0.70
;TYPE:WALL-INNER
G1 F7800 X168.64 Y144.70 E214.68114
G1 X168.40 Y147.16 E214.72000
G1 X168.38 Y147.26 E214.72158
G1 X167.49 Y150.20 E214.76992
G1 X167.46 Y150.30 E214.77150
G1 X165.97 Y153.10 E214.82134
G1 X164.01 Y155.48 E214.86975
G1 X163.96 Y155.55 E214.87120
G1 X161.57 Y157.50 E214.91967
G1 X161.50 Y157.57 E214.92118
G1 X158.70 Y159.06 E214.97110
G1 X155.75 Y159.96 E215.01948
G1 X155.66 Y159.99 E215.02104
G1 X152.60 Y160.29 E215.06939
G1 X152.50 Y160.30 E215.07093
G1 X149.44 Y160.00 E215.11924
G1 X149.34 Y159.99 E215.12082
G1 X146.40 Y159.09 E215.16914
G1 X146.30 Y159.06 E215.17074
G1 X143.50 Y157.57 E215.22057
G1 X141.12 Y155.62 E215.26898
G1 X141.05 Y155.56 E215.27043
G1 X139.10 Y153.17 E215.31890
G1 X139.03 Y153.10 E215.32041
G1 X137.54 Y150.30 E215.37033
G1 X136.64 Y147.35 E215.41872
G1 X136.62 Y147.26 E215.42028
G1 X136.36 Y144.70 E215.46067
G0 F12000 X135.92 Y144.30
;TYPE:WALL-OUTER
G1 F7800 X169.08 Y144.30 E215.98181
G1 X168.78 Y147.34 E216.02983
G1 X167.84 Y150.45 E216.08096
G1 X166.30 Y153.32 E216.13202
G1 X164.24 Y155.84 E216.18324
G1 X161.72 Y157.90 E216.23445
G1 X158.85 Y159.44 E216.28551
G1 X155.74 Y160.38 E216.33663
G1 X152.50 Y160.70 E216.38781
G1 X149.26 Y160.38 E216.43899
G1 X146.15 Y159.44 E216.49010
G1 X143.28 Y157.90 E216.54117
G1 X140.76 Y155.84 E216.59238
G1 X138.70 Y153.32 E216.64359
G1 X137.16 Y150.45 E216.69466
G1 X136.22 Y147.34 E216.74579
G1 X135.92 Y144.30 E216.79381
G0 F12000 X136.64 Y144.84
;TYPE:FILL
G1 F7800 X151.89 Y160.09 E217.13290
G0 F12000 X152.51 Y160.15
G1 F7800 X137.20 Y144.84 E217.47328
G0 F12000 X137.77 Y144.84
G1 F7800 X153.03 Y160.10 E217.81253
G0 F12000 X153.55 Y160.05
G1 F7800 X138.34 Y144.84 E218.15067
G0 F12000 X138.90 Y144.84
G1 F7800 X154.06 Y160.00 E218.48767
G0 F12000 X154.57 Y159.95
G1 F7800 X139.47 Y144.84 E218.82354
G0 F12000 X140.03 Y144.84
G1 F7800 X155.09 Y159.90 E219.15830
G0 F12000 X155.60 Y159.85
G1 F7800 X140.60 Y144.84 E219.49192
G0 F12000 X141.16 Y144.84
G1 F7800 X156.04 Y159.72 E219.82273
G0 F12000 X156.48 Y159.59
G1 F7800 X141.73 Y144.84 E220.15060
G0 F12000 X142.29 Y144.84
G1 F7800 X156.91 Y159.46 E220.47554
G0 F12000 X157.35 Y159.33
G1 F7800 X142.86 Y144.84 E220.79756
G0 F12000 X143.43 Y144.84
G1 F7800 X157.78 Y159.19 E221.11665
G0 F12000 X158.21 Y159.06
G1 F7800 X143.99 Y144.84 E221.43280
G0 F12000 X144.56 Y144.84
G1 F7800 X158.65 Y158.93 E221.74601
G0 F12000 X159.02 Y158.73
G1 F7800 X145.12 Y144.84 E222.05485
G0 F12000 X145.69 Y144.84
G1 F7800 X159.38 Y158.54 E222.35932
G0 F12000 X159.75 Y158.34
G1 F7800 X146.25 Y144.84 E222.65939
G0 F12000 X146.82 Y144.84
G1 F7800 X160.12 Y158.14 E222.95509
G0 F12000 X160.49 Y157.94
G1 F7800 X147.39 Y144.84 E223.24641
G0 F12000 X147.95 Y144.84
G1 F7800 X160.86 Y157.75 E223.53334
G0 F12000 X161.23 Y157.55
G1 F7800 X148.52 Y144.84 E223.81591
G0 F12000 X149.08 Y144.84
G1 F7800 X161.57 Y157.32 E224.09345
G0 F12000 X161.88 Y157.07
G1 F7800 X149.65 Y144.84 E224.36533
G0 F12000 X150.21 Y144.84
G1 F7800 X162.19 Y156.81 E224.63154
G0 F12000 X162.50 Y156.56
G1 F7800 X150.78 Y144.84 E224.89208
G0 F12000 X151.35 Y144.84
G1 F7800 X162.81 Y156.31 E225.14695
G0 F12000 X163.12 Y156.05
G1 F7800 X151.91 Y144.84 E225.39617
G0 F12000 X152.48 Y144.84
G1 F7800 X163.43 Y155.80 E225.63971
G0 F12000 X163.74 Y155.54
G1 F7800 X153.04 Y144.84 E225.87760
G0 F12000 X153.61 Y144.84
G1 F7800 X164.02 Y155.25 E226.10902
G0 F12000 X164.27 Y154.94
G1 F7800 X154.17 Y144.84 E226.33355
G0 F12000 X154.74 Y144.84
G1 F7800 X164.53 Y154.63 E226.55114
G0 F12000 X164.78 Y154.32
G1 F7800 X155.31 Y144.84 E226.76184
G0 F12000 X155.87 Y144.84
G1 F7800 X165.04 Y154.01 E226.96562
G0 F12000 X165.29 Y153.70
G1 F7800 X156.44 Y144.84 E227.16249
G0 F12000 X157.00 Y144.84
G1 F7800 X165.55 Y153.38 E227.35244
G0 F12000 X165.80 Y153.07
G1 F7800 X157.57 Y144.84 E227.53548
G0 F12000 X158.13 Y144.84
G1 F7800 X166.01 Y152.72 E227.71057
G0 F12000 X166.21 Y152.35
G1 F7800 X158.70 Y144.84 E227.87748
G0 F12000 X159.26 Y144.84
G1 F7800 X166.41 Y151.98 E228.03620
G0 F12000 X166.60 Y151.61
G1 F7800 X159.83 Y144.84 E228.18672
G0 F12000 X160.40 Y144.84
G1 F7800 X166.80 Y151.24 E228.32905
G0 F12000 X167.00 Y150.87
G1 F7800 X160.96 Y144.84 E228.46318
G0 F12000 X161.53 Y144.84
G1 F7800 X167.19 Y150.51 E228.58913
G0 F12000 X167.37 Y150.12
G1 F7800 X162.09 Y144.84 E228.70646
G0 F12000 X162.66 Y144.84
G1 F7800 X167.50 Y149.68 E228.81413
G0 F12000 X167.63 Y149.25
G1 F7800 X163.22 Y144.84 E228.91217
G0 F12000 X163.79 Y144.84
G1 F7800 X167.77 Y148.82 E229.00056
G0 F12000 X167.90 Y148.38
G1 F7800 X164.36 Y144.84 E229.07929
G0 F12000 X164.92 Y144.84
G1 F7800 X168.03 Y147.95 E229.14838
G0 F12000 X168.16 Y147.51
G1 F7800 X165.49 Y144.84 E229.20783
G0 F12000 X166.05 Y144.84
G1 F7800 X168.26 Y147.05 E229.25700
G0 F12000 X168.31 Y146.54
G1 F7800 X166.62 Y144.84 E229.29470
G0 F12000 X167.19 Y144.84
G1 F7800 X168.37 Y146.02 E229.32094
G0 F12000 X168.42 Y145.51
G1 F7800 X167.75 Y144.84 E229.33573
G0 F12000 X168.32 Y144.84
G1 F7800 X168.47 Y144.99 E229.33907
G0 F12000 X151.26 Y160.03
G1 F7800 X136.57 Y145.34 E229.66579
G0 F12000 X136.63 Y145.96
G1 F7800 X150.64 Y159.97 E229.97720
G0 F12000 X150.01 Y159.91
G1 F7800 X136.69 Y146.59 E230.27329
G0 F12000 X136.75 Y147.22
G1 F7800 X149.38 Y159.85 E230.55407
G0 F12000 X148.57 Y159.61
G1 F7800 X136.99 Y148.02 E230.81156
G0 F12000 X137.24 Y148.83
G1 F7800 X147.76 Y159.36 E231.04556
G0 F12000 X146.95 Y159.11
G1 F7800 X137.48 Y149.65 E231.25603
G0 F12000 X137.84 Y150.56
G1 F7800 X146.03 Y158.76 E231.43818
G0 F12000 X144.81 Y158.11
G1 F7800 X138.49 Y151.78 E231.57883
G0 F12000 X139.14 Y153.00
G1 F7800 X143.60 Y157.46 E231.67798
;LAYER:5
G0 F12000 X143.50 Y157.57 Z0.80
;TYPE:WALL-INNER
G1 F7800 X141.05 Y155.55 E231.72793
G1 X139.03 Y153.10 E231.77787
G1 X137.54 Y150.30 E231.82773
G1 X136.65 Y147.38 E231.87574
G1 X136.62 Y147.26 E231.87768
G1 X136.36 Y144.70 E231.91807
G1 X168.64 Y144.70 E232.42535
G1 X168.40 Y147.14 E232.46384
G1 X168.38 Y147.26 E232.46579
G1 X167.50 Y150.18 E232.51375
G1 X167.46 Y150.30 E232.51571
G1 X165.97 Y153.10 E232.56555
G1 X163.95 Y155.55 E232.61550
G1 X161.50 Y157.57 E232.66544
G1 X158.70 Y159.06 E232.71531
G1 X155.78 Y159.95 E232.76330
G1 X155.66 Y159.99 E232.76524
G1 X152.50 Y160.30 E232.81511
G1 X149.34 Y159.99 E232.86502
G1 X146.42 Y159.10 E232.91297
G1 X146.30 Y159.06 E232.91495
G1 X143.50 Y157.57 E232.96478
G0 F12000 X143.28 Y157.90
;TYPE:WALL-OUTER
G1 F7800 X140.76 Y155.84 E233.01599
G1 X138.70 Y153.32 E233.06720
G1 X137.16 Y150.45 E233.11826
G1 X136.22 Y147.34 E233.16939
G1 X135.92 Y144.30 E233.21741
G1 X169.08 Y144.30 E233.73856
G1 X168.78 Y147.34 E233.78657
G1 X167.84 Y150.45 E233.83771
G1 X166.30 Y153.32 E233.88877
G1 X164.24 Y155.84 E233.93998
G1 X161.72 Y157.90 E233.99119
G1 X158.85 Y159.44 E234.04226
G1 X155.74 Y160.38 E234.09338
G1 X152.50 Y160.70 E234.14455
G1 X149.26 Y160.38 E234.19573
G1 X146.15 Y159.44 E234.24685
G1 X143.28 Y157.90 E234.29792
G0 F12000 X143.71 Y157.52
;TYPE:FILL
G1 F7800 X156.39 Y144.84 E234.57974
G0 F12000 X156.95 Y144.84
G1 F7800 X144.08 Y157.72 E234.86595
G0 F12000 X144.45 Y157.91
G1 F7800 X157.52 Y144.84 E235.15654
G0 F12000 X158.08 Y144.84
G1 F7800 X144.81 Y158.11 E235.45151
G0 F12000 X145.18 Y158.31
G1 F7800 X158.65 Y144.84 E235.75087
G0 F12000 X159.22 Y144.84
G1 F7800 X145.55 Y158.50 E236.05460
G0 F12000 X145.92 Y158.70
G1 F7800 X159.78 Y144.84 E236.36272
G0 F12000 X160.35 Y144.84
G1 F7800 X146.29 Y158.90 E236.67522
G0 F12000 X146.71 Y159.04
G1 F7800 X160.91 Y144.84 E236.99093
G0 F12000 X161.48 Y144.84
G1 F7800 X147.14 Y159.17 E237.30956
G0 F12000 X147.58 Y159.31
G1 F7800 X162.04 Y144.84 E237.63113
G0 F12000 X162.61 Y144.84
G1 F7800 X148.01 Y159.44 E237.95561
G0 F12000 X148.45 Y159.57
G1 F7800 X163.18 Y144.84 E238.28302
G0 F12000 X163.74 Y144.84
G1 F7800 X148.88 Y159.70 E238.61336
G0 F12000 X149.31 Y159.83
G1 F7800 X164.31 Y144.84 E238.94661
G0 F12000 X164.87 Y144.84
G1 F7800 X149.82 Y159.89 E239.28118
G0 F12000 X150.34 Y159.94
G1 F7800 X165.44 Y144.84 E239.61689
G0 F12000 X166.00 Y144.84
G1 F7800 X150.85 Y159.99 E239.95370
G0 F12000 X151.37 Y160.04
G1 F7800 X166.57 Y144.84 E240.29167
G0 F12000 X167.13 Y144.84
G1 F7800 X151.88 Y160.09 E240.63075
G0 F12000 X152.40 Y160.14
G1 F7800 X167.70 Y144.84 E240.97095
G0 F12000 X168.27 Y144.84
G1 F7800 X153.00 Y160.10 E241.31029
G0 F12000 X153.63 Y160.04
G1 F7800 X168.44 Y145.23 E241.63961
G0 F12000 X168.38 Y145.86
G1 F7800 X154.26 Y159.98 E241.95361
G0 F12000 X154.88 Y159.92
G1 F7800 X168.32 Y146.48 E242.25228
G0 F12000 X168.26 Y147.11
G1 F7800 X155.51 Y159.86 E242.53566
G0 F12000 X156.29 Y159.65
G1 F7800 X168.05 Y147.88 E242.79715
G0 F12000 X167.80 Y148.70
G1 F7800 X157.10 Y159.40 E243.03512
G0 F12000 X157.91 Y159.16
G1 F7800 X167.56 Y149.51 E243.24957
G0 F12000 X167.27 Y150.36
G1 F7800 X158.76 Y158.87 E243.43871
G0 F12000 X159.98 Y158.22
G1 F7800 X166.62 Y151.58 E243.58636
G0 F12000 X165.97 Y152.79
G1 F7800 X161.19 Y157.57 E243.69250
G0 F12000 X155.82 Y144.84
G1 F7800 X143.38 Y157.28 E243.96908
G0 F12000 X143.07 Y157.03
G1 F7800 X155.25 Y144.84 E244.24000
G0 F12000 X154.69 Y144.84
G1 F7800 X142.76 Y156.77 E244.50526
G0 F12000 X142.45 Y156.52
G1 F7800 X154.12 Y144.84 E244.76486
G0 F12000 X153.56 Y144.84
G1 F7800 X142.14 Y156.26 E245.01877
G0 F12000 X141.82 Y156.01
G1 F7800 X152.99 Y144.84 E245.26704
G0 F12000 X152.43 Y144.84
G1 F7800 X141.51 Y155.75 E245.50964
G0 F12000 X141.20 Y155.50
G1 F7800 X151.86 Y144.84 E245.74657
G0 F12000 X151.30 Y144.84
G1 F7800 X140.94 Y155.20 E245.97681
G0 F12000 X140.68 Y154.89
G1 F7800 X150.73 Y144.84 E246.20014
G0 F12000 X150.16 Y144.84
G1 F7800 X140.43 Y154.57 E246.41655
G0 F12000 X140.17 Y154.26
G1 F7800 X149.60 Y144.84 E246.62607
G0 F12000 X149.03 Y144.84
G1 F7800 X139.92 Y153.95 E246.82867
G0 F12000 X139.66 Y153.64
G1 F7800 X148.47 Y144.84 E247.02437
G0 F12000 X147.90 Y144.84
G1 F7800 X139.41 Y153.33 E247.21314
G0 F12000 X139.16 Y153.02
G1 F7800 X147.34 Y144.84 E247.39501
G0 F12000 X146.77 Y144.84
G1 F7800 X138.96 Y152.65 E247.56871
G0 F12000 X138.76 Y152.29
G1 F7800 X146.20 Y144.84 E247.73423
G0 F12000 X145.64 Y144.84
G1 F7800 X138.56 Y151.92 E247.89156
G0 F12000 X138.36 Y151.55
G1 F7800 X145.07 Y144.84 E248.04070
G0 F12000 X144.51 Y144.84
G1 F7800 X138.17 Y151.18 E248.18164
G0 F12000 X137.97 Y150.81
G1 F7800 X143.94 Y144.84 E248.31441
G0 F12000 X143.38 Y144.84
G1 F7800 X137.77 Y150.44 E248.43899
G0 F12000 X137.60 Y150.04
G1 F7800 X142.81 Y144.84 E248.55469
G0 F12000 X142.25 Y144.84
G1 F7800 X137.47 Y149.61 E248.66075
G0 F12000 X137.34 Y149.18
G1 F7800 X141.68 Y144.84 E248.75715
G0 F12000 X141.11 Y144.84
G1 F7800 X137.21 Y148.74 E248.84389
G0 F12000 X137.08 Y148.31
G1 F7800 X140.55 Y144.84 E248.92100
G0 F12000 X139.98 Y144.84
G1 F7800 X136.95 Y147.87 E248.98844
G0 F12000 X136.82 Y147.44
G1 F7800 X139.42 Y144.84 E249.04624
G0 F12000 X138.85 Y144.84
G1 F7800 X136.73 Y146.96 E249.09347
G0 F12000 X136.68 Y146.45
G1 F7800 X138.28 Y144.84 E249.12923
G0 F12000 X137.72 Y144.84
G1 F7800 X136.63 Y145.93 E249.15352
G0 F12000 X136.58 Y145.42
G1 F7800 X137.15 Y144.84 E249.16635
G0 F12000 X136.59 Y144.84
G1 F7800 X136.53 Y144.90 E249.16775
;LAYER:6
G0 F12000 X136.36 Y144.70 Z0.90
;TYPE:WALL-INNER
G1 F7800 X168.64 Y144.70 E249.67504
G1 X168.38 Y147.26 E249.71547
G1 X167.51 Y150.16 E249.76305
G1 X167.46 Y150.30 E249.76541
G1 X165.97 Y153.10 E249.81523
G1 X163.95 Y155.55 E249.86518
G1 X161.50 Y157.57 E249.91513
G1 X158.70 Y159.06 E249.96499
G1 X155.80 Y159.94 E250.01261
G1 X155.66 Y159.99 E250.01493
G1 X152.64 Y160.28 E250.06252
G1 X152.50 Y160.30 E250.06482
G1 X149.49 Y160.00 E250.11237
G1 X149.34 Y159.99 E250.11471
G1 X146.44 Y159.11 E250.16227
G1 X146.30 Y159.06 E250.16463
G1 X143.50 Y157.57 E250.21446
G1 X141.05 Y155.55 E250.26441
G1 X139.03 Y153.10 E250.31435
G1 X137.54 Y150.30 E250.36421
G1 X136.66 Y147.40 E250.41185
G1 X136.62 Y147.26 E250.41416
G1 X136.36 Y144.70 E250.45455
G0 F12000 X135.92 Y144.30
;TYPE:WALL-OUTER
G1 F7800 X169.08 Y144.30 E250.97570
G1 X168.78 Y147.34 E251.02371
G1 X167.84 Y150.45 E251.07485
G1 X166.30 Y153.32 E251.12591
G1 X164.24 Y155.84 E251.17712
G1 X161.72 Y157.90 E251.22833
G1 X158.85 Y159.44 E251.27940
G1 X155.74 Y160.38 E251.33052
G1 X152.50 Y160.70 E251.38169
G1 X149.26 Y160.38 E251.43287
G1 X146.15 Y159.44 E251.48399
G1 X143.28 Y157.90 E251.53506
G1 X140.76 Y155.84 E251.58627
G1 X138.70 Y153.32 E251.63748
G1 X137.16 Y150.45 E251.68854
G1 X136.22 Y147.34 E251.73968
G1 X135.92 Y144.30 E251.78769
G0 F12000 X136.64 Y144.84
;TYPE:FILL
G1 F7800 X151.89 Y160.09 E252.12679
G0 F12000 X152.51 Y160.15
G1 F7800 X137.20 Y144.84 E252.46716
G0 F12000 X137.77 Y144.84
G1 F7800 X153.03 Y160.10 E252.80642
G0 F12000 X153.55 Y160.05
G1 F7800 X138.34 Y144.84 E253.14456
G0 F12000 X138.90 Y144.84
G1 F7800 X154.06 Y160.00 E253.48155
G0 F12000 X154.57 Y159.95
G1 F7800 X139.47 Y144.84 E253.81743
G0 F12000 X140.03 Y144.84
G1 F7800 X155.09 Y159.90 E254.15219
G0 F12000 X155.60 Y159.85
G1 F7800 X140.60 Y144.84 E254.48581
G0 F12000 X141.16 Y144.84
G1 F7800 X156.04 Y159.72 E254.81661
G0 F12000 X156.48 Y159.59
G1 F7800 X141.73 Y144.84 E255.14448
G0 F12000 X142.29 Y144.84
G1 F7800 X156.91 Y159.46 E255.46943
G0 F12000 X157.35 Y159.33
G1 F7800 X142.86 Y144.84 E255.79144
G0 F12000 X143.43 Y144.84
G1 F7800 X157.78 Y159.19 E256.11053
G0 F12000 X158.21 Y159.06
G1 F7800 X143.99 Y144.84 E256.42669
G0 F12000 X144.56 Y144.84
G1 F7800 X158.65 Y158.93 E256.73990
G0 F12000 X159.02 Y158.73
G1 F7800 X145.12 Y144.84 E257.04874
G0 F12000 X145.69 Y144.84
G1 F7800 X159.38 Y158.54 E257.35320
G0 F12000 X159.75 Y158.34
G1 F7800 X146.25 Y144.84 E257.65327
G0 F12000 X146.82 Y144.84
G1 F7800 X160.12 Y158.14 E257.94898
G0 F12000 X160.49 Y157.94
G1 F7800 X147.39 Y144.84 E258.24029
G0 F12000 X147.95 Y144.84
G1 F7800 X160.86 Y157.75 E258.52723
G0 F12000 X161.23 Y157.55
G1 F7800 X148.52 Y144.84 E258.80979
G0 F12000 X149.08 Y144.84
G1 F7800 X161.57 Y157.32 E259.08731
G0 F12000 X161.88 Y157.07
G1 F7800 X149.65 Y144.84 E259.35917
G0 F12000 X150.21 Y144.84
G1 F7800 X162.19 Y156.81 E259.62538
G0 F12000 X162.50 Y156.56
G1 F7800 X150.78 Y144.84 E259.88591
G0 F12000 X151.35 Y144.84
G1 F7800 X162.81 Y156.31 E260.14077
G0 F12000 X163.12 Y156.05
G1 F7800 X151.91 Y144.84 E260.38997
G0 F12000 X152.48 Y144.84
G1 F7800 X163.43 Y155.79 E260.63350
G0 F12000 X163.74 Y155.54
G1 F7800 X153.04 Y144.84 E260.87136
G0 F12000 X153.61 Y144.84
G1 F7800 X164.02 Y155.25 E261.10276
G0 F12000 X164.27 Y154.94
G1 F7800 X154.17 Y144.84 E261.32725
G0 F12000 X154.74 Y144.84
G1 F7800 X164.53 Y154.63 E261.54484
G0 F12000 X164.78 Y154.32
G1 F7800 X155.31 Y144.84 E261.75553
G0 F12000 X155.87 Y144.84
G1 F7800 X165.04 Y154.01 E261.95931
G0 F12000 X165.29 Y153.70
G1 F7800 X156.44 Y144.84 E262.15618
G0 F12000 X157.00 Y144.84
G1 F7800 X165.55 Y153.38 E262.34612
G0 F12000 X165.80 Y153.07
G1 F7800 X157.57 Y144.84 E262.52919
G0 F12000 X158.13 Y144.84
G1 F7800 X166.01 Y152.72 E262.70430
G0 F12000 X166.21 Y152.35
G1 F7800 X158.70 Y144.84 E262.87122
G0 F12000 X159.26 Y144.84
G1 F7800 X166.41 Y151.98 E263.02994
G0 F12000 X166.60 Y151.61
G1 F7800 X159.83 Y144.84 E263.18047
G0 F12000 X160.40 Y144.84
G1 F7800 X166.80 Y151.24 E263.32281
G0 F12000 X167.00 Y150.88
G1 F7800 X160.96 Y144.84 E263.45697
G0 F12000 X161.53 Y144.84
G1 F7800 X167.19 Y150.51 E263.58292
G0 F12000 X167.37 Y150.12
G1 F7800 X162.09 Y144.84 E263.70029
G0 F12000 X162.66 Y144.84
G1 F7800 X167.50 Y149.69 E263.80800
G0 F12000 X167.64 Y149.25
G1 F7800 X163.22 Y144.84 E263.90606
G0 F12000 X163.79 Y144.84
G1 F7800 X167.77 Y148.82 E263.99447
G0 F12000 X167.90 Y148.38
G1 F7800 X164.36 Y144.84 E264.07322
G0 F12000 X164.92 Y144.84
G1 F7800 X168.03 Y147.95 E264.14233
G0 F12000 X168.16 Y147.51
G1 F7800 X165.49 Y144.84 E264.20179
G0 F12000 X166.05 Y144.84
G1 F7800 X168.26 Y147.05 E264.25095
G0 F12000 X168.31 Y146.54
G1 F7800 X166.62 Y144.84 E264.28865
G0 F12000 X167.19 Y144.84
G1 F7800 X168.37 Y146.02 E264.31489
G0 F12000 X168.42 Y145.51
G1 F7800 X167.75 Y144.84 E264.32969
G0 F12000 X168.32 Y144.84
G1 F7800 X168.47 Y144.99 E264.33302
G0 F12000 X151.26 Y160.03
G1 F7800 X136.57 Y145.34 E264.65975
G0 F12000 X136.63 Y145.96
G1 F7800 X150.64 Y159.97 E264.97116
G0 F12000 X150.01 Y159.91
G1 F7800 X136.69 Y146.59 E265.26724
G0 F12000 X136.75 Y147.22
G1 F7800 X149.38 Y159.85 E265.54803
G0 F12000 X148.57 Y159.61
G1 F7800 X136.99 Y148.02 E265.80552
G0 F12000 X137.24 Y148.83
G1 F7800 X147.76 Y159.36 E266.03951
G0 F12000 X146.95 Y159.12
G1 F7800 X137.48 Y149.65 E266.25001
G0 F12000 X137.84 Y150.56
G1 F7800 X146.03 Y158.76 E266.43220
G0 F12000 X144.81 Y158.11
G1 F7800 X138.49 Y151.78 E266.57286
G0 F12000 X139.14 Y153.00
G1 F7800 X143.60 Y157.46 E266.67201
;LAYER:7
G0 F12000 X143.50 Y157.57 Z1.00
;TYPE:WALL-INNER
G1 F7800 X141.05 Y155.55 E266.72196
G1 X139.03 Y153.10 E266.77190
G1 X137.54 Y150.30 E266.82176
G1 X136.66 Y147.42 E266.86902
G1 X136.62 Y147.26 E266.87171
G1 X136.36 Y144.70 E266.91210
G1 X168.64 Y144.70 E267.41938
G1 X168.40 Y147.09 E267.45711
G1 X168.38 Y147.26 E267.45982
G1 X167.51 Y150.13 E267.50702
G1 X167.46 Y150.30 E267.50976
G1 X165.97 Y153.10 E267.55958
G1 X163.95 Y155.55 E267.60953
G1 X161.50 Y157.57 E267.65947
G1 X158.70 Y159.06 E267.70934
G1 X155.82 Y159.94 E267.75658
G1 X155.66 Y159.99 E267.75927
G1 X152.67 Y160.28 E267.80647
G1 X152.50 Y160.30 E267.80916
G1 X149.51 Y160.00 E267.85635
G1 X149.34 Y159.99 E267.85905
G1 X146.47 Y159.11 E267.90624
G1 X146.30 Y159.06 E267.90898
G1 X143.50 Y157.57 E267.95881
G0 F12000 X143.28 Y157.90
;TYPE:WALL-OUTER
G1 F7800 X140.76 Y155.84 E268.01002
G1 X138.70 Y153.32 E268.06123
G1 X137.16 Y150.45 E268.11229
G1 X136.22 Y147.34 E268.16343
G1 X135.92 Y144.30 E268.21144
G1 X169.08 Y144.30 E268.73259
G1 X168.78 Y147.34 E268.78060
G1 X167.84 Y150.45 E268.83174
G1 X166.30 Y153.32 E268.88280
G1 X164.24 Y155.84 E268.93401
G1 X161.72 Y157.90 E268.98522
G1 X158.85 Y159.44 E269.03629
G1 X155.74 Y160.38 E269.08741
G1 X152.50 Y160.70 E269.13858
G1 X149.26 Y160.38 E269.18976
G1 X146.15 Y159.44 E269.24088
G1 X143.28 Y157.90 E269.29195
G0 F12000 X143.71 Y157.52
;TYPE:FILL
G1 F7800 X156.39 Y144.84 E269.57377
G0 F12000 X156.95 Y144.84
G1 F7800 X144.08 Y157.72 E269.85998
G0 F12000 X144.45 Y157.91
G1 F7800 X157.52 Y144.84 E270.15055
G0 F12000 X158.08 Y144.84
G1 F7800 X144.81 Y158.11 E270.44552
G0 F12000 X145.18 Y158.31
G1 F7800 X158.65 Y144.84 E270.74488
G0 F12000 X159.22 Y144.84
G1 F7800 X145.55 Y158.50 E271.04860
G0 F12000 X145.92 Y158.70
G1 F7800 X159.78 Y144.84 E271.35671
G0 F12000 X160.35 Y144.84
G1 F7800 X146.29 Y158.90 E271.66921
G0 F12000 X146.71 Y159.04
G1 F7800 X160.91 Y144.84 E271.98492
G0 F12000 X161.48 Y144.84
G1 F7800 X147.14 Y159.17 E272.30355
G0 F12000 X147.58 Y159.31
G1 F7800 X162.04 Y144.84 E272.62512
G0 F12000 X162.61 Y144.84
G1 F7800 X148.01 Y159.44 E272.94960
G0 F12000 X148.45 Y159.57
G1 F7800 X163.18 Y144.84 E273.27700
G0 F12000 X163.74 Y144.84
G1 F7800 X148.88 Y159.70 E273.60734
G0 F12000 X149.31 Y159.83
G1 F7800 X164.31 Y144.84 E273.94059
G0 F12000 X164.87 Y144.84
G1 F7800 X149.82 Y159.89 E274.27517
G0 F12000 X150.34 Y159.94
G1 F7800 X165.44 Y144.84 E274.61087
G0 F12000 X166.00 Y144.84
G1 F7800 X150.85 Y159.99 E274.94769
G0 F12000 X151.37 Y160.04
G1 F7800 X166.57 Y144.84 E275.28565
G0 F12000 X167.13 Y144.84
G1 F7800 X151.88 Y160.09 E275.62474
G0 F12000 X152.40 Y160.14
G1 F7800 X167.70 Y144.84 E275.96494
G0 F12000 X168.27 Y144.84
G1 F7800 X153.00 Y160.10 E276.30428
G0 F12000 X153.63 Y160.04
G1 F7800 X168.44 Y145.23 E276.63359
G0 F12000 X168.38 Y145.86
G1 F7800 X154.26 Y159.98 E276.94758
G0 F12000 X154.88 Y159.92
G1 F7800 X168.32 Y146.48 E277.24625
G0 F12000 X168.26 Y147.11
G1 F7800 X155.51 Y159.86 E277.52962
G0 F12000 X156.29 Y159.65
G1 F7800 X168.05 Y147.89 E277.79109
G0 F12000 X167.80 Y148.70
G1 F7800 X157.10 Y159.40 E278.02906
G0 F12000 X157.91 Y159.16
G1 F7800 X167.56 Y149.51 E278.24354
G0 F12000 X167.27 Y150.36
G1 F7800 X158.76 Y158.87 E278.43274
G0 F12000 X159.98 Y158.22
G1 F7800 X166.62 Y151.58 E278.58043
G0 F12000 X165.97 Y152.79
G1 F7800 X161.19 Y157.57 E278.68663
G0 F12000 X155.82 Y144.84
G1 F7800 X143.38 Y157.28 E278.96321
G0 F12000 X143.07 Y157.03
G1 F7800 X155.25 Y144.84 E279.23413
G0 F12000 X154.69 Y144.84
G1 F7800 X142.76 Y156.77 E279.49939
G0 F12000 X142.45 Y156.52
G1 F7800 X154.12 Y144.84 E279.75899
G0 F12000 X153.56 Y144.84
G1 F7800 X142.14 Y156.26 E280.01290
G0 F12000 X141.82 Y156.01
G1 F7800 X152.99 Y144.84 E280.26117
G0 F12000 X152.43 Y144.84
G1 F7800 X141.51 Y155.75 E280.50378
G0 F12000 X141.20 Y155.50
G1 F7800 X151.86 Y144.84 E280.74070
G0 F12000 X151.30 Y144.84
G1 F7800 X140.94 Y155.20 E280.97094
G0 F12000 X140.68 Y154.89
G1 F7800 X150.73 Y144.84 E281.19427
G0 F12000 X150.16 Y144.84
G1 F7800 X140.43 Y154.57 E281.41068
G0 F12000 X140.17 Y154.26
G1 F7800 X149.60 Y144.84 E281.62020
G0 F12000 X149.03 Y144.84
G1 F7800 X139.92 Y153.95 E281.82281
G0 F12000 X139.66 Y153.64
G1 F7800 X148.47 Y144.84 E282.01850
G0 F12000 X147.90 Y144.84
G1 F7800 X139.41 Y153.33 E282.20727
G0 F12000 X139.16 Y153.02
G1 F7800 X147.34 Y144.84 E282.38914
G0 F12000 X146.77 Y144.84
G1 F7800 X138.96 Y152.65 E282.56284
G0 F12000 X138.76 Y152.29
G1 F7800 X146.20 Y144.84 E282.72836
G0 F12000 X145.64 Y144.84
G1 F7800 X138.56 Y151.92 E282.88569
G0 F12000 X138.36 Y151.55
G1 F7800 X145.07 Y144.84 E283.03483
G0 F12000 X144.51 Y144.84
G1 F7800 X138.17 Y151.18 E283.17577
G0 F12000 X137.97 Y150.81
G1 F7800 X143.94 Y144.84 E283.30854
G0 F12000 X143.38 Y144.84
G1 F7800 X137.77 Y150.44 E283.43312
G0 F12000 X137.60 Y150.04
G1 F7800 X142.81 Y144.84 E283.54882
G0 F12000 X142.25 Y144.84
G1 F7800 X137.47 Y149.61 E283.65488
G0 F12000 X137.34 Y149.18
G1 F7800 X141.68 Y144.84 E283.75128
G0 F12000 X141.11 Y144.84
G1 F7800 X137.21 Y148.74 E283.83803
G0 F12000 X137.08 Y148.31
G1 F7800 X140.55 Y144.84 E283.91513
G0 F12000 X139.98 Y144.84
G1 F7800 X136.95 Y147.87 E283.98258
G0 F12000 X136.82 Y147.44
G1 F7800 X139.42 Y144.84 E284.04037
G0 F12000 X138.85 Y144.84
G1 F7800 X136.73 Y146.96 E284.08760
G0 F12000 X136.68 Y146.45
G1 F7800 X138.28 Y144.84 E284.12336
G0 F12000 X137.72 Y144.84
G1 F7800 X136.63 Y145.93 E284.14766
G0 F12000 X136.58 Y145.42
G1 F7800 X137.15 Y144.84 E284.16048
G0 F12000 X136.59 Y144.84
G1 F7800 X136.53 Y144.90 E284.16188
;LAYER:8
G0 F12000 X136.36 Y144.70 Z1.10
;TYPE:WALL-INNER
G1 F7800 X168.64 Y144.70 E284.66917
G1 X168.38 Y147.26 E284.70960
G1 X167.52 Y150.11 E284.75645
G1 X167.46 Y150.30 E284.75951
G1 X165.97 Y153.10 E284.80937
G1 X163.95 Y155.55 E284.85931
G1 X161.50 Y157.57 E284.90926
G1 X158.70 Y159.06 E284.95912
G1 X155.84 Y159.93 E285.00599
G1 X155.66 Y159.99 E285.00904
G1 X152.50 Y160.30 E285.05893
G1 X149.34 Y159.99 E285.10884
G1 X146.49 Y159.12 E285.15567
G1 X146.30 Y159.06 E285.15873
G1 X143.50 Y157.57 E285.20859
G1 X141.05 Y155.55 E285.25854
G1 X139.03 Y153.10 E285.30849
G1 X137.54 Y150.30 E285.35835
G1 X136.67 Y147.44 E285.40522
G1 X136.62 Y147.26 E285.40828
G1 X136.36 Y144.70 E285.44868
G0 F12000 X135.92 Y144.30
;TYPE:WALL-OUTER
G1 F7800 X169.08 Y144.30 E285.96983
G1 X168.78 Y147.34 E286.01785
G1 X167.84 Y150.45 E286.06898
G1 X166.30 Y153.32 E286.12004
G1 X164.24 Y155.84 E286.17125
G1 X161.72 Y157.90 E286.22246
G1 X158.85 Y159.44 E286.27353
G1 X155.74 Y160.38 E286.32465
G1 X152.50 Y160.70 E286.37583
G1 X149.26 Y160.38 E286.42700
G1 X146.15 Y159.44 E286.47812
G1 X143.28 Y157.90 E286.52919
G1 X140.76 Y155.84 E286.58040
G1 X138.70 Y153.32 E286.63161
G1 X137.16 Y150.45 E286.68268
G1 X136.22 Y147.34 E286.73381
G1 X135.92 Y144.30 E286.78182
G0 F12000 X136.64 Y144.84
;TYPE:FILL
G1 F7800 X151.89 Y160.09 E287.12090
G0 F12000 X152.51 Y160.15
G1 F7800 X137.20 Y144.84 E287.46126
G0 F12000 X137.77 Y144.84
G1 F7800 X153.03 Y160.10 E287.80052
G0 F12000 X153.54 Y160.05
G1 F7800 X138.34 Y144.84 E288.13863
G0 F12000 X138.90 Y144.84
G1 F7800 X154.06 Y160.00 E288.47563
G0 F12000 X154.57 Y159.95
G1 F7800 X139.47 Y144.84 E288.81150
G0 F12000 X140.03 Y144.84
G1 F7800 X155.09 Y159.90 E289.14627
G0 F12000 X155.60 Y159.85
G1 F7800 X140.60 Y144.84 E289.47988
G0 F12000 X141.16 Y144.84
G1 F7800 X156.04 Y159.72 E289.81069
G0 F12000 X156.48 Y159.59
G1 F7800 X141.73 Y144.84 E290.13856
G0 F12000 X142.29 Y144.84
G1 F7800 X156.91 Y159.46 E290.46351
G0 F12000 X157.35 Y159.33
G1 F7800 X142.86 Y144.84 E290.78552
G0 F12000 X143.43 Y144.84
G1 F7800 X157.78 Y159.19 E291.10461
G0 F12000 X158.21 Y159.06
G1 F7800 X143.99 Y144.84 E291.42076
G0 F12000 X144.56 Y144.84
G1 F7800 X158.65 Y158.93 E291.73397
G0 F12000 X159.02 Y158.73
G1 F7800 X145.12 Y144.84 E292.04282
G0 F12000 X145.69 Y144.84
G1 F7800 X159.38 Y158.54 E292.34728
G0 F12000 X159.75 Y158.34
G1 F7800 X146.25 Y144.84 E292.64735
G0 F12000 X146.82 Y144.84
G1 F7800 X160.12 Y158.14 E292.94306
G0 F12000 X160.49 Y157.94
G1 F7800 X147.39 Y144.84 E293.23437
G0 F12000 X147.95 Y144.84
G1 F7800 X160.86 Y157.75 E293.52130
G0 F12000 X161.23 Y157.55
G1 F7800 X148.52 Y144.84 E293.80387
G0 F12000 X149.08 Y144.84
G1 F7800 X161.57 Y157.32 E294.08139
G0 F12000 X161.88 Y157.07
G1 F7800 X149.65 Y144.84 E294.35325
G0 F12000 X150.21 Y144.84
G1 F7800 X162.19 Y156.81 E294.61946
G0 F12000 X162.50 Y156.56
G1 F7800 X150.78 Y144.84 E294.87999
G0 F12000 X151.35 Y144.84
G1 F7800 X162.81 Y156.31 E295.13485
G0 F12000 X163.12 Y156.05
G1 F7800 X151.91 Y144.84 E295.38405
G0 F12000 X152.48 Y144.84
G1 F7800 X163.43 Y155.79 E295.62758
G0 F12000 X163.74 Y155.54
G1 F7800 X153.04 Y144.84 E295.86544
G0 F12000 X153.61 Y144.84
G1 F7800 X164.02 Y155.25 E296.09684
G0 F12000 X164.27 Y154.94
G1 F7800 X154.17 Y144.84 E296.32133
G0 F12000 X154.74 Y144.84
G1 F7800 X164.53 Y154.63 E296.53892
G0 F12000 X164.78 Y154.32
G1 F7800 X155.31 Y144.84 E296.74960
G0 F12000 X155.87 Y144.84
G1 F7800 X165.04 Y154.01 E296.95339
G0 F12000 X165.29 Y153.70
G1 F7800 X156.44 Y144.84 E297.15026
G0 F12000 X157.00 Y144.84
G1 F7800 X165.55 Y153.38 E297.34020
G0 F12000 X165.80 Y153.07
G1 F7800 X157.57 Y144.84 E297.52326
G0 F12000 X158.13 Y144.84
G1 F7800 X166.01 Y152.72 E297.69838
G0 F12000 X166.21 Y152.35
G1 F7800 X158.70 Y144.84 E297.86528
G0 F12000 X159.26 Y144.84
G1 F7800 X166.41 Y151.98 E298.02401
G0 F12000 X166.60 Y151.61
G1 F7800 X159.83 Y144.84 E298.17454
G0 F12000 X160.40 Y144.84
G1 F7800 X166.80 Y151.24 E298.31688
G0 F12000 X167.00 Y150.87
G1 F7800 X160.96 Y144.84 E298.45101
G0 F12000 X161.53 Y144.84
G1 F7800 X167.19 Y150.51 E298.57696
G0 F12000 X167.37 Y150.12
G1 F7800 X162.09 Y144.84 E298.69429
G0 F12000 X162.66 Y144.84
G1 F7800 X167.50 Y149.68 E298.80196
G0 F12000 X167.63 Y149.25
G1 F7800 X163.22 Y144.84 E298.90000
G0 F12000 X163.79 Y144.84
G1 F7800 X167.77 Y148.82 E298.98839
G0 F12000 X167.90 Y148.38
G1 F7800 X164.36 Y144.84 E299.06712
G0 F12000 X164.92 Y144.84
G1 F7800 X168.03 Y147.95 E299.13621
G0 F12000 X168.16 Y147.51
G1 F7800 X165.49 Y144.84 E299.19566
G0 F12000 X166.05 Y144.84
G1 F7800 X168.26 Y147.05 E299.24482
G0 F12000 X168.31 Y146.54
G1 F7800 X166.62 Y144.84 E299.28253
G0 F12000 X167.19 Y144.84
G1 F7800 X168.37 Y146.02 E299.30877
G0 F12000 X168.42 Y145.51
G1 F7800 X167.75 Y144.84 E299.32356
G0 F12000 X168.32 Y144.84
G1 F7800 X168.47 Y144.99 E299.32690
G0 F12000 X151.26 Y160.03
G1 F7800 X136.57 Y145.34 E299.65361
G0 F12000 X136.63 Y145.96
G1 F7800 X150.64 Y159.97 E299.96501
G0 F12000 X150.01 Y159.91
G1 F7800 X136.69 Y146.59 E300.26112
G0 F12000 X136.75 Y147.22
G1 F7800 X149.38 Y159.85 E300.54190
G0 F12000 X148.57 Y159.61
G1 F7800 X136.99 Y148.02 E300.79940
G0 F12000 X137.24 Y148.83
G1 F7800 X147.76 Y159.36 E301.03336
G0 F12000 X146.95 Y159.11
G1 F7800 X137.48 Y149.65 E301.24381
G0 F12000 X137.84 Y150.56
G1 F7800 X146.03 Y158.76 E301.42596
G0 F12000 X144.81 Y158.11
G1 F7800 X138.49 Y151.78 E301.56660
G0 F12000 X139.14 Y153.00
G1 F7800 X143.60 Y157.46 E301.66574
;LAYER:9
G0 F12000 X143.50 Y157.57 Z1.20
;TYPE:WALL-INNER
G1 F5040 X141.05 Y155.55 E301.71565
G1 X139.03 Y153.10 E301.76560
G1 X137.54 Y150.30 E301.81546
G1 X136.68 Y147.47 E301.86196
G1 X136.62 Y147.26 E301.86540
G1 X136.37 Y144.70 E301.90580
G1 X168.64 Y144.70 E302.41308
G1 X168.41 Y147.04 E302.45006
G1 X168.38 Y147.26 E302.45352
G1 X167.53 Y150.09 E302.49998
G1 X167.46 Y150.30 E302.50342
G1 X165.97 Y153.10 E302.55328
G1 X163.95 Y155.55 E302.60323
G1 X161.50 Y157.57 E302.65317
G1 X158.89 Y158.96 E302.69961
G1 X158.69 Y159.06 E302.70309
G1 X155.87 Y159.92 E302.74952
G1 X155.66 Y159.99 E302.75296
G1 X152.72 Y160.27 E302.79944
G1 X152.50 Y160.30 E302.80287
G1 X149.56 Y160.01 E302.84929
G1 X149.34 Y159.99 E302.85275
G1 X146.51 Y159.13 E302.89921
G1 X146.30 Y159.06 E302.90264
G1 X143.70 Y157.67 E302.94910
G1 X143.50 Y157.57 E302.95254
G0 F12000 X143.28 Y157.90
;TYPE:WALL-OUTER
G1 F5040 X140.76 Y155.84 E303.00375
G1 X138.70 Y153.32 E303.05496
G1 X137.16 Y150.45 E303.10603
G1 X136.22 Y147.34 E303.15718
G1 X135.92 Y144.30 E303.20517
G1 X169.08 Y144.30 E303.72632
G1 X168.78 Y147.34 E303.77432
G1 X167.84 Y150.45 E303.82547
G1 X166.30 Y153.32 E303.87653
G1 X164.24 Y155.84 E303.92774
G1 X161.72 Y157.90 E303.97895
G1 X158.85 Y159.44 E304.03002
G1 X155.74 Y160.38 E304.08114
G1 X152.50 Y160.70 E304.13232
G1 X149.26 Y160.38 E304.18349
G1 X146.15 Y159.44 E304.23461
G1 X143.28 Y157.90 E304.28568
G0 F12000 X143.45 Y157.65
G0 X140.60 Y154.78
;TYPE:FILL
G1 F5040 X150.54 Y144.84 E304.50674
G0 F12000 X151.12 Y144.84
G1 F5040 X162.69 Y156.40 E304.76381
G0 F12000 X167.74 Y148.89
G1 F5040 X163.69 Y144.84 E304.85383
G0 F12000 X163.11 Y144.84
G1 F5040 X148.40 Y159.55 E305.18091
G0 F12000 X153.75 Y160.03
G1 F5040 X138.56 Y144.84 E305.51859
G0 F12000 X137.97 Y144.84
G1 F5040 X136.65 Y146.16 E305.54805
;LAYER:10
G0 F12000 X136.62 Y147.26 Z1.30
;TYPE:WALL-INNER
G1 F5040 X136.36 Y144.70 E305.58845
G1 X168.64 Y144.70 E306.09573
G1 X168.41 Y147.02 E306.13234
G1 X168.38 Y147.26 E306.13617
G1 X167.53 Y150.07 E306.18226
G1 X167.46 Y150.30 E306.18607
G1 X165.97 Y153.10 E306.23593
G1 X163.95 Y155.55 E306.28588
G1 X161.50 Y157.57 E306.33582
G1 X158.70 Y159.06 E306.38569
G1 X155.89 Y159.91 E306.43180
G1 X155.66 Y159.99 E306.43561
G1 X152.74 Y160.27 E306.48170
G1 X152.50 Y160.30 E306.48551
G1 X149.58 Y160.01 E306.53158
G1 X149.34 Y159.99 E306.53540
G1 X146.53 Y159.13 E306.58148
G1 X146.30 Y159.06 E306.58529
G1 X143.50 Y157.57 E306.63516
G1 X141.05 Y155.55 E306.68511
G1 X139.03 Y153.10 E306.73505
G1 X137.54 Y150.30 E306.78491
G1 X136.69 Y147.49 E306.83103
G1 X136.62 Y147.26 E306.83485
G0 F12000 X136.22 Y147.34
;TYPE:WALL-OUTER
G1 F5040 X135.92 Y144.30 E306.88286
G1 X169.08 Y144.30 E307.40401
G1 X168.78 Y147.34 E307.45203
G1 X167.84 Y150.45 E307.50316
G1 X166.30 Y153.32 E307.55422
G1 X164.24 Y155.84 E307.60543
G1 X161.72 Y157.90 E307.65664
G1 X158.85 Y159.44 E307.70771
G1 X155.74 Y160.38 E307.75883
G1 X152.50 Y160.70 E307.81001
G1 X149.26 Y160.38 E307.86118
G1 X146.15 Y159.44 E307.91230
G1 X143.28 Y157.90 E307.96337
G1 X140.76 Y155.84 E308.01458
G1 X138.70 Y153.32 E308.06579
G1 X137.16 Y150.45 E308.11685
G1 X136.22 Y147.34 E308.16799
G0 F12000 X136.65 Y146.16
;TYPE:FILL
G1 F5040 X137.97 Y144.84 E308.19744
G0 F12000 X138.56 Y144.84
G1 F5040 X153.75 Y160.03 E308.53512
G0 F12000 X148.40 Y159.55
G1 F5040 X163.11 Y144.84 E308.86220
G0 F12000 X163.69 Y144.84
G1 F5040 X167.74 Y148.89 E308.95222
G0 F12000 X162.69 Y156.40
G1 F5040 X151.12 Y144.84 E309.20929
G0 F12000 X150.54 Y144.84
G1 F5040 X140.60 Y154.78 E309.43034
;LAYER:11
G0 F12000 X141.05 Y155.55 Z1.40
;TYPE:WALL-INNER
G1 F5040 X139.03 Y153.10 E309.48029
G1 X137.54 Y150.30 E309.53015
G1 X136.69 Y147.51 E309.57589
G1 X136.62 Y147.26 E309.58008
G1 X136.36 Y144.70 E309.62049
G1 X168.64 Y144.70 E310.12777
G1 X168.38 Y147.26 E310.16820
G1 X167.54 Y150.04 E310.21392
G1 X167.46 Y150.30 E310.21811
G1 X165.97 Y153.10 E310.26797
G1 X163.95 Y155.55 E310.31792
G1 X161.50 Y157.57 E310.36786
G1 X158.70 Y159.06 E310.41773
G1 X155.91 Y159.91 E310.46346
G1 X155.66 Y159.99 E310.46765
G1 X152.50 Y160.30 E310.51753
G1 X149.34 Y159.99 E310.56744
G1 X146.56 Y159.14 E310.61314
G1 X146.30 Y159.06 E310.61733
G1 X143.50 Y157.57 E310.66720
G1 X141.05 Y155.55 E310.71714
G0 F12000 X140.76 Y155.84
;TYPE:WALL-OUTER
G1 F5040 X138.70 Y153.32 E310.76835
G1 X137.16 Y150.45 E310.81942
G1 X136.22 Y147.34 E310.87055
G1 X135.92 Y144.30 E310.91857
G1 X169.08 Y144.30 E311.43971
G1 X168.78 Y147.34 E311.48773
G1 X167.84 Y150.45 E311.53886
G1 X166.30 Y153.32 E311.58992
G1 X164.24 Y155.84 E311.64113
G1 X161.72 Y157.90 E311.69235
G1 X158.85 Y159.44 E311.74341
G1 X155.74 Y160.38 E311.79453
G1 X152.50 Y160.70 E311.84571
G1 X149.26 Y160.38 E311.89689
G1 X146.15 Y159.44 E311.94800
G1 X143.28 Y157.90 E311.99907
G1 X140.76 Y155.84 E312.05028
G0 F12000 X140.60 Y154.78
;TYPE:FILL
G1 F5040 X150.54 Y144.84 E312.27134
G0 F12000 X151.12 Y144.84
G1 F5040 X162.69 Y156.40 E312.52841
G0 F12000 X167.74 Y148.89
G1 F5040 X163.69 Y144.84 E312.61843
G0 F12000 X163.11 Y144.84
G1 F5040 X148.40 Y159.55 E312.94551
G0 F12000 X153.75 Y160.03
G1 F5040 X138.56 Y144.84 E313.28318
G0 F12000 X137.97 Y144.84
G1 F5040 X136.65 Y146.16 E313.31264
;LAYER:12
G0 F12000 X136.62 Y147.26 Z1.50
;TYPE:WALL-INNER
G1 F5040 X136.37 Y144.70 E313.35304
G1 X168.64 Y144.70 E313.86032
G1 X168.41 Y146.97 E313.89618
G1 X168.38 Y147.26 E313.90076
G1 X167.55 Y150.02 E313.94609
G1 X167.46 Y150.30 E313.95066
G1 X165.97 Y153.10 E314.00052
G1 X163.95 Y155.55 E314.05047
G1 X161.50 Y157.57 E314.10042
G1 X158.70 Y159.06 E314.15028
G1 X155.94 Y159.90 E314.19563
G1 X155.66 Y159.99 E314.20020
G1 X152.79 Y160.27 E314.24553
G1 X152.50 Y160.30 E314.25010
G1 X149.63 Y160.01 E314.29541
G1 X149.34 Y159.99 E314.29999
G1 X146.58 Y159.15 E314.34532
G1 X146.30 Y159.06 E314.34988
G1 X143.50 Y157.57 E314.39975
G1 X141.05 Y155.55 E314.44970
G1 X139.03 Y153.10 E314.49964
G1 X137.54 Y150.30 E314.54950
G1 X136.70 Y147.54 E314.59487
G1 X136.62 Y147.26 E314.59944
G0 F12000 X136.22 Y147.34
;TYPE:WALL-OUTER
G1 F5040 X135.92 Y144.30 E314.64744
G1 X169.08 Y144.30 E315.16859
G1 X168.78 Y147.34 E315.21659
G1 X167.84 Y150.45 E315.26773
G1 X166.30 Y153.32 E315.31880
G1 X164.24 Y155.84 E315.37001
G1 X161.72 Y157.90 E315.42122
G1 X158.85 Y159.44 E315.47229
G1 X155.74 Y160.38 E315.52341
G1 X152.50 Y160.70 E315.57458
G1 X149.26 Y160.38 E315.62576
G1 X146.15 Y159.44 E315.67688
G1 X143.28 Y157.90 E315.72794
G1 X140.76 Y155.84 E315.77916
G1 X138.70 Y153.32 E315.83037
G1 X137.16 Y150.45 E315.88143
G1 X136.22 Y147.34 E315.93258
G0 F12000 X136.65 Y146.16
;TYPE:FILL
G1 F5040 X137.97 Y144.84 E315.96203
G0 F12000 X138.56 Y144.84
G1 F5040 X153.75 Y160.03 E316.29971
G0 F12000 X148.40 Y159.55
G1 F5040 X163.11 Y144.84 E316.62679
G0 F12000 X163.69 Y144.84
G1 F5040 X167.74 Y148.89 E316.71681
G0 F12000 X162.69 Y156.40
G1 F5040 X151.12 Y144.84 E316.97388
G0 F12000 X150.54 Y144.84
G1 F5040 X140.60 Y154.78 E317.19493
;LAYER:13
G0 F12000 X141.05 Y155.55 Z1.60
;TYPE:WALL-INNER
G1 F5040 X139.03 Y153.10 E317.24488
G1 X137.54 Y150.30 E317.29474
G1 X136.71 Y147.56 E317.33973
G1 X136.62 Y147.26 E317.34467
G1 X136.36 Y144.70 E317.38508
G1 X168.64 Y144.70 E317.89236
G1 X168.38 Y147.26 E317.93279
G1 X167.56 Y150.00 E317.97775
G1 X167.46 Y150.30 E317.98270
G1 X165.97 Y153.10 E318.03256
G1 X163.95 Y155.55 E318.08250
G1 X161.50 Y157.57 E318.13245
G1 X158.70 Y159.06 E318.18232
G1 X155.96 Y159.89 E318.22729
G1 X155.66 Y159.99 E318.23224
G1 X152.50 Y160.30 E318.28212
G1 X149.34 Y159.99 E318.33203
G1 X146.60 Y159.16 E318.37697
G1 X146.30 Y159.06 E318.38192
G1 X143.50 Y157.57 E318.43179
G1 X141.05 Y155.55 E318.48173
G0 F12000 X140.76 Y155.84
;TYPE:WALL-OUTER
G1 F5040 X138.70 Y153.32 E318.53294
G1 X137.16 Y150.45 E318.58401
G1 X136.22 Y147.34 E318.63514
G1 X135.92 Y144.30 E318.68315
G1 X169.08 Y144.30 E319.20430
G1 X168.78 Y147.34 E319.25232
G1 X167.84 Y150.45 E319.30345
G1 X166.30 Y153.32 E319.35451
G1 X164.24 Y155.84 E319.40572
G1 X161.72 Y157.90 E319.45693
G1 X158.85 Y159.44 E319.50800
G1 X155.74 Y160.38 E319.55912
G1 X152.50 Y160.70 E319.61030
G1 X149.26 Y160.38 E319.66147
G1 X146.15 Y159.44 E319.71259
G1 X143.28 Y157.90 E319.76366
G1 X140.76 Y155.84 E319.81487
G0 F12000 X140.60 Y154.78
;TYPE:FILL
G1 F5040 X150.54 Y144.84 E320.03593
G0 F12000 X151.12 Y144.84
G1 F5040 X162.69 Y156.40 E320.29300
G0 F12000 X167.74 Y148.89
G1 F5040 X163.69 Y144.84 E320.38302
G0 F12000 X163.11 Y144.84
G1 F5040 X148.40 Y159.55 E320.71010
G0 F12000 X153.75 Y160.03
G1 F5040 X138.56 Y144.84 E321.04777
G0 F12000 X137.97 Y144.84
G1 F5040 X136.65 Y146.16 E321.07723
;LAYER:14
G0 F12000 X136.62 Y147.26 Z1.70
;TYPE:WALL-INNER
G1 F5040 X136.36 Y144.70 E321.11763
G1 X168.64 Y144.70 E321.62491
G1 X168.38 Y147.26 E321.66535
G1 X167.56 Y149.97 E321.70993
G1 X167.46 Y150.30 E321.71525
G1 X165.97 Y153.10 E321.76511
G1 X163.95 Y155.55 E321.81506
G1 X161.50 Y157.57 E321.86500
G1 X158.70 Y159.06 E321.91487
G1 X155.98 Y159.89 E321.95947
G1 X155.66 Y159.99 E321.96479
G1 X152.50 Y160.30 E322.01467
G1 X149.34 Y159.99 E322.06458
G1 X146.63 Y159.16 E322.10915
G1 X146.30 Y159.06 E322.11449
G1 X143.50 Y157.57 E322.16434
G1 X141.05 Y155.55 E322.21429
G1 X139.03 Y153.10 E322.26423
G1 X137.54 Y150.30 E322.31409
G1 X136.71 Y147.58 E322.35870
G1 X136.62 Y147.26 E322.36403
G0 F12000 X136.22 Y147.34
;TYPE:WALL-OUTER
G1 F5040 X135.92 Y144.30 E322.41204
G1 X169.08 Y144.30 E322.93319
G1 X168.78 Y147.34 E322.98121
G1 X167.84 Y150.45 E323.03234
G1 X166.30 Y153.32 E323.08340
G1 X164.24 Y155.84 E323.13461
G1 X161.72 Y157.90 E323.18582
G1 X158.85 Y159.44 E323.23689
G1 X155.74 Y160.38 E323.28801
G1 X152.50 Y160.70 E323.33919
G1 X149.26 Y160.38 E323.39036
G1 X146.15 Y159.44 E323.44148
G1 X143.28 Y157.90 E323.49255
G1 X140.76 Y155.84 E323.54376
G1 X138.70 Y153.32 E323.59497
G1 X137.16 Y150.45 E323.64604
G1 X136.22 Y147.34 E323.69717
G0 F12000 X136.65 Y146.16
;TYPE:FILL
G1 F5040 X137.97 Y144.84 E323.72662
G0 F12000 X138.56 Y144.84
G1 F5040 X153.75 Y160.03 E324.06430
G0 F12000 X148.40 Y159.55
G1 F5040 X163.11 Y144.84 E324.39138
G0 F12000 X163.69 Y144.84
G1 F5040 X167.74 Y148.89 E324.48140
G0 F12000 X162.69 Y156.40
G1 F5040 X151.12 Y144.84 E324.73847
G0 F12000 X150.54 Y144.84
G1 F5040 X140.60 Y154.78 E324.95952
;LAYER:15
G0 F12000 X141.05 Y155.55 Z1.80
;TYPE:WALL-INNER
G1 F5040 X139.03 Y153.10 E325.00947
G1 X137.54 Y150.30 E325.05933
G1 X136.72 Y147.61 E325.10356
G1 X136.62 Y147.26 E325.10927
G1 X136.37 Y144.70 E325.14967
G1 X168.64 Y144.70 E325.65693
G1 X168.42 Y146.90 E325.69165
G1 X168.38 Y147.26 E325.69737
G1 X167.57 Y149.95 E325.74157
G1 X167.46 Y150.30 E325.74727
G1 X165.97 Y153.10 E325.79713
G1 X163.95 Y155.55 E325.84708
G1 X161.50 Y157.57 E325.89703
G1 X159.02 Y158.89 E325.94120
G1 X158.69 Y159.06 E325.94694
G1 X156.00 Y159.88 E325.99111
G1 X155.66 Y159.99 E325.99681
G1 X152.86 Y160.26 E326.04100
G1 X152.50 Y160.30 E326.04671
G1 X149.70 Y160.02 E326.09089
G1 X149.34 Y159.99 E326.09660
G1 X146.65 Y159.17 E326.14079
G1 X146.30 Y159.06 E326.14651
G1 X143.82 Y157.74 E326.19069
G1 X143.50 Y157.57 E326.19640
G1 X141.05 Y155.55 E326.24631
G0 F12000 X140.76 Y155.84
;TYPE:WALL-OUTER
G1 F5040 X138.70 Y153.32 E326.29752
G1 X137.16 Y150.45 E326.34858
G1 X136.22 Y147.34 E326.39972
G1 X135.92 Y144.30 E326.44773
G1 X169.08 Y144.30 E326.96888
G1 X168.78 Y147.34 E327.01689
G1 X167.84 Y150.45 E327.06803
G1 X166.30 Y153.32 E327.11909
G1 X164.24 Y155.84 E327.17030
G1 X161.72 Y157.90 E327.22151
G1 X158.85 Y159.44 E327.27258
G1 X155.74 Y160.38 E327.32370
G1 X152.50 Y160.70 E327.37487
G1 X149.26 Y160.38 E327.42605
G1 X146.15 Y159.44 E327.47717
G1 X143.28 Y157.90 E327.52824
G1 X140.76 Y155.84 E327.57945
G0 F12000 X140.60 Y154.78
;TYPE:FILL
G1 F5040 X150.54 Y144.84 E327.80050
G0 F12000 X151.12 Y144.84
G1 F5040 X162.69 Y156.40 E328.05757
G0 F12000 X167.74 Y148.89
G1 F5040 X163.69 Y144.84 E328.14759
G0 F12000 X163.11 Y144.84
G1 F5040 X148.40 Y159.55 E328.47467
G0 F12000 X153.75 Y160.03
G1 F5040 X138.56 Y144.84 E328.81235
G0 F12000 X137.97 Y144.84
G1 F5040 X136.65 Y146.16 E328.84180
;LAYER:16
G0 F12000 X136.62 Y147.26 Z1.90
;TYPE:WALL-INNER
G1 F5040 X136.36 Y144.70 E328.88221
G1 X168.64 Y144.70 E329.38949
G1 X168.38 Y147.26 E329.42992
G1 X167.58 Y149.93 E329.47375
G1 X167.46 Y150.30 E329.47983
G1 X165.97 Y153.10 E329.52969
G1 X163.95 Y155.55 E329.57963
G1 X161.50 Y157.57 E329.62958
G1 X158.70 Y159.06 E329.67945
G1 X156.03 Y159.87 E329.72329
G1 X155.66 Y159.99 E329.72937
G1 X152.50 Y160.30 E329.77925
G1 X149.34 Y159.99 E329.82916
G1 X146.67 Y159.18 E329.87297
G1 X146.30 Y159.06 E329.87906
G1 X143.50 Y157.57 E329.92892
G1 X141.05 Y155.55 E329.97886
G1 X139.03 Y153.10 E330.02881
G1 X137.54 Y150.30 E330.07867
G1 X136.73 Y147.63 E330.12252
G1 X136.62 Y147.26 E330.12860
G0 F12000 X136.22 Y147.34
;TYPE:WALL-OUTER
G1 F5040 X135.92 Y144.30 E330.17662
G1 X169.08 Y144.30 E330.69777
G1 X168.78 Y147.34 E330.74578
G1 X167.84 Y150.45 E330.79692
G1 X166.30 Y153.32 E330.84798
G1 X164.24 Y155.84 E330.89919
G1 X161.72 Y157.90 E330.95040
G1 X158.85 Y159.44 E331.00147
G1 X155.74 Y160.38 E331.05259
G1 X152.50 Y160.70 E331.10376
G1 X149.26 Y160.38 E331.15494
G1 X146.15 Y159.44 E331.20606
G1 X143.28 Y157.90 E331.25713
G1 X140.76 Y155.84 E331.30834
G1 X138.70 Y153.32 E331.35955
G1 X137.16 Y150.45 E331.41061
G1 X136.22 Y147.34 E331.46174
G0 F12000 X136.65 Y146.16
;TYPE:FILL
G1 F5040 X137.97 Y144.84 E331.49120
G0 F12000 X138.56 Y144.84
G1 F5040 X153.75 Y160.03 E331.82887
G0 F12000 X148.40 Y159.55
G1 F5040 X163.11 Y144.84 E332.15596
G0 F12000 X163.69 Y144.84
G1 F5040 X167.74 Y148.89 E332.24598
G0 F12000 X162.69 Y156.40
G1 F5040 X151.12 Y144.84 E332.50304
G0 F12000 X150.54 Y144.84
G1 F5040 X140.60 Y154.78 E332.72410
;LAYER:17
G0 F12000 X141.05 Y155.55 Z2.00
;TYPE:WALL-INNER
G1 F5040 X139.03 Y153.10 E332.77405
G1 X137.54 Y150.30 E332.82391
G1 X136.62 Y147.26 E332.87381
G1 X136.36 Y144.70 E332.91424
G1 X168.64 Y144.70 E333.42153
G1 X168.38 Y147.26 E333.46196
G1 X167.46 Y150.30 E333.51187
G1 X165.97 Y153.10 E333.56173
G1 X163.95 Y155.55 E333.61167
G1 X161.50 Y157.57 E333.66162
G1 X158.70 Y159.06 E333.71149
G1 X155.66 Y159.99 E333.76138
G1 X152.50 Y160.30 E333.81129
G1 X149.34 Y159.99 E333.86120
G1 X146.30 Y159.06 E333.91109
G1 X143.50 Y157.57 E333.96096
G1 X141.05 Y155.55 E334.01090
G0 F12000 X140.76 Y155.84
;TYPE:WALL-OUTER
G1 F5040 X138.70 Y153.32 E334.06211
G1 X137.16 Y150.45 E334.11318
G1 X136.22 Y147.34 E334.16431
G1 X135.92 Y144.30 E334.21232
G1 X169.08 Y144.30 E334.73347
G1 X168.78 Y147.34 E334.78149
G1 X167.84 Y150.45 E334.83262
G1 X166.30 Y153.32 E334.88368
G1 X164.24 Y155.84 E334.93489
G1 X161.72 Y157.90 E334.98610
G1 X158.85 Y159.44 E335.03717
G1 X155.74 Y160.38 E335.08829
G1 X152.50 Y160.70 E335.13947
G1 X149.26 Y160.38 E335.19064
G1 X146.15 Y159.44 E335.24176
G1 X143.28 Y157.90 E335.29283
G1 X140.76 Y155.84 E335.34404
G0 F12000 X140.60 Y154.78
;TYPE:FILL
G1 F5040 X150.54 Y144.84 E335.56510
G0 F12000 X151.12 Y144.84
G1 F5040 X162.69 Y156.40 E335.82217
G0 F12000 X167.74 Y148.89
G1 F5040 X163.69 Y144.84 E335.91219
G0 F12000 X163.11 Y144.84
G1 F5040 X148.40 Y159.55 E336.23927
G0 F12000 X153.75 Y160.03
G1 F5040 X138.56 Y144.84 E336.57695
G0 F12000 X137.97 Y144.84
G1 F5040 X136.65 Y146.16 E336.60641
;LAYER:18
G0 F12000 X136.62 Y147.26 Z2.10
;TYPE:WALL-INNER
G1 F5040 X136.36 Y144.70 E336.64684
G1 X168.64 Y144.70 E337.15413
G1 X168.43 Y146.83 E337.18770
G1 X168.38 Y147.26 E337.19456
G1 X167.46 Y150.30 E337.24446
G1 X165.97 Y153.10 E337.29432
G1 X163.95 Y155.55 E337.34427
G1 X161.50 Y157.57 E337.39422
G1 X158.70 Y159.06 E337.44408
G1 X155.66 Y159.99 E337.49397
G1 X152.50 Y160.30 E337.54389
G1 X149.34 Y159.99 E337.59380
G1 X146.30 Y159.06 E337.64369
G1 X143.50 Y157.57 E337.69355
G1 X141.05 Y155.55 E337.74350
G1 X139.03 Y153.10 E337.79345
G1 X137.54 Y150.30 E337.84331
G1 X136.62 Y147.26 E337.89321
G0 F12000 X136.22 Y147.34
;TYPE:WALL-OUTER
G1 F5040 X135.92 Y144.30 E337.94123
G1 X169.08 Y144.30 E338.46237
G1 X168.78 Y147.34 E338.51039
G1 X167.84 Y150.45 E338.56152
G1 X166.30 Y153.32 E338.61259
G1 X164.24 Y155.84 E338.66380
G1 X161.72 Y157.90 E338.71501
G1 X158.85 Y159.44 E338.76608
G1 X155.74 Y160.38 E338.81719
G1 X152.50 Y160.70 E338.86837
G1 X149.26 Y160.38 E338.91955
G1 X146.15 Y159.44 E338.97066
G1 X143.28 Y157.90 E339.02173
G1 X140.76 Y155.84 E339.07294
G1 X138.70 Y153.32 E339.12415
G1 X137.16 Y150.45 E339.17522
G1 X136.22 Y147.34 E339.22635
G0 F12000 X136.65 Y146.16
;TYPE:FILL
G1 F5040 X137.97 Y144.84 E339.25581
G0 F12000 X138.56 Y144.84
G1 F5040 X153.75 Y160.03 E339.59349
G0 F12000 X148.40 Y159.55
G1 F5040 X163.11 Y144.84 E339.92057
G0 F12000 X163.69 Y144.84
G1 F5040 X167.74 Y148.89 E340.01059
G0 F12000 X162.69 Y156.40
G1 F5040 X151.12 Y144.84 E340.26766
G0 F12000 X150.54 Y144.84
G1 F5040 X140.60 Y154.78 E340.48872
;LAYER:19
G0 F12000 X141.05 Y155.55 Z2.20
;TYPE:WALL-INNER
G1 F5040 X139.03 Y153.10 E340.53866
G1 X137.54 Y150.30 E340.58852
G1 X136.62 Y147.26 E340.63843
G1 X136.36 Y144.70 E340.67886
G1 X168.64 Y144.70 E341.18615
G1 X168.38 Y147.26 E341.22658
G1 X167.46 Y150.30 E341.27648
G1 X165.97 Y153.10 E341.32634
G1 X163.95 Y155.55 E341.37629
G1 X161.50 Y157.57 E341.42624
G1 X158.70 Y159.06 E341.47610
G1 X155.66 Y159.99 E341.52599
G1 X152.50 Y160.30 E341.57591
G1 X149.34 Y159.99 E341.62582
G1 X146.30 Y159.06 E341.67571
G1 X143.50 Y157.57 E341.72557
G1 X141.05 Y155.55 E341.77552
G0 F12000 X140.76 Y155.84
;TYPE:WALL-OUTER
G1 F5040 X138.70 Y153.32 E341.82673
G1 X137.16 Y150.45 E341.87779
G1 X136.22 Y147.34 E341.92893
G1 X135.92 Y144.30 E341.97694
G1 X169.08 Y144.30 E342.49809
G1 X168.78 Y147.34 E342.54610
G1 X167.84 Y150.45 E342.59724
G1 X166.30 Y153.32 E342.64830
G1 X164.24 Y155.84 E342.69951
G1 X161.72 Y157.90 E342.75072
G1 X158.85 Y159.44 E342.80179
G1 X155.74 Y160.38 E342.85291
G1 X152.50 Y160.70 E342.90409
G1 X149.26 Y160.38 E342.95526
G1 X146.15 Y159.44 E343.00638
G1 X143.28 Y157.90 E343.05745
G1 X140.76 Y155.84 E343.10866
G0 F12000 X140.60 Y154.78
;TYPE:FILL
G1 F5040 X150.54 Y144.84 E343.32972
G0 F12000 X151.12 Y144.84
G1 F5040 X162.69 Y156.40 E343.58678
G0 F12000 X167.74 Y148.89
G1 F5040 X163.69 Y144.84 E343.67680
G0 F12000 X163.11 Y144.84
G1 F5040 X148.40 Y159.55 E344.00389
G0 F12000 X153.75 Y160.03
G1 F5040 X138.56 Y144.84 E344.34157
G0 F12000 X137.97 Y144.84
G1 F5040 X136.65 Y146.16 E344.37103
;LAYER:20
G0 F12000 X136.62 Y147.26 Z2.30
;TYPE:WALL-INNER
G1 F5040 X136.36 Y144.70 E344.41146
G1 X168.64 Y144.70 E344.91874
G1 X168.38 Y147.26 E344.95918
G1 X167.46 Y150.30 E345.00908
G1 X165.97 Y153.10 E345.05894
G1 X163.95 Y155.55 E345.10889
G1 X161.50 Y157.57 E345.15883
G1 X158.70 Y159.06 E345.20870
G1 X155.66 Y159.99 E345.25859
G1 X152.98 Y160.25 E345.30094
G1 X152.50 Y160.30 E345.30852
G1 X149.82 Y160.03 E345.35082
G1 X149.34 Y159.99 E345.35841
G1 X146.30 Y159.06 E345.40830
G1 X143.50 Y157.57 E345.45817
G1 X141.05 Y155.55 E345.50812
G1 X139.03 Y153.10 E345.55806
G1 X137.54 Y150.30 E345.60792
G1 X136.62 Y147.26 E345.65783
G0 F12000 X136.22 Y147.34
;TYPE:WALL-OUTER
G1 F5040 X135.92 Y144.30 E345.70584
G1 X169.08 Y144.30 E346.22699
G1 X168.78 Y147.34 E346.27501
G1 X167.84 Y150.45 E346.32614
G1 X166.30 Y153.32 E346.37720
G1 X164.24 Y155.84 E346.42841
G1 X161.72 Y157.90 E346.47962
G1 X158.85 Y159.44 E346.53069
G1 X155.74 Y160.38 E346.58181
G1 X152.50 Y160.70 E346.63299
G1 X149.26 Y160.38 E346.68416
G1 X146.15 Y159.44 E346.73528
G1 X143.28 Y157.90 E346.78635
G1 X140.76 Y155.84 E346.83756
G1 X138.70 Y153.32 E346.88877
G1 X137.16 Y150.45 E346.93983
G1 X136.22 Y147.34 E346.99097
G0 F12000 X136.65 Y146.16
;TYPE:FILL
G1 F5040 X137.97 Y144.84 E347.02042
G0 F12000 X138.56 Y144.84
G1 F5040 X153.75 Y160.03 E347.35810
G0 F12000 X148.40 Y159.55
G1 F5040 X163.11 Y144.84 E347.68518
G0 F12000 X163.69 Y144.84
G1 F5040 X167.74 Y148.89 E347.77520
G0 F12000 X162.69 Y156.40
G1 F5040 X151.12 Y144.84 E348.03227
G0 F12000 X150.54 Y144.84
G1 F5040 X140.60 Y154.78 E348.25332
;LAYER:21
G0 F12000 X141.05 Y155.55 Z2.40
;TYPE:WALL-INNER
G1 F5040 X139.03 Y153.10 E348.30327
G1 X137.54 Y150.30 E348.35313
G1 X136.62 Y147.26 E348.40303
G1 X136.36 Y144.70 E348.44347
G1 X168.64 Y144.70 E348.95075
G1 X168.38 Y147.26 E348.99119
G1 X167.46 Y150.30 E349.04109
G1 X165.97 Y153.10 E349.09095
G1 X163.95 Y155.55 E349.14090
G1 X161.50 Y157.57 E349.19084
G1 X158.70 Y159.06 E349.24071
G1 X155.66 Y159.99 E349.29060
G1 X152.50 Y160.30 E349.34051
G1 X149.34 Y159.99 E349.39042
G1 X146.30 Y159.06 E349.44031
G1 X143.50 Y157.57 E349.49018
G1 X141.05 Y155.55 E349.54013
G0 F12000 X140.76 Y155.84
;TYPE:WALL-OUTER
G1 F5040 X138.70 Y153.32 E349.59134
G1 X137.16 Y150.45 E349.64240
G1 X136.22 Y147.34 E349.69353
G1 X135.92 Y144.30 E349.74155
G1 X169.08 Y144.30 E350.26270
G1 X168.78 Y147.34 E350.31071
G1 X167.84 Y150.45 E350.36184
G1 X166.30 Y153.32 E350.41291
G1 X164.24 Y155.84 E350.46412
G1 X161.72 Y157.90 E350.51533
G1 X158.85 Y159.44 E350.56640
G1 X155.74 Y160.38 E350.61752
G1 X152.50 Y160.70 E350.66869
G1 X149.26 Y160.38 E350.71987
G1 X146.15 Y159.44 E350.77099
G1 X143.28 Y157.90 E350.82206
G1 X140.76 Y155.84 E350.87327
G0 F12000 X140.60 Y154.78
;TYPE:FILL
G1 F5040 X150.54 Y144.84 E351.09432
G0 F12000 X151.12 Y144.84
G1 F5040 X162.69 Y156.40 E351.35139
G0 F12000 X167.74 Y148.89
G1 F5040 X163.69 Y144.84 E351.44141
G0 F12000 X163.11 Y144.84
G1 F5040 X148.40 Y159.55 E351.76849
G0 F12000 X153.75 Y160.03
G1 F5040 X138.56 Y144.84 E352.10618
G0 F12000 X137.97 Y144.84
G1 F5040 X136.65 Y146.16 E352.13563
;LAYER:22
G0 F12000 X136.62 Y147.26 Z2.50
;TYPE:WALL-INNER
G1 F5040 X136.36 Y144.70 E352.17607
G1 X168.64 Y144.70 E352.68335
G1 X168.38 Y147.26 E352.72378
G1 X167.46 Y150.30 E352.77369
G1 X165.97 Y153.10 E352.82355
G1 X163.95 Y155.55 E352.87349
G1 X161.50 Y157.57 E352.92344
G1 X158.70 Y159.06 E352.97331
G1 X155.66 Y159.99 E353.02320
G1 X152.50 Y160.30 E353.07311
G1 X149.34 Y159.99 E353.12302
G1 X146.30 Y159.06 E353.17291
G1 X143.50 Y157.57 E353.22278
G1 X141.05 Y155.55 E353.27272
G1 X139.03 Y153.10 E353.32267
G1 X137.54 Y150.30 E353.37253
G1 X136.62 Y147.26 E353.42244
G0 F12000 X136.22 Y147.34
;TYPE:WALL-OUTER
G1 F5040 X135.92 Y144.30 E353.47045
G1 X169.08 Y144.30 E353.99160
G1 X168.78 Y147.34 E354.03961
G1 X167.84 Y150.45 E354.09075
G1 X166.30 Y153.32 E354.14181
G1 X164.24 Y155.84 E354.19302
G1 X161.72 Y157.90 E354.24423
G1 X158.85 Y159.44 E354.29530
G1 X155.74 Y160.38 E354.34642
G1 X152.50 Y160.70 E354.39759
G1 X149.26 Y160.38 E354.44877
G1 X146.15 Y159.44 E354.49989
G1 X143.28 Y157.90 E354.55096
G1 X140.76 Y155.84 E354.60217
G1 X138.70 Y153.32 E354.65338
G1 X137.16 Y150.45 E354.70444
G1 X136.22 Y147.34 E354.75557
G0 F12000 X136.65 Y146.16
;TYPE:FILL
G1 F5040 X137.97 Y144.84 E354.78503
G0 F12000 X138.56 Y144.84
G1 F5040 X153.75 Y160.03 E355.12271
G0 F12000 X148.40 Y159.55
G1 F5040 X163.11 Y144.84 E355.44980
G0 F12000 X163.69 Y144.84
G1 F5040 X167.74 Y148.89 E355.53982
G0 F12000 X162.69 Y156.40
G1 F5040 X151.12 Y144.84 E355.79689
G0 F12000 X150.54 Y144.84
G1 F5040 X140.60 Y154.78 E356.01794
;LAYER:23
G0 F12000 X141.05 Y155.55 Z2.60
;TYPE:WALL-INNER
G1 F5040 X139.03 Y153.10 E356.06789
G1 X137.54 Y150.30 E356.11775
G1 X136.62 Y147.26 E356.16765
G1 X136.36 Y144.70 E356.20809
G1 X168.64 Y144.70 E356.71537
G1 X168.38 Y147.26 E356.75580
G1 X167.46 Y150.30 E356.80571
G1 X165.97 Y153.10 E356.85557
G1 X163.95 Y155.55 E356.90551
G1 X161.50 Y157.57 E356.95546
G1 X158.70 Y159.06 E357.00533
G1 X155.66 Y159.99 E357.05522
G1 X153.05 Y160.24 E357.09642
G1 X152.50 Y160.30 E357.10514
G1 X149.89 Y160.04 E357.14631
G1 X149.34 Y159.99 E357.15504
G1 X146.30 Y159.06 E357.20493
G1 X143.50 Y157.57 E357.25480
G1 X141.05 Y155.55 E357.30474
G0 F12000 X140.76 Y155.84
;TYPE:WALL-OUTER
G1 F5040 X138.70 Y153.32 E357.35595
G1 X137.16 Y150.45 E357.40702
G1 X136.22 Y147.34 E357.45815
G1 X135.92 Y144.30 E357.50617
G1 X169.08 Y144.30 E358.02731
G1 X168.78 Y147.34 E358.07533
G1 X167.84 Y150.45 E358.12646
G1 X166.30 Y153.32 E358.17752
G1 X164.24 Y155.84 E358.22874
G1 X161.72 Y157.90 E358.27995
G1 X158.85 Y159.44 E358.33101
G1 X155.74 Y160.38 E358.38213
G1 X152.50 Y160.70 E358.43331
G1 X149.26 Y160.38 E358.48449
G1 X146.15 Y159.44 E358.53560
G1 X143.28 Y157.90 E358.58667
G1 X140.76 Y155.84 E358.63788
G0 F12000 X140.60 Y154.78
;TYPE:FILL
G1 F5040 X150.54 Y144.84 E358.85894
G0 F12000 X151.12 Y144.84
G1 F5040 X162.69 Y156.40 E359.11601
G0 F12000 X167.74 Y148.89
G1 F5040 X163.69 Y144.84 E359.20603
G0 F12000 X163.11 Y144.84
G1 F5040 X148.40 Y159.55 E359.53311
G0 F12000 X153.75 Y160.03
G1 F5040 X138.56 Y144.84 E359.87078
G0 F12000 X137.97 Y144.84
G1 F5040 X136.65 Y146.16 E359.90024
;LAYER:24
G0 F12000 X136.62 Y147.26 Z2.70
;TYPE:WALL-INNER
G1 F5040 X136.36 Y144.70 E359.94067
G1 X168.64 Y144.70 E360.44796
G1 X168.38 Y147.26 E360.48839
G1 X167.46 Y150.30 E360.53829
G1 X165.97 Y153.10 E360.58815
G1 X163.95 Y155.55 E360.63810
G1 X161.50 Y157.57 E360.68805
G1 X158.70 Y159.06 E360.73791
G1 X155.66 Y159.99 E360.78780
G1 X152.50 Y160.30 E360.83772
G1 X149.34 Y159.99 E360.88763
G1 X146.30 Y159.06 E360.93752
G1 X143.50 Y157.57 E360.98738
G1 X141.05 Y155.55 E361.03733
G1 X139.03 Y153.10 E361.08728
G1 X137.54 Y150.30 E361.13714
G1 X136.62 Y147.26 E361.18704
G0 F12000 X136.22 Y147.34
;TYPE:WALL-OUTER
G1 F5040 X135.92 Y144.30 E361.23506
G1 X169.08 Y144.30 E361.75620
G1 X168.78 Y147.34 E361.80422
G1 X167.84 Y150.45 E361.85535
G1 X166.30 Y153.32 E361.90642
G1 X164.24 Y155.84 E361.95763
G1 X161.72 Y157.90 E362.00884
G1 X158.85 Y159.44 E362.05991
G1 X155.74 Y160.38 E362.11102
G1 X152.50 Y160.70 E362.16220
G1 X149.26 Y160.38 E362.21338
G1 X146.15 Y159.44 E362.26449
G1 X143.28 Y157.90 E362.31556
G1 X140.76 Y155.84 E362.36677
G1 X138.70 Y153.32 E362.41798
G1 X137.16 Y150.45 E362.46905
G1 X136.22 Y147.34 E362.52018
G0 F12000 X136.65 Y146.16
;TYPE:FILL
G1 F5040 X137.97 Y144.84 E362.54964
G0 F12000 X138.56 Y144.84
G1 F5040 X153.75 Y160.03 E362.88732
G0 F12000 X148.40 Y159.55
G1 F5040 X163.11 Y144.84 E363.21440
G0 F12000 X163.69 Y144.84
G1 F5040 X167.74 Y148.89 E363.30442
G0 F12000 X162.69 Y156.40
G1 F5040 X151.12 Y144.84 E363.56149
G0 F12000 X150.54 Y144.84
G1 F5040 X140.60 Y154.78 E363.78255
;LAYER:25
G0 F12000 X141.05 Y155.55 Z2.80
;TYPE:WALL-INNER
G1 F5040 X139.03 Y153.10 E363.83244
G1 X137.54 Y150.30 E363.88236
G1 X136.62 Y147.26 E363.93226
G1 X136.36 Y144.70 E363.97269
G1 X168.64 Y144.70 E364.47998
G1 X168.38 Y147.26 E364.52041
G1 X167.46 Y150.30 E364.57032
G1 X165.97 Y153.10 E364.62023
G1 X163.95 Y155.55 E364.67012
G1 X161.50 Y157.57 E364.72002
G1 X158.70 Y159.06 E364.76994
G1 X155.66 Y159.99 E364.81983
G1 X152.50 Y160.30 E364.86974
G1 X149.34 Y159.99 E364.91965
G1 X146.30 Y159.06 E364.96954
G1 X143.50 Y157.57 E365.01947
G1 X141.05 Y155.55 E365.06936
G0 F12000 X140.76 Y155.84
;TYPE:WALL-OUTER
G1 F5040 X138.70 Y153.32 E365.12057
G1 X137.16 Y150.45 E365.17163
G1 X136.22 Y147.34 E365.22277
G1 X135.92 Y144.30 E365.27078
G1 X169.08 Y144.30 E365.79193
G1 X168.78 Y147.34 E365.83994
G1 X167.84 Y150.45 E365.89108
G1 X166.30 Y153.32 E365.94214
G1 X164.24 Y155.84 E365.99335
G1 X161.72 Y157.90 E366.04456
G1 X158.85 Y159.44 E366.09563
G1 X155.74 Y160.38 E366.14675
G1 X152.50 Y160.70 E366.19792
G1 X149.26 Y160.38 E366.24910
G1 X146.15 Y159.44 E366.30022
G1 X143.28 Y157.90 E366.35129
G1 X140.76 Y155.84 E366.40250
G0 F12000 X140.60 Y154.78
;TYPE:FILL
G1 F5040 X150.54 Y144.84 E366.62355
G0 F12000 X151.12 Y144.84
G1 F5040 X162.69 Y156.41 E366.88064
G0 F12000 X167.74 Y148.89
G1 F5040 X163.69 Y144.84 E366.97066
G0 F12000 X163.11 Y144.84
G1 F5040 X148.40 Y159.55 E367.29775
G0 F12000 X153.75 Y160.03
G1 F5040 X138.56 Y144.84 E367.63543
G0 F12000 X137.97 Y144.84
G1 F5040 X136.65 Y146.16 E367.66489
;LAYER:26
G0 F12000 X136.62 Y147.26 Z2.90
;TYPE:WALL-INNER
G1 F7800 X136.36 Y144.70 E367.70532
G1 X168.64 Y144.70 E368.21260
G1 X168.38 Y147.26 E368.25304
G1 X167.46 Y150.30 E368.30294
G1 X165.97 Y153.10 E368.35280
G1 X163.95 Y155.55 E368.40275
G1 X161.50 Y157.57 E368.45270
G1 X158.70 Y159.06 E368.50256
G1 X155.66 Y159.99 E368.55245
G1 X152.50 Y160.30 E368.60236
G1 X149.34 Y159.99 E368.65228
G1 X146.30 Y159.06 E368.70217
G1 X143.50 Y157.57 E368.75203
G1 X141.05 Y155.55 E368.80198
G1 X139.03 Y153.10 E368.85192
G1 X137.54 Y150.30 E368.90178
G1 X136.62 Y147.26 E368.95169
G0 F12000 X136.22 Y147.34
;TYPE:WALL-OUTER
G1 F7800 X135.92 Y144.30 E368.99970
G1 X169.08 Y144.30 E369.52085
G1 X168.78 Y147.34 E369.56887
G1 X167.84 Y150.45 E369.62000
G1 X166.30 Y153.32 E369.67106
G1 X164.24 Y155.84 E369.72227
G1 X161.72 Y157.90 E369.77348
G1 X158.85 Y159.44 E369.82455
G1 X155.74 Y160.38 E369.87567
G1 X152.50 Y160.70 E369.92685
G1 X149.26 Y160.38 E369.97802
G1 X146.15 Y159.44 E370.02914
G1 X143.28 Y157.90 E370.08021
G1 X140.76 Y155.84 E370.13142
G1 X138.70 Y153.32 E370.18263
G1 X137.16 Y150.45 E370.23370
G1 X136.22 Y147.34 E370.28483
G0 F12000 X136.65 Y146.16
;TYPE:FILL
G1 F7800 X137.97 Y144.84 E370.31428
G0 F12000 X138.56 Y144.84
G1 F7800 X139.08 Y145.37 E370.32594
G0 F12000 X138.90 Y144.84
G1 F7800 X144.50 Y150.44 E370.45038
G0 F12000 X144.33 Y151.05
G1 F7800 X150.54 Y144.84 E370.58847
G0 F12000 X151.12 Y144.84
G1 F7800 X158.95 Y152.66 E370.76240
G0 F12000 X158.71 Y152.20
G1 F7800 X161.41 Y154.90 E370.82243
G0 F12000 X161.70 Y154.63
G1 F7800 X159.03 Y151.96 E370.88192
G0 F12000 X159.32 Y151.69
G1 F7800 X162.00 Y154.36 E370.94143
G0 F12000 X162.30 Y154.09
G1 F7800 X159.62 Y151.42 E371.00096
