;-- START GCODE --
;Sliced for Type A Machines Series 1
;Sliced at: Sun 19-07-2015 01:22:44
;Basic settings: Layer height: 0.1 Walls: 1.2 Fill: 17
;Print Speed: 110 Support: 0
;Retraction Speed: 40 Retraction Distance: 1.2
;Print time: #P_TIME#
;Filament used: #F_AMNT#m #F_WGHT#g
;Filament cost: #F_COST#
M106 S255	 ;start with the fan on
G21        ;metric values
G90        ;absolute positioning
M106 S255    ;start with the fan on
G28     ;move to endstops
G29		;allows for auto-levelling
G1 X150 Y5  Z15.0 F12000 ;center and move the platform down 15mm
M109 S220 ;Heat To temp
G92 E0                  ;zero the extruded length
G1 F200 E30              ;extrude 30mm of feed stock
G92 E0                  ;zero the extruded length again
G1 X175 Y25  Z0 F12000 ;remove bugger
G1 X220 F12000 ;remove bugger
G1 X150 Y150  Z15 F12000 ;recenter and begin
G1 F12000

;Layer count: 106
;LAYER:0
M106 S255
G0 F12000 X150.47 Y146.24 Z0.30
;TYPE:SKIRT
G1 F2700 X148.04 Y149.52 E0.19262
G1 X147.77 Y149.96 E0.21688
G1 X147.65 Y150.22 E0.23028
G1 X147.54 Y150.46 E0.24287
G1 X147.38 Y150.90 E0.26499
G1 X147.26 Y151.35 E0.28668
G1 X147.24 Y151.46 E0.29197
G1 X147.16 Y151.97 E0.31648
G1 X147.13 Y152.50 E0.34155
G1 X147.16 Y153.03 E0.36643
G1 X147.23 Y153.50 E0.38889
G1 X147.24 Y153.57 E0.39234
G1 X147.35 Y154.01 E0.41369
G1 X147.54 Y154.54 E0.44005
G1 X147.58 Y154.63 E0.44500
G1 X147.76 Y155.02 E0.46522
G1 X148.04 Y155.48 E0.49048
G1 X148.35 Y155.90 E0.51530
G1 X148.71 Y156.29 E0.54010
G1 X149.05 Y156.60 E0.56196
G1 X149.54 Y156.97 E0.59096
G1 X149.92 Y157.20 E0.61175
G1 X149.97 Y157.24 E0.61494
G1 X150.09 Y157.29 E0.62121
G1 X150.09 Y157.29 E0.62126
G1 X150.44 Y157.46 E0.63946
G1 X150.62 Y157.52 E0.64828
G1 X150.93 Y157.63 E0.66389
G1 X151.45 Y157.76 E0.68912
G1 X151.47 Y157.76 E0.68990
G1 X151.74 Y157.81 E0.70273
G1 X151.97 Y157.84 E0.71370
G1 X152.40 Y157.86 E0.73428
G1 X152.51 Y157.87 E0.73919
G1 X153.01 Y157.84 E0.76318
G1 X153.56 Y157.76 E0.78925
G1 X153.86 Y157.69 E0.80397
G1 X157.51 Y156.76 E0.98134
G1 X157.70 Y156.60 E0.99298
G1 X157.70 Y156.60 E0.99331
G1 X158.32 Y155.85 E1.03909
G1 X158.73 Y155.17 E1.07668
G1 X158.78 Y155.09 E1.08120
G1 X159.03 Y154.46 E1.11297
G1 X159.03 Y154.46 E1.11302
G1 X159.16 Y154.14 E1.12915
G1 X159.16 Y154.13 E1.12978
G1 X159.37 Y153.22 E1.17393
G1 X159.43 Y152.36 E1.21425
G1 X159.44 Y152.21 E1.22139
G1 X159.42 Y151.97 E1.23288
G1 X159.35 Y151.19 E1.26998
G1 X159.12 Y150.26 E1.31511
G1 X158.92 Y149.76 E1.34023
G1 X158.73 Y149.29 E1.36434
G1 X158.23 Y148.46 E1.40990
G1 X157.70 Y147.82 E1.44922
G1 X157.56 Y147.66 E1.45930
G1 X156.79 Y146.98 E1.50765
G1 X155.98 Y146.47 E1.55283
G1 X155.54 Y146.28 E1.57560
G1 X155.03 Y146.05 E1.60193
G1 X154.29 Y145.85 E1.63785
G1 X154.13 Y145.81 E1.64593
G1 X153.46 Y145.74 E1.67755
G1 X153.12 Y145.70 E1.69372
G1 X152.20 Y145.74 E1.73705
G1 X151.25 Y145.95 E1.78301
G1 X150.47 Y146.24 E1.82209
G0 F12000 X150.29 Y145.88
G1 F2700 X150.20 Y145.93 E1.82723
G1 X147.70 Y149.30 E2.02477
G1 X147.43 Y149.76 E2.04994
G1 X147.42 Y149.78 E2.05125
G1 X147.29 Y150.05 E2.06517
G1 X147.17 Y150.29 E2.07802
G1 X147.00 Y150.79 E2.10300
G1 X146.88 Y151.25 E2.12508
G1 X146.84 Y151.37 E2.13121
G1 X146.76 Y151.94 E2.15824
G1 X146.73 Y152.51 E2.18534
G1 X146.76 Y153.06 E2.21135
G1 X146.83 Y153.56 E2.23514
G1 X146.85 Y153.66 E2.23976
G1 X146.97 Y154.13 E2.26250
G1 X147.16 Y154.67 E2.28962
G1 X147.21 Y154.79 E2.29578
G1 X147.41 Y155.22 E2.31821
G1 X147.70 Y155.70 E2.34471
G1 X148.04 Y156.16 E2.37174
G1 X148.42 Y156.57 E2.39795
G1 X148.42 Y156.57 E2.39800
G1 X148.42 Y156.57 E2.39806
G1 X148.43 Y156.58 E2.39850
G1 X148.79 Y156.91 E2.42197
G1 X149.31 Y157.30 E2.45251
G1 X149.71 Y157.54 E2.47455
G1 X149.78 Y157.59 E2.47857
G1 X150.29 Y157.83 E2.50485
G1 X150.49 Y157.90 E2.51472
G1 X150.81 Y158.01 E2.53119
G1 X151.35 Y158.15 E2.55739
G1 X151.38 Y158.16 E2.55880
G1 X151.68 Y158.20 E2.57282
G1 X151.93 Y158.24 E2.58502
G1 X152.38 Y158.26 E2.60622
G1 X152.51 Y158.27 E2.61241
G1 X153.04 Y158.24 E2.63734
G1 X153.05 Y158.24 E2.63795
G1 X153.63 Y158.15 E2.66565
G1 X153.96 Y158.07 E2.68149
G1 X157.70 Y157.13 E2.86333
G1 X157.98 Y156.89 E2.88096
G1 X158.01 Y156.85 E2.88297
G1 X158.65 Y156.09 E2.93012
G1 X159.08 Y155.37 E2.96944
G1 X159.14 Y155.27 E2.97512
G1 X159.41 Y154.60 E3.00892
G1 X159.54 Y154.26 E3.02590
G1 X159.55 Y154.22 E3.02809
G1 X159.77 Y153.27 E3.07398
G1 X159.83 Y152.39 E3.11562
G1 X159.84 Y152.22 E3.12394
G1 X159.82 Y151.94 E3.13705
G1 X159.82 Y151.94 E3.13709
G1 X159.75 Y151.13 E3.17552
G1 X159.75 Y151.12 E3.17561
G1 X159.51 Y150.13 E3.22389
G1 X159.29 Y149.61 E3.25030
G1 X159.09 Y149.11 E3.27600
G1 X158.56 Y148.23 E3.32413
G1 X158.56 Y148.23 E3.32430
G1 X158.00 Y147.57 E3.36514
G1 X157.85 Y147.38 E3.37645
G1 X157.03 Y146.66 E3.42780
G1 X156.17 Y146.11 E3.47609
G1 X155.70 Y145.91 E3.50017
G1 X155.16 Y145.67 E3.52789
G1 X154.38 Y145.46 E3.56610
G1 X154.19 Y145.41 E3.57507
G1 X153.50 Y145.34 E3.60801
G1 X153.13 Y145.30 E3.62565
G1 X153.11 Y145.30 E3.62646
G1 X152.15 Y145.35 E3.67191
G1 X151.13 Y145.56 E3.72092
G1 X150.29 Y145.88 E3.76316
G0 F12000 X150.12 Y145.52
G1 F2700 X149.93 Y145.63 E3.77356
G1 X147.37 Y149.07 E3.97575
G1 X147.09 Y149.55 E4.00198
G1 X147.06 Y149.59 E4.00404
G1 X146.93 Y149.88 E4.01908
G1 X146.80 Y150.15 E4.03323
G1 X146.61 Y150.67 E4.05927
G1 X146.49 Y151.15 E4.08256
G1 X146.45 Y151.30 E4.08990
G1 X146.36 Y151.90 E4.11846
G1 X146.33 Y152.50 E4.14703
G1 X146.36 Y153.10 E4.17540
G1 X146.44 Y153.62 E4.20028
G1 X146.47 Y153.76 E4.20667
G1 X146.59 Y154.24 E4.23001
G1 X146.79 Y154.83 E4.25969
G1 X146.85 Y154.96 E4.26615
G1 X147.06 Y155.41 E4.28963
G1 X147.37 Y155.93 E4.31822
G1 X147.73 Y156.41 E4.34644
G1 X148.12 Y156.84 E4.37415
G1 X148.14 Y156.86 E4.37519
G1 X148.54 Y157.22 E4.40069
G1 X149.09 Y157.64 E4.43349
G1 X149.51 Y157.89 E4.45615
G1 X149.60 Y157.94 E4.46126
G1 X149.75 Y158.02 E4.46934
G1 X149.75 Y158.01 E4.46939
G1 X150.14 Y158.20 E4.48954
G1 X150.35 Y158.27 E4.50010
G1 X150.71 Y158.40 E4.51807
G1 X151.26 Y158.54 E4.54460
G1 X151.31 Y158.55 E4.54704
G1 X151.62 Y158.60 E4.56191
G1 X151.89 Y158.64 E4.57484
G1 X152.36 Y158.66 E4.59717
G1 X152.50 Y158.67 E4.60392
G1 X153.06 Y158.64 E4.62989
G1 X153.09 Y158.64 E4.63159
G1 X153.72 Y158.54 E4.66148
G1 X154.06 Y158.46 E4.67795
G1 X157.89 Y157.50 E4.86426
G1 X158.27 Y157.17 E4.88791
G1 X158.32 Y157.11 E4.89159
G1 X158.98 Y156.32 E4.94021
G1 X159.45 Y155.52 E4.98379
G1 X159.50 Y155.44 E4.98820
G1 X159.78 Y154.75 E5.02317
G1 X159.77 Y154.75 E5.02322
G1 X159.92 Y154.38 E5.04214
G1 X159.94 Y154.31 E5.04548
G1 X160.16 Y153.34 E5.09278
G1 X160.23 Y152.42 E5.13612
G1 X160.24 Y152.21 E5.14595
G1 X160.22 Y151.91 E5.16033
G1 X160.15 Y151.06 E5.20056
G1 X160.13 Y150.98 E5.20414
G1 X159.89 Y150.01 E5.25155
G1 X159.66 Y149.46 E5.27933
G1 X159.44 Y148.93 E5.30651
G1 X158.90 Y148.02 E5.35625
G1 X158.88 Y147.99 E5.35786
G1 X158.31 Y147.31 E5.40007
G1 X158.13 Y147.10 E5.41299
G1 X157.27 Y146.34 E5.46701
G1 X156.35 Y145.76 E5.51832
G1 X155.86 Y145.54 E5.54377
G1 X155.30 Y145.29 E5.57278
G1 X154.51 Y145.08 E5.61142
G1 X154.26 Y145.02 E5.62321
G1 X153.54 Y144.94 E5.65744
G1 X153.14 Y144.90 E5.67631
G1 X153.09 Y144.90 E5.67872
G1 X152.10 Y144.95 E5.72568
G1 X151.02 Y145.18 E5.77753
G1 X150.12 Y145.52 E5.82314
G0 F12000 X149.95 Y145.15
G1 F2700 X149.65 Y145.33 E5.83923
G1 X147.04 Y148.86 E6.04648
G1 X146.74 Y149.34 E6.07330
G1 X146.71 Y149.40 E6.07649
G1 X146.57 Y149.70 E6.09223
G1 X146.43 Y149.99 E6.10720
G1 X146.23 Y150.55 E6.13505
G1 X146.10 Y151.04 E6.15927
G1 X146.06 Y151.22 E6.16778
G1 X145.96 Y151.85 E6.19810
G1 X145.93 Y152.51 E6.22902
G1 X145.96 Y153.14 E6.25867
G1 X146.05 Y153.70 E6.28528
G1 X146.07 Y153.84 E6.29200
G1 X146.20 Y154.35 E6.31723
G1 X146.42 Y154.97 E6.34794
G1 X146.48 Y155.11 E6.35497
G1 X146.71 Y155.60 E6.38071
G1 X147.04 Y156.14 E6.41062
G1 X147.42 Y156.66 E6.44109
G1 X147.83 Y157.11 E6.46960
G1 X147.85 Y157.14 E6.47153
G1 X148.29 Y157.53 E6.49914
G1 X148.86 Y157.97 E6.53302
G1 X149.30 Y158.23 E6.55711
G1 X149.40 Y158.29 E6.56282
G1 X149.58 Y158.38 E6.57217
G1 X149.99 Y158.57 E6.59328
G1 X150.22 Y158.65 E6.60475
G1 X150.59 Y158.78 E6.62353
G1 X151.16 Y158.93 E6.65108
G1 X151.23 Y158.94 E6.65458
G1 X151.56 Y158.99 E6.67022
G1 X151.85 Y159.03 E6.68414
G1 X152.34 Y159.06 E6.70732
G1 X152.51 Y159.07 E6.71530
G1 X153.09 Y159.04 E6.74269
G1 X153.13 Y159.04 E6.74453
G1 X153.79 Y158.94 E6.77595
G1 X154.15 Y158.85 E6.79363
G1 X158.08 Y157.86 E6.98447
G1 X158.56 Y157.45 E7.01427
G1 X158.63 Y157.37 E7.01942
G1 X159.31 Y156.54 E7.06972
G1 X159.75 Y155.81 E7.11000
G1 X159.86 Y155.61 E7.12080
G1 X160.15 Y154.90 E7.15729
G1 X160.30 Y154.51 E7.17701
G1 X160.33 Y154.40 E7.18200
G1 X160.33 Y154.40 E7.18205
G1 X160.56 Y153.40 E7.23075
G1 X160.63 Y152.44 E7.27574
G1 X160.64 Y152.20 E7.28713
G1 X160.62 Y151.87 E7.30274
G1 X160.54 Y151.00 E7.34415
G1 X160.52 Y150.89 E7.34938
G1 X160.27 Y149.88 E7.39858
G1 X160.03 Y149.31 E7.42759
G1 X159.80 Y148.75 E7.45605
G1 X159.21 Y147.76 E7.51045
G1 X158.62 Y147.05 E7.55416
G1 X158.42 Y146.82 E7.56838
G1 X157.51 Y146.02 E7.62538
G1 X157.51 Y146.01 E7.62589
G1 X156.54 Y145.40 E7.67990
G1 X156.02 Y145.18 E7.70650
G1 X155.43 Y144.91 E7.73720
G1 X154.62 Y144.70 E7.77644
G1 X154.34 Y144.62 E7.79027
G1 X153.58 Y144.55 E7.82606
G1 X153.15 Y144.50 E7.84660
G1 X153.07 Y144.50 E7.85019
G1 X152.05 Y144.55 E7.89847
G1 X150.91 Y144.79 E7.95375
G1 X149.95 Y145.15 E8.00193
G0 F12000 X149.80 Y144.78
G1 F2700 X149.77 Y144.79 E8.00324
G1 X149.42 Y145.00 E8.02284
G1 X149.38 Y145.02 E8.02481
G1 X146.71 Y148.63 E8.23654
G1 X146.40 Y149.14 E8.26449
G1 X146.35 Y149.22 E8.26872
G1 X146.21 Y149.53 E8.28530
G1 X146.06 Y149.84 E8.30133
G1 X145.85 Y150.44 E8.33111
G1 X145.72 Y150.94 E8.35587
G1 X145.67 Y151.14 E8.36524
G1 X145.57 Y151.82 E8.39766
G1 X145.53 Y152.51 E8.43038
G1 X145.56 Y153.19 E8.46234
G1 X145.65 Y153.76 E8.48957
G1 X145.68 Y153.92 E8.49739
G1 X145.82 Y154.47 E8.52389
G1 X146.05 Y155.12 E8.55646
G1 X146.12 Y155.29 E8.56544
G1 X146.35 Y155.79 E8.59126
G1 X146.70 Y156.36 E8.62288
G1 X147.12 Y156.93 E8.65602
G1 X147.53 Y157.38 E8.68490
G1 X147.57 Y157.43 E8.68777
G1 X148.03 Y157.84 E8.71668
G1 X148.64 Y158.30 E8.75305
G1 X149.09 Y158.57 E8.77800
G1 X149.22 Y158.65 E8.78498
G1 X149.41 Y158.74 E8.79490
G1 X149.83 Y158.94 E8.81681
G1 X150.08 Y159.03 E8.82933
G1 X150.47 Y159.17 E8.84885
G1 X151.06 Y159.31 E8.87752
G1 X151.15 Y159.33 E8.88165
G1 X151.50 Y159.39 E8.89849
G1 X151.81 Y159.43 E8.91327
G1 X152.32 Y159.46 E8.93745
G1 X152.50 Y159.47 E8.94599
G1 X153.12 Y159.44 E8.97522
G1 X153.18 Y159.44 E8.97786
G1 X153.86 Y159.33 E9.01052
G1 X154.25 Y159.24 E9.02932
G1 X158.26 Y158.22 E9.22458
G1 X158.84 Y157.73 E9.26043
G1 X158.94 Y157.62 E9.26723
G1 X159.63 Y156.78 E9.31871
G1 X160.12 Y155.98 E9.36296
G1 X160.22 Y155.79 E9.37287
G1 X160.52 Y155.04 E9.41099
G1 X160.69 Y154.62 E9.43230
G1 X160.72 Y154.50 E9.43807
G1 X160.71 Y154.50 E9.43811
G1 X160.96 Y153.45 E9.48900
G1 X161.03 Y152.47 E9.53537
G1 X161.04 Y152.20 E9.54823
G1 X161.02 Y151.86 E9.56412
G1 X161.02 Y151.86 E9.56417
G1 X160.94 Y150.93 E9.60837
G1 X160.93 Y150.88 E9.61089
G1 X160.65 Y149.76 E9.66524
G1 X160.65 Y149.75 E9.66548
G1 X160.40 Y149.16 E9.69591
G1 X160.16 Y148.57 E9.72585
G1 X159.55 Y147.55 E9.78179
G1 X159.54 Y147.52 E9.78333
G1 X158.92 Y146.79 E9.82831
G1 X158.71 Y146.54 E9.84418
G1 X157.76 Y145.70 E9.90378
G1 X156.75 Y145.06 E9.95997
G1 X156.73 Y145.05 E9.96103
G1 X156.18 Y144.81 E9.98935
G1 X155.56 Y144.54 E10.02146
G1 X154.73 Y144.31 E10.06191
G1 X154.41 Y144.23 E10.07759
G1 X153.62 Y144.15 E10.11476
G1 X153.16 Y144.10 E10.13676
G1 X153.06 Y144.10 E10.14167
G1 X152.00 Y144.15 E10.19162
G1 X150.79 Y144.41 E10.24987
G1 X149.80 Y144.78 E10.29972
G0 F12000 X149.60 Y144.43
G1 F2700 X149.21 Y144.66 E10.32091
G1 X149.11 Y144.72 E10.32666
G1 X146.38 Y148.40 E10.54290
G1 X146.06 Y148.93 E10.57205
G1 X146.00 Y149.02 E10.57706
G1 X145.84 Y149.36 E10.59472
G1 X145.69 Y149.68 E10.61143
G1 X145.46 Y150.32 E10.64353
G1 X145.33 Y150.84 E10.66886
G1 X145.27 Y151.06 E10.67951
G1 X145.17 Y151.78 E10.71369
G1 X145.13 Y152.51 E10.74811
G1 X145.17 Y153.21 E10.78135
G1 X145.26 Y153.85 E10.81162
G1 X145.29 Y154.02 E10.81982
G1 X145.43 Y154.57 E10.84686
G1 X145.67 Y155.26 E10.88132
G1 X145.75 Y155.43 E10.88986
G1 X146.00 Y155.98 E10.91838
G1 X146.38 Y156.60 E10.95247
G1 X146.80 Y157.17 E10.98595
G1 X147.23 Y157.65 E11.01656
G1 X147.29 Y157.71 E11.02037
G1 X147.78 Y158.15 E11.05135
G1 X148.42 Y158.63 E11.08940
G1 X148.89 Y158.92 E11.11522
G1 X149.03 Y159.00 E11.12302
G1 X149.24 Y159.10 E11.13397
G1 X149.68 Y159.31 E11.15686
G1 X149.95 Y159.40 E11.17039
G1 X149.95 Y159.41 E11.17044
G1 X150.35 Y159.55 E11.19071
G1 X150.96 Y159.70 E11.22030
G1 X151.07 Y159.73 E11.22546
G1 X151.44 Y159.78 E11.24310
G1 X151.77 Y159.83 E11.25903
G1 X152.30 Y159.86 E11.28396
G1 X152.51 Y159.87 E11.29373
G1 X153.14 Y159.84 E11.32362
G1 X153.21 Y159.84 E11.32673
G1 X153.95 Y159.72 E11.36197
G1 X154.32 Y159.63 E11.38033
G1 X158.46 Y158.59 E11.58120
G1 X159.10 Y158.03 E11.62153
G1 X159.13 Y158.00 E11.62347
G1 X159.24 Y157.88 E11.63140
G1 X159.96 Y157.01 E11.68421
G1 X160.48 Y156.14 E11.73215
G1 X160.58 Y155.97 E11.74153
G1 X160.89 Y155.19 E11.78111
G1 X161.07 Y154.75 E11.80368
G1 X161.11 Y154.59 E11.81148
G1 X161.35 Y153.51 E11.86328
G1 X161.42 Y152.50 E11.91131
G1 X161.44 Y152.20 E11.92539
G1 X161.41 Y151.81 E11.94384
G1 X161.34 Y150.87 E11.98818
G1 X161.30 Y150.71 E11.99616
G1 X161.04 Y149.66 E12.04697
G1 X161.03 Y149.63 E12.04842
G1 X160.77 Y149.00 E12.08044
G1 X160.52 Y148.39 E12.11165
G1 X159.90 Y147.35 E12.16913
G1 X159.86 Y147.29 E12.17233
G1 X159.23 Y146.54 E12.21868
G1 X159.00 Y146.26 E12.23579
G1 X158.00 Y145.38 E12.29830
G1 X157.98 Y145.37 E12.29959
G1 X156.96 Y144.73 E12.35616
G1 X156.92 Y144.70 E12.35873
G1 X156.34 Y144.44 E12.38837
G1 X155.69 Y144.16 E12.42197
G1 X154.86 Y143.93 E12.46267
G1 X154.48 Y143.83 E12.48113
G1 X153.67 Y143.75 E12.51963
G1 X153.17 Y143.70 E12.54304
G1 X153.04 Y143.71 E12.54937
G1 X151.94 Y143.75 E12.60106
G1 X150.69 Y144.02 E12.66163
G1 X149.60 Y144.43 E12.71636
G0 F12000 X149.42 Y144.07
G1 F2700 X149.01 Y144.31 E12.73890
G1 X148.84 Y144.41 E12.74847
G1 X146.04 Y148.18 E12.96961
G1 X145.72 Y148.73 E12.99955
G1 X145.65 Y148.83 E13.00549
G1 X145.48 Y149.19 E13.02410
G1 X145.32 Y149.53 E13.04158
G1 X145.08 Y150.20 E13.07553
G1 X144.94 Y150.74 E13.10175
G1 X144.88 Y150.99 E13.11370
G1 X144.77 Y151.73 E13.14908
G1 X144.73 Y152.51 E13.18576
G1 X144.77 Y153.26 E13.22131
G1 X144.86 Y153.89 E13.25135
G1 X144.91 Y154.12 E13.26220
G1 X145.05 Y154.69 E13.28990
G1 X145.30 Y155.40 E13.32577
G1 X145.38 Y155.60 E13.33610
G1 X145.65 Y156.16 E13.36521
G1 X146.04 Y156.81 E13.40104
G1 X146.49 Y157.42 E13.43680
G1 X146.94 Y157.92 E13.46818
G1 X147.00 Y157.99 E13.47289
G1 X147.53 Y158.46 E13.50598
G1 X148.19 Y158.96 E13.54531
G1 X148.84 Y159.35 E13.58105
G1 X149.07 Y159.46 E13.59299
G1 X149.53 Y159.68 E13.61683
G1 X149.81 Y159.78 E13.63115
G1 X150.24 Y159.93 E13.65269
G1 X150.87 Y160.09 E13.68301
G1 X150.99 Y160.12 E13.68904
G1 X151.38 Y160.18 E13.70763
G1 X151.73 Y160.23 E13.72432
G1 X152.28 Y160.26 E13.75034
G1 X152.50 Y160.27 E13.76073
G1 X153.16 Y160.24 E13.79184
G1 X153.25 Y160.23 E13.79623
G1 X154.03 Y160.12 E13.83313
G1 X154.44 Y160.01 E13.85325
G1 X158.61 Y158.96 E14.05610
G1 X158.62 Y158.97 E14.05676
G1 X159.36 Y158.34 E14.10248
G1 X159.42 Y158.29 E14.10659
G1 X159.55 Y158.13 E14.11607
G1 X160.29 Y157.24 E14.17045
G1 X160.79 Y156.40 E14.21688
G1 X160.94 Y156.14 E14.23091
G1 X161.26 Y155.34 E14.27176
G1 X161.45 Y154.87 E14.29551
G1 X161.50 Y154.68 E14.30486
G1 X161.75 Y153.57 E14.35836
G1 X161.82 Y152.53 E14.40780
G1 X161.84 Y152.20 E14.42339
G1 X161.81 Y151.78 E14.44312
G1 X161.73 Y150.81 E14.48887
G1 X161.70 Y150.69 E14.49497
G1 X161.43 Y149.57 E14.54932
G1 X161.41 Y149.51 E14.55224
G1 X161.14 Y148.85 E14.58557
G1 X160.88 Y148.21 E14.61851
G1 X160.27 Y147.19 E14.67458
G1 X160.19 Y147.05 E14.68193
G1 X159.53 Y146.28 E14.72965
G1 X159.28 Y145.98 E14.74813
G1 X158.24 Y145.06 E14.81374
G1 X158.16 Y145.00 E14.81845
G1 X157.18 Y144.39 E14.87286
G1 X157.18 Y144.39 E14.87293
G1 X157.10 Y144.34 E14.87723
G1 X156.50 Y144.08 E14.90806
G1 X155.83 Y143.78 E14.94294
G1 X154.94 Y143.54 E14.98613
G1 X154.55 Y143.44 E15.00518
G1 X153.71 Y143.35 E15.04519
G1 X153.18 Y143.30 E15.07004
G1 X153.02 Y143.31 E15.07778
G1 X151.89 Y143.36 E15.13113
G1 X150.57 Y143.64 E15.19464
G1 X149.49 Y144.04 E15.24922
G1 X149.42 Y144.07 E15.25257
G0 F12000 X149.25 Y143.71
G1 F2700 X148.81 Y143.97 E15.27669
G1 X148.48 Y144.16 E15.29440
G1 X148.51 Y144.19 E15.29618
G1 X145.71 Y147.96 E15.51789
G1 X145.37 Y148.52 E15.54856
G1 X145.30 Y148.65 E15.55543
G1 X145.12 Y149.02 E15.57492
G1 X144.95 Y149.38 E15.59367
G1 X144.70 Y150.08 E15.62877
G1 X144.55 Y150.64 E15.65611
G1 X144.49 Y150.90 E15.66884
G1 X144.37 Y151.70 E15.70702
G1 X144.33 Y152.51 E15.74489
G1 X144.37 Y153.30 E15.78224
G1 X144.47 Y153.95 E15.81356
G1 X144.51 Y154.20 E15.82532
G1 X144.66 Y154.80 E15.85469
G1 X144.93 Y155.55 E15.89201
G1 X145.02 Y155.77 E15.90314
G1 X145.30 Y156.36 E15.93398
G1 X145.70 Y157.03 E15.97110
G1 X146.18 Y157.68 E16.00913
G1 X146.64 Y158.19 E16.04128
G1 X146.73 Y158.28 E16.04725
G1 X147.26 Y158.76 E16.08094
G1 X147.97 Y159.30 E16.12313
G1 X148.65 Y159.71 E16.16053
G1 X148.90 Y159.82 E16.17363
G1 X149.37 Y160.05 E16.19814
G1 X149.68 Y160.16 E16.21352
G1 X150.13 Y160.32 E16.23591
G1 X150.77 Y160.48 E16.26720
G1 X150.91 Y160.51 E16.27402
G1 X151.32 Y160.57 E16.29366
G1 X151.69 Y160.63 E16.31120
G1 X152.26 Y160.66 E16.33821
G1 X152.51 Y160.67 E16.34973
G1 X153.18 Y160.64 E16.38160
G1 X153.29 Y160.63 E16.38684
G1 X154.10 Y160.51 E16.42551
G1 X154.54 Y160.40 E16.44669
G1 X158.43 Y159.42 E16.63573
G1 X158.50 Y159.54 E16.64252
G1 X158.74 Y159.40 E16.65599
G1 X159.64 Y158.63 E16.71154
G1 X159.71 Y158.56 E16.71605
G1 X159.86 Y158.39 E16.72700
G1 X160.61 Y157.48 E16.78273
G1 X161.14 Y156.60 E16.83089
G1 X161.31 Y156.32 E16.84645
G1 X161.64 Y155.49 E16.88861
G1 X161.83 Y154.99 E16.91393
G1 X161.88 Y154.77 E16.92453
G1 X162.15 Y153.63 E16.97948
G1 X162.22 Y152.55 E17.03053
G1 X162.25 Y152.19 E17.04764
G1 X162.21 Y151.75 E17.06864
G1 X162.13 Y150.75 E17.11587
G1 X162.08 Y150.53 E17.12657
G1 X161.81 Y149.47 E17.17791
G1 X161.79 Y149.38 E17.18232
G1 X161.51 Y148.70 E17.21694
G1 X161.24 Y148.03 E17.25105
G1 X160.58 Y146.94 E17.31128
G1 X160.51 Y146.82 E17.31753
G1 X159.84 Y146.02 E17.36686
G1 X159.57 Y145.70 E17.38661
G1 X158.48 Y144.74 E17.45530
G1 X158.37 Y144.67 E17.46130
G1 X157.39 Y144.05 E17.51603
G1 X157.29 Y143.99 E17.52139
G1 X156.66 Y143.71 E17.55387
G1 X155.96 Y143.40 E17.59019
G1 X155.06 Y143.16 E17.63421
G1 X154.62 Y143.04 E17.65550
G1 X153.75 Y142.95 E17.69684
G1 X153.20 Y142.90 E17.72302
G1 X153.00 Y142.91 E17.73227
G1 X151.84 Y142.96 E17.78698
G1 X150.46 Y143.25 E17.85363
G1 X149.30 Y143.69 E17.91203
G1 X149.25 Y143.71 E17.91463
G0 F12000 X148.88 Y142.56
G1 F2700 X148.72 Y142.63 E17.92287
G1 X147.37 Y143.42 E17.99659
G1 X147.07 Y143.66 E18.01460
G1 X146.79 Y143.91 E18.03228
G1 X147.01 Y144.19 E18.04932
G1 X144.71 Y147.29 E18.23125
G1 X144.34 Y147.90 E18.26480
G1 X144.24 Y148.08 E18.27463
G1 X144.04 Y148.51 E18.29678
G1 X143.84 Y148.92 E18.31823
G1 X143.55 Y149.73 E18.35870
G1 X143.39 Y150.34 E18.38856
G1 X143.31 Y150.67 E18.40461
G1 X143.17 Y151.59 E18.44842
G1 X143.13 Y152.51 E18.49204
G1 X143.17 Y153.41 E18.53435
G1 X143.29 Y154.17 E18.57086
G1 X143.34 Y154.44 E18.58383
G1 X143.51 Y155.15 E18.61824
G1 X143.81 Y155.98 E18.65981
G1 X143.93 Y156.28 E18.67480
G1 X144.24 Y156.92 E18.70828
G1 X144.71 Y157.71 E18.75156
G1 X145.25 Y158.43 E18.79413
G1 X145.25 Y158.44 E18.79471
G1 X145.88 Y159.13 E18.83867
G1 X146.50 Y159.69 E18.87817
G1 X147.27 Y160.27 E18.92349
G1 X147.30 Y160.29 E18.92538
G1 X148.09 Y160.77 E18.96870
G1 X148.39 Y160.91 E18.98430
G1 X148.39 Y160.91 E18.98435
G1 X148.92 Y161.16 E19.01220
G1 X149.28 Y161.29 E19.02998
G1 X149.78 Y161.47 E19.05500
G1 X150.48 Y161.64 E19.08918
G1 X150.68 Y161.69 E19.09886
G1 X151.15 Y161.76 E19.12117
G1 X151.57 Y161.82 E19.14153
G1 X152.20 Y161.86 E19.17128
G1 X152.50 Y161.87 E19.18530
G1 X153.24 Y161.84 E19.22024
G1 X153.42 Y161.83 E19.22859
G1 X154.34 Y161.69 E19.27274
G1 X154.81 Y161.57 E19.29569
G1 X157.86 Y160.80 E19.44402
G1 X158.10 Y161.18 E19.46508
G1 X158.19 Y161.14 E19.46999
G1 X159.46 Y160.36 E19.54016
G1 X160.40 Y159.56 E19.59839
G1 X160.58 Y159.40 E19.60984
G1 X160.78 Y159.15 E19.62485
G1 X161.60 Y158.17 E19.68493
G1 X162.18 Y157.21 E19.73802
G1 X162.39 Y156.84 E19.75778
G1 X162.75 Y155.93 E19.80426
G1 X162.98 Y155.34 E19.83388
G1 X163.05 Y155.04 E19.84855
G1 X163.34 Y153.81 E19.90830
G1 X163.42 Y152.63 E19.96379
G1 X163.45 Y152.19 E19.98477
G1 X163.41 Y151.65 E20.01027
G1 X163.32 Y150.56 E20.06190
G1 X163.25 Y150.25 E20.07666
G1 X162.98 Y149.18 E20.12868
G1 X162.94 Y149.01 E20.13733
G1 X162.62 Y148.25 E20.17613
G1 X162.32 Y147.50 E20.21426
G1 X161.61 Y146.32 E20.27896
G1 X161.49 Y146.12 E20.29011
G1 X160.76 Y145.25 E20.34356
G1 X160.43 Y144.86 E20.36763
G1 X159.21 Y143.78 E20.44460
G1 X159.02 Y143.66 E20.45504
G1 X158.03 Y143.04 E20.51011
G1 X157.86 Y142.93 E20.51992
G1 X157.15 Y142.61 E20.55658
G1 X156.36 Y142.27 E20.59701
G1 X155.32 Y141.99 E20.64783
G1 X154.84 Y141.86 E20.67146
G1 X153.87 Y141.76 E20.71711
G1 X153.23 Y141.69 E20.74746
G1 X152.95 Y141.71 E20.76101
G1 X151.77 Y141.76 E20.81657
G1 X151.68 Y141.76 E20.82068
G1 X150.12 Y142.10 E20.89605
G1 X148.88 Y142.56 E20.95849
G0 F12000 X148.77 Y142.18
G1 F2700 X148.54 Y142.27 E20.97032
G1 X147.14 Y143.09 E21.04687
G1 X146.83 Y143.34 E21.06535
G1 X146.25 Y143.85 E21.10209
G1 X146.51 Y144.20 E21.12262
G1 X144.37 Y147.08 E21.29168
G1 X144.00 Y147.70 E21.32584
G1 X143.88 Y147.89 E21.33646
G1 X143.67 Y148.34 E21.35971
G1 X143.47 Y148.76 E21.38211
G1 X143.17 Y149.60 E21.42396
G1 X143.01 Y150.24 E21.45505
G1 X142.92 Y150.59 E21.47226
G1 X142.78 Y151.54 E21.51746
G1 X142.73 Y152.51 E21.56326
G1 X142.77 Y153.44 E21.60716
G1 X142.78 Y153.46 E21.60783
G1 X142.89 Y154.22 E21.64415
G1 X142.95 Y154.55 E21.65995
G1 X143.13 Y155.26 E21.69461
G1 X143.44 Y156.14 E21.73877
G1 X143.56 Y156.44 E21.75391
G1 X143.88 Y157.10 E21.78846
G1 X144.38 Y157.93 E21.83421
G1 X144.92 Y158.67 E21.87743
G1 X144.95 Y158.70 E21.87948
G1 X145.59 Y159.40 E21.92405
G1 X146.24 Y160.00 E21.96595
G1 X147.04 Y160.60 E22.01313
G1 X147.07 Y160.62 E22.01484
G1 X147.90 Y161.12 E22.06025
G1 X148.22 Y161.27 E22.07685
G1 X148.76 Y161.53 E22.10523
G1 X149.14 Y161.66 E22.12441
G1 X149.66 Y161.85 E22.15024
G1 X150.38 Y162.03 E22.18534
G1 X150.60 Y162.08 E22.19590
G1 X151.09 Y162.16 E22.21921
G1 X151.53 Y162.22 E22.24053
G1 X152.18 Y162.25 E22.27122
G1 X152.51 Y162.27 E22.28656
G1 X153.26 Y162.24 E22.32202
G1 X153.45 Y162.23 E22.33085
G1 X154.41 Y162.08 E22.37700
G1 X154.92 Y161.96 E22.40178
G1 X157.68 Y161.26 E22.53562
G1 X157.93 Y161.68 E22.55857
G1 X158.38 Y161.50 E22.58119
G1 X159.69 Y160.69 E22.65403
G1 X160.69 Y159.84 E22.71577
G1 X160.87 Y159.68 E22.72723
G1 X161.09 Y159.41 E22.74370
G1 X161.92 Y158.41 E22.80512
G1 X162.52 Y157.41 E22.86003
G1 X162.75 Y157.03 E22.88093
G1 X163.12 Y156.08 E22.92904
G1 X163.12 Y156.08 E22.92909
G1 X163.37 Y155.46 E22.96017
G1 X163.44 Y155.14 E22.97592
G1 X163.44 Y155.14 E22.97597
G1 X163.74 Y153.87 E23.03764
G1 X163.82 Y152.66 E23.09455
G1 X163.85 Y152.19 E23.11705
G1 X163.81 Y151.62 E23.14378
G1 X163.71 Y150.50 E23.19687
G1 X163.63 Y150.16 E23.21300
G1 X163.37 Y149.09 E23.26531
G1 X163.32 Y148.88 E23.27542
G1 X163.00 Y148.09 E23.31544
G1 X162.99 Y148.09 E23.31548
G1 X162.67 Y147.31 E23.35570
G1 X161.97 Y146.14 E23.41964
G1 X161.81 Y145.88 E23.43391
G1 X161.07 Y144.99 E23.48880
G1 X160.72 Y144.58 E23.51427
G1 X159.45 Y143.46 E23.59416
G1 X159.26 Y143.34 E23.60474
G1 X158.25 Y142.70 E23.66124
G1 X158.04 Y142.57 E23.67256
G1 X157.31 Y142.25 E23.71051
G1 X156.50 Y141.89 E23.75214
G1 X155.43 Y141.60 E23.80462
G1 X154.91 Y141.47 E23.82991
G1 X153.91 Y141.36 E23.87693
G1 X153.24 Y141.29 E23.90899
G1 X152.93 Y141.31 E23.92367
G1 X151.69 Y141.36 E23.98225
G1 X151.63 Y141.37 E23.98471
G1 X150.00 Y141.72 E24.06336
G1 X148.77 Y142.18 E24.12541
G0 F12000 X148.58 Y141.82
G1 F2700 X148.36 Y141.91 E24.13618
G1 X146.91 Y142.76 E24.21549
G1 X146.55 Y143.05 E24.23759
G1 X145.73 Y143.77 E24.28896
G1 X145.70 Y143.80 E24.29064
G1 X146.01 Y144.20 E24.31440
G1 X144.05 Y146.84 E24.46974
G1 X143.66 Y147.49 E24.50538
G1 X143.53 Y147.70 E24.51689
G1 X143.31 Y148.16 E24.54107
G1 X143.10 Y148.61 E24.56410
G1 X142.78 Y149.50 E24.60897
G1 X142.62 Y150.14 E24.63995
G1 X142.52 Y150.52 E24.65847
G1 X142.38 Y151.50 E24.70543
G1 X142.33 Y152.51 E24.75288
G1 X142.37 Y153.46 E24.79792
G1 X142.38 Y153.46 E24.79796
G1 X142.38 Y153.49 E24.79928
G1 X142.50 Y154.31 E24.83823
G1 X142.56 Y154.62 E24.85297
G1 X142.75 Y155.38 E24.89006
G1 X143.06 Y156.28 E24.93527
G1 X143.19 Y156.59 E24.95098
G1 X143.53 Y157.29 E24.98777
G1 X144.04 Y158.15 E25.03483
G1 X144.60 Y158.91 E25.07926
G1 X144.64 Y158.96 E25.08209
G1 X145.30 Y159.69 E25.12867
G1 X145.99 Y160.31 E25.17224
G1 X146.79 Y160.91 E25.21961
G1 X146.85 Y160.96 E25.22345
G1 X147.71 Y161.47 E25.27051
G1 X148.04 Y161.63 E25.28793
G1 X148.60 Y161.90 E25.31709
G1 X149.01 Y162.04 E25.33737
G1 X149.01 Y162.04 E25.33742
G1 X149.54 Y162.23 E25.36389
G1 X150.28 Y162.42 E25.40016
G1 X150.52 Y162.48 E25.41178
G1 X151.03 Y162.55 E25.43581
G1 X151.50 Y162.62 E25.45850
G1 X152.16 Y162.66 E25.48971
G1 X152.51 Y162.67 E25.50596
G1 X153.27 Y162.63 E25.54193
G1 X153.49 Y162.62 E25.55256
G1 X154.49 Y162.47 E25.59990
G1 X155.02 Y162.34 E25.62580
G1 X157.49 Y161.72 E25.74587
G1 X157.76 Y162.17 E25.77070
G1 X158.55 Y161.86 E25.81066
G1 X159.93 Y161.01 E25.88696
G1 X160.95 Y160.14 E25.95041
G1 X161.16 Y159.96 E25.96323
G1 X161.40 Y159.66 E25.98118
G1 X162.25 Y158.64 E26.04381
G1 X162.88 Y157.59 E26.10187
G1 X163.11 Y157.19 E26.12326
G1 X163.49 Y156.22 E26.17243
G1 X163.75 Y155.59 E26.20479
G1 X163.83 Y155.22 E26.22238
G1 X164.12 Y153.97 E26.28314
G1 X164.13 Y153.92 E26.28540
G1 X164.22 Y152.69 E26.34373
G1 X164.25 Y152.18 E26.36774
G1 X164.21 Y151.60 E26.39527
G1 X164.21 Y151.60 E26.39532
G1 X164.11 Y150.44 E26.45035
G1 X164.02 Y150.07 E26.46783
G1 X163.76 Y148.99 E26.52038
G1 X163.70 Y148.76 E26.53170
G1 X163.37 Y147.94 E26.57329
G1 X163.36 Y147.94 E26.57334
G1 X163.03 Y147.13 E26.61485
G1 X162.30 Y145.91 E26.68189
G1 X162.14 Y145.65 E26.69629
G1 X161.37 Y144.74 E26.75252
G1 X161.00 Y144.30 E26.77950
G1 X159.69 Y143.14 E26.86195
G1 X159.47 Y143.00 E26.87424
G1 X158.46 Y142.36 E26.93081
G1 X158.24 Y142.22 E26.94331
G1 X157.47 Y141.88 E26.98284
G1 X156.63 Y141.51 E27.02583
G1 X155.53 Y141.21 E27.07977
G1 X155.00 Y141.08 E27.10534
G1 X154.98 Y141.07 E27.10676
G1 X153.96 Y140.97 E27.15512
G1 X153.25 Y140.89 E27.18840
G1 X152.91 Y140.91 E27.20469
G1 X151.69 Y140.96 E27.26246
G1 X151.58 Y140.97 E27.26747
G1 X149.89 Y141.33 E27.34873
G1 X148.58 Y141.82 E27.41509
G0 F12000 X148.46 Y141.44
G1 F2700 X148.19 Y141.55 E27.42891
G1 X146.68 Y142.43 E27.51135
G1 X146.31 Y142.74 E27.53406
G1 X145.44 Y143.49 E27.58814
G1 X145.19 Y143.78 E27.60627
G1 X145.51 Y144.20 E27.63105
G1 X143.71 Y146.62 E27.77313
G1 X143.31 Y147.29 E27.80970
G1 X143.18 Y147.51 E27.82214
G1 X142.95 Y147.99 E27.84727
G1 X142.73 Y148.45 E27.87129
G1 X142.40 Y149.38 E27.91780
G1 X142.24 Y150.01 E27.94859
G1 X142.23 Y150.04 E27.94966
G1 X142.13 Y150.44 E27.96905
G1 X141.98 Y151.47 E28.01811
G1 X141.93 Y152.51 E28.06735
G1 X141.97 Y153.48 E28.11343
G1 X141.98 Y153.53 E28.11555
G1 X142.10 Y154.37 E28.15560
G1 X142.17 Y154.71 E28.17197
G1 X142.36 Y155.50 E28.21027
G1 X142.69 Y156.42 E28.25620
G1 X142.84 Y156.78 E28.27457
G1 X143.17 Y157.48 E28.31140
G1 X143.71 Y158.38 E28.36062
G1 X144.28 Y159.15 E28.40579
G1 X144.33 Y159.21 E28.40943
G1 X145.03 Y159.98 E28.45864
G1 X145.73 Y160.62 E28.50328
G1 X146.55 Y161.23 E28.55167
G1 X146.63 Y161.29 E28.55642
G1 X147.52 Y161.82 E28.60509
G1 X147.87 Y161.99 E28.62372
G1 X148.46 Y162.27 E28.65428
G1 X148.87 Y162.42 E28.67497
G1 X148.87 Y162.42 E28.67502
G1 X149.43 Y162.62 E28.70287
G1 X150.19 Y162.81 E28.73971
G1 X150.44 Y162.87 E28.75197
G1 X150.97 Y162.95 E28.77719
G1 X151.45 Y163.02 E28.80037
G1 X152.14 Y163.05 E28.83294
G1 X152.51 Y163.07 E28.85013
G1 X153.29 Y163.03 E28.88710
G1 X153.53 Y163.02 E28.89857
G1 X154.55 Y162.87 E28.94691
G1 X154.57 Y162.87 E28.94806
G1 X155.11 Y162.73 E28.97410
G1 X157.30 Y162.18 E29.08086
G1 X157.60 Y162.66 E29.10757
G1 X158.73 Y162.22 E29.16505
G1 X160.17 Y161.34 E29.24454
G1 X161.20 Y160.46 E29.30833
G1 X161.45 Y160.23 E29.32419
G1 X161.71 Y159.92 E29.34338
G1 X162.58 Y158.87 E29.40784
G1 X163.22 Y157.79 E29.46688
G1 X163.47 Y157.37 E29.48995
G1 X163.87 Y156.37 E29.54054
G1 X164.13 Y155.70 E29.57452
G1 X164.22 Y155.32 E29.59327
G1 X164.51 Y154.06 E29.65432
G1 X164.53 Y153.98 E29.65784
G1 X164.62 Y152.72 E29.71773
G1 X164.65 Y152.18 E29.74292
G1 X164.60 Y151.56 E29.77253
G1 X164.50 Y150.37 E29.82856
G1 X164.41 Y149.98 E29.84740
G1 X164.15 Y148.90 E29.90015
G1 X164.08 Y148.63 E29.91298
G1 X163.74 Y147.79 E29.95589
G1 X163.73 Y147.79 E29.95594
G1 X163.39 Y146.95 E29.99886
G1 X162.64 Y145.70 E30.06735
G1 X162.47 Y145.42 E30.08292
G1 X161.68 Y144.48 E30.14096
G1 X161.29 Y144.02 E30.16921
G1 X159.94 Y142.82 E30.25461
G1 X159.67 Y142.65 E30.26948
G1 X158.67 Y142.02 E30.32506
G1 X158.43 Y141.86 E30.33886
G1 X157.63 Y141.51 E30.37993
G1 X156.77 Y141.13 E30.42431
G1 X155.63 Y140.83 E30.47971
G1 X155.10 Y140.69 E30.50549
G1 X155.05 Y140.68 E30.50812
G1 X154.00 Y140.57 E30.55809
G1 X153.26 Y140.49 E30.59290
G1 X152.89 Y140.51 E30.61046
G1 X151.70 Y140.56 E30.66687
G1 X151.52 Y140.57 E30.67532
G1 X149.78 Y140.94 E30.75885
G1 X148.46 Y141.44 E30.82561
G0 F12000 X148.34 Y141.06
G1 F2700 X148.01 Y141.19 E30.84237
G1 X146.45 Y142.10 E30.92758
G1 X146.05 Y142.43 E30.95219
G1 X145.16 Y143.21 E31.00788
G1 X144.68 Y143.77 E31.04261
G1 X145.01 Y144.20 E31.06833
G1 X143.37 Y146.41 E31.19791
G1 X142.97 Y147.08 E31.23473
G1 X142.82 Y147.33 E31.24825
G1 X142.59 Y147.82 E31.27415
G1 X142.36 Y148.31 E31.29938
G1 X142.02 Y149.26 E31.34699
G1 X141.84 Y149.94 E31.38012
G1 X141.74 Y150.36 E31.40064
G1 X141.58 Y151.43 E31.45151
G1 X141.53 Y152.52 E31.50302
G1 X141.58 Y153.50 E31.54966
G1 X141.58 Y153.58 E31.55302
G1 X141.71 Y154.44 E31.59406
G1 X141.78 Y154.79 E31.61106
G1 X141.98 Y155.61 E31.65072
G1 X142.32 Y156.58 E31.69913
G1 X142.46 Y156.91 E31.71643
G1 X142.82 Y157.68 E31.75624
G1 X143.38 Y158.59 E31.80673
G1 X144.02 Y159.46 E31.85753
G1 X144.74 Y160.26 E31.90840
G1 X145.48 Y160.93 E31.95538
G1 X146.32 Y161.56 E32.00494
G1 X146.40 Y161.62 E32.00955
G1 X147.33 Y162.18 E32.06108
G1 X147.70 Y162.35 E32.08027
G1 X148.30 Y162.64 E32.11136
G1 X149.32 Y163.00 E32.16250
G1 X150.09 Y163.19 E32.19986
G1 X150.36 Y163.26 E32.21314
G1 X150.91 Y163.34 E32.23922
G1 X151.42 Y163.42 E32.26344
G1 X151.42 Y163.42 E32.26382
G1 X152.12 Y163.45 E32.29682
G1 X152.51 Y163.47 E32.31491
G1 X153.31 Y163.43 E32.35287
G1 X153.57 Y163.42 E32.36519
G1 X154.60 Y163.27 E32.41450
G1 X154.65 Y163.26 E32.41664
G1 X155.21 Y163.12 E32.44399
G1 X157.11 Y162.64 E32.53645
G1 X157.43 Y163.16 E32.56512
G1 X158.91 Y162.58 E32.64001
G1 X160.40 Y161.66 E32.72274
G1 X161.46 Y160.75 E32.78843
G1 X161.74 Y160.51 E32.80570
G1 X162.01 Y160.17 E32.82625
G1 X162.91 Y159.10 E32.89206
G1 X163.57 Y158.00 E32.95264
G1 X163.83 Y157.55 E32.97730
G1 X164.24 Y156.52 E33.02942
G1 X164.51 Y155.83 E33.06451
G1 X164.61 Y155.41 E33.08491
G1 X164.91 Y154.12 E33.14736
G1 X164.93 Y154.04 E33.15099
G1 X165.05 Y152.18 E33.23919
G1 X165.00 Y151.52 E33.27003
G1 X164.90 Y150.32 E33.32719
G1 X164.80 Y149.89 E33.34772
G1 X164.53 Y148.80 E33.40071
G1 X164.46 Y148.51 E33.41489
G1 X164.10 Y147.64 E33.45930
G1 X163.75 Y146.77 E33.50352
G1 X162.99 Y145.50 E33.57348
G1 X162.79 Y145.18 E33.59111
G1 X161.98 Y144.22 E33.65012
G1 X161.58 Y143.74 E33.67997
G1 X160.18 Y142.50 E33.76817
G1 X159.90 Y142.32 E33.78353
G1 X159.90 Y142.32 E33.78358
G1 X158.60 Y141.50 E33.85591
G1 X157.79 Y141.15 E33.89783
G1 X156.90 Y140.75 E33.94390
G1 X155.76 Y140.45 E33.99935
G1 X155.21 Y140.30 E34.02638
G1 X155.12 Y140.28 E34.03057
G1 X154.04 Y140.17 E34.08187
G1 X153.28 Y140.09 E34.11781
G1 X152.87 Y140.11 E34.13707
G1 X151.65 Y140.16 E34.19461
G1 X151.46 Y140.18 E34.20359
G1 X149.67 Y140.56 E34.29025
G1 X148.34 Y141.06 E34.35697
G0 F12000 X148.16 Y140.70
G1 F2700 X147.84 Y140.83 E34.37362
G1 X146.22 Y141.77 E34.46168
G1 X145.80 Y142.12 E34.48744
G1 X144.87 Y142.93 E34.54563
G1 X144.31 Y143.58 E34.58628
G1 X144.18 Y143.77 E34.59698
G1 X144.51 Y144.21 E34.62287
G1 X143.04 Y146.18 E34.73900
G1 X142.63 Y146.87 E34.77699
G1 X142.47 Y147.14 E34.79144
G1 X142.23 Y147.65 E34.81829
G1 X141.99 Y148.15 E34.84415
G1 X141.64 Y149.14 E34.89376
G1 X141.46 Y149.84 E34.92777
G1 X141.34 Y150.29 E34.94965
G1 X141.18 Y151.38 E35.00176
G1 X141.13 Y152.51 E35.05497
G1 X141.18 Y153.53 E35.10355
G1 X141.18 Y153.53 E35.10360
G1 X141.18 Y153.60 E35.10681
G1 X141.31 Y154.50 E35.14966
G1 X141.39 Y154.89 E35.16825
G1 X141.60 Y155.73 E35.20898
G1 X141.94 Y156.72 E35.25839
G1 X142.10 Y157.09 E35.27749
G1 X142.47 Y157.86 E35.31767
G1 X143.05 Y158.82 E35.37068
G1 X143.71 Y159.72 E35.42327
G1 X144.45 Y160.54 E35.47538
G1 X145.23 Y161.24 E35.52483
G1 X146.07 Y161.87 E35.57449
G1 X146.18 Y161.96 E35.58092
G1 X147.14 Y162.53 E35.63386
G1 X147.53 Y162.72 E35.65416
G1 X148.14 Y163.01 E35.68599
G1 X149.20 Y163.38 E35.73906
G1 X149.99 Y163.58 E35.77741
G1 X150.28 Y163.66 E35.79170
G1 X150.85 Y163.74 E35.81859
G1 X151.34 Y163.81 E35.84224
G1 X151.38 Y163.82 E35.84400
G1 X152.10 Y163.85 E35.87804
G1 X152.50 Y163.87 E35.89698
G1 X153.33 Y163.83 E35.93602
G1 X153.62 Y163.82 E35.94962
G1 X154.66 Y163.66 E35.99940
G1 X154.72 Y163.65 E36.00221
G1 X155.31 Y163.51 E36.03074
G1 X156.93 Y163.10 E36.10942
G1 X157.24 Y163.61 E36.13751
G1 X157.47 Y163.57 E36.14833
G1 X159.09 Y162.94 E36.23072
G1 X160.64 Y161.99 E36.31643
G1 X161.73 Y161.05 E36.38406
G1 X162.03 Y160.79 E36.40283
G1 X162.32 Y160.43 E36.42474
G1 X163.23 Y159.33 E36.49205
G1 X163.90 Y158.23 E36.55280
G1 X163.90 Y158.23 E36.55285
G1 X164.19 Y157.72 E36.58040
G1 X164.61 Y156.67 E36.63389
G1 X164.61 Y156.67 E36.63394
G1 X164.89 Y155.95 E36.67030
G1 X165.00 Y155.50 E36.69224
G1 X165.00 Y155.50 E36.69229
G1 X165.30 Y154.23 E36.75382
G1 X165.32 Y154.09 E36.76019
G1 X165.46 Y152.17 E36.85113
G1 X165.40 Y151.49 E36.88325
G1 X165.30 Y150.25 E36.94212
G1 X165.19 Y149.80 E36.96371
G1 X164.84 Y148.38 E37.03259
G1 X164.10 Y146.59 E37.12415
G1 X163.34 Y145.31 E37.19452
G1 X163.12 Y144.95 E37.21455
G1 X162.29 Y143.97 E37.27499
G1 X161.87 Y143.46 E37.30602
G1 X160.42 Y142.18 E37.39730
G1 X160.10 Y141.98 E37.41490
G1 X158.80 Y141.16 E37.48754
G1 X157.95 Y140.78 E37.53136
G1 X157.03 Y140.38 E37.57882
G1 X155.84 Y140.06 E37.63676
G1 X155.31 Y139.92 E37.66292
G1 X155.19 Y139.89 E37.66861
G1 X154.08 Y139.77 E37.72119
G1 X153.29 Y139.69 E37.75870
G1 X152.85 Y139.71 E37.77924
G1 X151.65 Y139.76 E37.83621
G1 X151.41 Y139.78 E37.84755
G1 X149.56 Y140.17 E37.93672
G1 X148.16 Y140.70 E38.00696
G0 F12000 X148.04 Y140.31
G1 F2700 X147.66 Y140.47 E38.02672
G1 X146.00 Y141.44 E38.11751
G1 X145.54 Y141.81 E38.14497
G1 X144.59 Y142.64 E38.20477
G1 X144.00 Y143.34 E38.24776
G1 X143.68 Y143.77 E38.27313
G1 X144.01 Y144.21 E38.29885
G1 X142.71 Y145.96 E38.40170
G1 X142.28 Y146.67 E38.44064
G1 X142.12 Y146.95 E38.45593
G1 X141.87 Y147.48 E38.48380
G1 X141.62 Y147.99 E38.51044
G1 X141.25 Y149.03 E38.56221
G1 X141.07 Y149.74 E38.59681
G1 X140.95 Y150.20 E38.61942
G1 X140.78 Y151.35 E38.67420
G1 X140.73 Y152.50 E38.72835
G1 X140.73 Y152.51 E38.72911
G1 X140.78 Y153.55 E38.77802
G1 X140.78 Y153.65 E38.78284
G1 X140.92 Y154.57 E38.82651
G1 X141.00 Y154.97 E38.84600
G1 X141.21 Y155.84 E38.88800
G1 X141.57 Y156.86 E38.93930
G1 X141.75 Y157.27 E38.96036
G1 X142.11 Y158.04 E39.00059
G1 X142.71 Y159.05 E39.05573
G1 X143.39 Y159.96 E39.10953
G1 X144.18 Y160.83 E39.16471
G1 X144.96 Y161.54 E39.21442
G1 X145.84 Y162.20 E39.26621
G1 X145.96 Y162.29 E39.27322
G1 X146.96 Y162.89 E39.32815
G1 X147.99 Y163.38 E39.38230
G1 X149.08 Y163.77 E39.43672
G1 X149.89 Y163.97 E39.47624
G1 X150.21 Y164.05 E39.49140
G1 X150.79 Y164.13 E39.51925
G1 X151.29 Y164.21 E39.54310
G1 X151.34 Y164.22 E39.54548
G1 X152.08 Y164.25 E39.58056
G1 X152.50 Y164.28 E39.60044
G1 X153.35 Y164.23 E39.64048
G1 X153.65 Y164.22 E39.65445
G1 X154.72 Y164.06 E39.70561
G1 X154.80 Y164.05 E39.70943
G1 X155.41 Y163.90 E39.73882
G1 X155.41 Y163.90 E39.73887
G1 X156.74 Y163.56 E39.80375
G1 X157.03 Y164.04 E39.83040
G1 X157.56 Y163.97 E39.85561
G1 X159.27 Y163.30 E39.94210
G1 X160.88 Y162.31 E40.03101
G1 X162.00 Y161.34 E40.10095
G1 X162.31 Y161.07 E40.12055
G1 X162.63 Y160.68 E40.14393
G1 X163.56 Y159.57 E40.21228
G1 X164.25 Y158.41 E40.27602
G1 X164.55 Y157.90 E40.30395
G1 X164.98 Y156.82 E40.35887
G1 X164.98 Y156.82 E40.35892
G1 X165.28 Y156.06 E40.39728
G1 X165.39 Y155.59 E40.41999
G1 X165.39 Y155.59 E40.42004
G1 X165.69 Y154.30 E40.48269
G1 X165.72 Y154.16 E40.48960
G1 X165.86 Y152.17 E40.58328
G1 X165.80 Y151.46 E40.61701
G1 X165.80 Y151.46 E40.61706
G1 X165.69 Y150.19 E40.67739
G1 X165.58 Y149.71 E40.70034
G1 X165.22 Y148.26 E40.77068
G1 X164.46 Y146.41 E40.86510
G1 X163.67 Y145.09 E40.93785
G1 X163.44 Y144.71 E40.95874
G1 X162.60 Y143.71 E41.02052
G1 X162.15 Y143.18 E41.05309
G1 X160.66 Y141.86 E41.14724
G1 X160.32 Y141.64 E41.16608
G1 X158.99 Y140.80 E41.24026
G1 X158.11 Y140.42 E41.28551
G1 X157.16 Y140.00 E41.33433
G1 X155.96 Y139.67 E41.39304
G1 X155.27 Y139.49 E41.42696
G1 X154.12 Y139.37 E41.48124
G1 X153.30 Y139.29 E41.52017
G1 X152.84 Y139.31 E41.54213
G1 X151.60 Y139.37 E41.60056
G1 X151.36 Y139.38 E41.61185
G1 X149.44 Y139.79 E41.70421
G1 X148.04 Y140.31 E41.77465
G0 F12000 X147.88 Y139.95
G1 F2700 X147.88 Y139.95 E41.77470
G1 X147.48 Y140.10 E41.79455
G1 X145.77 Y141.11 E41.88840
G1 X145.26 Y141.52 E41.91908
G1 X144.30 Y142.36 E41.97915
G1 X143.68 Y143.09 E42.02412
G1 X143.18 Y143.78 E42.06444
G1 X143.51 Y144.21 E42.08996
G1 X142.38 Y145.74 E42.17970
G1 X141.94 Y146.46 E42.21951
G1 X141.76 Y146.76 E42.23569
G1 X141.50 Y147.31 E42.26451
G1 X141.25 Y147.84 E42.29229
G1 X140.87 Y148.90 E42.34542
G1 X140.68 Y149.63 E42.38108
G1 X140.56 Y150.13 E42.40495
G1 X140.38 Y151.30 E42.46111
G1 X140.33 Y152.47 E42.51635
G1 X140.32 Y152.50 E42.51763
G1 X140.38 Y153.57 E42.56810
G1 X140.38 Y153.70 E42.57415
G1 X140.52 Y154.63 E42.61862
G1 X140.60 Y155.05 E42.63889
G1 X140.83 Y155.96 E42.68278
G1 X141.20 Y157.01 E42.73543
G1 X141.37 Y157.41 E42.75577
G1 X141.76 Y158.24 E42.79923
G1 X142.38 Y159.26 E42.85563
G1 X143.09 Y160.22 E42.91172
G1 X143.89 Y161.11 E42.96824
G1 X144.71 Y161.85 E43.02036
G1 X145.59 Y162.51 E43.07245
G1 X145.74 Y162.62 E43.08087
G1 X146.76 Y163.24 E43.13724
G1 X147.84 Y163.75 E43.19348
G1 X148.97 Y164.15 E43.25026
G1 X149.80 Y164.36 E43.29026
G1 X150.13 Y164.44 E43.30645
G1 X150.73 Y164.53 E43.33515
G1 X151.24 Y164.61 E43.35961
G1 X151.30 Y164.62 E43.36219
G1 X152.06 Y164.65 E43.39830
G1 X152.50 Y164.68 E43.41903
G1 X153.37 Y164.63 E43.46011
G1 X153.70 Y164.62 E43.47541
G1 X154.78 Y164.45 E43.52709
G1 X154.87 Y164.44 E43.53153
G1 X155.50 Y164.28 E43.56209
G1 X156.55 Y164.02 E43.61314
G1 X156.83 Y164.47 E43.63831
G1 X157.67 Y164.35 E43.67829
G1 X159.45 Y163.66 E43.76837
G1 X161.12 Y162.63 E43.86073
G1 X162.26 Y161.65 E43.93197
G1 X162.60 Y161.34 E43.95341
G1 X163.88 Y159.80 E44.04805
G1 X164.59 Y158.62 E44.11314
G1 X164.91 Y158.07 E44.14279
G1 X165.35 Y156.97 E44.19907
G1 X165.35 Y156.97 E44.19911
G1 X165.66 Y156.19 E44.23863
G1 X165.78 Y155.68 E44.26309
G1 X166.08 Y154.39 E44.32569
G1 X166.12 Y154.21 E44.33433
G1 X166.26 Y152.16 E44.43104
G1 X166.20 Y151.43 E44.46576
G1 X166.09 Y150.12 E44.52766
G1 X165.97 Y149.62 E44.55192
G1 X165.61 Y148.14 E44.62395
G1 X164.82 Y146.23 E44.72101
G1 X164.01 Y144.88 E44.79527
G1 X163.77 Y144.48 E44.81767
G1 X162.90 Y143.45 E44.88096
G1 X162.44 Y142.90 E44.91473
G1 X160.90 Y141.54 E45.01182
G1 X160.54 Y141.31 E45.03219
G1 X159.18 Y140.45 E45.10800
G1 X158.27 Y140.05 E45.15459
G1 X157.30 Y139.62 E45.20484
G1 X156.06 Y139.29 E45.26513
G1 X155.34 Y139.10 E45.30050
G1 X154.16 Y138.98 E45.35616
G1 X153.31 Y138.89 E45.39670
G1 X152.82 Y138.91 E45.41987
G1 X151.59 Y138.97 E45.47798
G1 X151.30 Y138.98 E45.49135
G1 X149.33 Y139.40 E45.58631
G1 X147.88 Y139.95 E45.65978
G0 F12000 X147.75 Y139.57
G1 F2700 X147.30 Y139.75 E45.68238
G1 X145.54 Y140.78 E45.77853
G1 X145.03 Y141.20 E45.80979
G1 X144.01 Y142.08 E45.87336
G1 X143.37 Y142.84 E45.92020
G1 X142.81 Y143.62 E45.96538
G1 X142.71 Y143.81 E45.97574
G1 X143.01 Y144.21 E45.99953
G1 X142.04 Y145.52 E46.07609
G1 X141.41 Y146.57 E46.13421
G1 X141.14 Y147.14 E46.16371
G1 X140.88 Y147.69 E46.19248
G1 X140.49 Y148.78 E46.24725
G1 X140.30 Y149.53 E46.28379
G1 X140.17 Y150.05 E46.30902
G1 X139.99 Y151.27 E46.36685
G1 X139.93 Y152.45 E46.42284
G1 X139.93 Y152.51 E46.42544
G1 X139.98 Y153.59 E46.47662
G1 X139.99 Y153.72 E46.48290
G1 X140.13 Y154.72 E46.53028
G1 X140.21 Y155.13 E46.55022
G1 X140.45 Y156.07 E46.59601
G1 X140.82 Y157.15 E46.64970
G1 X141.01 Y157.58 E46.67163
G1 X141.41 Y158.42 E46.71565
G1 X142.05 Y159.49 E46.77460
G1 X142.78 Y160.48 E46.83244
G1 X143.60 Y161.39 E46.89023
G1 X144.46 Y162.16 E46.94482
G1 X145.35 Y162.84 E46.99755
G1 X145.51 Y162.95 E47.00685
G1 X146.58 Y163.59 E47.06552
G1 X147.69 Y164.12 E47.12326
G1 X148.85 Y164.53 E47.18165
G1 X149.70 Y164.75 E47.22282
G1 X150.06 Y164.84 E47.24013
G1 X150.67 Y164.93 E47.26954
G1 X151.18 Y165.00 E47.29367
G1 X151.27 Y165.01 E47.29786
G1 X152.04 Y165.05 E47.33455
G1 X152.50 Y165.08 E47.35622
G1 X153.39 Y165.03 E47.39829
G1 X153.73 Y165.01 E47.41439
G1 X154.84 Y164.85 E47.46703
G1 X154.96 Y164.83 E47.47279
G1 X155.60 Y164.67 E47.50375
G1 X156.37 Y164.48 E47.54115
G1 X156.63 Y164.91 E47.56492
G1 X157.76 Y164.74 E47.61882
G1 X157.77 Y164.74 E47.61954
G1 X159.63 Y164.02 E47.71361
G1 X161.35 Y162.96 E47.80865
G1 X162.52 Y161.95 E47.88166
G1 X162.89 Y161.62 E47.90484
G1 X164.21 Y160.03 E48.00263
G1 X164.93 Y158.83 E48.06850
G1 X164.93 Y158.83 E48.06855
G1 X165.27 Y158.25 E48.10025
G1 X166.04 Y156.30 E48.19918
G1 X166.17 Y155.77 E48.22476
G1 X166.47 Y154.48 E48.28736
G1 X166.52 Y154.27 E48.29750
G1 X166.66 Y152.16 E48.39704
G1 X166.60 Y151.40 E48.43327
G1 X166.49 Y150.06 E48.49664
G1 X166.36 Y149.54 E48.52186
G1 X166.36 Y149.54 E48.52191
G1 X165.99 Y148.01 E48.59612
G1 X165.18 Y146.05 E48.69585
G1 X164.36 Y144.68 E48.77153
G1 X164.09 Y144.24 E48.79559
G1 X162.73 Y142.62 E48.89530
G1 X161.15 Y141.22 E48.99507
G1 X160.75 Y140.97 E49.01711
G1 X159.37 Y140.09 E49.09449
G1 X158.43 Y139.68 E49.14249
G1 X157.43 Y139.24 E49.19411
G1 X156.16 Y138.90 E49.25606
G1 X155.41 Y138.70 E49.29299
G1 X153.32 Y138.49 E49.39194
G1 X152.80 Y138.51 E49.41644
G1 X151.57 Y138.56 E49.47436
G1 X151.25 Y138.59 E49.48967
G1 X149.22 Y139.02 E49.58771
G1 X147.75 Y139.57 E49.66163
G0 F12000 X147.60 Y139.20
G1 F2700 X147.12 Y139.39 E49.68576
G1 X145.32 Y140.45 E49.78443
G1 X144.76 Y140.90 E49.81830
G1 X143.73 Y141.80 E49.88285
G1 X143.05 Y142.59 E49.93196
G1 X142.47 Y143.40 E49.97900
G1 X142.25 Y143.81 E50.00098
G1 X142.23 Y144.01 E50.01054
G1 X142.33 Y143.98 E50.01569
G1 X142.51 Y144.22 E50.02983
G1 X141.72 Y145.28 E50.09259
G1 X141.71 Y145.29 E50.09283
G1 X141.05 Y146.39 E50.15353
G1 X140.51 Y147.54 E50.21332
G1 X140.11 Y148.66 E50.26949
G1 X139.91 Y149.43 E50.30715
G1 X139.78 Y149.97 E50.33316
G1 X139.59 Y151.23 E50.39318
G1 X139.53 Y152.43 E50.44998
G1 X139.53 Y152.50 E50.45338
G1 X139.59 Y153.77 E50.51339
G1 X139.74 Y154.78 E50.56125
G1 X139.82 Y155.22 E50.58247
G1 X140.06 Y156.19 E50.62944
G1 X140.45 Y157.29 E50.68468
G1 X140.65 Y157.75 E50.70814
G1 X141.06 Y158.62 E50.75343
G1 X141.71 Y159.71 E50.81363
G1 X142.47 Y160.74 E50.87376
G1 X143.32 Y161.68 E50.93359
G1 X144.20 Y162.47 E50.98911
G1 X145.12 Y163.16 E51.04329
G1 X145.29 Y163.29 E51.05346
G1 X146.38 Y163.94 E51.11372
G1 X147.54 Y164.49 E51.17413
G1 X148.73 Y164.92 E51.23368
G1 X149.97 Y165.22 E51.29371
G1 X151.12 Y165.40 E51.34893
G1 X151.22 Y165.41 E51.35373
G1 X152.50 Y165.48 E51.41394
G1 X153.77 Y165.41 E51.47404
G1 X155.03 Y165.22 E51.53416
G1 X156.18 Y164.94 E51.58975
G1 X156.33 Y165.19 E51.60358
G1 X156.23 Y165.31 E51.61090
G1 X156.41 Y165.35 E51.61940
G1 X157.81 Y165.14 E51.68631
G1 X157.89 Y165.13 E51.69009
G1 X159.81 Y164.38 E51.78732
G1 X161.59 Y163.28 E51.88580
G1 X162.78 Y162.26 E51.95992
G1 X163.18 Y161.90 E51.98533
G1 X164.54 Y160.26 E52.08583
G1 X165.28 Y159.03 E52.15335
G1 X165.28 Y159.03 E52.15340
G1 X165.63 Y158.42 E52.18657
G1 X166.43 Y156.43 E52.28794
G1 X166.86 Y154.57 E52.37786
G1 X166.86 Y154.57 E52.37791
G1 X166.91 Y154.33 E52.38950
G1 X167.06 Y152.16 E52.49206
G1 X166.88 Y150.00 E52.59412
G1 X166.75 Y149.44 E52.62143
G1 X166.37 Y147.89 E52.69671
G1 X165.54 Y145.88 E52.79929
G1 X164.70 Y144.47 E52.87651
G1 X164.42 Y144.01 E52.90210
G1 X163.01 Y142.34 E53.00492
G1 X161.38 Y140.90 E53.10748
G1 X160.97 Y140.63 E53.13073
G1 X159.55 Y139.74 E53.21000
G1 X157.57 Y138.86 E53.31213
G1 X156.26 Y138.51 E53.37573
G1 X155.48 Y138.31 E53.41413
G1 X153.33 Y138.09 E53.51568
G1 X151.55 Y138.17 E53.60004
G1 X151.19 Y138.19 E53.61676
G1 X149.10 Y138.64 E53.71770
G1 X147.60 Y139.20 E53.79334
G0 F12000 X145.72 Y136.13
G1 F2700 X149.04 Y135.12 E53.95714
G1 X152.30 Y134.80 E54.11142
G1 X152.30 Y133.27 E54.18367
G1 X153.13 Y133.29 E54.22286
G1 X153.09 Y134.26 E54.26865
G1 X153.09 Y134.26 E54.26899
G1 X153.09 Y134.84 E54.29615
G1 X155.96 Y135.12 E54.43209
G1 X159.28 Y136.13 E54.59589
G1 X162.34 Y137.77 E54.75973
G1 X165.03 Y139.97 E54.92351
G1 X167.23 Y142.66 E55.08728
G1 X168.87 Y145.72 E55.25112
G1 X169.88 Y149.04 E55.41492
G1 X170.22 Y152.50 E55.57868
G1 X169.88 Y155.96 E55.74244
G1 X168.87 Y159.28 E55.90624
G1 X167.23 Y162.34 E56.07008
G1 X165.03 Y165.03 E56.23386
G1 X162.34 Y167.23 E56.39763
G1 X159.28 Y168.87 E56.56147
G1 X155.96 Y169.88 E56.72527
G1 X152.70 Y170.20 E56.87955
G1 X152.70 Y171.73 E56.95180
G1 X151.87 Y171.71 E56.99099
G1 X151.91 Y170.74 E57.03678
G1 X151.91 Y170.74 E57.03712
G1 X151.91 Y170.16 E57.06428
G1 X149.04 Y169.88 E57.20023
G1 X145.72 Y168.87 E57.36402
G1 X142.66 Y167.23 E57.52786
G1 X139.97 Y165.03 E57.69164
G1 X137.77 Y162.34 E57.85541
G1 X136.13 Y159.28 E58.01925
G1 X135.12 Y155.96 E58.18305
G1 X134.78 Y152.50 E58.34681
G1 X135.12 Y149.04 E58.51058
G1 X136.13 Y145.72 E58.67437
G1 X137.77 Y142.66 E58.83821
G1 X139.97 Y139.97 E59.00199
G1 X142.66 Y137.77 E59.16576
G1 X145.72 Y136.13 E59.32960
G0 F12000 X145.41 Y135.39
G1 F2700 X148.60 Y134.42 E59.48656
G1 X148.89 Y134.33 E59.50080
G1 X151.50 Y134.08 E59.62466
G1 X151.50 Y132.45 E59.70129
G1 X153.97 Y132.50 E59.81770
G1 X153.89 Y134.12 E59.89376
G1 X156.11 Y134.33 E59.99885
G1 X159.35 Y135.32 E60.15838
G1 X159.59 Y135.39 E60.17005
G1 X162.55 Y136.97 E60.32876
G1 X162.79 Y137.10 E60.34131
G1 X164.90 Y138.83 E60.47021
G1 X165.38 Y139.23 E60.49953
G1 X165.60 Y139.40 E60.51253
G1 X167.90 Y142.21 E60.68382
G1 X169.61 Y145.41 E60.85508
G1 X170.51 Y148.37 E61.00056
G1 X170.67 Y148.89 E61.02630
G1 X171.02 Y152.50 E61.19749
G1 X170.67 Y156.11 E61.36869
G1 X169.61 Y159.59 E61.53990
G1 X168.08 Y162.46 E61.69328
G1 X167.90 Y162.79 E61.71121
G1 X165.82 Y165.32 E61.86564
G1 X165.60 Y165.60 E61.88236
G1 X162.79 Y167.90 E62.05361
G1 X159.87 Y169.46 E62.20985
G1 X159.59 Y169.61 E62.22483
G1 X156.40 Y170.58 E62.38179
G1 X156.11 Y170.67 E62.39603
G1 X153.50 Y170.92 E62.51989
G1 X153.50 Y172.55 E62.59652
G1 X151.03 Y172.50 E62.71293
G1 X151.11 Y170.88 E62.78894
G1 X150.28 Y170.80 E62.82803
G1 X149.10 Y170.69 E62.88376
G1 X149.10 Y170.69 E62.88381
G1 X148.89 Y170.67 E62.89404
G1 X145.65 Y169.68 E63.05362
G1 X145.41 Y169.61 E63.06528
G1 X142.44 Y168.03 E63.22410
G1 X142.21 Y167.90 E63.23655
G1 X140.10 Y166.17 E63.36545
G1 X139.61 Y165.77 E63.39500
G1 X139.40 Y165.60 E63.40777
G1 X137.10 Y162.79 E63.57906
G1 X135.39 Y159.59 E63.75032
G1 X134.49 Y156.63 E63.89585
G1 X134.33 Y156.11 E63.92153
G1 X133.98 Y152.50 E64.09273
G1 X134.33 Y148.89 E64.26393
G1 X135.39 Y145.41 E64.43514
G1 X136.92 Y142.54 E64.58852
G1 X137.10 Y142.21 E64.60645
G1 X139.18 Y139.68 E64.76088
G1 X139.40 Y139.40 E64.77760
G1 X142.21 Y137.10 E64.94885
G1 X145.13 Y135.54 E65.10509
G1 X145.41 Y135.39 E65.12007
G0 F12000 X145.26 Y135.02
G1 F2700 X148.48 Y134.04 E65.27871
G1 X148.81 Y133.94 E65.29498
G1 X151.10 Y133.71 E65.40363
G1 X151.10 Y132.04 E65.48238
G1 X154.39 Y132.11 E65.63742
G1 X154.31 Y133.75 E65.71489
G1 X156.19 Y133.94 E65.80397
G1 X157.98 Y134.48 E65.89193
G1 X159.46 Y134.93 E65.96508
G1 X159.74 Y135.01 E65.97881
G1 X161.93 Y136.19 E66.09592
G1 X162.74 Y136.62 E66.13934
G1 X163.01 Y136.76 E66.15381
G1 X165.16 Y138.52 E66.28462
G1 X165.63 Y138.92 E66.31389
G1 X165.63 Y138.92 E66.31394
G1 X165.88 Y139.12 E66.32882
G1 X167.74 Y141.39 E66.46743
G1 X168.12 Y141.84 E66.49494
G1 X168.24 Y141.99 E66.50388
G1 X169.98 Y145.26 E66.67884
G1 X170.89 Y148.25 E66.82613
G1 X171.06 Y148.81 E66.85374
G1 X171.42 Y152.50 E67.02868
G1 X171.11 Y155.71 E67.18084
G1 X171.06 Y156.19 E67.20363
G1 X169.98 Y159.74 E67.37852
G1 X168.43 Y162.65 E67.53380
G1 X168.23 Y163.01 E67.55359
G1 X166.13 Y165.57 E67.70982
G1 X165.88 Y165.88 E67.72842
G1 X163.30 Y168.00 E67.88572
G1 X163.01 Y168.24 E67.90342
G1 X160.06 Y169.81 E68.06148
G1 X159.74 Y169.98 E68.07831
G1 X156.52 Y170.96 E68.23695
G1 X156.19 Y171.06 E68.25322
G1 X153.90 Y171.29 E68.36187
G1 X153.90 Y172.96 E68.44062
G1 X150.61 Y172.89 E68.59566
G1 X150.69 Y171.25 E68.67313
G1 X150.24 Y171.20 E68.69431
G1 X149.07 Y171.09 E68.74999
G1 X149.07 Y171.09 E68.75004
G1 X148.81 Y171.06 E68.76217
G1 X147.02 Y170.52 E68.85021
G1 X145.53 Y170.07 E68.92371
G1 X145.26 Y169.99 E68.93710
G1 X143.07 Y168.81 E69.05421
G1 X142.26 Y168.38 E69.09762
G1 X141.99 Y168.24 E69.11210
G1 X139.84 Y166.48 E69.24290
G1 X139.37 Y166.08 E69.27218
G1 X139.37 Y166.08 E69.27223
G1 X139.12 Y165.88 E69.28711
G1 X137.25 Y163.61 E69.42579
G1 X136.88 Y163.16 E69.45322
G1 X136.76 Y163.01 E69.46217
G1 X135.02 Y159.74 E69.63713
G1 X134.11 Y156.75 E69.78452
G1 X133.94 Y156.19 E69.81203
G1 X133.58 Y152.50 E69.98697
G1 X133.89 Y149.29 E70.13912
G1 X133.94 Y148.81 E70.16191
G1 X135.02 Y145.26 E70.33681
G1 X136.57 Y142.35 E70.49208
G1 X136.77 Y141.99 E70.51187
G1 X138.87 Y139.43 E70.66811
G1 X139.12 Y139.12 E70.68670
G1 X141.70 Y137.00 E70.84401
G1 X141.99 Y136.76 E70.86170
G1 X144.94 Y135.19 E71.01976
G1 X145.26 Y135.02 E71.03660
G0 F12000 X145.10 Y134.65
G1 F2700 X148.37 Y133.66 E71.19729
G1 X148.73 Y133.54 E71.21519
G1 X150.70 Y133.35 E71.30863
G1 X150.70 Y131.63 E71.38960
G1 X154.81 Y131.72 E71.58322
G1 X154.73 Y133.39 E71.66211
G1 X156.27 Y133.54 E71.73517
G1 X158.09 Y134.10 E71.82496
G1 X158.93 Y134.35 E71.86631
G1 X159.57 Y134.55 E71.89801
G1 X159.57 Y134.55 E71.89806
G1 X159.89 Y134.64 E71.91371
G1 X162.12 Y135.83 E72.03274
G1 X162.93 Y136.27 E72.07612
G1 X163.24 Y136.43 E72.09244
G1 X165.41 Y138.22 E72.22516
G1 X165.90 Y138.61 E72.25478
G1 X166.16 Y138.83 E72.27110
G1 X168.05 Y141.14 E72.41159
G1 X168.42 Y141.59 E72.43913
G1 X168.57 Y141.76 E72.44988
G1 X170.35 Y145.10 E72.62857
G1 X171.27 Y148.13 E72.77774
G1 X171.46 Y148.73 E72.80717
G1 X171.83 Y152.50 E72.98586
G1 X171.51 Y155.75 E73.13991
G1 X171.46 Y156.27 E73.16450
G1 X170.50 Y159.43 E73.32023
G1 X170.35 Y159.90 E73.34318
G1 X168.78 Y162.83 E73.50027
G1 X168.57 Y163.24 E73.52190
G1 X166.44 Y165.83 E73.68001
G1 X166.17 Y166.16 E73.70042
G1 X163.56 Y168.31 E73.85963
G1 X163.24 Y168.57 E73.87917
G1 X160.25 Y170.17 E74.03911
G1 X160.25 Y170.17 E74.03916
G1 X159.90 Y170.35 E74.05785
G1 X156.63 Y171.34 E74.21855
G1 X156.27 Y171.46 E74.23645
G1 X154.30 Y171.65 E74.32989
G1 X154.30 Y173.37 E74.41085
G1 X150.19 Y173.28 E74.60448
G1 X150.27 Y171.61 E74.68336
G1 X150.20 Y171.60 E74.68668
G1 X149.03 Y171.48 E74.74226
G1 X148.73 Y171.46 E74.75628
G1 X146.91 Y170.90 E74.84622
G1 X146.07 Y170.65 E74.88757
G1 X145.43 Y170.45 E74.91927
G1 X145.43 Y170.45 E74.91932
G1 X145.11 Y170.36 E74.93497
G1 X142.88 Y169.17 E75.05400
G1 X142.06 Y168.73 E75.09769
G1 X141.76 Y168.57 E75.11370
G1 X139.59 Y166.78 E75.24642
G1 X139.10 Y166.39 E75.27603
G1 X138.84 Y166.17 E75.29235
G1 X136.95 Y163.86 E75.43291
G1 X136.58 Y163.41 E75.46039
G1 X136.43 Y163.24 E75.47114
G1 X134.65 Y159.90 E75.64983
G1 X133.73 Y156.87 E75.79910
G1 X133.54 Y156.27 E75.82843
G1 X133.17 Y152.50 E76.00712
G1 X133.49 Y149.25 E76.16116
G1 X133.54 Y148.73 E76.18576
G1 X134.50 Y145.57 E76.34148
G1 X134.65 Y145.10 E76.36444
G1 X136.22 Y142.17 E76.52153
G1 X136.43 Y141.76 E76.54316
G1 X138.56 Y139.17 E76.70127
G1 X138.83 Y138.84 E76.72168
G1 X141.44 Y136.69 E76.88089
G1 X141.76 Y136.43 E76.90043
G1 X144.75 Y134.83 E77.06037
G1 X144.75 Y134.83 E77.06042
G1 X145.10 Y134.65 E77.07911
G0 F12000 X144.95 Y134.27
G1 F2700 X148.24 Y133.28 E77.24137
G1 X148.24 Y133.28 E77.24142
G1 X148.65 Y133.15 E77.26144
G1 X150.30 Y132.99 E77.33967
G1 X150.30 Y131.23 E77.42276
G1 X155.22 Y131.33 E77.65497
G1 X155.15 Y133.03 E77.73522
G1 X156.35 Y133.15 E77.79222
G1 X158.21 Y133.72 E77.88388
G1 X159.05 Y133.97 E77.92523
G1 X159.69 Y134.16 E77.95683
G1 X160.04 Y134.27 E77.97439
G1 X162.31 Y135.48 E78.09534
G1 X163.12 Y135.92 E78.13905
G1 X163.46 Y136.09 E78.15688
G1 X165.66 Y137.91 E78.29147
G1 X166.15 Y138.31 E78.32109
G1 X166.45 Y138.55 E78.33922
G1 X168.36 Y140.88 E78.48169
G1 X168.36 Y140.88 E78.48175
G1 X168.73 Y141.33 E78.50919
G1 X168.90 Y141.54 E78.52182
G1 X170.73 Y144.95 E78.70421
G1 X171.66 Y148.01 E78.85519
G1 X171.66 Y148.01 E78.85524
G1 X171.85 Y148.65 E78.88658
G1 X172.23 Y152.50 E79.06896
G1 X171.90 Y155.79 E79.22486
G1 X171.85 Y156.35 E79.25135
G1 X170.88 Y159.55 E79.40890
G1 X170.73 Y160.05 E79.43369
G1 X169.14 Y163.02 E79.59263
G1 X168.90 Y163.46 E79.61618
G1 X166.75 Y166.08 E79.77613
G1 X166.45 Y166.45 E79.79838
G1 X163.81 Y168.62 E79.95948
G1 X163.46 Y168.90 E79.98086
G1 X160.43 Y170.52 E80.14261
G1 X160.05 Y170.73 E80.16316
G1 X156.76 Y171.72 E80.32542
G1 X156.76 Y171.72 E80.32547
G1 X156.35 Y171.85 E80.34549
G1 X154.70 Y172.01 E80.42372
G1 X154.70 Y173.77 E80.50681
G1 X149.78 Y173.67 E80.73901
G1 X149.85 Y171.97 E80.81931
G1 X148.99 Y171.88 E80.86025
G1 X148.66 Y171.85 E80.87612
G1 X146.79 Y171.28 E80.96797
G1 X145.95 Y171.03 E81.00932
G1 X145.30 Y170.83 E81.04141
G1 X144.96 Y170.73 E81.05848
G1 X142.69 Y169.52 E81.17943
G1 X141.88 Y169.08 E81.22315
G1 X141.54 Y168.91 E81.24097
G1 X139.34 Y167.09 E81.37556
G1 X138.85 Y166.69 E81.40518
G1 X138.55 Y166.45 E81.42331
G1 X136.64 Y164.12 E81.56578
G1 X136.64 Y164.12 E81.56585
G1 X136.27 Y163.67 E81.59328
G1 X136.10 Y163.46 E81.60591
G1 X134.27 Y160.05 E81.78830
G1 X133.34 Y156.99 E81.93928
G1 X133.34 Y156.99 E81.93933
G1 X133.15 Y156.35 E81.97067
G1 X132.77 Y152.50 E82.15306
G1 X133.10 Y149.21 E82.30895
G1 X133.15 Y148.65 E82.33544
G1 X134.12 Y145.45 E82.49299
G1 X134.27 Y144.95 E82.51778
G1 X135.86 Y141.98 E82.67673
G1 X136.10 Y141.54 E82.70027
G1 X138.25 Y138.92 E82.86022
G1 X138.55 Y138.55 E82.88247
G1 X141.19 Y136.38 E83.04357
G1 X141.54 Y136.10 E83.06495
G1 X144.57 Y134.48 E83.22670
G1 X144.95 Y134.27 E83.24725
G0 F12000 X144.80 Y133.90
G1 F2700 X148.13 Y132.89 E83.41169
G1 X148.57 Y132.76 E83.43325
G1 X149.90 Y132.63 E83.49627
G1 X149.90 Y130.82 E83.58153
G1 X155.64 Y130.94 E83.85236
G1 X155.56 Y132.67 E83.93413
G1 X156.43 Y132.76 E83.97507
G1 X158.32 Y133.33 E84.06863
G1 X159.16 Y133.59 E84.10995
G1 X159.16 Y133.59 E84.11000
G1 X159.81 Y133.78 E84.14213
G1 X159.81 Y133.79 E84.14218
G1 X160.20 Y133.90 E84.16103
G1 X162.50 Y135.13 E84.28383
G1 X163.30 Y135.56 E84.32712
G1 X163.30 Y135.56 E84.32717
G1 X163.68 Y135.76 E84.34725
G1 X165.92 Y137.60 E84.48379
G1 X166.39 Y137.99 E84.51287
G1 X166.73 Y138.26 E84.53338
G1 X168.67 Y140.63 E84.67769
G1 X168.67 Y140.63 E84.67776
G1 X169.04 Y141.08 E84.70519
G1 X169.24 Y141.32 E84.71970
G1 X171.10 Y144.80 E84.90580
G1 X172.04 Y147.90 E85.05865
G1 X172.24 Y148.57 E85.09183
G1 X172.63 Y152.50 E85.27796
G1 X172.30 Y155.83 E85.43570
G1 X172.24 Y156.43 E85.46404
G1 X171.26 Y159.66 E85.62350
G1 X171.10 Y160.20 E85.65012
G1 X169.49 Y163.21 E85.81095
G1 X169.24 Y163.69 E85.83631
G1 X167.06 Y166.34 E85.99814
G1 X166.74 Y166.73 E86.02220
G1 X164.06 Y168.93 E86.18517
G1 X163.68 Y169.24 E86.20842
G1 X160.62 Y170.87 E86.37207
G1 X160.20 Y171.10 E86.39443
G1 X156.87 Y172.11 E86.55887
G1 X156.43 Y172.24 E86.58043
G1 X155.10 Y172.37 E86.64345
G1 X155.10 Y174.18 E86.72871
G1 X149.36 Y174.06 E86.99955
G1 X149.44 Y172.33 E87.08131
G1 X148.94 Y172.28 E87.10467
G1 X148.94 Y172.28 E87.10472
G1 X148.58 Y172.25 E87.12210
G1 X146.68 Y171.67 E87.21587
G1 X145.84 Y171.41 E87.25719
G1 X145.84 Y171.41 E87.25724
G1 X145.19 Y171.22 E87.28937
G1 X145.19 Y171.21 E87.28942
G1 X144.80 Y171.10 E87.30826
G1 X142.50 Y169.87 E87.43107
G1 X141.70 Y169.44 E87.47436
G1 X141.70 Y169.44 E87.47441
G1 X141.32 Y169.24 E87.49449
G1 X139.08 Y167.40 E87.63103
G1 X138.60 Y167.00 E87.66065
G1 X138.27 Y166.74 E87.68062
G1 X136.33 Y164.37 E87.82493
G1 X136.33 Y164.37 E87.82499
G1 X135.96 Y163.92 E87.85243
G1 X135.76 Y163.68 E87.86694
G1 X133.90 Y160.20 E88.05304
G1 X132.96 Y157.10 E88.20599
G1 X132.76 Y156.43 E88.23907
G1 X132.37 Y152.50 E88.42519
G1 X132.70 Y149.17 E88.58294
G1 X132.76 Y148.57 E88.61128
G1 X133.74 Y145.34 E88.77074
G1 X133.90 Y144.80 E88.79736
G1 X135.51 Y141.79 E88.95818
G1 X135.76 Y141.31 E88.98354
G1 X137.94 Y138.66 E89.14537
G1 X138.26 Y138.27 E89.16944
G1 X140.94 Y136.07 E89.33241
G1 X141.32 Y135.76 E89.35566
G1 X144.38 Y134.13 E89.51931
G1 X144.80 Y133.90 E89.54167
G0 F12000 X144.64 Y133.53
G1 F2700 X148.02 Y132.51 E89.70793
G1 X148.49 Y132.36 E89.73135
G1 X149.50 Y132.26 E89.77916
G1 X149.50 Y130.41 E89.86664
G1 X156.06 Y130.55 E90.17606
G1 X155.98 Y132.31 E90.25919
G1 X156.50 Y132.36 E90.28412
G1 X158.44 Y132.95 E90.37953
G1 X159.28 Y133.21 E90.42084
G1 X159.28 Y133.20 E90.42088
G1 X159.93 Y133.40 E90.45302
G1 X160.35 Y133.53 E90.47370
G1 X162.68 Y134.78 E90.59844
G1 X163.50 Y135.21 E90.64213
G1 X163.90 Y135.43 E90.66361
G1 X166.17 Y137.29 E90.80203
G1 X166.65 Y137.68 E90.83104
G1 X167.01 Y137.98 E90.85343
G1 X168.98 Y140.37 E90.99952
G1 X169.35 Y140.82 E91.02706
G1 X169.57 Y141.09 E91.04344
G1 X171.47 Y144.64 E91.23329
G1 X172.42 Y147.78 E91.38793
G1 X172.64 Y148.49 E91.42303
G1 X173.03 Y152.50 E91.61285
G1 X172.70 Y155.87 E91.77248
G1 X172.64 Y156.51 E91.80267
G1 X171.65 Y159.78 E91.96395
G1 X171.47 Y160.36 E91.99244
G1 X169.84 Y163.40 E92.15514
G1 X169.57 Y163.91 E92.18238
G1 X167.37 Y166.59 E92.34585
G1 X167.02 Y167.02 E92.37195
G1 X164.32 Y169.23 E92.53677
G1 X163.91 Y169.57 E92.56190
G1 X160.81 Y171.23 E92.72738
G1 X160.36 Y171.47 E92.75162
G1 X156.98 Y172.49 E92.91788
G1 X156.51 Y172.64 E92.94130
G1 X155.50 Y172.74 E92.98911
G1 X155.50 Y174.59 E93.07659
G1 X148.94 Y174.45 E93.38601
G1 X149.02 Y172.69 E93.46919
G1 X148.91 Y172.68 E93.47464
G1 X148.50 Y172.64 E93.49387
G1 X146.56 Y172.05 E93.58952
G1 X145.72 Y171.79 E93.63083
G1 X145.72 Y171.80 E93.63088
G1 X145.07 Y171.60 E93.66301
G1 X144.65 Y171.47 E93.68369
G1 X142.32 Y170.22 E93.80843
G1 X141.50 Y169.79 E93.85213
G1 X141.10 Y169.57 E93.87360
G1 X138.83 Y167.71 E94.01202
G1 X138.34 Y167.31 E94.04170
G1 X137.99 Y167.02 E94.06342
G1 X136.02 Y164.62 E94.20964
G1 X135.65 Y164.18 E94.23705
G1 X135.43 Y163.91 E94.25343
G1 X133.53 Y160.36 E94.44328
G1 X132.58 Y157.22 E94.59807
G1 X132.36 Y156.51 E94.63302
G1 X131.97 Y152.50 E94.82284
G1 X132.30 Y149.13 E94.98248
G1 X132.36 Y148.49 E95.01266
G1 X133.35 Y145.22 E95.17394
G1 X133.53 Y144.64 E95.20243
G1 X135.16 Y141.60 E95.36513
G1 X135.43 Y141.09 E95.39237
G1 X137.63 Y138.41 E95.55584
G1 X137.98 Y137.98 E95.58194
G1 X140.68 Y135.77 E95.74676
G1 X141.09 Y135.43 E95.77189
G1 X144.19 Y133.77 E95.93737
G1 X144.64 Y133.53 E95.96161
G0 F12000 X144.49 Y133.16
G1 F2700 X147.90 Y132.12 E96.12975
G1 X147.90 Y132.13 E96.12980
G1 X148.41 Y131.97 E96.15510
G1 X149.10 Y131.90 E96.18765
G1 X149.10 Y130.00 E96.27725
G1 X156.48 Y130.16 E96.62530
G1 X156.40 Y131.95 E96.70990
G1 X156.58 Y131.97 E96.71876
G1 X158.56 Y132.57 E96.81604
G1 X159.40 Y132.82 E96.85743
G1 X159.40 Y132.82 E96.85748
G1 X160.03 Y133.01 E96.88877
G1 X160.50 Y133.16 E96.91200
G1 X162.87 Y134.42 E97.03866
G1 X163.68 Y134.85 E97.08179
G1 X164.13 Y135.09 E97.10564
G1 X166.43 Y136.98 E97.24600
G1 X166.90 Y137.37 E97.27491
G1 X167.30 Y137.69 E97.29921
G1 X169.29 Y140.12 E97.44714
G1 X169.66 Y140.57 E97.47468
G1 X169.91 Y140.87 E97.49294
G1 X171.84 Y144.49 E97.68648
G1 X172.80 Y147.67 E97.84300
G1 X173.03 Y148.41 E97.87992
G1 X173.43 Y152.50 E98.07349
G1 X173.10 Y155.91 E98.23497
G1 X173.03 Y156.59 E98.26705
G1 X172.03 Y159.90 E98.43016
G1 X171.84 Y160.51 E98.46052
G1 X170.20 Y163.59 E98.62508
G1 X169.90 Y164.13 E98.65415
G1 X167.68 Y166.84 E98.81967
G1 X167.68 Y166.84 E98.81974
G1 X167.30 Y167.30 E98.84752
G1 X164.57 Y169.54 E99.01424
G1 X164.13 Y169.91 E99.04118
G1 X161.00 Y171.58 E99.20855
G1 X160.51 Y171.84 E99.23460
G1 X157.10 Y172.88 E99.40274
G1 X157.10 Y172.87 E99.40279
G1 X156.59 Y173.03 E99.42809
G1 X155.90 Y173.10 E99.46064
G1 X155.90 Y175.00 E99.55024
G1 X148.52 Y174.84 E99.89829
G1 X148.60 Y173.05 E99.98284
G1 X148.42 Y173.03 E99.99141
G1 X146.44 Y172.43 E100.08899
G1 X145.60 Y172.18 E100.13039
G1 X145.60 Y172.18 E100.13043
G1 X144.97 Y171.99 E100.16172
G1 X144.50 Y171.84 E100.18495
G1 X142.13 Y170.58 E100.31161
G1 X141.31 Y170.14 E100.35533
G1 X140.87 Y169.91 E100.37860
G1 X138.57 Y168.02 E100.51896
G1 X138.09 Y167.62 E100.54860
G1 X137.70 Y167.31 E100.57216
G1 X135.71 Y164.88 E100.72023
G1 X135.34 Y164.43 E100.74763
G1 X135.09 Y164.13 E100.76589
G1 X133.16 Y160.51 E100.95944
G1 X132.19 Y157.33 E101.11610
G1 X131.97 Y156.59 E101.15287
G1 X131.57 Y152.50 E101.34644
G1 X131.90 Y149.09 E101.50792
G1 X131.97 Y148.41 E101.54000
G1 X132.97 Y145.10 E101.70312
G1 X133.16 Y144.49 E101.73347
G1 X134.80 Y141.41 E101.89803
G1 X135.10 Y140.87 E101.92710
G1 X137.32 Y138.16 E102.09262
G1 X137.32 Y138.16 E102.09269
G1 X137.70 Y137.70 E102.12047
G1 X140.43 Y135.46 E102.28719
G1 X140.87 Y135.09 E102.31413
G1 X144.00 Y133.42 E102.48150
G1 X144.49 Y133.16 E102.50755
G0 F12000 X144.33 Y132.79
G1 F2700 X147.78 Y131.75 E102.67711
G1 X147.78 Y131.75 E102.67716
G1 X148.33 Y131.57 E102.70472
G1 X148.70 Y131.54 E102.72207
G1 X148.70 Y129.59 E102.81384
G1 X156.90 Y129.77 E103.20047
G1 X156.81 Y131.62 E103.28790
G1 X158.67 Y132.18 E103.37966
G1 X159.51 Y132.44 E103.42092
G1 X160.16 Y132.64 E103.45305
G1 X160.66 Y132.78 E103.47736
G1 X163.06 Y134.07 E103.60590
G1 X163.87 Y134.50 E103.64896
G1 X164.35 Y134.76 E103.67474
G1 X166.68 Y136.67 E103.81701
G1 X167.17 Y137.07 E103.84669
G1 X167.58 Y137.41 E103.87202
G1 X169.60 Y139.87 E104.02183
G1 X169.97 Y140.32 E104.04937
G1 X170.24 Y140.65 E104.06951
G1 X172.21 Y144.34 E104.26677
G1 X173.19 Y147.55 E104.42509
G1 X173.43 Y148.34 E104.46389
G1 X173.84 Y152.50 E104.66120
G1 X173.50 Y155.95 E104.82453
G1 X173.43 Y156.66 E104.85846
G1 X172.41 Y160.01 E105.02345
G1 X172.21 Y160.66 E105.05569
G1 X170.55 Y163.78 E105.22208
G1 X170.24 Y164.36 E105.25305
G1 X167.99 Y167.10 E105.42041
G1 X167.59 Y167.58 E105.45000
G1 X164.82 Y169.85 E105.61860
G1 X164.35 Y170.24 E105.64745
G1 X161.19 Y171.93 E105.81660
G1 X160.67 Y172.21 E105.84453
G1 X157.22 Y173.25 E106.01409
G1 X157.22 Y173.25 E106.01414
G1 X156.67 Y173.43 E106.04171
G1 X156.30 Y173.46 E106.05905
G1 X156.30 Y175.41 E106.15082
G1 X148.10 Y175.23 E106.53745
G1 X148.19 Y173.38 E106.62492
G1 X146.33 Y172.82 E106.71667
G1 X145.49 Y172.56 E106.75793
G1 X144.84 Y172.36 E106.79006
G1 X144.34 Y172.22 E106.81437
G1 X141.94 Y170.93 E106.94291
G1 X141.12 Y170.49 E106.98667
G1 X140.65 Y170.24 E107.01175
G1 X138.32 Y168.33 E107.15402
G1 X137.83 Y167.93 E107.18370
G1 X137.42 Y167.59 E107.20904
G1 X135.40 Y165.13 E107.35898
G1 X135.03 Y164.68 E107.38639
G1 X134.76 Y164.35 E107.40652
G1 X132.79 Y160.66 E107.60378
G1 X131.81 Y157.45 E107.76230
G1 X131.57 Y156.66 E107.80091
G1 X131.16 Y152.50 E107.99821
G1 X131.50 Y149.05 E108.16154
G1 X131.57 Y148.34 E108.19547
G1 X132.59 Y144.99 E108.36046
G1 X132.79 Y144.34 E108.39270
G1 X134.45 Y141.22 E108.55909
G1 X134.76 Y140.64 E108.59006
G1 X137.01 Y137.90 E108.75743
G1 X137.41 Y137.42 E108.78701
G1 X140.18 Y135.15 E108.95561
G1 X140.65 Y134.76 E108.98446
G1 X143.81 Y133.07 E109.15361
G1 X144.33 Y132.79 E109.18155
G0 F12000 X144.18 Y132.42
G1 F2700 X147.67 Y131.36 E109.35343
G1 X148.25 Y131.18 E109.38239
G1 X148.30 Y131.18 E109.38452
G1 X148.30 Y129.18 E109.47850
G1 X157.32 Y129.38 E109.90377
G1 X157.23 Y131.33 E109.99587
G1 X158.79 Y131.80 E110.07293
G1 X159.63 Y132.06 E110.11419
G1 X160.28 Y132.25 E110.14633
G1 X160.81 Y132.41 E110.17247
G1 X163.25 Y133.72 E110.30293
G1 X164.05 Y134.15 E110.34593
G1 X164.57 Y134.42 E110.37358
G1 X166.94 Y136.36 E110.51773
G1 X167.41 Y136.75 E110.54650
G1 X167.87 Y137.12 E110.57452
G1 X169.91 Y139.61 E110.72624
G1 X170.28 Y140.06 E110.75381
G1 X170.57 Y140.42 E110.77579
G1 X172.58 Y144.18 E110.97674
G1 X173.57 Y147.43 E111.13695
G1 X173.82 Y148.26 E111.17761
G1 X174.24 Y152.50 E111.37862
G1 X173.90 Y155.99 E111.54379
G1 X173.82 Y156.74 E111.57962
G1 X172.79 Y160.13 E111.74643
G1 X172.58 Y160.82 E111.78053
G1 X170.90 Y163.97 E111.94880
G1 X170.57 Y164.58 E111.98165
G1 X168.29 Y167.35 E112.15082
G1 X167.87 Y167.87 E112.18232
G1 X165.08 Y170.16 E112.35273
G1 X164.57 Y170.57 E112.38346
G1 X161.38 Y172.28 E112.55445
G1 X160.82 Y172.58 E112.58424
G1 X157.33 Y173.64 E112.75612
G1 X156.75 Y173.82 E112.78508
G1 X156.70 Y173.82 E112.78721
G1 X156.70 Y175.82 E112.88119
G1 X147.68 Y175.62 E113.30646
G1 X147.77 Y173.67 E113.39856
G1 X146.21 Y173.20 E113.47562
G1 X145.37 Y172.94 E113.51703
G1 X144.72 Y172.75 E113.54902
G1 X144.19 Y172.59 E113.57516
G1 X141.75 Y171.28 E113.70562
G1 X140.95 Y170.85 E113.74862
G1 X140.43 Y170.58 E113.77627
G1 X138.06 Y168.64 E113.92042
G1 X137.59 Y168.25 E113.94920
G1 X137.13 Y167.88 E113.97721
G1 X135.09 Y165.39 E114.12906
G1 X134.72 Y164.94 E114.15650
G1 X134.43 Y164.58 E114.17848
G1 X132.42 Y160.82 E114.37943
G1 X131.43 Y157.56 E114.53983
G1 X131.18 Y156.74 E114.58030
G1 X130.76 Y152.50 E114.78131
G1 X131.10 Y149.01 E114.94648
G1 X131.18 Y148.26 E114.98231
G1 X132.21 Y144.87 E115.14912
G1 X132.42 Y144.18 E115.18322
G1 X134.10 Y141.03 E115.35149
G1 X134.43 Y140.42 E115.38434
G1 X136.71 Y137.65 E115.55351
G1 X137.13 Y137.13 E115.58501
G1 X139.92 Y134.84 E115.75542
G1 X140.43 Y134.43 E115.78615
G1 X143.62 Y132.72 E115.95714
G1 X144.18 Y132.42 E115.98693
G0 F12000 X144.03 Y132.05
G1 F2700 X147.54 Y130.98 E116.16014
G1 X147.90 Y130.87 E116.17785
G1 X147.90 Y128.78 E116.27664
G1 X157.73 Y128.99 E116.74049
G1 X157.64 Y131.03 E116.83722
G1 X158.91 Y131.42 E116.89966
G1 X159.74 Y131.67 E116.94096
G1 X160.40 Y131.87 E116.97309
G1 X160.96 Y132.04 E117.00100
G1 X163.44 Y133.36 E117.13339
G1 X164.26 Y133.80 E117.17714
G1 X164.79 Y134.09 E117.20581
G1 X167.19 Y136.05 E117.35190
G1 X167.66 Y136.44 E117.38061
G1 X168.15 Y136.84 E117.41054
G1 X170.22 Y139.36 E117.56429
G1 X170.59 Y139.81 E117.59166
G1 X170.91 Y140.20 E117.61549
G1 X172.96 Y144.03 E117.82020
G1 X173.95 Y147.32 E117.98222
G1 X174.21 Y148.18 E118.02475
G1 X174.64 Y152.50 E118.22950
G1 X174.29 Y156.03 E118.39657
G1 X174.21 Y156.82 E118.43420
G1 X173.18 Y160.24 E118.60294
G1 X172.95 Y160.97 E118.63886
G1 X171.25 Y164.16 E118.80901
G1 X170.91 Y164.80 E118.84367
G1 X168.61 Y167.60 E119.01445
G1 X168.16 Y168.15 E119.04803
G1 X165.33 Y170.47 E119.22032
G1 X164.80 Y170.91 E119.25289
G1 X161.56 Y172.64 E119.42580
G1 X160.97 Y172.95 E119.45742
G1 X157.46 Y174.02 E119.63063
G1 X157.10 Y174.13 E119.64834
G1 X157.10 Y176.22 E119.74713
G1 X147.27 Y176.01 E120.21098
G1 X147.36 Y173.97 E120.30776
G1 X146.09 Y173.58 E120.37019
G1 X145.26 Y173.33 E120.41148
G1 X144.60 Y173.13 E120.44362
G1 X144.04 Y172.96 E120.47153
G1 X141.56 Y171.64 E120.60391
G1 X140.74 Y171.20 E120.64767
G1 X140.21 Y170.91 E120.67634
G1 X137.81 Y168.95 E120.82243
G1 X137.34 Y168.56 E120.85114
G1 X136.85 Y168.16 E120.88106
G1 X134.78 Y165.64 E121.03482
G1 X134.41 Y165.19 E121.06219
G1 X134.09 Y164.80 E121.08602
G1 X132.04 Y160.97 E121.29072
G1 X131.05 Y157.68 E121.45275
G1 X130.79 Y156.82 E121.49528
G1 X130.36 Y152.50 E121.70003
G1 X130.71 Y148.97 E121.86710
G1 X130.79 Y148.18 E121.90473
G1 X131.82 Y144.76 E122.07346
G1 X132.05 Y144.03 E122.10939
G1 X133.75 Y140.84 E122.27953
G1 X134.09 Y140.20 E122.31420
G1 X136.39 Y137.40 E122.48498
G1 X136.84 Y136.85 E122.51855
G1 X139.67 Y134.53 E122.69084
G1 X140.20 Y134.09 E122.72341
G1 X143.44 Y132.36 E122.89632
G1 X144.03 Y132.05 E122.92795
G0 F12000 X143.87 Y131.68
G1 F2700 X147.44 Y130.59 E123.10358
G1 X147.50 Y130.57 E123.10674
G1 X147.50 Y128.37 E123.21086
G1 X158.15 Y128.59 E123.71329
G1 X158.05 Y130.74 E123.81474
G1 X159.02 Y131.04 E123.86249
G1 X159.86 Y131.29 E123.90380
G1 X160.49 Y131.48 E123.93484
G1 X161.12 Y131.67 E123.96565
G1 X163.63 Y133.01 E124.09991
G1 X164.43 Y133.44 E124.14280
G1 X165.02 Y133.75 E124.17422
G1 X167.44 Y135.74 E124.32218
G1 X167.91 Y136.13 E124.35083
G1 X168.43 Y136.56 E124.38263
G1 X170.53 Y139.10 E124.53803
G1 X170.90 Y139.56 E124.56564
G1 X171.24 Y139.98 E124.59137
G1 X173.33 Y143.88 E124.79979
G1 X174.33 Y147.20 E124.96363
G1 X174.61 Y148.10 E125.00805
G1 X175.04 Y152.50 E125.21650
G1 X174.69 Y156.06 E125.38542
G1 X174.61 Y156.90 E125.42494
G1 X173.56 Y160.36 E125.59550
G1 X173.32 Y161.13 E125.63330
G1 X171.61 Y164.34 E125.80530
G1 X171.24 Y165.03 E125.84185
G1 X168.91 Y167.86 E126.01473
G1 X168.44 Y168.44 E126.04988
G1 X165.59 Y170.78 E126.22408
G1 X165.02 Y171.24 E126.25846
G1 X161.75 Y172.99 E126.43321
G1 X161.13 Y173.32 E126.46669
G1 X157.56 Y174.41 E126.64232
G1 X157.50 Y174.43 E126.64548
G1 X157.50 Y176.63 E126.74960
G1 X146.85 Y176.41 E127.25203
G1 X146.95 Y174.26 E127.35348
G1 X145.98 Y173.96 E127.40123
G1 X145.14 Y173.71 E127.44269
G1 X144.51 Y173.52 E127.47359
G1 X143.88 Y173.33 E127.50439
G1 X141.37 Y171.99 E127.63866
G1 X140.55 Y171.55 E127.68245
G1 X139.98 Y171.25 E127.71296
G1 X137.56 Y169.26 E127.86093
G1 X137.07 Y168.86 E127.89068
G1 X136.57 Y168.44 E127.92137
G1 X134.47 Y165.89 E128.07701
G1 X134.10 Y165.44 E128.10438
G1 X133.76 Y165.02 E128.13011
G1 X131.67 Y161.12 E128.33853
G1 X130.66 Y157.79 E128.50263
G1 X130.39 Y156.90 E128.54680
G1 X129.96 Y152.50 E128.75524
G1 X130.31 Y148.94 E128.92416
G1 X130.39 Y148.10 E128.96369
G1 X131.44 Y144.64 E129.13424
G1 X131.68 Y143.87 E129.17204
G1 X133.39 Y140.66 E129.34405
G1 X133.76 Y139.97 E129.38059
G1 X136.09 Y137.14 E129.55347
G1 X136.56 Y136.56 E129.58863
G1 X139.41 Y134.22 E129.76282
G1 X139.98 Y133.76 E129.79721
G1 X143.25 Y132.01 E129.97195
G1 X143.87 Y131.68 E130.00543
G0 F12000 X143.72 Y131.30
G1 F2700 X147.10 Y130.28 E130.17210
G1 X147.10 Y127.96 E130.28150
G1 X158.57 Y128.20 E130.82256
G1 X158.47 Y130.45 E130.92863
G1 X159.14 Y130.65 E130.96171
G1 X159.98 Y130.91 E131.00297
G1 X160.63 Y131.11 E131.03510
G1 X161.27 Y131.30 E131.06664
G1 X163.82 Y132.66 E131.20282
G1 X164.62 Y133.09 E131.24563
G1 X165.24 Y133.42 E131.27894
G1 X167.70 Y135.43 E131.42882
G1 X168.18 Y135.84 E131.45860
G1 X168.72 Y136.27 E131.49107
G1 X170.83 Y138.85 E131.64835
G1 X171.21 Y139.30 E131.67599
G1 X171.58 Y139.75 E131.70357
G1 X173.70 Y143.72 E131.91568
G1 X174.72 Y147.08 E132.08136
G1 X175.00 Y148.02 E132.12765
G1 X175.44 Y152.50 E132.33983
G1 X175.09 Y156.10 E132.51060
G1 X175.00 Y156.98 E132.55198
G1 X173.94 Y160.48 E132.72440
G1 X173.70 Y161.28 E132.76408
G1 X171.96 Y164.53 E132.93794
G1 X171.57 Y165.25 E132.97632
G1 X169.22 Y168.11 E133.15108
G1 X168.72 Y168.72 E133.18807
G1 X165.84 Y171.09 E133.36411
G1 X165.25 Y171.58 E133.40040
G1 X161.94 Y173.34 E133.57700
G1 X161.94 Y173.34 E133.57705
G1 X161.28 Y173.70 E133.61237
G1 X157.90 Y174.72 E133.77903
G1 X157.90 Y177.04 E133.88844
G1 X146.43 Y176.80 E134.42950
G1 X146.53 Y174.55 E134.53557
G1 X145.86 Y174.35 E134.56864
G1 X145.02 Y174.09 E134.61005
G1 X144.37 Y173.89 E134.64204
G1 X143.73 Y173.70 E134.67358
G1 X141.18 Y172.34 E134.80976
G1 X140.38 Y171.91 E134.85257
G1 X139.76 Y171.58 E134.88588
G1 X137.30 Y169.57 E135.03575
G1 X136.82 Y169.16 E135.06553
G1 X136.28 Y168.73 E135.09801
G1 X134.16 Y166.15 E135.25552
G1 X133.79 Y165.70 E135.28293
G1 X133.42 Y165.25 E135.31051
G1 X131.30 Y161.28 E135.52261
G1 X130.28 Y157.91 E135.68859
G1 X130.00 Y156.98 E135.73458
G1 X129.56 Y152.50 E135.94677
G1 X129.91 Y148.90 E136.11754
G1 X130.00 Y148.02 E136.15891
G1 X131.06 Y144.52 E136.33133
G1 X131.30 Y143.72 E136.37101
G1 X133.04 Y140.47 E136.54487
G1 X133.43 Y139.75 E136.58325
G1 X135.78 Y136.89 E136.75801
G1 X136.28 Y136.28 E136.79501
G1 X139.16 Y133.91 E136.97105
G1 X139.75 Y133.42 E137.00734
G1 X143.06 Y131.66 E137.18394
G1 X143.06 Y131.66 E137.18399
G1 X143.72 Y131.30 E137.21930
G0 F12000 X143.56 Y130.93
G1 F2700 X146.70 Y129.98 E137.37383
G1 X146.70 Y127.55 E137.48856
G1 X158.99 Y127.81 E138.06820
G1 X158.88 Y130.16 E138.17895
G1 X159.25 Y130.27 E138.19737
G1 X160.09 Y130.53 E138.23864
G1 X160.72 Y130.72 E138.26953
G1 X161.42 Y130.93 E138.30413
G1 X164.00 Y132.31 E138.44225
G1 X164.80 Y132.73 E138.48500
G1 X165.46 Y133.08 E138.52016
G1 X167.95 Y135.12 E138.67195
G1 X168.42 Y135.51 E138.70045
G1 X169.00 Y135.99 E138.73605
G1 X171.14 Y138.59 E138.89516
G1 X171.51 Y139.05 E138.92281
G1 X171.91 Y139.53 E138.95222
G1 X174.07 Y143.57 E139.16809
G1 X175.10 Y146.97 E139.33562
G1 X175.10 Y146.97 E139.33567
G1 X175.40 Y147.94 E139.38378
G1 X175.84 Y152.50 E139.59971
G1 X175.49 Y156.14 E139.77237
G1 X175.40 Y157.06 E139.81559
G1 X174.32 Y160.59 E139.98984
G1 X174.07 Y161.44 E140.03139
G1 X172.31 Y164.72 E140.20711
G1 X171.91 Y165.47 E140.24738
G1 X169.53 Y168.37 E140.42399
G1 X169.01 Y169.00 E140.46280
G1 X166.09 Y171.40 E140.64071
G1 X165.47 Y171.91 E140.67888
G1 X162.13 Y173.69 E140.85730
G1 X161.44 Y174.07 E140.89449
G1 X158.30 Y175.02 E141.04901
G1 X158.30 Y177.45 E141.16375
G1 X146.01 Y177.19 E141.74339
G1 X146.12 Y174.84 E141.85414
G1 X145.75 Y174.73 E141.87256
G1 X144.91 Y174.47 E141.91397
G1 X144.28 Y174.28 E141.94472
G1 X143.58 Y174.07 E141.97932
G1 X141.00 Y172.69 E142.11744
G1 X140.18 Y172.26 E142.16120
G1 X139.54 Y171.92 E142.19535
G1 X137.05 Y169.88 E142.34713
G1 X136.56 Y169.47 E142.37691
G1 X136.00 Y169.01 E142.41123
G1 X133.85 Y166.40 E142.57059
G1 X133.49 Y165.95 E142.59799
G1 X133.09 Y165.47 E142.62741
G1 X130.93 Y161.43 E142.84328
G1 X129.90 Y158.03 E143.01081
G1 X129.90 Y158.03 E143.01085
G1 X129.60 Y157.06 E143.05896
G1 X129.16 Y152.50 E143.27489
G1 X129.51 Y148.86 E143.44756
G1 X129.60 Y147.94 E143.49078
G1 X130.68 Y144.41 E143.66503
G1 X130.93 Y143.56 E143.70658
G1 X132.69 Y140.28 E143.88230
G1 X133.09 Y139.53 E143.92257
G1 X135.47 Y136.63 E144.09918
G1 X135.99 Y136.00 E144.13798
G1 X138.91 Y133.60 E144.31590
G1 X139.53 Y133.09 E144.35406
G1 X142.87 Y131.31 E144.53248
G1 X143.56 Y130.93 E144.56968
G0 F12000 X143.41 Y130.56
G1 F2700 X146.30 Y129.69 E144.71209
G1 X146.30 Y127.14 E144.83210
G1 X159.41 Y127.42 E145.45037
G1 X159.29 Y129.87 E145.56580
G1 X159.37 Y129.89 E145.56954
G1 X160.21 Y130.14 E145.61085
G1 X160.83 Y130.33 E145.64159
G1 X161.57 Y130.55 E145.67812
G1 X164.19 Y131.95 E145.81814
G1 X164.99 Y132.38 E145.86078
G1 X165.69 Y132.75 E145.89788
G1 X168.21 Y134.82 E146.05154
G1 X168.69 Y135.22 E146.08136
G1 X169.29 Y135.70 E146.11746
G1 X171.45 Y138.34 E146.27845
G1 X171.82 Y138.79 E146.30610
G1 X172.25 Y139.31 E146.33739
G1 X174.44 Y143.41 E146.55695
G1 X175.48 Y146.85 E146.72631
G1 X175.79 Y147.87 E146.77634
G1 X176.25 Y152.50 E146.99597
G1 X175.88 Y156.18 E147.17049
G1 X175.79 Y157.13 E147.21555
G1 X174.71 Y160.71 E147.39173
G1 X174.44 Y161.59 E147.43510
G1 X172.66 Y164.91 E147.61267
G1 X172.24 Y165.70 E147.65478
G1 X169.84 Y168.62 E147.83327
G1 X169.29 Y169.29 E147.87392
G1 X166.35 Y171.71 E148.05371
G1 X165.69 Y172.25 E148.09372
G1 X162.32 Y174.05 E148.27401
G1 X161.59 Y174.44 E148.31302
G1 X158.70 Y175.31 E148.45543
G1 X158.70 Y177.86 E148.57544
G1 X145.59 Y177.58 E149.19372
G1 X145.71 Y175.13 E149.30914
G1 X145.63 Y175.11 E149.31289
G1 X144.79 Y174.86 E149.35434
G1 X144.17 Y174.67 E149.38494
G1 X143.43 Y174.45 E149.42146
G1 X140.81 Y173.05 E149.56148
G1 X139.99 Y172.61 E149.60524
G1 X139.31 Y172.25 E149.64123
G1 X136.79 Y170.18 E149.79489
G1 X136.31 Y169.78 E149.82470
G1 X135.71 Y169.30 E149.86080
G1 X133.54 Y166.66 E150.02203
G1 X133.18 Y166.21 E150.04944
G1 X132.75 Y165.69 E150.08073
G1 X130.56 Y161.59 E150.30029
G1 X129.52 Y158.14 E150.47000
G1 X129.21 Y157.13 E150.51969
G1 X128.75 Y152.50 E150.73932
G1 X129.12 Y148.82 E150.91383
G1 X129.21 Y147.87 E150.95890
G1 X130.29 Y144.29 E151.13508
G1 X130.56 Y143.41 E151.17844
G1 X132.34 Y140.09 E151.35602
G1 X132.76 Y139.30 E151.39813
G1 X135.16 Y136.38 E151.57661
G1 X135.71 Y135.71 E151.61726
G1 X138.65 Y133.29 E151.79705
G1 X139.31 Y132.75 E151.83706
G1 X142.68 Y130.95 E152.01736
G1 X143.41 Y130.56 E152.05637
G0 F12000 X143.25 Y130.19
G1 F2700 X145.90 Y129.39 E152.18671
G1 X145.90 Y126.73 E152.31196
G1 X159.83 Y127.03 E152.96881
G1 X159.71 Y129.57 E153.08891
G1 X160.32 Y129.76 E153.11927
G1 X160.95 Y129.95 E153.14992
G1 X161.73 Y130.18 E153.18835
G1 X164.38 Y131.60 E153.33025
G1 X165.18 Y132.03 E153.37289
G1 X165.91 Y132.41 E153.41185
G1 X168.46 Y134.51 E153.56742
G1 X168.95 Y134.91 E153.59724
G1 X169.57 Y135.42 E153.63515
G1 X171.76 Y138.09 E153.79802
G1 X172.13 Y138.54 E153.82566
G1 X172.58 Y139.08 E153.85884
G1 X174.81 Y143.26 E154.08209
G1 X175.87 Y146.73 E154.25333
G1 X176.19 Y147.79 E154.30518
G1 X176.55 Y151.47 E154.47965
G1 X176.65 Y152.50 E154.52855
G1 X176.28 Y156.22 E154.70492
G1 X176.19 Y157.21 E154.75188
G1 X175.09 Y160.82 E154.92988
G1 X174.81 Y161.74 E154.97508
G1 X173.02 Y165.10 E155.15455
G1 X172.58 Y165.92 E155.19854
G1 X170.15 Y168.88 E155.37884
G1 X169.58 Y169.57 E155.42136
G1 X166.60 Y172.02 E155.60302
G1 X165.91 Y172.58 E155.64488
G1 X162.51 Y174.40 E155.82701
G1 X161.75 Y174.81 E155.86783
G1 X159.10 Y175.61 E155.99817
G1 X159.10 Y178.27 E156.12342
G1 X145.17 Y177.97 E156.78028
G1 X145.29 Y175.43 E156.90037
G1 X144.67 Y175.24 E156.93088
G1 X144.02 Y175.04 E156.96286
G1 X143.27 Y174.82 E156.99982
G1 X140.62 Y173.40 E157.14172
G1 X139.82 Y172.97 E157.18436
G1 X139.09 Y172.59 E157.22332
G1 X136.54 Y170.49 E157.37889
G1 X136.05 Y170.09 E157.40870
G1 X135.43 Y169.58 E157.44661
G1 X133.24 Y166.91 E157.60979
G1 X132.87 Y166.46 E157.63713
G1 X132.42 Y165.92 E157.67030
G1 X130.19 Y161.74 E157.89355
G1 X129.13 Y158.26 E158.06514
G1 X128.81 Y157.21 E158.11665
G1 X128.45 Y153.53 E158.29112
G1 X128.35 Y152.50 E158.34002
G1 X128.72 Y148.78 E158.51638
G1 X128.81 Y147.79 E158.56334
G1 X129.91 Y144.18 E158.74134
G1 X130.19 Y143.26 E158.78654
G1 X131.98 Y139.90 E158.96602
G1 X132.42 Y139.08 E159.01001
G1 X134.85 Y136.12 E159.19030
G1 X135.42 Y135.43 E159.23282
G1 X138.40 Y132.98 E159.41448
G1 X139.09 Y132.42 E159.45634
G1 X142.49 Y130.60 E159.63847
G1 X143.25 Y130.19 E159.67930
G0 F12000 X143.10 Y129.82
G1 F2700 X145.50 Y129.09 E159.79752
G1 X145.50 Y126.32 E159.92805
G1 X160.25 Y126.64 E160.62354
G1 X160.12 Y129.28 E160.74826
G1 X160.44 Y129.38 E160.76413
G1 X161.09 Y129.57 E160.79607
G1 X161.88 Y129.81 E160.83485
G1 X164.57 Y131.25 E160.97869
G1 X165.39 Y131.69 E161.02249
G1 X165.39 Y131.69 E161.02253
G1 X166.13 Y132.08 E161.06209
G1 X168.71 Y134.20 E161.21957
G1 X169.20 Y134.60 E161.24945
G1 X169.85 Y135.13 E161.28910
G1 X172.07 Y137.83 E161.45385
G1 X172.44 Y138.29 E161.48149
G1 X172.91 Y138.86 E161.51657
G1 X175.18 Y143.11 E161.74355
G1 X176.25 Y146.62 E161.91657
G1 X176.58 Y147.71 E161.97035
G1 X176.94 Y151.43 E162.14662
G1 X177.05 Y152.50 E162.19741
G1 X176.68 Y156.26 E162.37563
G1 X176.58 Y157.29 E162.42444
G1 X175.47 Y160.94 E162.60430
G1 X175.18 Y161.90 E162.65137
G1 X173.37 Y165.29 E162.83274
G1 X172.91 Y166.15 E162.87858
G1 X170.46 Y169.13 E163.06068
G1 X169.86 Y169.86 E163.10505
G1 X166.85 Y172.33 E163.28859
G1 X166.14 Y172.91 E163.33232
G1 X162.70 Y174.75 E163.51635
G1 X162.70 Y174.75 E163.51640
G1 X161.90 Y175.18 E163.55906
G1 X159.50 Y175.91 E163.67728
G1 X159.50 Y178.68 E163.80781
G1 X144.75 Y178.36 E164.50330
G1 X144.88 Y175.72 E164.62802
G1 X144.56 Y175.62 E164.64390
G1 X143.91 Y175.43 E164.67583
G1 X143.12 Y175.19 E164.71461
G1 X140.43 Y173.75 E164.85845
G1 X139.61 Y173.31 E164.90225
G1 X139.61 Y173.31 E164.90230
G1 X138.87 Y172.92 E164.94185
G1 X136.29 Y170.80 E165.09933
G1 X135.80 Y170.40 E165.12922
G1 X135.15 Y169.87 E165.16886
G1 X132.93 Y167.16 E165.33391
G1 X132.56 Y166.71 E165.36125
G1 X132.09 Y166.14 E165.39633
G1 X129.82 Y161.89 E165.62332
G1 X128.75 Y158.38 E165.79672
G1 X128.42 Y157.29 E165.85011
G1 X128.06 Y153.57 E166.02638
G1 X127.95 Y152.50 E166.07718
G1 X128.32 Y148.74 E166.25539
G1 X128.42 Y147.71 E166.30420
G1 X129.53 Y144.06 E166.48406
G1 X129.82 Y143.10 E166.53113
G1 X131.63 Y139.71 E166.71250
G1 X132.09 Y138.85 E166.75835
G1 X134.54 Y135.87 E166.94045
G1 X135.14 Y135.14 E166.98481
G1 X138.15 Y132.67 E167.16836
G1 X138.86 Y132.09 E167.21208
G1 X142.30 Y130.25 E167.39611
G1 X142.30 Y130.25 E167.39616
G1 X143.10 Y129.82 E167.43882
G0 F12000 X142.95 Y129.45
G1 F2700 X145.10 Y128.79 E167.54492
G1 X145.10 Y125.91 E167.68073
G1 X160.66 Y126.25 E168.41480
G1 X160.54 Y128.99 E168.54429
G1 X160.56 Y129.00 E168.54527
G1 X160.56 Y128.99 E168.54532
G1 X161.18 Y129.18 E168.57583
G1 X162.03 Y129.44 E168.61805
G1 X164.76 Y130.90 E168.76381
G1 X165.55 Y131.32 E168.80624
G1 X166.35 Y131.75 E168.84900
G1 X168.97 Y133.89 E169.00839
G1 X169.43 Y134.27 E169.03663
G1 X170.14 Y134.85 E169.07973
G1 X172.38 Y137.58 E169.24635
G1 X172.75 Y138.03 E169.27400
G1 X173.25 Y138.64 E169.31092
G1 X175.55 Y142.95 E169.54164
G1 X176.63 Y146.51 E169.71692
G1 X176.63 Y146.51 E169.71697
G1 X176.97 Y147.63 E169.77219
G1 X177.34 Y151.39 E169.95036
G1 X177.45 Y152.50 E170.00300
G1 X177.08 Y156.30 E170.18311
G1 X176.97 Y157.37 E170.23377
G1 X175.85 Y161.06 E170.41545
G1 X175.55 Y162.05 E170.46440
G1 X173.72 Y165.48 E170.64758
G1 X173.24 Y166.37 E170.69531
G1 X170.77 Y169.38 E170.87929
G1 X170.15 Y170.14 E170.92549
G1 X167.11 Y172.64 E171.11088
G1 X166.36 Y173.25 E171.15648
G1 X162.88 Y175.11 E171.34235
G1 X162.88 Y175.11 E171.34240
G1 X162.05 Y175.55 E171.38694
G1 X159.90 Y176.21 E171.49303
G1 X159.90 Y179.09 E171.62884
G1 X144.34 Y178.75 E172.36292
G1 X144.46 Y176.01 E172.49240
G1 X144.44 Y176.00 E172.49339
G1 X144.44 Y176.01 E172.49344
G1 X143.82 Y175.82 E172.52394
G1 X142.97 Y175.56 E172.56617
G1 X140.24 Y174.10 E172.71193
G1 X139.42 Y173.67 E172.75575
G1 X138.65 Y173.25 E172.79711
G1 X136.03 Y171.11 E172.95650
G1 X135.54 Y170.71 E172.98639
G1 X134.86 Y170.15 E173.02784
G1 X132.62 Y167.42 E173.19477
G1 X132.25 Y166.97 E173.22211
G1 X131.75 Y166.36 E173.25903
G1 X129.45 Y162.05 E173.48975
G1 X128.37 Y158.49 E173.66504
G1 X128.37 Y158.49 E173.66508
G1 X128.03 Y157.37 E173.72031
G1 X127.66 Y153.61 E173.89847
G1 X127.55 Y152.50 E173.95112
G1 X127.92 Y148.70 E174.13123
G1 X128.03 Y147.63 E174.18188
G1 X129.15 Y143.94 E174.36357
G1 X129.45 Y142.95 E174.41251
G1 X131.28 Y139.52 E174.59570
G1 X131.76 Y138.63 E174.64342
G1 X134.23 Y135.62 E174.82740
G1 X134.85 Y134.86 E174.87361
G1 X137.89 Y132.36 E175.05899
G1 X138.64 Y131.75 E175.10460
G1 X142.12 Y129.89 E175.29046
G1 X142.12 Y129.89 E175.29051
G1 X142.95 Y129.45 E175.33505
G0 F12000 X142.79 Y129.08
G1 F2700 X144.70 Y128.50 E175.42902
G1 X144.70 Y125.51 E175.57011
G1 X161.08 Y125.86 E176.34281
G1 X160.95 Y128.70 E176.47693
G1 X161.29 Y128.80 E176.49368
G1 X162.19 Y129.07 E176.53778
G1 X164.95 Y130.54 E176.68540
G1 X165.74 Y130.97 E176.72783
G1 X166.58 Y131.41 E176.77247
G1 X169.22 Y133.58 E176.93373
G1 X169.68 Y133.96 E176.96191
G1 X170.42 Y134.56 E177.00692
G1 X172.69 Y137.32 E177.17538
G1 X173.06 Y137.78 E177.20302
G1 X173.58 Y138.41 E177.24182
G1 X175.93 Y142.80 E177.47623
G1 X177.01 Y146.38 E177.65295
G1 X177.37 Y147.55 E177.71047
G1 X177.74 Y151.35 E177.89049
G1 X177.85 Y152.50 E177.94498
G1 X177.48 Y156.34 E178.12694
G1 X177.37 Y157.45 E178.17945
G1 X176.24 Y161.17 E178.36305
G1 X175.92 Y162.20 E178.41382
G1 X174.07 Y165.66 E178.59886
G1 X173.58 Y166.59 E178.64846
G1 X171.08 Y169.64 E178.83428
G1 X170.43 Y170.43 E178.88230
G1 X167.36 Y172.94 E179.06960
G1 X166.58 Y173.58 E179.11705
G1 X163.07 Y175.46 E179.30477
G1 X162.21 Y175.92 E179.35112
G1 X160.30 Y176.50 E179.44509
G1 X160.30 Y179.49 E179.58618
G1 X143.92 Y179.15 E180.35889
G1 X144.05 Y176.30 E180.49300
G1 X143.71 Y176.20 E180.50975
G1 X142.81 Y175.93 E180.55386
G1 X140.05 Y174.46 E180.70147
G1 X139.23 Y174.02 E180.74529
G1 X138.42 Y173.59 E180.78854
G1 X135.78 Y171.42 E180.94981
G1 X135.29 Y171.02 E180.97969
G1 X134.58 Y170.44 E181.02299
G1 X132.31 Y167.67 E181.19176
G1 X131.94 Y167.22 E181.21910
G1 X131.42 Y166.59 E181.25790
G1 X129.07 Y162.20 E181.49231
G1 X127.98 Y158.61 E181.66941
G1 X127.63 Y157.45 E181.72654
G1 X127.26 Y153.65 E181.90656
G1 X127.14 Y152.50 E181.96105
G1 X127.52 Y148.66 E182.14301
G1 X127.63 Y147.55 E182.19552
G1 X128.76 Y143.83 E182.37913
G1 X129.08 Y142.80 E182.42989
G1 X130.93 Y139.34 E182.61493
G1 X131.42 Y138.41 E182.66453
G1 X133.92 Y135.36 E182.85035
G1 X134.57 Y134.57 E182.89837
G1 X137.64 Y132.06 E183.08567
G1 X138.42 Y131.42 E183.13312
G1 X141.93 Y129.54 E183.32084
G1 X142.79 Y129.08 E183.36719
G0 F12000 X145.57 Y135.76
G1 F2700 X148.71 Y134.81 E183.52216
G1 X148.71 Y134.81 E183.52221
G1 X148.97 Y134.73 E183.53473
G1 X151.90 Y134.44 E183.67380
G1 X151.90 Y132.86 E183.74821
G1 X153.55 Y132.90 E183.82604
G1 X153.49 Y134.28 E183.89152
G1 X153.49 Y134.48 E183.90071
G1 X156.03 Y134.73 E184.02145
G1 X159.23 Y135.70 E184.17899
G1 X159.43 Y135.76 E184.18893
G1 X162.37 Y137.33 E184.34579
G1 X162.57 Y137.43 E184.35646
G1 X164.65 Y139.14 E184.48348
G1 X165.13 Y139.54 E184.51303
G1 X165.31 Y139.69 E184.52399
G1 X167.57 Y142.43 E184.69152
G1 X169.24 Y145.57 E184.85906
G1 X170.27 Y148.97 E185.02655
G1 X170.62 Y152.50 E185.19406
G1 X170.27 Y156.03 E185.36157
G1 X169.24 Y159.43 E185.52906
G1 X167.57 Y162.57 E185.69660
G1 X165.31 Y165.31 E185.86409
G1 X162.57 Y167.57 E186.03158
G1 X159.43 Y169.24 E186.19912
G1 X156.29 Y170.19 E186.35409
G1 X156.29 Y170.19 E186.35413
G1 X156.03 Y170.27 E186.36665
G1 X153.10 Y170.56 E186.50572
G1 X153.10 Y172.14 E186.58014
G1 X151.45 Y172.10 E186.65796
G1 X151.51 Y170.72 E186.72349
G1 X151.51 Y170.52 E186.73259
G1 X149.14 Y170.29 E186.84504
G1 X148.97 Y170.27 E186.85332
G1 X145.77 Y169.30 E187.01088
G1 X145.57 Y169.24 E187.02082
G1 X142.63 Y167.67 E187.17778
G1 X142.43 Y167.57 E187.18835
G1 X140.35 Y165.86 E187.31537
G1 X139.87 Y165.46 E187.34492
G1 X139.69 Y165.31 E187.35588
G1 X137.43 Y162.57 E187.52341
G1 X135.76 Y159.43 E187.69095
G1 X134.73 Y156.03 E187.85844
G1 X134.38 Y152.50 E188.02595
G1 X134.73 Y148.97 E188.19346
G1 X135.76 Y145.57 E188.36095
G1 X137.43 Y142.43 E188.52849
G1 X139.69 Y139.69 E188.69598
G1 X142.43 Y137.43 E188.86347
G1 X145.57 Y135.76 E189.03101
G0 F12000 X149.07 Y143.35
G1 F2700 X148.60 Y143.62 E189.05650
G1 X147.89 Y144.04 E189.09539
G1 X148.01 Y144.19 E189.10421
G1 X145.38 Y147.74 E189.31251
G1 X145.03 Y148.31 E189.34430
G1 X144.94 Y148.46 E189.35223
G1 X144.76 Y148.85 E189.37255
G1 X144.58 Y149.22 E189.39181
G1 X144.32 Y149.97 E189.42936
G1 X144.17 Y150.54 E189.45728
G1 X144.09 Y150.83 E189.47128
G1 X143.97 Y151.66 E189.51071
G1 X143.93 Y152.51 E189.55127
G1 X143.97 Y153.32 E189.58951
G1 X144.07 Y154.04 E189.62364
G1 X144.12 Y154.28 E189.63512
G1 X144.28 Y154.92 E189.66638
G1 X144.55 Y155.70 E189.70505
G1 X144.65 Y155.93 E189.71696
G1 X144.94 Y156.54 E189.74884
G1 X145.37 Y157.26 E189.78847
G1 X145.88 Y157.94 E189.82828
G1 X146.35 Y158.46 E189.86116
G1 X146.44 Y158.56 E189.86774
G1 X147.01 Y159.08 E189.90416
G1 X147.74 Y159.63 E189.94733
G1 X148.47 Y160.06 E189.98703
G1 X148.73 Y160.19 E190.00074
G1 X149.22 Y160.42 E190.02635
G1 X149.55 Y160.53 E190.04273
G1 X149.55 Y160.53 E190.04278
G1 X150.01 Y160.70 E190.06581
G1 X150.67 Y160.87 E190.09817
G1 X150.84 Y160.91 E190.10619
G1 X151.26 Y160.97 E190.12650
G1 X151.65 Y161.03 E190.14496
G1 X152.24 Y161.06 E190.17291
G1 X152.50 Y161.07 E190.18509
G1 X153.20 Y161.04 E190.21814
G1 X153.33 Y161.03 E190.22437
G1 X154.18 Y160.90 E190.26461
G1 X154.63 Y160.79 E190.28691
G1 X154.63 Y160.79 E190.28696
G1 X158.24 Y159.88 E190.46219
G1 X158.37 Y160.10 E190.47402
G1 X158.98 Y159.72 E190.50805
G1 X159.89 Y158.94 E190.56420
G1 X160.00 Y158.84 E190.57132
G1 X160.17 Y158.64 E190.58357
G1 X160.94 Y157.71 E190.64084
G1 X161.51 Y156.76 E190.69286
G1 X161.66 Y156.50 E190.70731
G1 X162.01 Y155.63 E190.75111
G1 X162.22 Y155.11 E190.77788
G1 X162.27 Y154.86 E190.78985
G1 X162.28 Y154.86 E190.78990
G1 X162.55 Y153.69 E190.84650
G1 X162.62 Y152.58 E190.89886
G1 X162.62 Y152.58 E190.89891
G1 X162.65 Y152.19 E190.91763
G1 X162.61 Y151.72 E190.93991
G1 X162.52 Y150.69 E190.98861
G1 X162.47 Y150.44 E191.00066
G1 X162.20 Y149.38 E191.05220
G1 X162.17 Y149.25 E191.05818
G1 X161.88 Y148.55 E191.09407
G1 X161.60 Y147.85 E191.12945
G1 X160.93 Y146.73 E191.19123
G1 X160.84 Y146.59 E191.19918
G1 X160.15 Y145.77 E191.24979
G1 X159.86 Y145.42 E191.27108
G1 X158.72 Y144.42 E191.34227
G1 X158.59 Y144.33 E191.34995
G1 X157.60 Y143.71 E191.40481
G1 X157.48 Y143.63 E191.41157
G1 X156.82 Y143.35 E191.44549
G1 X156.09 Y143.02 E191.48311
G1 X155.16 Y142.77 E191.52883
G1 X154.69 Y142.65 E191.55149
G1 X153.79 Y142.56 E191.59435
G1 X153.21 Y142.50 E191.62190
G1 X152.98 Y142.51 E191.63262
G1 X151.80 Y142.56 E191.68855
G1 X151.79 Y142.56 E191.68875
G1 X150.34 Y142.87 E191.75858
G1 X149.18 Y143.31 E191.81743
G1 X149.07 Y143.35 E191.82276
G0 F12000 X148.89 Y142.99
G1 F2700 X148.40 Y143.28 E191.84946
G1 X147.59 Y143.75 E191.89381
G1 X147.33 Y143.96 E191.90946
G1 X147.51 Y144.19 E191.92300
G1 X145.04 Y147.52 E192.11842
G1 X144.69 Y148.11 E192.15080
G1 X144.59 Y148.27 E192.15971
G1 X144.40 Y148.68 E192.18091
G1 X144.21 Y149.07 E192.20143
G1 X143.94 Y149.85 E192.24023
G1 X143.78 Y150.44 E192.26918
G1 X143.70 Y150.75 E192.28435
G1 X143.57 Y151.62 E192.32554
G1 X143.53 Y152.51 E192.36789
G1 X143.57 Y153.37 E192.40840
G1 X143.68 Y154.11 E192.44362
G1 X143.73 Y154.35 E192.45524
G1 X143.90 Y155.03 E192.48829
G1 X144.18 Y155.85 E192.52911
G1 X144.30 Y156.12 E192.54276
G1 X144.59 Y156.72 E192.57449
G1 X145.04 Y157.49 E192.61645
G1 X145.56 Y158.18 E192.65744
G1 X146.16 Y158.84 E192.69931
G1 X146.76 Y159.38 E192.73743
G1 X147.51 Y159.95 E192.78171
G1 X147.52 Y159.96 E192.78272
G1 X148.27 Y160.41 E192.82380
G1 X148.56 Y160.55 E192.83892
G1 X149.06 Y160.79 E192.86523
G1 X149.41 Y160.91 E192.88254
G1 X149.90 Y161.08 E192.90687
G1 X150.57 Y161.25 E192.93988
G1 X150.76 Y161.30 E192.94878
G1 X151.20 Y161.37 E192.97004
G1 X151.61 Y161.43 E192.98950
G1 X152.22 Y161.46 E193.01830
G1 X152.50 Y161.47 E193.03161
G1 X153.22 Y161.44 E193.06542
G1 X153.37 Y161.43 E193.07250
G1 X154.26 Y161.30 E193.11484
G1 X154.73 Y161.18 E193.13782
G1 X158.05 Y160.34 E193.29929
G1 X158.24 Y160.65 E193.31620
G1 X159.22 Y160.04 E193.37071
G1 X160.16 Y159.24 E193.42864
G1 X160.29 Y159.12 E193.43709
G1 X160.47 Y158.90 E193.45082
G1 X161.27 Y157.94 E193.50942
G1 X161.83 Y157.00 E193.56093
G1 X162.03 Y156.67 E193.57927
G1 X162.38 Y155.78 E193.62428
G1 X162.60 Y155.22 E193.65268
G1 X162.66 Y154.96 E193.66552
G1 X162.66 Y154.96 E193.66556
G1 X162.94 Y153.75 E193.72424
G1 X163.02 Y152.61 E193.77794
G1 X163.02 Y152.61 E193.77799
G1 X163.05 Y152.19 E193.79788
G1 X163.01 Y151.68 E193.82177
G1 X162.92 Y150.62 E193.87226
G1 X162.87 Y150.40 E193.88277
G1 X162.59 Y149.28 E193.93712
G1 X162.56 Y149.13 E193.94426
G1 X162.25 Y148.40 E193.98178
G1 X161.96 Y147.68 E194.01859
G1 X161.27 Y146.53 E194.08179
G1 X161.16 Y146.35 E194.09125
G1 X160.45 Y145.51 E194.14336
G1 X160.14 Y145.14 E194.16602
G1 X158.96 Y144.10 E194.24023
G1 X158.81 Y144.00 E194.24916
G1 X157.82 Y143.37 E194.30410
G1 X157.67 Y143.28 E194.31234
G1 X156.99 Y142.98 E194.34771
G1 X156.23 Y142.65 E194.38677
G1 X155.22 Y142.37 E194.43617
G1 X154.77 Y142.25 E194.45809
G1 X153.83 Y142.16 E194.50242
G1 X153.22 Y142.09 E194.53130
G1 X152.96 Y142.11 E194.54348
G1 X151.76 Y142.16 E194.60050
G1 X151.74 Y142.16 E194.60140
G1 X150.23 Y142.48 E194.67407
G1 X149.07 Y142.92 E194.73264
G1 X148.89 Y142.99 E194.74157
G1 F2400 E193.54157
G0 F12000 X147.16 Y138.08
;TYPE:WALL-INNER
G1 F2400 E194.74157
G1 F2700 X146.60 Y138.31 E194.77033
G1 X144.63 Y139.46 E194.87796
G1 X143.99 Y139.98 E194.91656
G1 X142.87 Y140.95 E194.98645
G1 X142.10 Y141.86 E195.04256
G1 X141.44 Y142.77 E195.09584
G1 X141.09 Y143.44 E195.13155
G1 X140.98 Y144.26 E195.17034
G1 X140.71 Y144.62 E195.19158
G1 X140.23 Y145.43 E195.23617
G1 X140.00 Y145.82 E195.25730
G1 X139.70 Y146.45 E195.29040
G1 X139.40 Y147.07 E195.32288
G1 X138.96 Y148.32 E195.38507
G1 X138.75 Y149.14 E195.42502
G1 X138.60 Y149.74 E195.45414
G1 X138.39 Y151.11 E195.51974
G1 X138.33 Y152.36 E195.57856
G1 X138.32 Y152.49 E195.58504
G1 X138.38 Y153.67 E195.64075
G1 X138.39 Y153.89 E195.65100
G1 X138.55 Y154.97 E195.70262
G1 X138.65 Y155.48 E195.72711
G1 X138.91 Y156.53 E195.77796
G1 X139.33 Y157.73 E195.83807
G1 X139.55 Y158.25 E195.86441
G1 X140.00 Y159.18 E195.91328
G1 X140.71 Y160.38 E195.97890
G1 X141.54 Y161.49 E196.04447
G1 X142.48 Y162.52 E196.11010
G1 X143.44 Y163.39 E196.17113
G1 X144.40 Y164.12 E196.22783
G1 X144.62 Y164.29 E196.24120
G1 X145.82 Y165.00 E196.30690
G1 X147.07 Y165.60 E196.37252
G1 X148.39 Y166.07 E196.43817
G1 X149.31 Y166.30 E196.48303
G1 X149.73 Y166.40 E196.50370
G1 X150.43 Y166.51 E196.53707
G1 X150.95 Y166.59 E196.56173
G1 X151.96 Y166.65 E196.60950
G1 X152.50 Y166.68 E196.63486
G1 X153.47 Y166.63 E196.68089
G1 X153.89 Y166.61 E196.70058
G1 X155.07 Y166.43 E196.75669
G1 X155.35 Y166.38 E196.77010
G1 X155.71 Y166.42 E196.78725
G1 X156.36 Y166.56 E196.81875
G1 X158.01 Y166.32 E196.89715
G1 X158.21 Y166.29 E196.90701
G1 X160.35 Y165.46 E197.01501
G1 X162.30 Y164.25 E197.12307
G1 X163.57 Y163.16 E197.20230
G1 X164.05 Y162.73 E197.23239
G1 X165.52 Y160.96 E197.34120
G1 X166.31 Y159.64 E197.41363
G1 X166.72 Y158.95 E197.45129
G1 X167.21 Y157.70 E197.51470
G1 X167.57 Y156.78 E197.56123
G1 X167.73 Y156.14 E197.59266
G1 X168.03 Y154.84 E197.65560
G1 X168.10 Y154.49 E197.67212
G1 X168.26 Y152.16 E197.78258
G1 X168.19 Y151.27 E197.82463
G1 X168.07 Y149.81 E197.89353
G1 X167.92 Y149.16 E197.92510
G1 X167.51 Y147.51 E198.00505
G1 X166.62 Y145.33 E198.11618
G1 X165.73 Y143.85 E198.19776
G1 X165.40 Y143.31 E198.22788
G1 X164.43 Y142.16 E198.29826
G1 X163.88 Y141.50 E198.33906
G1 X162.11 Y139.94 E198.45022
G1 X161.62 Y139.62 E198.47803
G1 X160.12 Y138.67 E198.56170
G1 X159.07 Y138.22 E198.61524
G1 X157.97 Y137.73 E198.67239
G1 X156.57 Y137.35 E198.74059
G1 X155.69 Y137.12 E198.78342
G1 X154.37 Y136.99 E198.84604
G1 X153.37 Y136.88 E198.89360
G1 X152.72 Y136.91 E198.92395
G1 X151.48 Y136.97 E198.98258
G1 X151.03 Y137.00 E199.00398
G1 X148.77 Y137.48 E199.11307
G1 X147.16 Y138.08 E199.19383
G0 F12000 X146.18 Y137.24
G1 F2700 X149.18 Y136.34 E199.34145
G1 X149.28 Y136.30 E199.34654
G1 X152.41 Y136.00 E199.49466
G1 X152.50 Y135.99 E199.49916
G1 X153.10 Y136.05 E199.52731
G1 X155.72 Y136.30 E199.65164
G1 X158.77 Y137.23 E199.80201
G1 X158.82 Y137.25 E199.80452
G1 X161.62 Y138.74 E199.95389
G1 X161.68 Y138.77 E199.95714
G1 X163.63 Y140.38 E200.07642
G1 X164.12 Y140.78 E200.10604
G1 X164.18 Y140.83 E200.10975
G1 X166.23 Y143.33 E200.26227
G1 X167.75 Y146.18 E200.41493
G1 X168.59 Y148.95 E200.55124
G1 X168.70 Y149.28 E200.56775
G1 X169.01 Y152.50 E200.72023
G1 X168.70 Y155.72 E200.87281
G1 X167.76 Y158.82 E201.02552
G1 X166.32 Y161.51 E201.16947
G1 X166.23 Y161.67 E201.17803
G1 X164.28 Y164.05 E201.32335
G1 X164.18 Y164.18 E201.33082
G1 X161.67 Y166.23 E201.48357
G1 X158.93 Y167.70 E201.63042
G1 X158.82 Y167.76 E201.63616
G1 X155.82 Y168.66 E201.78379
G1 X155.72 Y168.70 E201.78888
G1 X152.59 Y169.00 E201.93700
G1 X152.50 Y169.01 E201.94141
G1 X151.49 Y168.91 E201.98945
G1 X150.48 Y168.81 E202.03722
G1 X149.29 Y168.70 E202.09327
G1 X149.28 Y168.69 E202.09403
G1 X146.23 Y167.77 E202.24434
G1 X146.18 Y167.75 E202.24685
G1 X143.38 Y166.26 E202.39622
G1 X143.32 Y166.23 E202.39947
G1 X141.37 Y164.62 E202.51875
G1 X140.88 Y164.22 E202.54837
G1 X140.82 Y164.17 E202.55208
G1 X138.77 Y161.67 E202.70460
G1 X137.25 Y158.82 E202.85726
G1 X136.41 Y156.05 E202.99357
G1 X136.30 Y155.72 E203.01008
G1 X135.99 Y152.50 E203.16256
G1 X136.30 Y149.28 E203.31514
G1 X137.24 Y146.18 E203.46785
G1 X138.68 Y143.49 E203.61180
G1 X138.77 Y143.33 E203.62036
G1 X140.72 Y140.95 E203.76568
G1 X140.82 Y140.82 E203.77315
G1 X143.33 Y138.77 E203.92590
G1 X146.07 Y137.30 E204.07275
G1 X146.18 Y137.24 E204.07849
G0 F12000 X146.03 Y136.87
G1 F2700 X149.06 Y135.95 E204.22800
G1 X149.20 Y135.91 E204.23495
G1 X152.50 Y135.59 E204.39137
G1 X153.14 Y135.65 E204.42132
G1 X155.80 Y135.91 E204.54750
G1 X158.89 Y136.85 E204.69964
G1 X158.97 Y136.87 E204.70402
G1 X161.80 Y138.39 E204.85526
G1 X161.90 Y138.44 E204.86022
G1 X163.88 Y140.07 E204.98155
G1 X164.37 Y140.47 E205.01116
G1 X164.46 Y140.54 E205.01652
G1 X166.56 Y143.10 E205.17310
G1 X168.13 Y146.03 E205.32938
G1 X169.09 Y149.20 E205.48571
G1 X169.41 Y152.50 E205.64207
G1 X169.09 Y155.80 E205.79844
G1 X168.13 Y158.97 E205.95476
G1 X166.56 Y161.90 E206.11105
G1 X164.46 Y164.46 E206.26752
G1 X161.90 Y166.56 E206.42399
G1 X158.97 Y168.13 E206.58027
G1 X155.94 Y169.05 E206.72978
G1 X155.80 Y169.09 E206.73673
G1 X152.50 Y169.41 E206.89300
G1 X149.26 Y169.09 E207.04663
G1 X149.20 Y169.09 E207.04932
G1 X146.11 Y168.15 E207.20142
G1 X146.03 Y168.13 E207.20580
G1 X143.20 Y166.61 E207.35704
G1 X143.10 Y166.56 E207.36200
G1 X141.11 Y164.93 E207.48340
G1 X140.63 Y164.53 E207.51294
G1 X140.54 Y164.46 E207.51831
G1 X138.44 Y161.90 E207.67488
G1 X136.87 Y158.97 E207.83116
G1 X135.91 Y155.80 E207.98749
G1 X135.59 Y152.50 E208.14385
G1 X135.91 Y149.20 E208.30022
G1 X136.87 Y146.03 E208.45654
G1 X138.44 Y143.10 E208.61283
G1 X140.54 Y140.54 E208.76930
G1 X143.10 Y138.44 E208.92577
G1 X146.03 Y136.87 E209.08206
G0 F12000 X146.77 Y138.67
G1 F2700 X144.86 Y139.79 E209.18690
G1 X144.25 Y140.28 E209.22375
G1 X143.16 Y141.23 E209.29187
G1 X142.42 Y142.10 E209.34580
G1 X141.78 Y142.98 E209.39697
G1 X141.48 Y143.57 E209.42797
G1 X141.37 Y144.42 E209.46838
G1 X141.05 Y144.84 E209.49359
G1 X140.35 Y146.01 E209.55742
G1 X140.06 Y146.62 E209.58964
G1 X139.77 Y147.23 E209.62117
G1 X139.34 Y148.43 E209.68150
G1 X139.13 Y149.24 E209.72058
G1 X138.99 Y149.81 E209.74868
G1 X138.79 Y151.15 E209.81242
G1 X138.73 Y152.38 E209.87059
G1 X138.72 Y152.50 E209.87597
G1 X138.78 Y153.65 E209.93065
G1 X138.79 Y153.85 E209.93995
G1 X138.95 Y154.91 E209.99029
G1 X139.04 Y155.40 E210.01387
G1 X139.30 Y156.41 E210.06331
G1 X139.71 Y157.59 E210.12191
G1 X139.92 Y158.08 E210.14722
G1 X140.35 Y158.99 E210.19485
G1 X141.05 Y160.15 E210.25864
G1 X141.85 Y161.24 E210.32235
G1 X142.76 Y162.24 E210.38612
G1 X143.69 Y163.09 E210.44538
G1 X144.63 Y163.80 E210.50117
G1 X144.84 Y163.95 E210.51354
G1 X146.01 Y164.65 E210.57737
G1 X147.23 Y165.23 E210.64112
G1 X148.50 Y165.68 E210.70491
G1 X149.41 Y165.91 E210.74885
G1 X149.81 Y166.01 E210.76859
G1 X150.49 Y166.11 E210.80111
G1 X151.01 Y166.19 E210.82567
G1 X151.15 Y166.21 E210.83252
G1 X151.98 Y166.25 E210.87166
G1 X152.50 Y166.28 E210.89608
G1 X153.45 Y166.23 E210.94117
G1 X153.85 Y166.21 E210.95991
G1 X155.01 Y166.04 E211.01523
G1 X155.19 Y166.01 E211.02356
G1 X155.42 Y165.95 E211.03483
G1 X155.43 Y165.99 E211.03670
G1 X155.77 Y166.02 E211.05267
G1 X156.38 Y166.16 E211.08204
G1 X157.94 Y165.93 E211.15667
G1 X158.10 Y165.90 E211.16438
G1 X160.17 Y165.10 E211.26884
G1 X162.06 Y163.93 E211.37372
G1 X163.31 Y162.86 E211.45124
G1 X163.76 Y162.46 E211.47973
G1 X165.19 Y160.73 E211.58572
G1 X165.97 Y159.44 E211.65655
G1 X166.35 Y158.78 E211.69272
G1 X167.19 Y156.66 E211.79983
G1 X167.34 Y156.04 E211.82985
G1 X167.64 Y154.75 E211.89265
G1 X167.71 Y154.44 E211.90768
G1 X167.86 Y152.16 E212.01534
G1 X167.79 Y151.30 E212.05598
G1 X167.67 Y149.88 E212.12342
G1 X167.53 Y149.25 E212.15353
G1 X167.13 Y147.64 E212.23197
G1 X166.26 Y145.51 E212.34031
G1 X165.39 Y144.06 E212.42034
G1 X165.07 Y143.54 E212.44898
G1 X163.59 Y141.78 E212.55735
G1 X161.87 Y140.26 E212.66563
G1 X161.40 Y139.96 E212.69194
G1 X159.93 Y139.03 E212.77408
G1 X158.91 Y138.58 E212.82620
G1 X157.83 Y138.11 E212.88194
G1 X156.47 Y137.74 E212.94863
G1 X155.62 Y137.52 E212.98995
G1 X153.36 Y137.28 E213.09728
G1 X152.74 Y137.31 E213.12622
G1 X151.50 Y137.37 E213.18476
G1 X151.08 Y137.39 E213.20460
G1 X148.88 Y137.87 E213.31084
G1 X147.31 Y138.45 E213.39004
G1 X146.77 Y138.67 E213.41712
G0 F12000 X146.95 Y139.03
;TYPE:WALL-OUTER
G1 F2700 X145.09 Y140.12 E213.51917
G1 X144.51 Y140.59 E213.55428
G1 X143.44 Y141.51 E213.62063
G1 X142.73 Y142.35 E213.67239
G1 X142.12 Y143.19 E213.72142
G1 X141.87 Y143.69 E213.74778
G1 X141.75 Y144.57 E213.78977
G1 X141.40 Y145.04 E213.81748
