;-- START GCODE --
;Sliced for Type A Machines Series 1
;Sliced at: Fri 26-06-2015 23:37:38
;Basic settings: Layer height: 0.1 Walls: 0.8 Fill: 11
;Print Speed: 120 Support: 0
;Retraction Speed: 40 Retraction Distance: 0.5
;Print time: #P_TIME#
;Filament used: #F_AMNT#m #F_WGHT#g
;Filament cost: #F_COST#
M106 S255	 ;start with the fan on
G21        ;metric values
G90        ;absolute positioning
M106 S255    ;start with the fan on
G28     ;move to endstops
G29		;allows for auto-levelling
G1 X150 Y5  Z15.0 F12000 ;center and move the platform down 15mm
M109 S220 ;Heat To temp
G92 E0                  ;zero the extruded length
G1 F200 E30              ;extrude 30mm of feed stock
G92 E0                  ;zero the extruded length again
G1 X175 Y25  Z0 F12000 ;remove bugger
G1 X220 F12000 ;remove bugger
G1 X150 Y150  Z15 F12000 ;recenter and begin
G1 F12000

;Layer count: 198
;LAYER:-2
;RAFT
G0 F12000 X136.29 Y133.08 Z0.30
;TYPE:SUPPORT
G1 F2700 X136.69 Y132.88 E0.03680
G1 X137.29 Y132.28 E0.10694
G1 X137.69 Y132.08 E0.14377
G1 X138.09 Y131.68 E0.19051
G1 X144.28 Y128.59 E0.76134
G1 X145.82 Y128.20 E0.89220
G1 X146.80 Y128.01 E0.97500
G1 X148.17 Y127.67 E1.09119
G1 X157.47 Y127.67 E1.85891
G1 X159.97 Y128.29 E2.07114
G1 X161.16 Y128.69 E2.17495
G1 X165.95 Y131.08 E2.61672
G1 X166.15 Y131.28 E2.64012
G1 X166.95 Y131.68 E2.71385
G1 X167.35 Y132.08 E2.76060
G1 X167.75 Y132.28 E2.79743
G1 X168.95 Y133.48 E2.93759
G1 X169.35 Y133.68 E2.97439
G1 X172.87 Y137.21 E3.38555
G1 X172.87 Y137.41 E3.40206
G1 X173.47 Y138.01 E3.47208
G1 X173.47 Y138.21 E3.48858
G1 X174.27 Y139.01 E3.58195
G1 X174.27 Y139.21 E3.59846
G1 X174.47 Y139.41 E3.62180
G1 X174.47 Y139.61 E3.63830
G1 X174.67 Y139.81 E3.66164
G1 X174.67 Y140.01 E3.67815
G1 X174.87 Y140.21 E3.70149
G1 X174.87 Y140.41 E3.71800
G1 X175.07 Y140.61 E3.74134
G1 X175.07 Y140.81 E3.75784
G1 X175.27 Y141.01 E3.78118
G1 X175.27 Y141.21 E3.79769
G1 X175.47 Y141.41 E3.82103
G1 X175.47 Y141.61 E3.83753
G1 X175.67 Y141.81 E3.86088
G1 X175.67 Y142.01 E3.87738
G1 X175.87 Y142.21 E3.90072
G1 X175.87 Y142.41 E3.91723
G1 X176.07 Y142.61 E3.94057
G1 X176.07 Y142.81 E3.95707
G1 X176.27 Y143.01 E3.98042
G1 X176.27 Y143.21 E3.99692
G1 X176.47 Y143.41 E4.02026
G1 X176.47 Y144.01 E4.06978
G1 X176.67 Y144.21 E4.09312
G1 X176.67 Y144.41 E4.10962
G1 X176.87 Y144.61 E4.13297
G1 X176.87 Y145.21 E4.18248
G1 X177.07 Y145.41 E4.20582
G1 X177.07 Y146.21 E4.27184
G1 X177.27 Y146.41 E4.29518
G1 X177.27 Y147.41 E4.37771
G1 X177.47 Y147.61 E4.40105
G1 X177.47 Y157.13 E5.18685
G1 X177.27 Y157.33 E5.21019
G1 X177.27 Y158.33 E5.29272
G1 X177.07 Y158.53 E5.31606
G1 X177.07 Y159.33 E5.38208
G1 X176.87 Y159.53 E5.40542
G1 X176.87 Y160.13 E5.45493
G1 X176.67 Y160.33 E5.47828
G1 X176.67 Y160.53 E5.49478
G1 X176.47 Y160.73 E5.51812
G1 X176.47 Y161.33 E5.56764
G1 X176.27 Y161.53 E5.59098
G1 X176.27 Y161.93 E5.62399
G1 X176.07 Y162.13 E5.64733
G1 X176.07 Y162.33 E5.66384
G1 X175.87 Y162.53 E5.68718
G1 X175.87 Y162.73 E5.70368
G1 X175.67 Y162.93 E5.72702
G1 X175.67 Y163.13 E5.74353
G1 X175.47 Y163.33 E5.76687
G1 X175.47 Y163.53 E5.78337
G1 X175.27 Y163.73 E5.80672
G1 X175.27 Y163.93 E5.82322
G1 X175.07 Y164.13 E5.84656
G1 X175.07 Y164.33 E5.86307
G1 X174.87 Y164.53 E5.88641
G1 X174.87 Y164.73 E5.90291
G1 X174.67 Y164.93 E5.92626
G1 X174.67 Y165.13 E5.94276
G1 X174.27 Y165.53 E5.98944
G1 X174.27 Y165.73 E6.00595
G1 X173.67 Y166.33 E6.07597
G1 X173.67 Y166.53 E6.09248
G1 X172.87 Y167.33 E6.18584
G1 X172.87 Y167.53 E6.20235
G1 X168.35 Y172.05 E6.73022
G1 X167.95 Y172.25 E6.76701
G1 X167.35 Y172.85 E6.83715
G1 X166.15 Y173.45 E6.94776
G1 X165.55 Y174.05 E7.01779
G1 X164.01 Y174.82 E7.15973
G1 X161.76 Y175.94 E7.36736
G1 X160.56 Y176.24 E7.46928
G1 X160.56 Y176.25 E7.46954
G1 X159.96 Y176.54 E7.52490
G1 X157.38 Y177.19 E7.74413
G1 X154.88 Y177.47 E7.95137
G1 X150.75 Y177.47 E8.29220
G1 X148.26 Y177.19 E8.49945
G1 X147.21 Y176.93 E8.58862
G1 X146.22 Y176.73 E8.67216
G1 X144.68 Y176.34 E8.80302
G1 X143.88 Y175.95 E8.87654
G1 X143.08 Y175.75 E8.94477
G1 X139.29 Y173.85 E9.29423
G1 X138.89 Y173.45 E9.34115
G1 X137.69 Y172.85 E9.45168
G1 X137.09 Y172.25 E9.52182
G1 X136.69 Y172.05 E9.55862
G1 X135.69 Y171.05 E9.67544
G1 X135.29 Y170.85 E9.71224
G1 X132.37 Y167.93 E10.05338
G1 X132.37 Y167.73 E10.06988
G1 X131.77 Y167.13 E10.13991
G1 X131.77 Y166.93 E10.15641
G1 X130.97 Y166.13 E10.24978
G1 X130.97 Y165.93 E10.26628
G1 X130.77 Y165.73 E10.28962
G1 X130.77 Y165.53 E10.30613
G1 X129.97 Y164.73 E10.39949
G1 X129.97 Y164.53 E10.41600
G1 X129.77 Y164.33 E10.43934
G1 X129.77 Y164.13 E10.45585
G1 X129.57 Y163.93 E10.47919
G1 X129.57 Y163.73 E10.49569
G1 X129.37 Y163.53 E10.51903
G1 X129.37 Y163.33 E10.53554
G1 X129.17 Y163.13 E10.55888
G1 X129.17 Y162.93 E10.57539
G1 X128.97 Y162.73 E10.59873
G1 X128.97 Y162.53 E10.61523
G1 X128.77 Y162.33 E10.63857
G1 X128.77 Y162.13 E10.65508
G1 X128.57 Y161.93 E10.67842
G1 X128.57 Y161.13 E10.74444
G1 X128.37 Y160.93 E10.76778
G1 X128.37 Y160.73 E10.78429
G1 X128.17 Y160.53 E10.80763
G1 X128.17 Y160.33 E10.82413
G1 X127.97 Y160.13 E10.84747
G1 X127.97 Y159.53 E10.89699
G1 X127.77 Y159.33 E10.92033
G1 X127.77 Y158.53 E10.98635
G1 X127.57 Y158.33 E11.00969
G1 X127.57 Y146.41 E11.99355
G1 X127.77 Y146.21 E12.01689
G1 X127.77 Y145.41 E12.08291
G1 X127.97 Y145.21 E12.10626
G1 X127.97 Y144.61 E12.15577
G1 X128.17 Y144.41 E12.17911
G1 X128.17 Y144.21 E12.19562
G1 X128.37 Y144.01 E12.21896
G1 X128.37 Y143.81 E12.23546
G1 X128.57 Y143.61 E12.25881
G1 X128.57 Y143.01 E12.30832
G1 X128.77 Y142.81 E12.33166
G1 X128.77 Y142.61 E12.34817
G1 X128.97 Y142.41 E12.37151
G1 X128.97 Y142.21 E12.38801
G1 X129.17 Y142.01 E12.41135
G1 X129.17 Y141.81 E12.42786
G1 X129.37 Y141.61 E12.45120
G1 X129.37 Y141.41 E12.46771
G1 X129.57 Y141.21 E12.49105
G1 X129.57 Y141.01 E12.50755
G1 X129.77 Y140.81 E12.53089
G1 X129.77 Y140.61 E12.54740
G1 X129.97 Y140.41 E12.57074
G1 X129.97 Y140.21 E12.58725
G1 X130.17 Y140.01 E12.61059
G1 X130.17 Y139.81 E12.62709
G1 X130.77 Y139.21 E12.69712
G1 X130.77 Y139.01 E12.71362
G1 X130.97 Y138.81 E12.73696
G1 X130.97 Y138.61 E12.75347
G1 X131.77 Y137.81 E12.84683
G1 X131.77 Y137.61 E12.86334
G1 X136.29 Y133.08 E13.39121
G0 F12000 X146.16 Y144.77
G1 F2700 X145.44 Y145.43 E13.47195
G1 X144.77 Y146.16 E13.55351
G1 X144.27 Y146.84 E13.62336
G1 X144.27 Y158.16 E14.55721
G1 X144.77 Y158.84 E14.62706
G1 X145.43 Y159.57 E14.70821
G1 X146.16 Y160.23 E14.78937
G1 X146.94 Y160.81 E14.86971
G1 X147.79 Y161.31 E14.95088
G1 X148.67 Y161.73 E15.03180
G1 X149.60 Y162.06 E15.11287
G1 X150.55 Y162.30 E15.19385
G1 X151.51 Y162.44 E15.27428
G1 X152.51 Y162.49 E15.35641
G1 X153.48 Y162.44 E15.43648
G1 X154.45 Y162.30 E15.51749
G1 X155.40 Y162.06 E15.59847
G1 X156.33 Y161.73 E15.67955
G1 X157.21 Y161.31 E15.76046
G1 X158.06 Y160.81 E15.84163
G1 X158.84 Y160.23 E15.92198
G1 X159.57 Y159.57 E16.00313
G1 X160.23 Y158.84 E16.08428
G1 X160.81 Y158.06 E16.16463
G1 X161.31 Y157.21 E16.24580
G1 X161.73 Y156.33 E16.32671
G1 X162.06 Y155.40 E16.40779
G1 X162.30 Y154.45 E16.48877
G1 X162.44 Y153.49 E16.56919
G1 X162.49 Y152.49 E16.65133
G1 X162.44 Y151.52 E16.73140
G1 X162.30 Y150.55 E16.81240
G1 X162.06 Y149.60 E16.89339
G1 X161.73 Y148.67 E16.97446
G1 X161.31 Y147.79 E17.05538
G1 X160.81 Y146.94 E17.13654
G1 X160.23 Y146.16 E17.21689
G1 X159.56 Y145.43 E17.29845
G1 X158.84 Y144.77 E17.37919
G1 X158.06 Y144.19 E17.45954
G1 X157.21 Y143.69 E17.54071
G1 X156.33 Y143.27 E17.62162
G1 X155.40 Y142.94 E17.70270
G1 X154.45 Y142.70 E17.78368
G1 X153.49 Y142.56 E17.86410
G1 X152.49 Y142.51 E17.94624
G1 X151.52 Y142.56 E18.02631
G1 X150.55 Y142.70 E18.10731
G1 X149.60 Y142.94 E18.18830
G1 X148.67 Y143.27 E18.26937
G1 X147.79 Y143.69 E18.35029
G1 X146.94 Y144.19 E18.43145
G1 X146.16 Y144.77 E18.51180
G0 F12000 X146.50 Y144.65
G1 F2700 X146.50 Y127.96 E19.88947
G0 F12000 X145.50 Y128.18
G1 F2700 X145.50 Y145.52 E21.32078
G0 F12000 X144.50 Y146.71
G1 F2700 X144.50 Y128.43 E22.82942
G0 F12000 X143.50 Y128.86
G1 F2700 X143.50 Y175.96 E26.71600
G0 F12000 X142.50 Y175.57
G1 F2700 X142.50 Y129.36 E30.52947
G0 F12000 X141.50 Y129.86
G1 F2700 X141.50 Y175.07 E34.26042
G0 F12000 X140.50 Y174.57
G1 F2700 X140.50 Y130.36 E37.90884
G0 F12000 X139.50 Y130.86
G1 F2700 X139.50 Y174.07 E41.47474
G0 F12000 X138.50 Y173.37
G1 F2700 X138.50 Y131.36 E44.94160
G0 F12000 X137.50 Y132.06
G1 F2700 X137.50 Y172.81 E48.30416
G0 F12000 X136.50 Y172.01
G1 F2700 X136.50 Y132.86 E51.53459
G0 F12000 X135.50 Y133.73
G1 F2700 X135.50 Y171.07 E54.61648
G0 F12000 X134.50 Y170.21
G1 F2700 X134.50 Y134.73 E57.54446
G0 F12000 X133.50 Y135.73
G1 F2700 X133.50 Y169.21 E60.30739
G0 F12000 X132.50 Y168.21
G1 F2700 X132.50 Y136.73 E62.90527
G0 F12000 X131.50 Y137.93
G1 F2700 X131.50 Y166.81 E65.28858
G0 F12000 X130.50 Y165.41
G1 F2700 X130.50 Y139.33 E67.44083
G0 F12000 X129.50 Y140.93
G1 F2700 X129.50 Y164.01 E69.34550
G0 F12000 X128.50 Y162.01
G1 F2700 X128.50 Y142.93 E70.92007
G0 F12000 X127.50 Y146.33
G1 F2700 X127.50 Y158.41 E71.91697
G0 F12000 X144.50 Y158.29
G1 F2700 X144.50 Y176.37 E73.40886
G0 F12000 X145.50 Y176.66
G1 F2700 X145.50 Y159.49 E74.82597
G0 F12000 X146.50 Y160.35
G1 F2700 X146.50 Y176.89 E76.19135
G0 F12000 X147.50 Y177.11
G1 F2700 X147.50 Y161.02 E77.51917
G0 F12000 X148.50 Y161.53
G1 F2700 X148.50 Y177.32 E78.82207
G0 F12000 X149.50 Y177.43
G1 F2700 X149.50 Y161.92 E80.10261
G0 F12000 X150.50 Y162.18
G1 F2700 X150.50 Y177.54 E81.37044
G0 F12000 X151.50 Y177.57
G1 F2700 X151.50 Y162.34 E82.62778
G0 F12000 X152.50 Y162.39
G1 F2700 X152.50 Y177.57 E83.88076
G0 F12000 X153.50 Y177.57
G1 F2700 X153.50 Y162.34 E85.13819
G0 F12000 X154.50 Y162.18
G1 F2700 X154.50 Y177.57 E86.40841
G0 F12000 X155.50 Y177.50
G1 F2700 X155.50 Y161.91 E87.69497
G0 F12000 X156.50 Y161.53
G1 F2700 X156.50 Y177.39 E89.00390
G0 F12000 X157.50 Y177.27
G1 F2700 X157.50 Y161.02 E90.34509
G0 F12000 X158.50 Y160.35
G1 F2700 X158.50 Y177.02 E91.72102
G0 F12000 X159.50 Y176.77
G1 F2700 X159.50 Y159.49 E93.14730
G0 F12000 X160.50 Y158.29
G1 F2700 X160.50 Y176.39 E94.64083
G0 F12000 X161.50 Y176.12
G1 F2700 X161.50 Y156.57 E96.25403
G0 F12000 X161.50 Y148.43
G1 F2700 X161.50 Y128.74 E97.87861
G0 F12000 X160.50 Y128.36
G1 F2700 X160.50 Y146.71 E99.39269
G0 F12000 X159.50 Y145.52
G1 F2700 X159.50 Y128.07 E100.83292
G0 F12000 X158.50 Y127.82
G1 F2700 X158.50 Y144.65 E102.22239
G0 F12000 X157.50 Y143.98
G1 F2700 X157.50 Y127.57 E103.57703
G0 F12000 X156.50 Y127.56
G1 F2700 X156.50 Y143.47 E104.88950
G0 F12000 X155.50 Y143.08
G1 F2700 X155.50 Y127.56 E106.17045
G0 F12000 X154.50 Y127.56
G1 F2700 X154.50 Y142.82 E107.42953
G0 F12000 X153.50 Y142.66
G1 F2700 X153.50 Y127.56 E108.67582
G0 F12000 X152.50 Y127.56
G1 F2700 X152.50 Y142.61 E109.91774
G0 F12000 X151.50 Y142.66
G1 F2700 X151.50 Y127.56 E111.16411
G0 F12000 X150.50 Y127.56
G1 F2700 X150.50 Y142.82 E112.42327
G0 F12000 X149.50 Y143.09
G1 F2700 X149.50 Y127.56 E113.70431
G0 F12000 X148.50 Y127.56
G1 F2700 X148.50 Y143.47 E115.01686
G0 F12000 X147.50 Y143.98
G1 F2700 X147.50 Y127.72 E116.35855
G0 F12000 X162.50 Y129.24
G1 F2700 X162.50 Y175.69 E120.19166
G0 F12000 X163.50 Y175.19
G1 F2700 X163.50 Y129.74 E123.94225
G0 F12000 X164.50 Y130.24
G1 F2700 X164.50 Y174.69 E127.61031
G0 F12000 X165.50 Y174.19
G1 F2700 X165.50 Y130.74 E131.19585
G0 F12000 X166.50 Y131.34
G1 F2700 X166.50 Y173.39 E134.66585
G0 F12000 X167.50 Y172.84
G1 F2700 X167.50 Y132.04 E138.03303
G0 F12000 X168.50 Y132.89
G1 F2700 X168.50 Y172.04 E141.26437
G0 F12000 X169.50 Y171.04
G1 F2700 X169.50 Y133.69 E144.34716
G0 F12000 X170.50 Y134.69
G1 F2700 X170.50 Y170.04 E147.26491
G0 F12000 X171.50 Y169.04
G1 F2700 X171.50 Y135.69 E150.01761
G0 F12000 X172.50 Y136.69
G1 F2700 X172.50 Y168.04 E152.60525
G0 F12000 X173.50 Y166.84
G1 F2700 X173.50 Y137.89 E154.99484
G0 F12000 X174.50 Y139.29
G1 F2700 X174.50 Y165.44 E157.15336
G0 F12000 X175.50 Y163.65
G1 F2700 X175.50 Y141.29 E158.99828
G0 F12000 X176.50 Y143.29
G1 F2700 X176.50 Y161.44 E160.49660
G0 F12000 X177.50 Y157.25
G1 F2700 X177.50 Y147.49 E161.30171
M106 S255
;LAYER:-1
;RAFT
G0 F12000 X177.50 Y147.80 Z0.50
;TYPE:SUPPORT
G1 F7200 X157.34 Y127.64 E161.74994
G0 F12000 X156.77 Y127.64
G1 F7200 X177.50 Y148.37 E162.21073
G0 F12000 X177.50 Y148.93
G1 F7200 X156.20 Y127.64 E162.68410
G0 F12000 X155.64 Y127.64
G1 F7200 X177.50 Y149.50 E163.17005
G0 F12000 X177.50 Y150.06
G1 F7200 X155.07 Y127.64 E163.66857
G0 F12000 X154.51 Y127.64
G1 F7200 X177.50 Y150.63 E164.17966
G0 F12000 X177.50 Y151.19
G1 F7200 X153.94 Y127.64 E164.70333
G0 F12000 X153.38 Y127.64
G1 F7200 X177.50 Y151.76 E165.23958
G0 F12000 X177.50 Y152.32
G1 F7200 X152.81 Y127.64 E165.78839
G0 F12000 X152.24 Y127.64
G1 F7200 X177.50 Y152.89 E166.34979
G0 F12000 X177.50 Y153.46
G1 F7200 X151.68 Y127.64 E166.92377
G0 F12000 X151.11 Y127.64
G1 F7200 X177.50 Y154.02 E167.51032
G0 F12000 X177.50 Y154.59
G1 F7200 X150.55 Y127.64 E168.10944
G0 F12000 X149.98 Y127.64
G1 F7200 X177.50 Y155.15 E168.72114
G0 F12000 X177.50 Y155.72
G1 F7200 X149.41 Y127.64 E169.34542
G0 F12000 X148.85 Y127.64
G1 F7200 X177.50 Y156.28 E169.98226
G0 F12000 X177.50 Y156.85
G1 F7200 X148.28 Y127.64 E170.63169
G0 F12000 X147.81 Y127.73
G1 F7200 X177.36 Y157.28 E171.28865
G0 F12000 X177.30 Y157.78
G1 F7200 X147.35 Y127.84 E171.95428
G0 F12000 X146.90 Y127.95
G1 F7200 X177.29 Y158.34 E172.62989
G0 F12000 X177.10 Y158.71
G1 F7200 X146.44 Y128.05 E173.31153
G0 F12000 X145.96 Y128.14
G1 F7200 X177.10 Y159.28 E174.00367
G0 F12000 X176.90 Y159.64
G1 F7200 X145.50 Y128.25 E174.70154
G0 F12000 X145.05 Y128.37
G1 F7200 X176.86 Y160.18 E175.40867
G0 F12000 X176.68 Y160.56
G1 F7200 X144.60 Y128.48 E176.12177
G0 F12000 X144.17 Y128.61
G1 F7200 X176.50 Y160.94 E176.84046
G0 F12000 X176.41 Y161.42
G1 F7200 X143.79 Y128.80 E177.56567
G0 F12000 X143.41 Y128.99
G1 F7200 X176.30 Y161.87 E178.29670
G0 F12000 X176.10 Y162.24
G1 F7200 X160.67 Y146.81 E178.63967
G0 F12000 X161.46 Y148.16
G1 F7200 X175.90 Y162.60 E178.96074
G0 F12000 X175.70 Y162.97
G1 F7200 X161.87 Y149.14 E179.26825
G0 F12000 X162.12 Y149.96
G1 F7200 X175.50 Y163.34 E179.56569
G0 F12000 X175.32 Y163.72
G1 F7200 X162.29 Y150.69 E179.85527
G0 F12000 X162.39 Y151.36
G1 F7200 X175.13 Y164.10 E180.13858
G0 F12000 X174.95 Y164.49
G1 F7200 X162.44 Y151.97 E180.41676
G0 F12000 X162.46 Y152.56
G1 F7200 X174.77 Y164.87 E180.69042
G0 F12000 X174.59 Y165.25
G1 F7200 X162.43 Y153.10 E180.96060
G0 F12000 X162.39 Y153.62
G1 F7200 X174.30 Y165.53 E181.22539
G0 F12000 X174.12 Y165.92
G1 F7200 X162.32 Y154.12 E181.48774
G0 F12000 X162.23 Y154.59
G1 F7200 X173.84 Y166.20 E181.74572
G0 F12000 X173.65 Y166.58
G1 F7200 X162.12 Y155.05 E182.00214
G0 F12000 X162.00 Y155.49
G1 F7200 X173.37 Y166.87 E182.25498
G0 F12000 X173.09 Y167.15
G1 F7200 X161.85 Y155.91 E182.50486
G0 F12000 X161.70 Y156.32
G1 F7200 X172.90 Y167.52 E182.75384
G0 F12000 X172.62 Y167.81
G1 F7200 X161.52 Y156.71 E183.00075
G0 F12000 X161.33 Y157.09
G1 F7200 X172.34 Y168.10 E183.24542
G0 F12000 X172.06 Y168.38
G1 F7200 X161.13 Y157.45 E183.48833
G0 F12000 X160.92 Y157.81
G1 F7200 X171.78 Y168.66 E183.72967
G0 F12000 X171.49 Y168.95
G1 F7200 X160.70 Y158.15 E183.96965
G0 F12000 X160.46 Y158.48
G1 F7200 X171.21 Y169.23 E184.20868
G0 F12000 X170.93 Y169.51
G1 F7200 X160.22 Y158.80 E184.44679
G0 F12000 X159.95 Y159.10
G1 F7200 X170.64 Y169.79 E184.68455
G0 F12000 X170.36 Y170.08
G1 F7200 X159.68 Y159.40 E184.92199
G0 F12000 X159.40 Y159.68
G1 F7200 X170.08 Y170.36 E185.15943
G0 F12000 X169.79 Y170.64
G1 F7200 X159.10 Y159.95 E185.39718
G0 F12000 X158.80 Y160.22
G1 F7200 X169.51 Y170.93 E185.63526
G0 F12000 X169.23 Y171.21
G1 F7200 X158.48 Y160.46 E185.87428
G0 F12000 X158.15 Y160.70
G1 F7200 X168.95 Y171.49 E186.11423
G0 F12000 X168.66 Y171.78
G1 F7200 X157.81 Y160.92 E186.35556
G0 F12000 X157.46 Y161.13
G1 F7200 X168.38 Y172.06 E186.59846
G0 F12000 X168.01 Y172.25
G1 F7200 X157.09 Y161.34 E186.84113
G0 F12000 X156.71 Y161.52
G1 F7200 X167.72 Y172.52 E187.08583
G0 F12000 X167.43 Y172.81
G1 F7200 X156.32 Y161.70 E187.33276
G0 F12000 X155.91 Y161.85
G1 F7200 X167.08 Y173.02 E187.58105
G0 F12000 X166.70 Y173.21
G1 F7200 X155.49 Y162.00 E187.83021
G0 F12000 X155.05 Y162.12
G1 F7200 X166.32 Y173.39 E188.08086
G0 F12000 X166.00 Y173.64
G1 F7200 X154.60 Y162.23 E188.33439
G0 F12000 X154.12 Y162.32
G1 F7200 X165.72 Y173.92 E188.59228
G0 F12000 X165.39 Y174.16
G1 F7200 X153.62 Y162.39 E188.85386
G0 F12000 X153.10 Y162.43
G1 F7200 X165.01 Y174.35 E189.11873
G0 F12000 X164.64 Y174.54
G1 F7200 X152.56 Y162.46 E189.38718
G0 F12000 X151.97 Y162.44
G1 F7200 X164.26 Y174.72 E189.66037
G0 F12000 X163.88 Y174.91
G1 F7200 X151.36 Y162.39 E189.93879
G0 F12000 X150.69 Y162.29
G1 F7200 X163.50 Y175.10 E190.22356
G0 F12000 X163.13 Y175.29
G1 F7200 X149.96 Y162.12 E190.51633
G0 F12000 X149.14 Y161.87
G1 F7200 X162.75 Y175.48 E190.81897
G0 F12000 X162.37 Y175.67
G1 F7200 X148.16 Y161.46 E191.13492
G0 F12000 X146.81 Y160.67
G1 F7200 X162.00 Y175.86 E191.47250
G0 F12000 X161.59 Y176.01
G1 F7200 X128.55 Y142.98 E192.20692
G0 F12000 X128.74 Y142.60
G1 F7200 X144.33 Y158.19 E192.55356
G0 F12000 X144.30 Y157.59
G1 F7200 X128.94 Y142.23 E192.89503
G0 F12000 X129.14 Y141.87
G1 F7200 X144.30 Y157.03 E193.23206
G0 F12000 X144.30 Y156.46
G1 F7200 X129.34 Y141.50 E193.56462
G0 F12000 X129.54 Y141.13
G1 F7200 X144.30 Y155.90 E193.89273
G0 F12000 X144.30 Y155.33
G1 F7200 X129.74 Y140.77 E194.21642
G0 F12000 X129.93 Y140.40
G1 F7200 X144.30 Y154.76 E194.53578
G0 F12000 X144.30 Y154.20
G1 F7200 X130.12 Y140.01 E194.85107
G0 F12000 X130.30 Y139.63
G1 F7200 X144.30 Y153.63 E195.16229
G0 F12000 X144.30 Y153.07
G1 F7200 X130.58 Y139.35 E195.46722
G0 F12000 X130.76 Y138.97
G1 F7200 X144.30 Y152.50 E195.76808
G0 F12000 X144.30 Y151.94
G1 F7200 X130.95 Y138.58 E196.06489
G0 F12000 X131.23 Y138.30
G1 F7200 X144.30 Y151.37 E196.35542
G0 F12000 X144.30 Y150.80
G1 F7200 X131.51 Y138.02 E196.63965
G0 F12000 X131.74 Y137.68
G1 F7200 X144.30 Y150.24 E196.91887
G0 F12000 X144.30 Y149.67
G1 F7200 X131.98 Y137.35 E197.19277
G0 F12000 X132.26 Y137.07
G1 F7200 X144.30 Y149.11 E197.46037
G0 F12000 X144.30 Y148.54
G1 F7200 X132.54 Y136.79 E197.72169
G0 F12000 X132.83 Y136.50
G1 F7200 X144.30 Y147.98 E197.97671
G0 F12000 X144.30 Y147.41
G1 F7200 X133.11 Y136.22 E198.22544
G0 F12000 X133.39 Y135.94
G1 F7200 X144.30 Y146.85 E198.46796
G0 F12000 X144.54 Y146.52
G1 F7200 X133.68 Y135.66 E198.70954
G0 F12000 X133.96 Y135.37
G1 F7200 X144.78 Y146.20 E198.95018
G0 F12000 X145.05 Y145.90
G1 F7200 X134.24 Y135.09 E199.19047
G0 F12000 X134.52 Y134.81
G1 F7200 X145.32 Y145.60 E199.43044
G0 F12000 X145.60 Y145.32
G1 F7200 X134.81 Y134.52 E199.67040
G0 F12000 X135.09 Y134.24
G1 F7200 X145.90 Y145.05 E199.91068
G0 F12000 X146.20 Y144.78
G1 F7200 X135.37 Y133.96 E200.15131
G0 F12000 X135.66 Y133.68
G1 F7200 X146.52 Y144.54 E200.39286
G0 F12000 X146.85 Y144.30
G1 F7200 X135.94 Y133.39 E200.63535
G0 F12000 X136.22 Y133.11
G1 F7200 X147.19 Y144.08 E200.87919
G0 F12000 X147.54 Y143.87
G1 F7200 X136.58 Y132.90 E201.12289
G0 F12000 X136.89 Y132.64
G1 F7200 X147.91 Y143.66 E201.36786
G0 F12000 X148.29 Y143.48
G1 F7200 X137.17 Y132.36 E201.61507
G0 F12000 X137.51 Y132.14
G1 F7200 X148.67 Y143.30 E201.86320
G0 F12000 X149.09 Y143.15
G1 F7200 X137.84 Y131.90 E202.11339
G0 F12000 X138.13 Y131.63
G1 F7200 X149.51 Y143.00 E202.36620
G0 F12000 X149.95 Y142.88
G1 F7200 X138.51 Y131.44 E202.62051
G0 F12000 X138.89 Y131.25
G1 F7200 X150.40 Y142.77 E202.87649
G0 F12000 X150.88 Y142.68
G1 F7200 X139.26 Y131.06 E203.13475
G0 F12000 X139.64 Y130.87
G1 F7200 X151.37 Y142.61 E203.39555
G0 F12000 X151.90 Y142.56
G1 F7200 X140.02 Y130.69 E203.65963
G0 F12000 X140.40 Y130.50
G1 F7200 X152.44 Y142.54 E203.92729
G0 F12000 X153.03 Y142.56
G1 F7200 X140.77 Y130.31 E204.19968
G0 F12000 X141.15 Y130.12
G1 F7200 X153.64 Y142.61 E204.47731
G0 F12000 X154.30 Y142.71
G1 F7200 X141.53 Y129.93 E204.76132
G0 F12000 X141.91 Y129.74
G1 F7200 X155.04 Y142.88 E205.05330
G0 F12000 X155.86 Y143.13
G1 F7200 X142.28 Y129.55 E205.35516
G0 F12000 X142.66 Y129.37
G1 F7200 X156.84 Y143.54 E205.67033
G0 F12000 X158.19 Y144.33
G1 F7200 X143.04 Y129.18 E206.00717
G0 F12000 X158.04 Y127.78
G1 F7200 X177.30 Y147.03 E206.43519
G0 F12000 X177.30 Y146.47
G1 F7200 X158.80 Y127.97 E206.84645
G0 F12000 X159.55 Y128.16
G1 F7200 X177.10 Y145.70 E207.23650
G0 F12000 X176.90 Y144.94
G1 F7200 X160.35 Y128.39 E207.60440
G0 F12000 X161.21 Y128.68
G1 F7200 X176.50 Y143.97 E207.94435
G0 F12000 X176.50 Y143.41
G1 F7200 X162.34 Y129.24 E208.25915
G0 F12000 X163.47 Y129.81
G1 F7200 X175.90 Y142.24 E208.53547
G0 F12000 X175.30 Y141.07
G1 F7200 X164.60 Y130.38 E208.77328
G0 F12000 X165.73 Y130.94
G1 F7200 X174.70 Y139.91 E208.97261
G0 F12000 X173.50 Y138.14
G1 F7200 X167.46 Y132.11 E209.10677
G0 F12000 X128.54 Y143.53
G1 F7200 X161.14 Y176.13 E209.83144
G0 F12000 X160.69 Y176.24
G1 F7200 X128.34 Y143.90 E210.55050
G0 F12000 X128.14 Y144.26
G1 F7200 X160.29 Y176.41 E211.26521
G0 F12000 X159.90 Y176.59
G1 F7200 X127.94 Y144.63 E211.97573
G0 F12000 X127.94 Y145.19
G1 F7200 X159.45 Y176.70 E212.67619
G0 F12000 X159.00 Y176.81
G1 F7200 X127.74 Y145.56 E213.37103
G0 F12000 X127.74 Y146.12
G1 F7200 X158.54 Y176.93 E214.05583
G0 F12000 X158.09 Y177.04
G1 F7200 X127.54 Y146.49 E214.73501
G0 F12000 X127.54 Y147.05
G1 F7200 X157.64 Y177.15 E215.40413
G0 F12000 X157.16 Y177.24
G1 F7200 X127.54 Y147.62 E216.06265
G0 F12000 X127.54 Y148.19
G1 F7200 X156.65 Y177.30 E216.70985
G0 F12000 X156.14 Y177.36
G1 F7200 X127.54 Y148.75 E217.34574
G0 F12000 X127.54 Y149.32
G1 F7200 X155.63 Y177.41 E217.97031
G0 F12000 X155.12 Y177.47
G1 F7200 X127.54 Y149.88 E218.58356
G0 F12000 X127.54 Y150.45
G1 F7200 X154.59 Y177.50 E219.18484
G0 F12000 X154.02 Y177.50
G1 F7200 X127.54 Y151.01 E219.77354
G0 F12000 X127.54 Y151.58
G1 F7200 X153.45 Y177.50 E220.34965
G0 F12000 X152.89 Y177.50
G1 F7200 X127.54 Y152.15 E220.91319
G0 F12000 X127.54 Y152.71
G1 F7200 X152.32 Y177.50 E221.46416
G0 F12000 X151.76 Y177.50
G1 F7200 X127.54 Y153.28 E222.00255
G0 F12000 X127.54 Y153.84
G1 F7200 X151.19 Y177.50 E222.52837
G0 F12000 X150.61 Y177.48
G1 F7200 X127.54 Y154.41 E223.04126
G0 F12000 X127.54 Y154.97
G1 F7200 X149.97 Y177.41 E223.53999
G0 F12000 X149.34 Y177.34
G1 F7200 X127.54 Y155.54 E224.02460
G0 F12000 X127.54 Y156.10
G1 F7200 X148.70 Y177.27 E224.49505
G0 F12000 X148.03 Y177.16
G1 F7200 X127.54 Y156.67 E224.95057
G0 F12000 X127.54 Y157.24
G1 F7200 X147.27 Y176.97 E225.38930
G0 F12000 X146.56 Y176.83
G1 F7200 X127.54 Y157.80 E225.81225
G0 F12000 X127.74 Y158.57
G1 F7200 X145.83 Y176.66 E226.21450
G0 F12000 X145.08 Y176.47
G1 F7200 X127.74 Y159.13 E226.59997
G0 F12000 X127.94 Y159.90
G1 F7200 X144.15 Y176.11 E226.96039
G0 F12000 X143.30 Y175.83
G1 F7200 X128.34 Y160.87 E227.29307
G0 F12000 X128.54 Y161.63
G1 F7200 X142.29 Y175.38 E227.59876
G0 F12000 X141.16 Y174.82
G1 F7200 X128.94 Y162.60 E227.87045
G0 F12000 X129.54 Y163.76
G1 F7200 X140.03 Y174.25 E228.10368
G0 F12000 X138.50 Y173.29
G1 F7200 X129.94 Y164.73 E228.29393
G0 F12000 X131.74 Y167.09
G1 F7200 X136.76 Y172.12 E228.40565
;LAYER:-1
;RAFT
G0 F12000 X136.98 Y172.26 Z0.70
;TYPE:SUPPORT
G1 F2700 X168.06 Y172.26 E229.38293
G0 F12000 X167.66 Y172.62
G1 F2700 X137.38 Y172.62 E230.33503
G0 F12000 X137.81 Y172.98
G1 F2700 X167.22 Y172.98 E231.25953
G0 F12000 X166.50 Y173.34
G1 F2700 X138.53 Y173.34 E232.13875
G0 F12000 X139.06 Y173.70
G1 F2700 X165.98 Y173.70 E232.98525
G0 F12000 X165.62 Y174.06
G1 F2700 X139.57 Y174.06 E233.80412
G0 F12000 X140.29 Y174.42
G1 F2700 X164.94 Y174.42 E234.57897
G0 F12000 X164.22 Y174.78
G1 F2700 X141.01 Y174.78 E235.30855
G0 F12000 X141.73 Y175.14
G1 F2700 X163.50 Y175.14 E235.99287
G0 F12000 X162.78 Y175.50
G1 F2700 X142.45 Y175.50 E236.63191
G0 F12000 X143.29 Y175.86
G1 F2700 X162.06 Y175.86 E237.22200
G0 F12000 X160.90 Y176.22
G1 F2700 X144.29 Y176.22 E237.74415
G0 F12000 X145.37 Y176.58
G1 F2700 X160.02 Y176.58 E238.20475
G0 F12000 X158.63 Y176.94
G1 F2700 X146.97 Y176.94 E238.57135
G0 F12000 X148.71 Y177.30
G1 F2700 X156.93 Y177.30 E238.82993
G0 F12000 X168.58 Y171.90
G1 F2700 X136.46 Y171.90 E239.83990
G0 F12000 X136.10 Y171.54
G1 F2700 X168.94 Y171.54 E240.87252
G0 F12000 X169.30 Y171.18
G1 F2700 X135.74 Y171.18 E241.92776
G0 F12000 X135.18 Y170.82
G1 F2700 X169.66 Y170.82 E243.01194
G0 F12000 X170.02 Y170.46
G1 F2700 X134.82 Y170.46 E244.11874
G0 F12000 X134.46 Y170.10
G1 F2700 X170.38 Y170.10 E245.24818
G0 F12000 X170.74 Y169.74
G1 F2700 X134.10 Y169.74 E246.40026
G0 F12000 X133.74 Y169.38
G1 F2700 X171.10 Y169.38 E247.57498
G0 F12000 X171.46 Y169.02
G1 F2700 X133.38 Y169.02 E248.77232
G0 F12000 X133.02 Y168.66
G1 F2700 X171.82 Y168.66 E249.99231
G0 F12000 X172.18 Y168.30
G1 F2700 X132.66 Y168.30 E251.23493
G0 F12000 X132.31 Y167.94
G1 F2700 X172.54 Y167.94 E252.49977
G0 F12000 X172.90 Y167.58
G1 F2700 X132.14 Y167.58 E253.78137
G0 F12000 X131.78 Y167.22
G1 F2700 X173.06 Y167.22 E255.07929
G0 F12000 X173.42 Y166.86
G1 F2700 X131.62 Y166.86 E256.39356
G0 F12000 X131.26 Y166.50
G1 F2700 X173.73 Y166.50 E257.72882
G0 F12000 X173.94 Y166.14
G1 F2700 X130.91 Y166.14 E259.08170
G0 F12000 X130.74 Y165.78
G1 F2700 X174.30 Y165.78 E260.45133
G0 F12000 X174.46 Y165.42
G1 F2700 X130.57 Y165.42 E261.83101
G0 F12000 X130.22 Y165.06
G1 F2700 X174.73 Y165.06 E263.23045
G0 F12000 X174.93 Y164.70
G1 F2700 X129.91 Y164.70 E264.64582
G0 F12000 X129.71 Y164.34
G1 F2700 X175.13 Y164.34 E266.07376
G0 F12000 X175.30 Y163.98
G1 F2700 X129.53 Y163.98 E267.51255
G0 F12000 X129.38 Y163.62
G1 F2700 X175.46 Y163.62 E268.96141
G0 F12000 X175.62 Y163.26
G1 F2700 X129.22 Y163.26 E270.42032
G0 F12000 X129.06 Y162.90
G1 F2700 X175.78 Y162.90 E271.88929
G0 F12000 X175.94 Y162.54
G1 F2700 X128.90 Y162.54 E273.36832
G0 F12000 X128.71 Y162.18
G1 F2700 X150.31 Y162.18 E274.04757
G0 F12000 X149.10 Y161.82
G1 F2700 X128.51 Y161.82 E274.69485
G0 F12000 X128.51 Y161.46
G1 F2700 X148.24 Y161.46 E275.31522
G0 F12000 X147.55 Y161.10
G1 F2700 X128.46 Y161.10 E275.91553
G0 F12000 X128.29 Y160.74
G1 F2700 X146.96 Y160.74 E276.50216
G0 F12000 X146.47 Y160.38
G1 F2700 X128.11 Y160.38 E277.07943
G0 F12000 X127.91 Y160.02
G1 F2700 X146.02 Y160.02 E277.64892
G0 F12000 X145.62 Y159.66
G1 F2700 X127.91 Y159.66 E278.20591
G0 F12000 X127.71 Y159.30
G1 F2700 X145.27 Y159.30 E278.75809
G0 F12000 X144.95 Y158.94
G1 F2700 X127.71 Y158.94 E279.30002
G0 F12000 X127.71 Y158.58
G1 F2700 X144.66 Y158.58 E279.83286
G0 F12000 X144.39 Y158.22
G1 F2700 X127.51 Y158.22 E280.36360
G0 F12000 X127.51 Y157.86
G1 F2700 X144.33 Y157.86 E280.89242
G0 F12000 X144.33 Y157.50
G1 F2700 X127.51 Y157.50 E281.42123
G0 F12000 X127.51 Y157.14
G1 F2700 X144.33 Y157.14 E281.95005
G0 F12000 X144.33 Y156.78
G1 F2700 X127.51 Y156.78 E282.47887
G0 F12000 X127.51 Y156.42
G1 F2700 X144.33 Y156.42 E283.00769
G0 F12000 X144.33 Y156.06
G1 F2700 X127.51 Y156.06 E283.53651
G0 F12000 X127.51 Y155.70
G1 F2700 X144.33 Y155.70 E284.06533
G0 F12000 X144.33 Y155.34
G1 F2700 X127.51 Y155.34 E284.59415
G0 F12000 X127.51 Y154.98
G1 F2700 X144.33 Y154.98 E285.12297
G0 F12000 X144.33 Y154.62
G1 F2700 X127.51 Y154.62 E285.65179
G0 F12000 X127.51 Y154.26
G1 F2700 X144.33 Y154.26 E286.18060
G0 F12000 X144.33 Y153.90
G1 F2700 X127.51 Y153.90 E286.70942
G0 F12000 X127.51 Y153.54
G1 F2700 X144.33 Y153.54 E287.23824
G0 F12000 X144.33 Y153.18
G1 F2700 X127.51 Y153.18 E287.76706
G0 F12000 X127.51 Y152.82
G1 F2700 X144.33 Y152.82 E288.29588
G0 F12000 X144.33 Y152.46
G1 F2700 X127.51 Y152.46 E288.82470
G0 F12000 X127.51 Y152.10
G1 F2700 X144.33 Y152.10 E289.35352
G0 F12000 X144.33 Y151.74
G1 F2700 X127.51 Y151.74 E289.88234
G0 F12000 X127.51 Y151.38
G1 F2700 X144.33 Y151.38 E290.41115
G0 F12000 X144.33 Y151.02
G1 F2700 X127.51 Y151.02 E290.93997
G0 F12000 X127.51 Y150.66
G1 F2700 X144.33 Y150.66 E291.46879
G0 F12000 X144.33 Y150.30
G1 F2700 X127.51 Y150.30 E291.99761
G0 F12000 X127.51 Y149.94
G1 F2700 X144.33 Y149.94 E292.52643
G0 F12000 X144.33 Y149.58
G1 F2700 X127.51 Y149.58 E293.05525
G0 F12000 X127.51 Y149.22
G1 F2700 X144.33 Y149.22 E293.58407
G0 F12000 X144.33 Y148.86
G1 F2700 X127.51 Y148.86 E294.11289
G0 F12000 X127.51 Y148.50
G1 F2700 X144.33 Y148.50 E294.64171
G0 F12000 X144.33 Y148.14
G1 F2700 X127.51 Y148.14 E295.17052
G0 F12000 X127.51 Y147.78
G1 F2700 X144.33 Y147.78 E295.69934
G0 F12000 X144.33 Y147.42
G1 F2700 X127.51 Y147.42 E296.22816
G0 F12000 X127.51 Y147.06
G1 F2700 X144.33 Y147.06 E296.75698
G0 F12000 X144.45 Y146.70
G1 F2700 X127.51 Y146.70 E297.28957
G0 F12000 X127.55 Y146.34
G1 F2700 X144.72 Y146.34 E297.82921
G0 F12000 X145.02 Y145.98
G1 F2700 X127.71 Y145.98 E298.37340
G0 F12000 X127.71 Y145.62
G1 F2700 X145.34 Y145.62 E298.92784
G0 F12000 X145.71 Y145.26
G1 F2700 X127.83 Y145.26 E299.49004
G0 F12000 X127.91 Y144.90
G1 F2700 X146.11 Y144.90 E300.06228
G0 F12000 X146.58 Y144.54
G1 F2700 X127.95 Y144.54 E300.64784
G0 F12000 X128.11 Y144.18
G1 F2700 X147.08 Y144.18 E301.24425
G0 F12000 X147.68 Y143.82
G1 F2700 X128.31 Y143.82 E301.85337
G0 F12000 X128.51 Y143.46
G1 F2700 X148.41 Y143.46 E302.47898
G0 F12000 X149.32 Y143.10
G1 F2700 X128.51 Y143.10 E303.13327
G0 F12000 X128.71 Y142.74
G1 F2700 X150.68 Y142.74 E303.82399
G0 F12000 X154.32 Y142.74
G1 F2700 X176.13 Y142.74 E304.50963
G0 F12000 X176.33 Y143.10
G1 F2700 X155.68 Y143.10 E305.15882
G0 F12000 X156.59 Y143.46
G1 F2700 X176.53 Y143.46 E305.78563
G0 F12000 X176.53 Y143.82
G1 F2700 X157.32 Y143.82 E306.38965
G0 F12000 X157.92 Y144.18
G1 F2700 X176.73 Y144.18 E306.98100
G0 F12000 X176.89 Y144.54
G1 F2700 X158.42 Y144.54 E307.56150
G0 F12000 X158.89 Y144.90
G1 F2700 X176.93 Y144.90 E308.12864
G0 F12000 X177.01 Y145.26
G1 F2700 X159.29 Y145.26 E308.68579
G0 F12000 X159.65 Y145.62
G1 F2700 X177.13 Y145.62 E309.23517
G0 F12000 X177.13 Y145.98
G1 F2700 X159.98 Y145.98 E309.77427
G0 F12000 X160.28 Y146.34
G1 F2700 X177.29 Y146.34 E310.30884
G0 F12000 X177.33 Y146.70
G1 F2700 X160.55 Y146.70 E310.83631
G0 F12000 X160.81 Y147.06
G1 F2700 X177.33 Y147.06 E311.35576
G0 F12000 X177.37 Y147.42
G1 F2700 X161.02 Y147.42 E311.86964
G0 F12000 X161.24 Y147.78
G1 F2700 X177.53 Y147.78 E312.38183
G0 F12000 X177.53 Y148.14
G1 F2700 X161.41 Y148.14 E312.88852
G0 F12000 X161.58 Y148.50
G1 F2700 X177.53 Y148.50 E313.38983
G0 F12000 X177.53 Y148.86
G1 F2700 X161.74 Y148.86 E313.88636
G0 F12000 X161.86 Y149.22
G1 F2700 X177.53 Y149.22 E314.37884
G0 F12000 X177.53 Y149.58
G1 F2700 X161.99 Y149.58 E314.86729
G0 F12000 X162.09 Y149.94
G1 F2700 X177.53 Y149.94 E315.35279
G0 F12000 X177.53 Y150.30
G1 F2700 X162.18 Y150.30 E315.83545
G0 F12000 X162.26 Y150.66
G1 F2700 X177.53 Y150.66 E316.31561
G0 F12000 X177.53 Y151.02
G1 F2700 X162.31 Y151.02 E316.79406
G0 F12000 X162.36 Y151.38
G1 F2700 X177.53 Y151.38 E317.27085
G0 F12000 X177.53 Y151.74
G1 F2700 X162.40 Y151.74 E317.74663
G0 F12000 X162.41 Y152.10
G1 F2700 X177.53 Y152.10 E318.22182
G0 F12000 X177.53 Y152.46
G1 F2700 X162.43 Y152.46 E318.69644
G0 F12000 X162.42 Y152.82
G1 F2700 X177.53 Y152.82 E319.17150
G0 F12000 X177.53 Y153.18
G1 F2700 X162.40 Y153.18 E319.64712
G0 F12000 X162.38 Y153.54
G1 F2700 X177.53 Y153.54 E320.12350
G0 F12000 X177.53 Y153.90
G1 F2700 X162.32 Y153.90 E320.60155
G0 F12000 X162.27 Y154.26
G1 F2700 X177.53 Y154.26 E321.08129
G0 F12000 X177.53 Y154.62
G1 F2700 X162.20 Y154.62 E321.56330
G0 F12000 X162.11 Y154.98
G1 F2700 X177.53 Y154.98 E322.04814
G0 F12000 X177.53 Y155.34
G1 F2700 X162.02 Y155.34 E322.53581
G0 F12000 X161.89 Y155.70
G1 F2700 X177.53 Y155.70 E323.02737
G0 F12000 X177.53 Y156.06
G1 F2700 X161.76 Y156.06 E323.52299
G0 F12000 X161.62 Y156.42
G1 F2700 X177.53 Y156.42 E324.02308
G0 F12000 X177.53 Y156.78
G1 F2700 X161.45 Y156.78 E324.52854
G0 F12000 X161.28 Y157.14
G1 F2700 X177.53 Y157.14 E325.03937
G0 F12000 X177.33 Y157.50
G1 F2700 X161.07 Y157.50 E325.55049
G0 F12000 X160.85 Y157.86
G1 F2700 X177.33 Y157.86 E326.06840
G0 F12000 X177.33 Y158.22
G1 F2700 X160.61 Y158.22 E326.59398
G0 F12000 X160.34 Y158.58
G1 F2700 X177.13 Y158.58 E327.12167
G0 F12000 X177.13 Y158.94
G1 F2700 X160.06 Y158.94 E327.65844
G0 F12000 X159.73 Y159.30
G1 F2700 X177.13 Y159.30 E328.20546
G0 F12000 X176.93 Y159.66
G1 F2700 X159.38 Y159.66 E328.75729
G0 F12000 X158.98 Y160.02
G1 F2700 X176.93 Y160.02 E329.32164
G0 F12000 X176.73 Y160.38
G1 F2700 X158.53 Y160.38 E329.89375
G0 F12000 X158.05 Y160.74
G1 F2700 X176.54 Y160.74 E330.47519
G0 F12000 X176.53 Y161.10
G1 F2700 X157.45 Y161.10 E331.07497
G0 F12000 X156.76 Y161.46
G1 F2700 X176.42 Y161.46 E331.69307
G0 F12000 X176.33 Y161.82
G1 F2700 X155.90 Y161.82 E332.33519
G0 F12000 X154.69 Y162.18
G1 F2700 X176.13 Y162.18 E333.00929
G0 F12000 X175.93 Y142.38
G1 F2700 X128.91 Y142.38 E334.48753
G0 F12000 X129.07 Y142.02
G1 F2700 X175.77 Y142.02 E335.95562
G0 F12000 X175.61 Y141.66
G1 F2700 X129.23 Y141.66 E337.41366
G0 F12000 X129.39 Y141.30
G1 F2700 X175.45 Y141.30 E338.86163
G0 F12000 X175.29 Y140.94
G1 F2700 X129.55 Y140.94 E340.29954
G0 F12000 X129.71 Y140.58
G1 F2700 X175.13 Y140.58 E341.72739
G0 F12000 X174.93 Y140.22
G1 F2700 X129.91 Y140.22 E343.14276
G0 F12000 X130.11 Y139.86
G1 F2700 X174.73 Y139.86 E344.54556
G0 F12000 X174.53 Y139.50
G1 F2700 X130.39 Y139.50 E345.93320
G0 F12000 X130.71 Y139.14
G1 F2700 X174.33 Y139.14 E347.30456
G0 F12000 X174.13 Y138.78
G1 F2700 X130.91 Y138.78 E348.66331
G0 F12000 X131.07 Y138.42
G1 F2700 X173.77 Y138.42 E350.00565
G0 F12000 X173.53 Y138.06
G1 F2700 X131.43 Y138.06 E351.32913
G0 F12000 X131.71 Y137.70
G1 F2700 X173.25 Y137.70 E352.63503
G0 F12000 X172.93 Y137.34
G1 F2700 X131.95 Y137.34 E353.92333
G0 F12000 X132.31 Y136.98
G1 F2700 X172.73 Y136.98 E355.19399
G0 F12000 X172.37 Y136.62
G1 F2700 X132.67 Y136.62 E356.44202
G0 F12000 X133.03 Y136.26
G1 F2700 X172.01 Y136.26 E357.66741
G0 F12000 X171.65 Y135.90
G1 F2700 X133.39 Y135.90 E358.87016
G0 F12000 X133.75 Y135.54
G1 F2700 X171.29 Y135.54 E360.05028
G0 F12000 X170.93 Y135.18
G1 F2700 X134.11 Y135.18 E361.20777
G0 F12000 X134.47 Y134.82
G1 F2700 X170.57 Y134.82 E362.34262
G0 F12000 X170.21 Y134.46
G1 F2700 X134.83 Y134.46 E363.45483
G0 F12000 X135.19 Y134.10
G1 F2700 X169.85 Y134.10 E364.54441
G0 F12000 X169.49 Y133.74
G1 F2700 X135.55 Y133.74 E365.61135
G0 F12000 X135.91 Y133.38
G1 F2700 X168.93 Y133.38 E366.64937
G0 F12000 X168.57 Y133.02
G1 F2700 X136.28 Y133.02 E367.66432
G0 F12000 X136.83 Y132.66
G1 F2700 X168.21 Y132.66 E368.65075
G0 F12000 X167.85 Y132.30
G1 F2700 X137.19 Y132.30 E369.61455
G0 F12000 X137.75 Y131.94
G1 F2700 X167.29 Y131.94 E370.54316
G0 F12000 X166.88 Y131.58
G1 F2700 X138.16 Y131.58 E371.44578
G0 F12000 X138.88 Y131.22
G1 F2700 X166.17 Y131.22 E372.30356
G0 F12000 X165.64 Y130.86
G1 F2700 X139.60 Y130.86 E373.12196
G0 F12000 X140.32 Y130.50
G1 F2700 X164.92 Y130.50 E373.89508
G0 F12000 X164.20 Y130.14
G1 F2700 X141.04 Y130.14 E374.62294
G0 F12000 X141.76 Y129.78
G1 F2700 X163.48 Y129.78 E375.30558
G0 F12000 X162.76 Y129.42
G1 F2700 X142.48 Y129.42 E375.94295
G0 F12000 X143.20 Y129.06
G1 F2700 X162.04 Y129.06 E376.53506
G0 F12000 X161.32 Y128.70
G1 F2700 X143.92 Y128.70 E377.08189
G0 F12000 X145.02 Y128.34
G1 F2700 X160.31 Y128.34 E377.56239
G0 F12000 X158.98 Y127.98
G1 F2700 X146.63 Y127.98 E377.95055
G0 F12000 X148.10 Y127.62
G1 F2700 X157.53 Y127.62 E378.24702
;LAYER:-1
;RAFT
G0 F12000 X157.50 Y127.61 Z0.90
;TYPE:SUPPORT
G1 F2700 X157.50 Y143.93 E378.75996
G0 F12000 X157.14 Y143.72
G1 F2700 X157.14 Y127.61 E379.26652
G0 F12000 X156.78 Y127.61
G1 F2700 X156.78 Y143.55 E379.76770
G0 F12000 X156.42 Y143.38
G1 F2700 X156.42 Y127.61 E380.26351
G0 F12000 X156.06 Y127.61
G1 F2700 X156.06 Y143.24 E380.75486
G0 F12000 X155.70 Y143.11
G1 F2700 X155.70 Y127.61 E381.24215
G0 F12000 X155.34 Y127.61
G1 F2700 X155.34 Y142.98 E381.72554
G0 F12000 X154.98 Y142.89
G1 F2700 X154.98 Y127.61 E382.20610
G0 F12000 X154.62 Y127.61
G1 F2700 X154.62 Y142.80 E382.68383
G0 F12000 X154.26 Y142.73
G1 F2700 X154.26 Y127.61 E383.15930
G0 F12000 X153.90 Y127.61
G1 F2700 X153.90 Y142.68 E383.63307
G0 F12000 X153.54 Y142.62
G1 F2700 X153.54 Y127.61 E384.10517
G0 F12000 X153.18 Y127.61
G1 F2700 X153.18 Y142.60 E384.57652
G0 F12000 X152.82 Y142.58
G1 F2700 X152.82 Y127.61 E385.04731
G0 F12000 X152.46 Y127.61
G1 F2700 X152.46 Y142.57 E385.51765
G0 F12000 X152.10 Y142.59
G1 F2700 X152.10 Y127.61 E385.98856
G0 F12000 X151.74 Y127.61
G1 F2700 X151.74 Y142.60 E386.46007
G0 F12000 X151.38 Y142.64
G1 F2700 X151.38 Y127.61 E386.93258
G0 F12000 X151.02 Y127.61
G1 F2700 X151.02 Y142.69 E387.40676
G0 F12000 X150.66 Y142.74
G1 F2700 X150.66 Y127.61 E387.88261
G0 F12000 X150.30 Y127.61
G1 F2700 X150.30 Y142.82 E388.36100
G0 F12000 X149.94 Y142.91
G1 F2700 X149.94 Y127.61 E388.84222
G0 F12000 X149.58 Y127.61
G1 F2700 X149.58 Y143.01 E389.32640
G0 F12000 X149.22 Y143.13
G1 F2700 X149.22 Y127.61 E389.81460
G0 F12000 X148.86 Y127.61
G1 F2700 X148.86 Y143.26 E390.30686
G0 F12000 X148.50 Y143.42
G1 F2700 X148.50 Y127.61 E390.80389
G0 F12000 X148.14 Y127.61
G1 F2700 X148.14 Y143.59 E391.30618
G0 F12000 X147.78 Y143.76
G1 F2700 X147.78 Y127.70 E391.81113
G0 F12000 X147.42 Y127.79
G1 F2700 X147.42 Y143.98 E392.32002
G0 F12000 X147.06 Y144.19
G1 F2700 X147.06 Y127.88 E392.83287
G0 F12000 X146.70 Y127.97
G1 F2700 X146.70 Y144.45 E393.35106
G0 F12000 X146.34 Y144.72
G1 F2700 X146.34 Y128.04 E393.87539
G0 F12000 X145.98 Y128.11
G1 F2700 X145.98 Y145.02 E394.40700
G0 F12000 X145.62 Y145.34
G1 F2700 X145.62 Y128.19 E394.94629
G0 F12000 X145.26 Y128.28
G1 F2700 X145.26 Y145.71 E395.49435
G0 F12000 X144.90 Y146.11
G1 F2700 X144.90 Y128.37 E396.05206
G0 F12000 X144.54 Y128.46
G1 F2700 X144.54 Y146.58 E396.62159
G0 F12000 X144.54 Y158.42
G1 F2700 X144.54 Y176.34 E397.18493
G0 F12000 X144.90 Y176.46
G1 F2700 X144.90 Y158.89 E397.73733
G0 F12000 X145.26 Y159.29
G1 F2700 X145.26 Y176.55 E398.28007
G0 F12000 X145.62 Y176.64
G1 F2700 X145.62 Y159.66 E398.81405
G0 F12000 X145.98 Y159.98
G1 F2700 X145.98 Y176.73 E399.34063
G0 F12000 X146.34 Y176.81
G1 F2700 X146.34 Y160.28 E399.86030
G0 F12000 X146.70 Y160.55
G1 F2700 X146.70 Y176.89 E400.37384
G0 F12000 X147.06 Y176.96
G1 F2700 X147.06 Y160.81 E400.88160
G0 F12000 X147.42 Y161.02
G1 F2700 X147.42 Y177.04 E401.38517
G0 F12000 X147.78 Y177.13
G1 F2700 X147.78 Y161.24 E401.88482
G0 F12000 X148.14 Y161.41
G1 F2700 X148.14 Y177.22 E402.38182
G0 F12000 X148.50 Y177.28
G1 F2700 X148.50 Y161.58 E402.87518
G0 F12000 X148.86 Y161.74
G1 F2700 X148.86 Y177.32 E403.36501
G0 F12000 X149.22 Y177.36
G1 F2700 X149.22 Y161.86 E403.85205
G0 F12000 X149.58 Y161.99
G1 F2700 X149.58 Y177.40 E404.33629
G0 F12000 X149.94 Y177.44
G1 F2700 X149.94 Y162.09 E404.81883
G0 F12000 X150.30 Y162.18
G1 F2700 X150.30 Y177.47 E405.29980
G0 F12000 X150.66 Y177.51
G1 F2700 X150.66 Y162.26 E405.77948
G0 F12000 X151.02 Y162.31
G1 F2700 X151.02 Y177.53 E406.25785
G0 F12000 X151.38 Y177.53
G1 F2700 X151.38 Y162.36 E406.73454
G0 F12000 X151.74 Y162.40
G1 F2700 X151.74 Y177.53 E407.21023
G0 F12000 X152.10 Y177.53
G1 F2700 X152.10 Y162.41 E407.68535
G0 F12000 X152.46 Y162.43
G1 F2700 X152.46 Y177.53 E408.15991
G0 F12000 X152.82 Y177.53
G1 F2700 X152.82 Y162.42 E408.63490
G0 F12000 X153.18 Y162.40
G1 F2700 X153.18 Y177.53 E409.11050
G0 F12000 X153.54 Y177.53
G1 F2700 X153.54 Y162.37 E409.58685
G0 F12000 X153.90 Y162.32
G1 F2700 X153.90 Y177.53 E410.06486
G0 F12000 X154.26 Y177.53
G1 F2700 X154.26 Y162.27 E410.54458
G0 F12000 X154.62 Y162.19
G1 F2700 X154.62 Y177.53 E411.02655
G0 F12000 X154.98 Y177.52
G1 F2700 X154.98 Y162.10 E411.51104
G0 F12000 X155.34 Y162.01
G1 F2700 X155.34 Y177.48 E411.99711
G0 F12000 X155.70 Y177.44
G1 F2700 X155.70 Y161.89 E412.48581
G0 F12000 X156.06 Y161.76
G1 F2700 X156.06 Y177.40 E412.97731
G0 F12000 X156.42 Y177.36
G1 F2700 X156.42 Y161.62 E413.47202
G0 F12000 X156.78 Y161.45
G1 F2700 X156.78 Y177.32 E413.97085
G0 F12000 X157.14 Y177.28
G1 F2700 X157.14 Y161.28 E414.47379
G0 F12000 X157.50 Y161.07
G1 F2700 X157.50 Y177.22 E414.98158
G0 F12000 X157.86 Y177.13
G1 F2700 X157.86 Y160.85 E415.49333
G0 F12000 X158.22 Y160.61
G1 F2700 X158.22 Y177.04 E416.00992
G0 F12000 X158.58 Y176.95
G1 F2700 X158.58 Y160.34 E416.53207
G0 F12000 X158.94 Y160.05
G1 F2700 X158.94 Y176.86 E417.06048
G0 F12000 X159.30 Y176.77
G1 F2700 X159.30 Y159.73 E417.59631
G0 F12000 X159.66 Y159.37
G1 F2700 X159.66 Y176.68 E418.14041
G0 F12000 X160.02 Y176.58
G1 F2700 X160.02 Y158.98 E418.69387
G0 F12000 X160.38 Y158.53
G1 F2700 X160.38 Y176.40 E419.25573
G0 F12000 X160.74 Y176.26
G1 F2700 X160.74 Y158.04 E419.82844
G0 F12000 X161.10 Y157.45
G1 F2700 X161.10 Y176.17 E420.41702
G0 F12000 X161.46 Y176.08
G1 F2700 X161.46 Y156.76 E421.02447
G0 F12000 X161.82 Y155.90
G1 F2700 X161.82 Y175.98 E421.65568
G0 F12000 X162.18 Y175.80
G1 F2700 X162.18 Y154.69 E422.31949
G0 F12000 X162.18 Y150.31
G1 F2700 X162.18 Y129.13 E422.98538
G0 F12000 X162.54 Y129.31
G1 F2700 X162.54 Y175.62 E424.44121
G0 F12000 X162.90 Y175.44
G1 F2700 X162.90 Y129.49 E425.88573
G0 F12000 X163.26 Y129.67
G1 F2700 X163.26 Y175.26 E427.31892
G0 F12000 X163.62 Y175.08
G1 F2700 X163.62 Y129.85 E428.74077
G0 F12000 X163.98 Y130.03
G1 F2700 X163.98 Y174.90 E430.15130
G0 F12000 X164.34 Y174.72
G1 F2700 X164.34 Y130.21 E431.55051
G0 F12000 X164.70 Y130.39
G1 F2700 X164.70 Y174.54 E432.93841
G0 F12000 X165.06 Y174.36
G1 F2700 X165.06 Y130.57 E434.31498
G0 F12000 X165.42 Y130.75
G1 F2700 X165.42 Y174.18 E435.68024
G0 F12000 X165.78 Y173.90
G1 F2700 X165.78 Y130.93 E437.03107
G0 F12000 X166.14 Y131.19
G1 F2700 X166.14 Y173.54 E438.36247
G0 F12000 X166.50 Y173.34
G1 F2700 X166.50 Y131.39 E439.68123
G0 F12000 X166.86 Y131.57
G1 F2700 X166.86 Y173.16 E440.98868
G0 F12000 X167.22 Y172.98
G1 F2700 X167.22 Y131.87 E442.28106
G0 F12000 X167.58 Y132.13
G1 F2700 X167.58 Y172.70 E443.55647
G0 F12000 X167.94 Y172.34
G1 F2700 X167.94 Y132.39 E444.81239
G0 F12000 X168.30 Y132.75
G1 F2700 X168.30 Y172.14 E446.05067
G0 F12000 X168.66 Y171.82
G1 F2700 X168.66 Y133.11 E447.26760
G0 F12000 X169.02 Y133.45
G1 F2700 X169.02 Y171.46 E448.46253
G0 F12000 X169.38 Y171.10
G1 F2700 X169.38 Y133.63 E449.64048
G0 F12000 X169.74 Y133.99
G1 F2700 X169.74 Y170.74 E450.79583
G0 F12000 X170.10 Y170.38
G1 F2700 X170.10 Y134.35 E451.92854
G0 F12000 X170.46 Y134.71
G1 F2700 X170.46 Y170.02 E453.03862
G0 F12000 X170.82 Y169.66
G1 F2700 X170.82 Y135.07 E454.12606
G0 F12000 X171.18 Y135.43
G1 F2700 X171.18 Y169.30 E455.19086
G0 F12000 X171.54 Y168.94
G1 F2700 X171.54 Y135.79 E456.23303
G0 F12000 X171.90 Y136.15
G1 F2700 X171.90 Y168.58 E457.25257
G0 F12000 X172.26 Y168.22
G1 F2700 X172.26 Y136.51 E458.24947
G0 F12000 X172.62 Y136.87
G1 F2700 X172.62 Y167.86 E459.22373
G0 F12000 X172.98 Y167.30
G1 F2700 X172.98 Y137.43 E460.16275
G0 F12000 X173.34 Y137.79
G1 F2700 X173.34 Y166.94 E461.07914
G0 F12000 X173.70 Y166.58
G1 F2700 X173.70 Y138.35 E461.96660
G0 F12000 X174.06 Y138.71
G1 F2700 X174.06 Y166.02 E462.82514
G0 F12000 X174.42 Y165.46
G1 F2700 X174.42 Y139.27 E463.64847
G0 F12000 X174.78 Y140.03
G1 F2700 X174.78 Y164.90 E464.43030
G0 F12000 X175.14 Y164.14
G1 F2700 X175.14 Y140.79 E465.16435
G0 F12000 X175.50 Y141.35
G1 F2700 X175.50 Y163.58 E465.86319
G0 F12000 X175.86 Y162.82
G1 F2700 X175.86 Y142.11 E466.51424
G0 F12000 X176.22 Y142.87
G1 F2700 X176.22 Y162.06 E467.11750
G0 F12000 X176.58 Y160.70
G1 F2700 X176.58 Y144.03 E467.64154
G0 F12000 X176.94 Y145.19
G1 F2700 X176.94 Y159.54 E468.09264
G0 F12000 X177.30 Y158.38
G1 F2700 X177.30 Y146.35 E468.47081
G0 F12000 X161.82 Y149.09
G1 F2700 X161.82 Y128.95 E469.10407
G0 F12000 X161.46 Y128.77
G1 F2700 X161.46 Y148.24 E469.71607
G0 F12000 X161.10 Y147.55
G1 F2700 X161.10 Y128.60 E470.31160
G0 F12000 X160.74 Y128.49
G1 F2700 X160.74 Y146.95 E470.89220
G0 F12000 X160.38 Y146.47
G1 F2700 X160.38 Y128.37 E471.46132
G0 F12000 X160.02 Y128.24
G1 F2700 X160.02 Y146.02 E472.02020
G0 F12000 X159.66 Y145.62
G1 F2700 X159.66 Y128.15 E472.56951
G0 F12000 X159.30 Y128.06
G1 F2700 X159.30 Y145.27 E473.11053
G0 F12000 X158.94 Y144.94
G1 F2700 X158.94 Y127.97 E473.64410
G0 F12000 X158.58 Y127.88
G1 F2700 X158.58 Y144.66 E474.17140
G0 F12000 X158.22 Y144.39
G1 F2700 X158.22 Y127.79 E474.69315
G0 F12000 X157.86 Y127.70
G1 F2700 X157.86 Y144.14 E475.21005
G0 F12000 X144.18 Y128.57
G1 F2700 X144.18 Y176.16 E476.70619
G0 F12000 X143.82 Y175.99
G1 F2700 X143.82 Y128.75 E478.19132
G0 F12000 X143.46 Y128.93
G1 F2700 X143.46 Y175.90 E479.66796
G0 F12000 X143.10 Y175.81
G1 F2700 X143.10 Y129.11 E481.13612
G0 F12000 X142.74 Y129.29
G1 F2700 X142.74 Y175.64 E482.59327
G0 F12000 X142.38 Y175.46
G1 F2700 X142.38 Y129.47 E484.03911
G0 F12000 X142.02 Y129.65
G1 F2700 X142.02 Y175.28 E485.47362
G0 F12000 X141.66 Y175.10
G1 F2700 X141.66 Y129.83 E486.89682
G0 F12000 X141.30 Y130.01
G1 F2700 X141.30 Y174.92 E488.30870
G0 F12000 X140.94 Y174.74
G1 F2700 X140.94 Y130.19 E489.70927
G0 F12000 X140.58 Y130.37
G1 F2700 X140.58 Y174.56 E491.09851
G0 F12000 X140.22 Y174.38
G1 F2700 X140.22 Y130.55 E492.47644
G0 F12000 X139.86 Y130.73
G1 F2700 X139.86 Y174.20 E493.84305
G0 F12000 X139.50 Y174.02
G1 F2700 X139.50 Y130.91 E495.19834
G0 F12000 X139.14 Y131.09
G1 F2700 X139.14 Y173.78 E496.54049
G0 F12000 X138.78 Y173.46
G1 F2700 X138.78 Y131.27 E497.86686
G0 F12000 X138.42 Y131.45
G1 F2700 X138.42 Y173.28 E499.18192
G0 F12000 X138.06 Y173.10
G1 F2700 X138.06 Y131.63 E500.48565
G0 F12000 X137.70 Y131.99
G1 F2700 X137.70 Y172.92 E501.77247
G0 F12000 X137.34 Y172.58
G1 F2700 X137.34 Y132.19 E503.04232
G0 F12000 X136.98 Y132.51
G1 F2700 X136.98 Y172.26 E504.29204
G0 F12000 X136.62 Y172.06
G1 F2700 X136.62 Y132.85 E505.52476
G0 F12000 X136.26 Y133.03
G1 F2700 X136.26 Y171.70 E506.74050
G0 F12000 X135.90 Y171.34
G1 F2700 X135.90 Y133.39 E507.93366
G0 F12000 X135.54 Y133.75
G1 F2700 X135.54 Y171.04 E509.10605
G0 F12000 X135.18 Y170.82
G1 F2700 X135.18 Y134.11 E510.26026
G0 F12000 X134.82 Y134.47
G1 F2700 X134.82 Y170.46 E511.39184
G0 F12000 X134.46 Y170.10
G1 F2700 X134.46 Y134.83 E512.50079
G0 F12000 X134.10 Y135.19
G1 F2700 X134.10 Y169.74 E513.58710
G0 F12000 X133.74 Y169.38
G1 F2700 X133.74 Y135.55 E514.65077
G0 F12000 X133.38 Y135.91
G1 F2700 X133.38 Y169.02 E515.69181
G0 F12000 X133.02 Y168.66
G1 F2700 X133.02 Y136.27 E516.71021
G0 F12000 X132.66 Y136.63
G1 F2700 X132.66 Y168.30 E517.70598
G0 F12000 X132.30 Y167.74
G1 F2700 X132.30 Y136.99 E518.67279
G0 F12000 X131.94 Y137.35
G1 F2700 X131.94 Y167.38 E519.61697
G0 F12000 X131.58 Y166.82
G1 F2700 X131.58 Y137.91 E520.52594
G0 F12000 X131.22 Y138.27
G1 F2700 X131.22 Y166.46 E521.41227
G0 F12000 X130.86 Y165.90
G1 F2700 X130.86 Y138.83 E522.26339
G0 F12000 X130.50 Y139.39
G1 F2700 X130.50 Y165.34 E523.07930
G0 F12000 X130.14 Y164.98
G1 F2700 X130.14 Y139.75 E523.87258
G0 F12000 X129.78 Y140.51
G1 F2700 X129.78 Y164.42 E524.62435
G0 F12000 X129.42 Y163.66
G1 F2700 X129.42 Y141.27 E525.32835
G0 F12000 X129.06 Y142.03
G1 F2700 X129.06 Y162.90 E525.98455
G0 F12000 X128.70 Y162.14
G1 F2700 X128.70 Y142.79 E526.59297
G0 F12000 X128.34 Y143.75
G1 F2700 X128.34 Y160.98 E527.13474
G0 F12000 X127.98 Y160.22
G1 F2700 X127.98 Y144.51 E527.62873
G0 F12000 X127.62 Y146.27
G1 F2700 X127.62 Y158.46 E528.01205
;LAYER:0
G1 F2400 E527.51205
G0 F12000 X135.94 Y155.84 Z1.42
;TYPE:WALL-INNER
G1 F2400 E528.01205
G1 F2700 X135.69 Y154.18 E528.09146
G1 X135.60 Y152.50 E528.17065
G1 X135.68 Y150.85 E528.24851
G1 X135.92 Y149.23 E528.32560
G1 X135.93 Y149.21 E528.32683
G1 X136.32 Y147.63 E528.40359
G1 X136.87 Y146.09 E528.48056
G1 X137.57 Y144.59 E528.55868
G1 X138.43 Y143.15 E528.63787
G1 X139.40 Y141.83 E528.71489
G1 X140.52 Y140.59 E528.79392
G1 X141.74 Y139.48 E528.87160
G1 X143.08 Y138.47 E528.95074
G1 X144.48 Y137.63 E529.02766
G1 X145.96 Y136.92 E529.10509
G1 X147.55 Y136.34 E529.18508
G1 X149.13 Y135.95 E529.26160
G1 X150.79 Y135.69 E529.34108
G1 X152.44 Y135.60 E529.41909
G1 X152.50 Y135.60 E529.42192
G1 X154.09 Y135.68 E529.49661
G1 X154.16 Y135.68 E529.49992
G1 X155.78 Y135.92 E529.57739
G1 X157.36 Y136.32 E529.65421
G1 X158.94 Y136.88 E529.73308
G1 X160.45 Y137.59 E529.81190
G1 X161.87 Y138.44 E529.89008
G1 X163.18 Y139.41 E529.96685
G1 X164.41 Y140.51 E530.04478
G1 X165.55 Y141.76 E530.12457
G1 X166.54 Y143.09 E530.20273
G1 X167.41 Y144.54 E530.28207
G1 X168.10 Y146.01 E530.35900
G1 X168.65 Y147.54 E530.43552
G1 X169.06 Y149.16 E530.51429
G1 X169.31 Y150.82 E530.59370
G1 X169.40 Y152.50 E530.67289
G1 X169.32 Y154.15 E530.75075
G1 X169.08 Y155.77 E530.82784
G1 X169.07 Y155.79 E530.82907
G1 X168.68 Y157.37 E530.90593
G1 X168.13 Y158.91 E530.98280
G1 X167.43 Y160.41 E531.06092
G1 X166.57 Y161.85 E531.14010
G1 X165.60 Y163.17 E531.21712
G1 X164.48 Y164.41 E531.29616
G1 X163.26 Y165.52 E531.37384
G1 X161.92 Y166.53 E531.45298
G1 X160.52 Y167.37 E531.52990
G1 X159.04 Y168.08 E531.60733
G1 X157.45 Y168.66 E531.68732
G1 X155.87 Y169.05 E531.76384
G1 X154.21 Y169.31 E531.84331
G1 X152.56 Y169.40 E531.92133
G1 X152.50 Y169.40 E531.92416
G1 X150.91 Y169.32 E531.99913
G1 X150.85 Y169.32 E532.00178
G1 X149.24 Y169.08 E532.07872
G1 X147.64 Y168.68 E532.15640
G1 X146.06 Y168.12 E532.23536
G1 X144.55 Y167.41 E532.31413
G1 X143.13 Y166.56 E532.39232
G1 X141.82 Y165.59 E532.46908
G1 X140.59 Y164.49 E532.54702
G1 X139.45 Y163.24 E532.62680
G1 X138.46 Y161.91 E532.70496
G1 X137.59 Y160.46 E532.78431
G1 X136.90 Y158.99 E532.86124
G1 X136.35 Y157.46 E532.93776
G1 X135.94 Y155.84 E533.01653
G0 F12000 X137.20 Y155.54
G1 F2700 X137.57 Y157.03 E533.08871
G1 X138.09 Y158.47 E533.16093
G1 X138.74 Y159.85 E533.23309
G1 X139.53 Y161.17 E533.30530
G1 X140.44 Y162.40 E533.37750
G1 X141.47 Y163.53 E533.44971
G1 X142.60 Y164.56 E533.52192
G1 X143.83 Y165.47 E533.59412
G1 X145.15 Y166.26 E533.66633
G1 X146.53 Y166.91 E533.73849
G1 X147.97 Y167.43 E533.81071
G1 X149.46 Y167.80 E533.88289
G1 X150.99 Y168.03 E533.95579
G1 X151.04 Y168.03 E533.95824
G1 X152.49 Y168.10 E534.02656
G1 X152.53 Y168.10 E534.02882
G1 X154.03 Y168.03 E534.09946
G1 X155.54 Y167.80 E534.17164
G1 X157.03 Y167.43 E534.24382
G1 X158.47 Y166.91 E534.31604
G1 X159.85 Y166.26 E534.38821
G1 X161.17 Y165.47 E534.46041
G1 X162.40 Y164.56 E534.53261
G1 X163.53 Y163.53 E534.60482
G1 X164.56 Y162.40 E534.67703
G1 X165.47 Y161.17 E534.74923
G1 X166.26 Y159.85 E534.82144
G1 X166.91 Y158.47 E534.89360
G1 X167.43 Y157.03 E534.96582
G1 X167.80 Y155.54 E535.03800
G1 X168.03 Y154.01 E535.11090
G1 X168.03 Y153.96 E535.11335
G1 X168.10 Y152.51 E535.18167
G1 X168.10 Y152.47 E535.18394
G1 X168.03 Y150.97 E535.25457
G1 X167.80 Y149.46 E535.32675
G1 X167.43 Y147.97 E535.39893
G1 X166.91 Y146.53 E535.47115
G1 X166.26 Y145.15 E535.54332
G1 X165.47 Y143.83 E535.61552
G1 X164.56 Y142.60 E535.68772
G1 X163.53 Y141.47 E535.75993
G1 X162.40 Y140.44 E535.83215
G1 X161.17 Y139.53 E535.90434
G1 X159.85 Y138.74 E535.97655
G1 X158.47 Y138.09 E536.04871
G1 X157.03 Y137.57 E536.12093
G1 X155.54 Y137.20 E536.19311
G1 X154.01 Y136.97 E536.26601
G1 X153.96 Y136.97 E536.26846
G1 X152.51 Y136.90 E536.33678
G1 X152.47 Y136.90 E536.33905
G1 X150.97 Y136.97 E536.40968
G1 X149.46 Y137.20 E536.48186
G1 X147.97 Y137.57 E536.55404
G1 X146.53 Y138.09 E536.62627
G1 X145.15 Y138.74 E536.69843
G1 X143.83 Y139.53 E536.77063
G1 X142.60 Y140.44 E536.84283
G1 X141.47 Y141.47 E536.91504
G1 X140.44 Y142.60 E536.98726
G1 X139.53 Y143.83 E537.05946
G1 X138.74 Y145.15 E537.13166
G1 X138.09 Y146.53 E537.20382
G1 X137.57 Y147.97 E537.27605
G1 X137.20 Y149.46 E537.34823
G1 X136.97 Y150.99 E537.42112
G1 X136.97 Y151.04 E537.42357
G1 X136.90 Y152.49 E537.49189
G1 X136.90 Y152.53 E537.49416
G1 X136.97 Y154.03 E537.56479
G1 X137.20 Y155.54 E537.63697
G0 F12000 X137.59 Y155.47
;TYPE:WALL-OUTER
G1 F2700 X137.95 Y156.91 E537.70730
G1 X138.46 Y158.32 E537.77767
G1 X139.09 Y159.66 E537.84796
G1 X139.86 Y160.94 E537.91830
G1 X140.75 Y162.14 E537.98865
G1 X141.75 Y163.25 E538.05903
G1 X142.86 Y164.25 E538.12941
G1 X144.06 Y165.14 E538.19976
G1 X145.34 Y165.91 E538.27010
G1 X146.68 Y166.54 E538.34039
G1 X148.09 Y167.05 E538.41076
G1 X149.53 Y167.41 E538.48109
G1 X151.01 Y167.63 E538.55165
G1 X151.04 Y167.63 E538.55273
G1 X152.50 Y167.70 E538.62153
G1 X152.52 Y167.70 E538.62285
G1 X153.99 Y167.63 E538.69211
G1 X155.47 Y167.41 E538.76243
G1 X156.91 Y167.05 E538.83276
G1 X158.32 Y166.54 E538.90313
G1 X159.66 Y165.91 E538.97342
G1 X160.94 Y165.14 E539.04376
G1 X162.14 Y164.25 E539.11411
G1 X163.25 Y163.25 E539.18449
G1 X164.25 Y162.14 E539.25487
G1 X165.14 Y160.94 E539.32522
G1 X165.91 Y159.66 E539.39556
G1 X166.54 Y158.32 E539.46585
G1 X167.05 Y156.91 E539.53622
G1 X167.41 Y155.47 E539.60655
G1 X167.63 Y153.99 E539.67711
G1 X167.63 Y153.96 E539.67819
G1 X167.70 Y152.50 E539.74698
G1 X167.70 Y152.48 E539.74831
G1 X167.63 Y151.01 E539.81757
G1 X167.41 Y149.53 E539.88789
G1 X167.05 Y148.09 E539.95822
G1 X166.54 Y146.68 E540.02859
G1 X165.91 Y145.34 E540.09888
G1 X165.14 Y144.06 E540.16922
G1 X164.25 Y142.86 E540.23957
G1 X163.25 Y141.75 E540.30995
G1 X162.14 Y140.75 E540.38033
G1 X160.94 Y139.86 E540.45068
G1 X159.66 Y139.09 E540.52102
G1 X158.32 Y138.46 E540.59130
G1 X156.91 Y137.95 E540.66168
G1 X155.47 Y137.59 E540.73201
G1 X153.99 Y137.37 E540.80257
G1 X153.96 Y137.37 E540.80365
G1 X152.50 Y137.30 E540.87244
G1 X152.48 Y137.30 E540.87376
G1 X151.01 Y137.37 E540.94303
G1 X149.53 Y137.59 E541.01335
G1 X148.09 Y137.95 E541.08368
G1 X146.68 Y138.46 E541.15405
G1 X145.34 Y139.09 E541.22434
G1 X144.06 Y139.86 E541.29468
G1 X142.86 Y140.75 E541.36503
G1 X141.75 Y141.75 E541.43541
G1 X140.75 Y142.86 E541.50578
G1 X139.86 Y144.06 E541.57613
G1 X139.09 Y145.34 E541.64648
G1 X138.46 Y146.68 E541.71676
G1 X137.95 Y148.09 E541.78714
G1 X137.59 Y149.53 E541.85747
G1 X137.37 Y151.01 E541.92802
G1 X137.37 Y151.04 E541.92911
G1 X137.30 Y152.50 E541.99790
G1 X137.30 Y152.52 E541.99922
G1 X137.37 Y153.99 E542.06849
G1 X137.59 Y155.47 E542.13881
G0 F12000 X137.30 Y155.54
G0 X135.84 Y155.87
G0 X135.55 Y155.93
G1 F2700 X135.29 Y154.24 E542.21942
G1 X135.20 Y152.50 E542.30159
G1 X135.28 Y150.80 E542.38171
G1 X135.53 Y149.12 E542.46171
G1 X135.95 Y147.47 E542.54192
G1 X136.49 Y145.94 E542.61859
G1 X137.22 Y144.40 E542.69879
G1 X138.09 Y142.94 E542.77914
G1 X139.09 Y141.58 E542.85863
G1 X140.23 Y140.31 E542.93917
G1 X141.47 Y139.18 E543.01848
G1 X142.84 Y138.15 E543.09910
G1 X144.29 Y137.28 E543.17899
G1 X145.81 Y136.55 E543.25832
G1 X147.41 Y135.97 E543.33899
G1 X147.46 Y135.95 E543.34131
G1 X149.04 Y135.55 E543.41828
G1 X150.81 Y135.28 E543.50229
G1 X152.42 Y135.21 E543.57868
G1 X152.50 Y135.20 E543.58237
G1 X154.11 Y135.28 E543.65843
G1 X154.20 Y135.28 E543.66258
G1 X155.84 Y135.53 E543.74077
G1 X157.48 Y135.93 E543.82039
G1 X159.08 Y136.50 E543.90058
G1 X160.62 Y137.23 E543.98066
G1 X162.08 Y138.10 E544.06083
G1 X163.43 Y139.09 E544.14003
G1 X164.70 Y140.24 E544.22041
G1 X165.84 Y141.50 E544.30086
G1 X166.87 Y142.87 E544.38165
G1 X167.75 Y144.34 E544.46269
G1 X168.48 Y145.88 E544.54287
G1 X169.03 Y147.42 E544.61996
G1 X169.45 Y149.07 E544.70033
G1 X169.71 Y150.76 E544.78094
G1 X169.80 Y152.50 E544.86310
G1 X169.72 Y154.20 E544.94323
G1 X169.47 Y155.88 E545.02322
G1 X169.05 Y157.52 E545.10324
G1 X168.51 Y159.06 E545.18010
G1 X167.78 Y160.60 E545.26031
G1 X166.91 Y162.06 E545.34066
G1 X165.91 Y163.42 E545.42015
G1 X164.77 Y164.69 E545.50069
G1 X163.53 Y165.82 E545.58000
G1 X162.16 Y166.85 E545.66062
G1 X160.71 Y167.72 E545.74050
G1 X159.19 Y168.45 E545.81983
G1 X157.59 Y169.03 E545.90051
G1 X157.54 Y169.05 E545.90282
G1 X155.96 Y169.45 E545.97979
G1 X154.19 Y169.72 E546.06381
G1 X152.58 Y169.79 E546.14020
G1 X152.50 Y169.80 E546.14388
G1 X150.89 Y169.72 E546.22004
G1 X150.80 Y169.72 E546.22396
G1 X149.17 Y169.47 E546.30195
G1 X147.52 Y169.07 E546.38195
G1 X145.92 Y168.50 E546.46214
G1 X144.38 Y167.77 E546.54217
G1 X142.92 Y166.90 E546.62234
G1 X141.57 Y165.90 E546.70179
G1 X140.30 Y164.76 E546.78192
G1 X139.16 Y163.50 E546.86237
G1 X138.13 Y162.13 E546.94317
G1 X137.25 Y160.66 E547.02421
G1 X136.52 Y159.12 E547.10439
G1 X135.97 Y157.57 E547.18186
G1 X135.55 Y155.93 E547.26184
G0 F12000 X136.03 Y155.55
;TYPE:FILL
G1 F2700 X137.40 Y156.91 E547.35270
G0 F12000 X137.21 Y156.16
G1 F2700 X135.93 Y154.88 E547.43777
G0 F12000 X135.83 Y154.22
G1 F2700 X137.04 Y155.43 E547.51826
G0 F12000 X136.94 Y154.76
G1 F2700 X135.80 Y153.62 E547.59462
G0 F12000 X135.77 Y153.02
G1 F2700 X136.84 Y154.10 E547.66638
G0 F12000 X136.81 Y153.50
G1 F2700 X135.74 Y152.43 E547.73741
G0 F12000 X135.77 Y151.89
G1 F2700 X136.78 Y152.90 E547.80463
G0 F12000 X136.77 Y152.32
G1 F2700 X135.80 Y151.35 E547.86939
G0 F12000 X135.83 Y150.82
G1 F2700 X136.79 Y151.79 E547.93391
G0 F12000 X136.82 Y151.25
G1 F2700 X135.90 Y150.32 E547.99540
G0 F12000 X135.97 Y149.83
G1 F2700 X136.87 Y150.73 E548.05515
G0 F12000 X136.94 Y150.24
G1 F2700 X136.05 Y149.34 E548.11487
G0 F12000 X136.15 Y148.88
G1 F2700 X137.02 Y149.74 E548.17263
G0 F12000 X137.10 Y149.26
G1 F2700 X136.26 Y148.43 E548.22858
G0 F12000 X136.38 Y147.97
G1 F2700 X137.22 Y148.81 E548.28453
G0 F12000 X137.33 Y148.36
G1 F2700 X136.50 Y147.53 E548.33979
G0 F12000 X136.65 Y147.11
G1 F2700 X137.44 Y147.91 E548.39280
G0 F12000 X137.59 Y147.49
G1 F2700 X136.80 Y146.70 E548.44586
G0 F12000 X136.95 Y146.28
G1 F2700 X137.74 Y147.08 E548.49897
G0 F12000 X137.89 Y146.66
G1 F2700 X137.12 Y145.88 E548.55066
G0 F12000 X137.30 Y145.50
G1 F2700 X138.06 Y146.26 E548.60148
G0 F12000 X138.24 Y145.88
G1 F2700 X137.48 Y145.12 E548.65229
G0 F12000 X137.66 Y144.73
G1 F2700 X138.42 Y145.49 E548.70325
G0 F12000 X138.60 Y145.11
G1 F2700 X137.86 Y144.37 E548.75263
G0 F12000 X138.07 Y144.01
G1 F2700 X138.81 Y144.75 E548.80191
G0 F12000 X139.03 Y144.40
G1 F2700 X138.28 Y143.66 E548.85126
G0 F12000 X138.50 Y143.30
G1 F2700 X139.24 Y144.04 E548.90068
G0 F12000 X139.45 Y143.70
G1 F2700 X138.73 Y142.97 E548.94900
G0 F12000 X138.97 Y142.65
G1 F2700 X139.70 Y143.37 E548.99745
G0 F12000 X139.94 Y143.05
G1 F2700 X139.21 Y142.32 E549.04600
G0 F12000 X139.45 Y141.99
G1 F2700 X140.18 Y142.72 E549.09462
G0 F12000 X140.43 Y142.41
G1 F2700 X139.71 Y141.69 E549.14250
G0 F12000 X139.98 Y141.39
G1 F2700 X140.70 Y142.11 E549.19042
G0 F12000 X140.97 Y141.81
G1 F2700 X140.25 Y141.09 E549.23837
G0 F12000 X140.51 Y140.80
G1 F2700 X141.23 Y141.52 E549.28638
G0 F12000 X141.52 Y141.23
G1 F2700 X140.80 Y140.52 E549.33407
G0 F12000 X141.10 Y140.25
G1 F2700 X141.81 Y140.97 E549.38185
G0 F12000 X142.11 Y140.70
G1 F2700 X141.39 Y139.98 E549.42967
G0 F12000 X141.69 Y139.71
G1 F2700 X142.41 Y140.43 E549.47748
G0 F12000 X142.72 Y140.18
G1 F2700 X142.00 Y139.45 E549.52570
G0 F12000 X142.32 Y139.21
G1 F2700 X143.05 Y139.94 E549.57392
G0 F12000 X143.37 Y139.69
G1 F2700 X142.65 Y138.97 E549.62227
G0 F12000 X142.97 Y138.73
G1 F2700 X143.70 Y139.45 E549.67062
G0 F12000 X144.04 Y139.24
G1 F2700 X143.31 Y138.50 E549.71980
G0 F12000 X143.66 Y138.29
G1 F2700 X144.40 Y139.02 E549.76902
G0 F12000 X144.75 Y138.81
G1 F2700 X144.01 Y138.07 E549.81830
G0 F12000 X144.37 Y137.86
G1 F2700 X145.11 Y138.60 E549.86779
G0 F12000 X145.49 Y138.42
G1 F2700 X144.73 Y137.66 E549.91834
G0 F12000 X145.12 Y137.48
G1 F2700 X145.88 Y138.24 E549.96892
G0 F12000 X146.26 Y138.06
G1 F2700 X145.50 Y137.30 E550.01958
G0 F12000 X145.88 Y137.12
G1 F2700 X146.66 Y137.89 E550.07126
G0 F12000 X147.07 Y137.74
G1 F2700 X146.29 Y136.95 E550.12381
G0 F12000 X146.70 Y136.80
G1 F2700 X147.49 Y137.59 E550.17650
G0 F12000 X147.91 Y137.44
G1 F2700 X147.12 Y136.65 E550.22932
G0 F12000 X147.53 Y136.50
G1 F2700 X148.36 Y137.33 E550.28460
G0 F12000 X148.81 Y137.22
G1 F2700 X147.98 Y136.38 E550.34029
G0 F12000 X148.43 Y136.27
G1 F2700 X149.26 Y137.10 E550.39604
G0 F12000 X149.74 Y137.01
G1 F2700 X148.88 Y136.15 E550.45359
G0 F12000 X149.35 Y136.05
G1 F2700 X150.24 Y136.94 E550.51282
G0 F12000 X150.73 Y136.87
G1 F2700 X149.84 Y135.98 E550.57217
G0 F12000 X150.33 Y135.90
G1 F2700 X151.25 Y136.82 E550.63326
G0 F12000 X151.78 Y136.79
G1 F2700 X150.82 Y135.83 E550.69755
G0 F12000 X151.36 Y135.80
G1 F2700 X152.32 Y136.77 E550.76187
G0 F12000 X152.90 Y136.78
G1 F2700 X151.90 Y135.77 E550.82889
G0 F12000 X152.43 Y135.75
G1 F2700 X153.50 Y136.81 E550.89975
G0 F12000 X154.10 Y136.84
G1 F2700 X153.02 Y135.77 E550.97144
G0 F12000 X153.62 Y135.80
G1 F2700 X154.76 Y136.94 E551.04780
G0 F12000 X155.43 Y137.04
G1 F2700 X154.22 Y135.83 E551.12823
G0 F12000 X154.88 Y135.93
G1 F2700 X156.16 Y137.21 E551.21336
G0 F12000 X156.91 Y137.40
G1 F2700 X155.55 Y136.03 E551.30446
G0 F12000 X156.27 Y136.19
G1 F2700 X157.77 Y137.69 E551.40423
G0 F12000 X158.68 Y138.03
G1 F2700 X157.03 Y136.38 E551.51447
G0 F12000 X157.85 Y136.64
G1 F2700 X159.75 Y138.54 E551.64121
G0 F12000 X159.76 Y137.42
G1 F2700 X167.58 Y145.23 E552.16226
G0 F12000 X166.46 Y145.25
G1 F2700 X168.36 Y147.15 E552.28911
G0 F12000 X168.61 Y147.97
G1 F2700 X166.97 Y146.32 E552.39894
G0 F12000 X167.31 Y147.23
G1 F2700 X168.81 Y148.72 E552.49865
G0 F12000 X168.96 Y149.45
G1 F2700 X167.60 Y148.09 E552.58948
G0 F12000 X167.79 Y148.84
G1 F2700 X169.06 Y150.11 E552.67454
G0 F12000 X169.16 Y150.78
G1 F2700 X167.96 Y149.57 E552.75510
G0 F12000 X168.06 Y150.24
G1 F2700 X169.20 Y151.38 E552.83153
G0 F12000 X169.23 Y151.98
G1 F2700 X168.16 Y150.90 E552.90329
G0 F12000 X168.19 Y151.50
G1 F2700 X169.25 Y152.57 E552.97431
G0 F12000 X169.23 Y153.11
G1 F2700 X168.22 Y152.10 E553.04154
G0 F12000 X168.23 Y152.67
G1 F2700 X169.20 Y153.65 E553.10633
G0 F12000 X169.17 Y154.18
G1 F2700 X168.20 Y153.21 E553.17085
G0 F12000 X168.18 Y153.75
G1 F2700 X169.10 Y154.67 E553.23234
G0 F12000 X169.03 Y155.17
G1 F2700 X168.13 Y154.27 E553.29209
G0 F12000 X168.06 Y154.76
G1 F2700 X168.95 Y155.66 E553.35178
G0 F12000 X168.85 Y156.12
G1 F2700 X167.98 Y155.25 E553.40947
G0 F12000 X167.90 Y155.73
G1 F2700 X168.73 Y156.57 E553.46542
G0 F12000 X168.62 Y157.03
G1 F2700 X167.78 Y156.19 E553.52141
G0 F12000 X167.67 Y156.64
G1 F2700 X168.50 Y157.47 E553.57666
G0 F12000 X168.35 Y157.88
G1 F2700 X167.55 Y157.09 E553.62968
G0 F12000 X167.41 Y157.50
G1 F2700 X168.20 Y158.30 E553.68273
G0 F12000 X168.05 Y158.72
G1 F2700 X167.26 Y157.92 E553.73585
G0 F12000 X167.11 Y158.34
G1 F2700 X167.88 Y159.11 E553.78753
G0 F12000 X167.70 Y159.50
G1 F2700 X166.94 Y158.74 E553.83832
G0 F12000 X166.76 Y159.12
G1 F2700 X167.52 Y159.88 E553.88913
G0 F12000 X167.34 Y160.27
G1 F2700 X166.58 Y159.50 E553.94009
G0 F12000 X166.39 Y159.89
G1 F2700 X167.13 Y160.63 E553.98947
G0 F12000 X166.92 Y160.98
G1 F2700 X166.19 Y160.25 E554.03875
G0 F12000 X165.97 Y160.60
G1 F2700 X166.71 Y161.34 E554.08810
G0 F12000 X166.50 Y161.69
G1 F2700 X165.76 Y160.95 E554.13752
G0 F12000 X165.54 Y161.30
G1 F2700 X166.27 Y162.03 E554.18584
G0 F12000 X166.03 Y162.35
G1 F2700 X165.30 Y161.63 E554.23426
G0 F12000 X165.06 Y161.95
G1 F2700 X165.79 Y162.68 E554.28274
G0 F12000 X165.55 Y163.00
G1 F2700 X164.82 Y162.28 E554.33129
G0 F12000 X164.57 Y162.59
G1 F2700 X165.29 Y163.31 E554.37911
G0 F12000 X165.02 Y163.61
G1 F2700 X164.30 Y162.89 E554.42699
G0 F12000 X164.03 Y163.19
G1 F2700 X164.75 Y163.90 E554.47491
G0 F12000 X164.48 Y164.20
G1 F2700 X163.76 Y163.48 E554.52286
G0 F12000 X163.48 Y163.76
G1 F2700 X164.20 Y164.48 E554.57054
G0 F12000 X163.90 Y164.75
G1 F2700 X163.19 Y164.03 E554.61832
G0 F12000 X162.89 Y164.30
G1 F2700 X163.60 Y165.02 E554.66614
G0 F12000 X163.31 Y165.29
G1 F2700 X162.59 Y164.57 E554.71402
G0 F12000 X162.28 Y164.82
G1 F2700 X163.00 Y165.54 E554.76218
G0 F12000 X162.67 Y165.79
G1 F2700 X161.95 Y165.06 E554.81036
G0 F12000 X161.63 Y165.30
G1 F2700 X162.35 Y166.03 E554.85864
G0 F12000 X162.03 Y166.27
G1 F2700 X161.30 Y165.54 E554.90696
G0 F12000 X160.95 Y165.76
G1 F2700 X161.69 Y166.50 E554.95614
G0 F12000 X161.34 Y166.71
G1 F2700 X160.60 Y165.97 E555.00543
G0 F12000 X160.25 Y166.19
G1 F2700 X160.99 Y166.93 E555.05474
G0 F12000 X160.63 Y167.14
G1 F2700 X159.89 Y166.40 E555.10430
G0 F12000 X159.51 Y166.58
G1 F2700 X160.26 Y167.34 E555.15485
G0 F12000 X159.88 Y167.52
G1 F2700 X159.12 Y166.76 E555.20546
G0 F12000 X158.74 Y166.94
G1 F2700 X159.50 Y167.70 E555.25615
G0 F12000 X159.12 Y167.88
G1 F2700 X158.34 Y167.11 E555.30783
G0 F12000 X157.92 Y167.26
G1 F2700 X158.71 Y168.04 E555.36039
G0 F12000 X158.30 Y168.19
G1 F2700 X157.51 Y167.41 E555.41304
G0 F12000 X157.09 Y167.56
G1 F2700 X157.88 Y168.35 E555.46586
G0 F12000 X157.47 Y168.50
G1 F2700 X156.64 Y167.67 E555.52111
G0 F12000 X156.19 Y167.78
G1 F2700 X157.02 Y168.62 E555.57679
G0 F12000 X156.57 Y168.73
G1 F2700 X155.73 Y167.90 E555.63251
G0 F12000 X155.25 Y167.98
G1 F2700 X156.12 Y168.85 E555.69007
G0 F12000 X155.65 Y168.94
G1 F2700 X154.76 Y168.06 E555.74929
G0 F12000 X154.27 Y168.13
G1 F2700 X155.16 Y169.02 E555.80861
G0 F12000 X154.67 Y169.09
G1 F2700 X153.75 Y168.18 E555.86970
G0 F12000 X153.21 Y168.21
G1 F2700 X154.18 Y169.17 E555.93395
G0 F12000 X153.64 Y169.20
G1 F2700 X152.68 Y168.23 E555.99828
G0 F12000 X152.10 Y168.22
G1 F2700 X153.10 Y169.22 E556.06530
G0 F12000 X152.56 Y169.25
G1 F2700 X151.50 Y168.19 E556.13619
G0 F12000 X150.90 Y168.16
G1 F2700 X151.98 Y169.23 E556.20792
G0 F12000 X151.38 Y169.20
G1 F2700 X150.24 Y168.06 E556.28428
G0 F12000 X149.57 Y167.96
G1 F2700 X150.78 Y169.16 E556.36467
G0 F12000 X150.12 Y169.07
G1 F2700 X148.84 Y167.79 E556.44983
G0 F12000 X148.09 Y167.60
G1 F2700 X149.45 Y168.97 E556.54097
G0 F12000 X148.72 Y168.81
G1 F2700 X147.23 Y167.31 E556.64067
G0 F12000 X146.32 Y166.97
G1 F2700 X147.97 Y168.62 E556.75094
G0 F12000 X147.15 Y168.36
G1 F2700 X145.25 Y166.46 E556.87769
G0 F12000 X145.23 Y167.58
G1 F2700 X137.42 Y159.76 E557.39883
G0 F12000 X138.54 Y159.75
G1 F2700 X136.64 Y157.85 E557.52575
G0 F12000 X136.38 Y157.03
G1 F2700 X138.03 Y158.68 E557.63558
G0 F12000 X137.69 Y157.77
G1 F2700 X136.19 Y156.27 E557.73532
G0 F12000 X136.96 Y158.73
G1 F2700 X139.33 Y161.11 E557.89364
G0 F12000 X138.07 Y160.98
G1 F2700 X144.02 Y166.93 E558.29061
G0 F12000 X143.89 Y165.67
G1 F2700 X146.27 Y168.05 E558.44927
G0 F12000 X142.29 Y165.76
G1 F2700 X139.24 Y162.71 E558.65288
G0 F12000 X136.97 Y154.03
G0 X137.20 Y149.46
G0 X138.74 Y145.15
G0 X141.47 Y141.47
G0 X145.15 Y138.74
G0 X149.46 Y137.20
G0 X154.01 Y136.97
G0 X158.47 Y138.09
G0 X161.11 Y139.33
G1 F2700 X158.73 Y136.95 E558.81146
G0 F12000 X160.98 Y138.07
G1 F2700 X166.93 Y144.02 E559.20840
G0 F12000 X165.67 Y143.89
G1 F2700 X168.04 Y146.26 E559.36666
G0 F12000 X165.76 Y142.29
G1 F2700 X162.71 Y139.23 E559.57026
;LAYER:1
G0 F12000 X163.18 Y139.41 Z1.30
;TYPE:WALL-INNER
G1 F3780 X164.44 Y140.55 E559.59698
G1 X165.53 Y141.75 E559.62251
G1 X166.53 Y143.08 E559.64859
G1 X167.38 Y144.50 E559.67463
G1 X167.40 Y144.54 E559.67531
G1 X168.11 Y146.04 E559.70140
G1 X168.65 Y147.53 E559.72631
G1 X169.07 Y149.19 E559.75323
G1 X169.31 Y150.76 E559.77825
G1 X169.40 Y152.45 E559.80487
G1 X169.40 Y152.51 E559.80571
G1 X169.32 Y154.10 E559.83072
G1 X169.32 Y154.15 E559.83153
G1 X169.08 Y155.74 E559.85677
G1 X168.69 Y157.32 E559.88246
G1 X168.13 Y158.91 E559.90891
G1 X167.43 Y160.41 E559.93486
G1 X166.58 Y161.83 E559.96097
G1 X165.62 Y163.15 E559.98666
G1 X164.50 Y164.40 E560.01302
G1 X163.27 Y165.51 E560.03904
G1 X163.22 Y165.57 E560.04026
G1 X161.97 Y166.49 E560.06454
G1 X160.53 Y167.37 E560.09115
G1 X159.06 Y168.06 E560.11666
G1 X157.48 Y168.65 E560.14324
G1 X157.43 Y168.66 E560.14398
G1 X155.88 Y169.05 E560.16918
G1 X155.80 Y169.07 E560.17037
G1 X154.24 Y169.30 E560.19516
G1 X154.15 Y169.32 E560.19659
G1 X152.59 Y169.39 E560.22120
G1 X152.50 Y169.40 E560.22270
G1 X150.94 Y169.32 E560.24711
G1 X150.85 Y169.32 E560.24856
G1 X149.26 Y169.08 E560.27379
G1 X147.63 Y168.68 E560.30031
G1 X146.07 Y168.12 E560.32634
G1 X144.59 Y167.43 E560.35190
G1 X143.16 Y166.58 E560.37804
G1 X141.81 Y165.59 E560.40448
G1 X140.56 Y164.45 E560.43104
G1 X139.47 Y163.25 E560.45657
G1 X138.47 Y161.92 E560.48265
G1 X137.62 Y160.50 E560.50869
G1 X137.60 Y160.46 E560.50937
G1 X136.89 Y158.96 E560.53546
G1 X136.35 Y157.47 E560.56037
G1 X135.93 Y155.81 E560.58729
G1 X135.69 Y154.24 E560.61232
G1 X135.60 Y152.55 E560.63894
G1 X135.60 Y152.49 E560.63977
G1 X135.68 Y150.90 E560.66478
G1 X135.68 Y150.85 E560.66560
G1 X135.92 Y149.26 E560.69083
G1 X136.31 Y147.68 E560.71652
G1 X136.87 Y146.09 E560.74298
G1 X137.57 Y144.59 E560.76892
G1 X138.42 Y143.17 E560.79503
G1 X139.38 Y141.85 E560.82072
G1 X140.50 Y140.60 E560.84708
G1 X141.73 Y139.49 E560.87311
G1 X141.78 Y139.43 E560.87432
G1 X143.03 Y138.51 E560.89860
G1 X144.47 Y137.63 E560.92522
G1 X145.94 Y136.94 E560.95072
G1 X147.52 Y136.35 E560.97730
G1 X147.57 Y136.34 E560.97804
G1 X149.12 Y135.95 E561.00325
G1 X149.20 Y135.93 E561.00443
G1 X150.76 Y135.70 E561.02922
G1 X150.85 Y135.68 E561.03065
G1 X152.41 Y135.61 E561.05527
G1 X152.50 Y135.60 E561.05676
G1 X154.06 Y135.68 E561.08117
G1 X154.15 Y135.68 E561.08262
G1 X155.74 Y135.92 E561.10784
G1 X157.37 Y136.32 E561.13436
G1 X158.93 Y136.88 E561.16038
G1 X160.41 Y137.57 E561.18597
G1 X161.84 Y138.42 E561.21210
G1 X163.18 Y139.41 E561.23839
G0 F12000 X162.40 Y140.44
G1 F3780 X161.17 Y139.53 E561.26245
G1 X159.85 Y138.74 E561.28652
G1 X158.47 Y138.09 E561.31058
G1 X157.03 Y137.57 E561.33465
G1 X155.54 Y137.20 E561.35871
G1 X154.03 Y136.97 E561.38277
G1 X152.50 Y136.90 E561.40683
G1 X150.97 Y136.97 E561.43090
G1 X149.46 Y137.20 E561.45496
G1 X147.97 Y137.57 E561.47902
G1 X146.53 Y138.09 E561.50309
G1 X145.15 Y138.74 E561.52715
G1 X143.83 Y139.53 E561.55122
G1 X142.60 Y140.44 E561.57528
G1 X141.47 Y141.47 E561.59935
G1 X140.44 Y142.60 E561.62342
G1 X139.53 Y143.83 E561.64749
G1 X138.74 Y145.15 E561.67156
G1 X138.09 Y146.53 E561.69561
G1 X137.57 Y147.97 E561.71969
G1 X137.20 Y149.46 E561.74375
G1 X136.97 Y150.97 E561.76781
G1 X136.90 Y152.50 E561.79187
G1 X136.97 Y154.03 E561.81593
G1 X137.20 Y155.54 E561.83999
G1 X137.57 Y157.03 E561.86406
G1 X138.09 Y158.47 E561.88813
G1 X138.74 Y159.85 E561.91218
G1 X139.53 Y161.17 E561.93625
G1 X140.44 Y162.40 E561.96032
G1 X141.47 Y163.53 E561.98439
G1 X142.60 Y164.56 E562.00846
G1 X143.83 Y165.47 E562.03253
G1 X145.15 Y166.26 E562.05659
G1 X146.53 Y166.91 E562.08065
G1 X147.97 Y167.43 E562.10472
G1 X149.46 Y167.80 E562.12878
G1 X150.97 Y168.03 E562.15284
G1 X152.50 Y168.10 E562.17691
G1 X154.03 Y168.03 E562.20097
G1 X155.54 Y167.80 E562.22503
G1 X157.03 Y167.43 E562.24909
G1 X158.47 Y166.91 E562.27317
G1 X159.85 Y166.26 E562.29722
G1 X161.17 Y165.47 E562.32129
G1 X162.40 Y164.56 E562.34535
G1 X163.53 Y163.53 E562.36942
G1 X164.56 Y162.40 E562.39350
G1 X165.47 Y161.17 E562.41756
G1 X166.26 Y159.85 E562.44163
G1 X166.91 Y158.47 E562.46568
G1 X167.43 Y157.03 E562.48976
G1 X167.80 Y155.54 E562.51382
G1 X168.03 Y154.03 E562.53788
G1 X168.10 Y152.50 E562.56194
G1 X168.03 Y150.97 E562.58601
G1 X167.80 Y149.46 E562.61007
G1 X167.43 Y147.97 E562.63413
G1 X166.91 Y146.53 E562.65820
G1 X166.26 Y145.15 E562.68226
G1 X165.47 Y143.83 E562.70632
G1 X164.56 Y142.60 E562.73039
G1 X163.53 Y141.47 E562.75446
G1 X162.40 Y140.44 E562.77853
G0 F12000 X162.14 Y140.75
;TYPE:WALL-OUTER
G1 F3780 X160.94 Y139.86 E562.80198
G1 X159.66 Y139.09 E562.82543
G1 X158.32 Y138.46 E562.84886
G1 X156.91 Y137.95 E562.87232
G1 X155.47 Y137.59 E562.89576
G1 X153.99 Y137.37 E562.91920
G1 X152.50 Y137.30 E562.94265
G1 X151.01 Y137.37 E562.96610
G1 X149.53 Y137.59 E562.98954
G1 X148.09 Y137.95 E563.01298
G1 X146.68 Y138.46 E563.03644
G1 X145.34 Y139.09 E563.05987
G1 X144.06 Y139.86 E563.08332
G1 X142.86 Y140.75 E563.10677
G1 X141.75 Y141.75 E563.13022
G1 X140.75 Y142.86 E563.15368
G1 X139.86 Y144.06 E563.17713
G1 X139.09 Y145.34 E563.20058
G1 X138.46 Y146.68 E563.22401
G1 X137.95 Y148.09 E563.24747
G1 X137.59 Y149.53 E563.27091
G1 X137.37 Y151.01 E563.29435
G1 X137.30 Y152.50 E563.31780
G1 X137.37 Y153.99 E563.34125
G1 X137.59 Y155.47 E563.36469
G1 X137.95 Y156.91 E563.38813
G1 X138.46 Y158.32 E563.41159
G1 X139.09 Y159.66 E563.43502
G1 X139.86 Y160.94 E563.45847
G1 X140.75 Y162.14 E563.48192
G1 X141.75 Y163.25 E563.50538
G1 X142.86 Y164.25 E563.52883
G1 X144.06 Y165.14 E563.55228
G1 X145.34 Y165.91 E563.57573
G1 X146.68 Y166.54 E563.59916
G1 X148.09 Y167.05 E563.62262
G1 X149.53 Y167.41 E563.64606
G1 X151.01 Y167.63 E563.66950
G1 X152.50 Y167.70 E563.69295
G1 X153.99 Y167.63 E563.71640
G1 X155.47 Y167.41 E563.73984
G1 X156.91 Y167.05 E563.76328
G1 X158.32 Y166.54 E563.78674
G1 X159.66 Y165.91 E563.81017
G1 X160.94 Y165.14 E563.83362
G1 X162.14 Y164.25 E563.85707
G1 X163.25 Y163.25 E563.88053
G1 X164.25 Y162.14 E563.90399
G1 X165.14 Y160.94 E563.92744
G1 X165.91 Y159.66 E563.95088
G1 X166.54 Y158.32 E563.97431
G1 X167.05 Y156.91 E563.99777
G1 X167.41 Y155.47 E564.02121
G1 X167.63 Y153.99 E564.04465
G1 X167.70 Y152.50 E564.06810
G1 X167.63 Y151.01 E564.09155
G1 X167.41 Y149.53 E564.11499
G1 X167.05 Y148.09 E564.13843
G1 X166.54 Y146.68 E564.16189
G1 X165.91 Y145.34 E564.18532
G1 X165.14 Y144.06 E564.20877
G1 X164.25 Y142.86 E564.23222
G1 X163.25 Y141.75 E564.25568
G1 X162.14 Y140.75 E564.27914
G0 F12000 X162.32 Y140.51
G0 X163.25 Y139.34
G0 X163.43 Y139.09
G1 F3780 X164.73 Y140.27 E564.30674
G1 X165.86 Y141.51 E564.33307
G1 X166.85 Y142.84 E564.35915
G1 X167.72 Y144.29 E564.38581
G1 X168.48 Y145.88 E564.41354
G1 X169.03 Y147.40 E564.43882
G1 X169.46 Y149.11 E564.46656
G1 X169.70 Y150.72 E564.49224
G1 X169.79 Y152.43 E564.51911
G1 X169.80 Y152.50 E564.52023
G1 X169.72 Y154.12 E564.54570
G1 X169.72 Y154.20 E564.54691
G1 X169.48 Y155.80 E564.57236
G1 X169.07 Y157.44 E564.59886
G1 X168.48 Y159.12 E564.62696
G1 X167.79 Y160.58 E564.65231
G1 X166.88 Y162.11 E564.68033
G1 X165.93 Y163.40 E564.70555
G1 X164.79 Y164.67 E564.73226
G1 X163.47 Y165.87 E564.76036
G1 X162.19 Y166.82 E564.78541
G1 X160.65 Y167.76 E564.81372
G1 X159.22 Y168.43 E564.83864
G1 X157.62 Y169.02 E564.86550
G1 X157.55 Y169.04 E564.86656
G1 X155.98 Y169.44 E564.89210
G1 X155.88 Y169.47 E564.89371
G1 X154.20 Y169.72 E564.92040
G1 X152.61 Y169.79 E564.94536
G1 X152.50 Y169.80 E564.94713
G1 X150.92 Y169.72 E564.97195
G1 X150.80 Y169.72 E564.97382
G1 X149.18 Y169.48 E564.99954
G1 X147.53 Y169.07 E565.02629
G1 X147.47 Y169.05 E565.02730
G1 X145.93 Y168.50 E565.05296
G1 X144.41 Y167.78 E565.07949
G1 X142.95 Y166.92 E565.10612
G1 X141.57 Y165.91 E565.13297
G1 X140.27 Y164.73 E565.16057
G1 X139.14 Y163.49 E565.18690
G1 X138.15 Y162.16 E565.21298
G1 X137.28 Y160.71 E565.23964
G1 X136.52 Y159.12 E565.26737
G1 X135.97 Y157.60 E565.29272
G1 X135.54 Y155.89 E565.32039
G1 X135.30 Y154.28 E565.34607
G1 X135.21 Y152.57 E565.37295
G1 X135.20 Y152.50 E565.37406
G1 X135.28 Y150.88 E565.39953
G1 X135.28 Y150.80 E565.40074
G1 X135.52 Y149.20 E565.42620
G1 X135.93 Y147.56 E565.45270
G1 X136.52 Y145.88 E565.48080
G1 X137.21 Y144.42 E565.50614
G1 X138.12 Y142.89 E565.53417
G1 X139.07 Y141.60 E565.55938
G1 X140.21 Y140.33 E565.58610
G1 X141.53 Y139.13 E565.61419
G1 X142.81 Y138.18 E565.63924
G1 X144.35 Y137.24 E565.66756
G1 X145.78 Y136.57 E565.69247
G1 X147.38 Y135.98 E565.71933
G1 X147.45 Y135.96 E565.72039
G1 X149.02 Y135.56 E565.74593
G1 X149.12 Y135.53 E565.74754
G1 X150.80 Y135.28 E565.77424
G1 X152.39 Y135.21 E565.79920
G1 X152.50 Y135.20 E565.80096
G1 X154.08 Y135.28 E565.82578
G1 X154.20 Y135.28 E565.82765
G1 X155.82 Y135.52 E565.85338
G1 X157.47 Y135.93 E565.88011
G1 X157.53 Y135.95 E565.88112
G1 X159.07 Y136.50 E565.90678
G1 X160.59 Y137.22 E565.93332
G1 X162.05 Y138.08 E565.95995
G1 X163.43 Y139.09 E565.98680
G0 F12000 X162.95 Y139.41
;TYPE:FILL
G1 F3780 X162.22 Y140.14 E566.00297
G0 F12000 X161.90 Y139.90
G1 F3780 X162.62 Y139.17 E566.01908
G0 F12000 X162.29 Y138.93
G1 F3780 X161.57 Y139.66 E566.03516
G0 F12000 X161.25 Y139.41
G1 F3780 X161.97 Y138.69 E566.05121
G0 F12000 X161.63 Y138.46
G1 F3780 X160.89 Y139.20 E566.06765
G0 F12000 X160.54 Y138.99
G1 F3780 X161.28 Y138.25 E566.08408
G0 F12000 X160.92 Y138.04
G1 F3780 X160.19 Y138.78 E566.10051
G0 F12000 X159.82 Y138.57
G1 F3780 X160.57 Y137.83 E566.11707
G0 F12000 X160.20 Y137.63
G1 F3780 X159.44 Y138.39 E566.13405
G0 F12000 X159.06 Y138.21
G1 F3780 X159.82 Y137.45 E566.15104
G0 F12000 X159.44 Y137.27
G1 F3780 X158.67 Y138.03 E566.16798
G0 F12000 X158.27 Y137.87
G1 F3780 X159.05 Y137.09 E566.18534
G0 F12000 X158.65 Y136.92
G1 F3780 X157.85 Y137.72 E566.20301
G0 F12000 X157.44 Y137.57
G1 F3780 X158.23 Y136.77 E566.22068
G0 F12000 X157.81 Y136.62
G1 F3780 X157.01 Y137.42 E566.23843
G0 F12000 X156.56 Y137.31
G1 F3780 X157.40 Y136.48 E566.25698
G0 F12000 X156.95 Y136.36
G1 F3780 X156.11 Y137.20 E566.27561
G0 F12000 X155.66 Y137.08
G1 F3780 X156.49 Y136.25 E566.29422
G0 F12000 X156.04 Y136.13
G1 F3780 X155.17 Y137.00 E566.31353
G0 F12000 X154.68 Y136.93
G1 F3780 X155.58 Y136.03 E566.33344
G0 F12000 X155.08 Y135.96
G1 F3780 X154.19 Y136.86 E566.35336
G0 F12000 X153.66 Y136.82
G1 F3780 X154.59 Y135.89 E566.37400
G0 F12000 X154.09 Y135.82
G1 F3780 X153.12 Y136.79 E566.39557
G0 F12000 X152.58 Y136.76
G1 F3780 X153.55 Y135.79 E566.41713
G0 F12000 X153.01 Y135.77
G1 F3780 X152.00 Y136.78 E566.43976
G0 F12000 X151.40 Y136.81
G1 F3780 X152.47 Y135.74 E566.46359
G0 F12000 X151.88 Y135.77
G1 F3780 X150.79 Y136.86 E566.48784
G0 F12000 X150.12 Y136.96
G1 F3780 X151.28 Y135.80 E566.51363
G0 F12000 X150.67 Y135.85
G1 F3780 X149.46 Y137.06 E566.54049
G0 F12000 X148.71 Y137.24
G1 F3780 X150.00 Y135.95 E566.56924
G0 F12000 X149.34 Y136.05
G1 F3780 X147.96 Y137.43 E566.59998
G0 F12000 X147.08 Y137.74
G1 F3780 X148.60 Y136.22 E566.63375
G0 F12000 X147.84 Y136.41
G1 F3780 X146.14 Y138.12 E566.67161
G0 F12000 X146.10 Y137.02
G1 F3780 X143.60 Y139.53 E566.72728
G0 F12000 X143.77 Y138.22
G1 F3780 X138.22 Y143.78 E566.85073
G0 F12000 X139.53 Y143.60
G1 F3780 X137.01 Y146.12 E566.90672
G0 F12000 X136.70 Y146.99
G1 F3780 X138.63 Y145.06 E566.94962
G0 F12000 X137.51 Y145.05
G1 F3780 X145.04 Y137.51 E567.11714
G0 F12000 X145.06 Y138.63
G1 F3780 X146.99 Y136.70 E567.16006
G0 F12000 X141.92 Y139.50
G1 F3780 X139.51 Y141.92 E567.21372
G0 F12000 X138.11 Y146.14
G1 F3780 X136.41 Y147.85 E567.25162
G0 F12000 X136.22 Y148.60
G1 F3780 X137.74 Y147.08 E567.28530
G0 F12000 X137.43 Y147.96
G1 F3780 X136.05 Y149.34 E567.31605
G0 F12000 X135.95 Y150.00
G1 F3780 X137.24 Y148.71 E567.34477
G0 F12000 X137.06 Y149.46
G1 F3780 X135.85 Y150.67 E567.37159
G0 F12000 X135.80 Y151.28
G1 F3780 X136.96 Y150.13 E567.39732
G0 F12000 X136.86 Y150.79
G1 F3780 X135.77 Y151.88 E567.42150
G0 F12000 X135.74 Y152.47
G1 F3780 X136.81 Y151.40 E567.44530
G0 F12000 X136.78 Y152.00
G1 F3780 X135.77 Y153.01 E567.46784
G0 F12000 X135.80 Y153.55
G1 F3780 X136.76 Y152.59 E567.48925
G0 F12000 X136.79 Y153.12
G1 F3780 X135.83 Y154.09 E567.51062
G0 F12000 X135.89 Y154.59
G1 F3780 X136.82 Y153.66 E567.53123
G0 F12000 X136.86 Y154.19
G1 F3780 X135.96 Y155.08 E567.55111
G0 F12000 X136.03 Y155.57
G1 F3780 X136.93 Y154.68 E567.57098
G0 F12000 X137.00 Y155.17
G1 F3780 X136.13 Y156.04 E567.59030
G0 F12000 X136.25 Y156.49
G1 F3780 X137.08 Y155.66 E567.60886
G0 F12000 X137.20 Y156.11
G1 F3780 X136.36 Y156.94 E567.62738
G0 F12000 X136.48 Y157.39
G1 F3780 X137.31 Y156.56 E567.64585
G0 F12000 X137.42 Y157.02
G1 F3780 X136.62 Y157.81 E567.66358
G0 F12000 X136.77 Y158.23
G1 F3780 X137.57 Y157.44 E567.68121
G0 F12000 X137.72 Y157.85
G1 F3780 X136.92 Y158.65 E567.69886
G0 F12000 X137.08 Y159.05
G1 F3780 X137.87 Y158.27 E567.71623
G0 F12000 X138.03 Y158.67
G1 F3780 X137.27 Y159.44 E567.73315
G0 F12000 X137.45 Y159.82
G1 F3780 X138.21 Y159.06 E567.75009
G0 F12000 X138.39 Y159.44
G1 F3780 X137.63 Y160.20 E567.76705
G0 F12000 X137.82 Y160.57
G1 F3780 X138.57 Y159.82 E567.78368
G0 F12000 X138.78 Y160.19
G1 F3780 X138.04 Y160.93 E567.80013
G0 F12000 X138.25 Y161.28
G1 F3780 X138.99 Y160.54 E567.81654
G0 F12000 X139.20 Y160.90
G1 F3780 X138.46 Y161.63 E567.83292
G0 F12000 X138.69 Y161.97
G1 F3780 X139.41 Y161.25 E567.84901
G0 F12000 X139.65 Y161.57
G1 F3780 X138.93 Y162.30 E567.86509
G0 F12000 X139.17 Y162.62
G1 F3780 X139.90 Y161.90 E567.88118
G0 F12000 X140.14 Y162.22
G1 F3780 X139.41 Y162.94 E567.89726
G0 F12000 X139.66 Y163.26
G1 F3780 X140.38 Y162.54 E567.91324
G0 F12000 X140.65 Y162.84
G1 F3780 X139.93 Y163.56 E567.92924
G0 F12000 X140.20 Y163.85
G1 F3780 X140.92 Y163.13 E567.94522
G0 F12000 X141.19 Y163.43
G1 F3780 X140.47 Y164.15 E567.96121
G0 F12000 X140.75 Y164.44
G1 F3780 X141.47 Y163.72 E567.97721
G0 F12000 X141.76 Y163.99
G1 F3780 X141.04 Y164.71 E567.99322
G0 F12000 X141.34 Y164.97
G1 F3780 X142.06 Y164.26 E568.00920
G0 F12000 X142.36 Y164.53
G1 F3780 X141.64 Y165.24 E568.02518
G0 F12000 X141.94 Y165.51
G1 F3780 X142.67 Y164.78 E568.04137
G0 F12000 X142.99 Y165.02
G1 F3780 X142.27 Y165.75 E568.05751
G0 F12000 X142.59 Y165.99
G1 F3780 X143.32 Y165.26 E568.07362
G0 F12000 X143.64 Y165.50
G1 F3780 X142.92 Y166.23 E568.08972
G0 F12000 X143.25 Y166.47
G1 F3780 X143.99 Y165.73 E568.10617
G0 F12000 X144.34 Y165.94
G1 F3780 X143.60 Y166.68 E568.12260
G0 F12000 X143.96 Y166.89
G1 F3780 X144.69 Y166.15 E568.13902
G0 F12000 X145.05 Y166.36
G1 F3780 X144.31 Y167.10 E568.15543
G0 F12000 X144.66 Y167.31
G1 F3780 X145.43 Y166.54 E568.17241
G0 F12000 X145.81 Y166.73
G1 F3780 X145.05 Y167.49 E568.18940
G0 F12000 X145.43 Y167.67
G1 F3780 X146.20 Y166.91 E568.20636
G0 F12000 X146.59 Y167.08
G1 F3780 X145.82 Y167.85 E568.22351
G0 F12000 X146.21 Y168.03
G1 F3780 X147.01 Y167.23 E568.24123
G0 F12000 X147.42 Y167.38
G1 F3780 X146.63 Y168.18 E568.25892
G0 F12000 X147.04 Y168.32
G1 F3780 X147.84 Y167.53 E568.27659
G0 F12000 X148.28 Y167.65
G1 F3780 X147.46 Y168.47 E568.29488
G0 F12000 X147.90 Y168.60
G1 F3780 X148.74 Y167.76 E568.31353
G0 F12000 X149.19 Y167.88
G1 F3780 X148.35 Y168.71 E568.33216
G0 F12000 X148.81 Y168.82
G1 F3780 X149.66 Y167.97 E568.35115
G0 F12000 X150.15 Y168.04
G1 F3780 X149.26 Y168.94 E568.37103
G0 F12000 X149.75 Y169.01
G1 F3780 X150.65 Y168.12 E568.39092
G0 F12000 X151.16 Y168.17
G1 F3780 X150.24 Y169.09 E568.41121
G0 F12000 X150.74 Y169.16
G1 F3780 X151.69 Y168.20 E568.43250
G0 F12000 X152.23 Y168.23
G1 F3780 X151.26 Y169.20 E568.45407
G0 F12000 X151.80 Y169.22
G1 F3780 X152.80 Y168.22 E568.47629
G0 F12000 X153.40 Y168.19
G1 F3780 X152.34 Y169.25 E568.49974
G0 F12000 X152.92 Y169.24
G1 F3780 X153.99 Y168.16 E568.52359
G0 F12000 X154.65 Y168.07
G1 F3780 X153.51 Y169.21 E568.54883
G0 F12000 X154.11 Y169.18
G1 F3780 X155.31 Y167.97 E568.57562
G0 F12000 X156.03 Y167.82
G1 F3780 X154.77 Y169.08 E568.60372
G0 F12000 X155.44 Y168.99
G1 F3780 X156.79 Y167.63 E568.63381
G0 F12000 X157.62 Y167.36
G1 F3780 X156.14 Y168.84 E568.66664
G0 F12000 X156.90 Y168.65
G1 F3780 X158.50 Y167.05 E568.70221
G0 F12000 X158.60 Y168.08
G1 F3780 X160.87 Y165.81 E568.75276
G0 F12000 X160.75 Y167.07
G1 F3780 X167.06 Y160.75 E568.89317
G0 F12000 X165.81 Y160.87
G1 F3780 X168.10 Y158.59 E568.94395
G0 F12000 X168.40 Y157.71
G1 F3780 X166.55 Y159.57 E568.98525
G0 F12000 X167.66 Y159.59
G1 F3780 X163.75 Y163.50 E569.07206
G0 F12000 X163.50 Y163.75
G1 F3780 X159.59 Y167.66 E569.15891
G0 F12000 X159.57 Y166.54
G1 F3780 X157.71 Y168.41 E569.20040
G0 F12000 X162.34 Y166.04
G1 F3780 X166.02 Y162.35 E569.28228
G0 F12000 X167.05 Y158.50
G1 F3780 X168.65 Y156.90 E569.31787
G0 F12000 X168.84 Y156.15
G1 F3780 X167.37 Y157.62 E569.35058
G0 F12000 X167.63 Y156.79
G1 F3780 X168.99 Y155.44 E569.38066
G0 F12000 X169.08 Y154.77
G1 F3780 X167.82 Y156.03 E569.40874
G0 F12000 X167.97 Y155.31
G1 F3780 X169.18 Y154.11 E569.43549
G0 F12000 X169.21 Y153.51
G1 F3780 X168.07 Y154.65 E569.46070
G0 F12000 X168.16 Y153.99
G1 F3780 X169.24 Y152.92 E569.48451
G0 F12000 X169.25 Y152.34
G1 F3780 X168.19 Y153.40 E569.50790
G0 F12000 X168.22 Y152.80
G1 F3780 X169.22 Y151.81 E569.52999
G0 F12000 X169.19 Y151.27
G1 F3780 X168.23 Y152.23 E569.55140
G0 F12000 X168.20 Y151.69
G1 F3780 X169.16 Y150.74 E569.57269
G0 F12000 X169.08 Y150.24
G1 F3780 X168.17 Y151.16 E569.59293
G0 F12000 X168.12 Y150.65
G1 F3780 X169.01 Y149.75 E569.61280
G0 F12000 X168.94 Y149.26
G1 F3780 X168.04 Y150.15 E569.63269
G0 F12000 X167.97 Y149.66
G1 F3780 X168.83 Y148.80 E569.65172
G0 F12000 X168.71 Y148.35
G1 F3780 X167.88 Y149.19 E569.67027
G0 F12000 X167.76 Y148.74
G1 F3780 X168.60 Y147.90 E569.68877
G0 F12000 X168.47 Y147.46
G1 F3780 X167.65 Y148.28 E569.70703
G0 F12000 X167.53 Y147.84
G1 F3780 X168.32 Y147.04 E569.72469
G0 F12000 X168.18 Y146.63
G1 F3780 X167.38 Y147.42 E569.74234
G0 F12000 X167.23 Y147.01
G1 F3780 X168.03 Y146.21 E569.75999
G0 F12000 X167.85 Y145.82
G1 F3780 X167.08 Y146.59 E569.77713
G0 F12000 X166.91 Y146.20
G1 F3780 X167.67 Y145.43 E569.79408
G0 F12000 X167.49 Y145.05
G1 F3780 X166.73 Y145.81 E569.81103
G0 F12000 X166.55 Y145.43
G1 F3780 X167.31 Y144.67 E569.82799
G0 F12000 X167.10 Y144.31
G1 F3780 X166.36 Y145.05 E569.84444
G0 F12000 X166.15 Y144.69
G1 F3780 X166.89 Y143.95 E569.86087
G0 F12000 X166.68 Y143.60
G1 F3780 X165.94 Y144.34 E569.87727
G0 F12000 X165.73 Y143.99
G1 F3780 X166.46 Y143.25 E569.89363
G0 F12000 X166.23 Y142.92
G1 F3780 X165.50 Y143.64 E569.90975
G0 F12000 X165.26 Y143.32
G1 F3780 X165.99 Y142.59 E569.92584
G0 F12000 X165.75 Y142.27
G1 F3780 X165.02 Y142.99 E569.94192
G0 F12000 X164.78 Y142.67
G1 F3780 X165.50 Y141.94 E569.95800
G0 F12000 X165.25 Y141.64
G1 F3780 X164.53 Y142.36 E569.97398
G0 F12000 X164.26 Y142.06
G1 F3780 X164.98 Y141.34 E569.98996
G0 F12000 X164.71 Y141.04
G1 F3780 X163.99 Y141.76 E570.00595
G0 F12000 X163.72 Y141.47
G1 F3780 X164.44 Y140.75 E570.02194
G0 F12000 X164.15 Y140.47
G1 F3780 X163.43 Y141.19 E570.03795
G0 F12000 X163.13 Y140.92
G1 F3780 X163.85 Y140.20 E570.05393
G0 F12000 X163.56 Y139.93
G1 F3780 X162.84 Y140.65 E570.06989
G0 F12000 X162.54 Y140.38
G1 F3780 X163.26 Y139.67 E570.08585
;LAYER:2
G0 F12000 X163.15 Y139.38 Z1.40
;TYPE:WALL-INNER
G1 F4920 X164.39 Y140.50 E570.11219
G1 X165.52 Y141.73 E570.13849
G1 X166.49 Y143.04 E570.16403
G1 X167.37 Y144.48 E570.19063
G1 X168.07 Y145.95 E570.21619
G1 X168.67 Y147.60 E570.24375
G1 X169.06 Y149.14 E570.26872
G1 X169.32 Y150.84 E570.29581
G1 X169.40 Y152.43 E570.32076
G1 X169.40 Y152.50 E570.32197
G1 X169.32 Y154.07 E570.34666
G1 X169.32 Y154.15 E570.34783
G1 X169.09 Y155.72 E570.37278
G1 X168.69 Y157.32 E570.39875
G1 X168.68 Y157.39 E570.39982
G1 X168.15 Y158.86 E570.42439
G1 X167.44 Y160.39 E570.45085
G1 X166.60 Y161.81 E570.47684
G1 X165.62 Y163.15 E570.50287
G1 X164.53 Y164.36 E570.52848
G1 X163.29 Y165.50 E570.55488
G1 X163.22 Y165.57 E570.55654
G1 X161.97 Y166.49 E570.58092
G1 X160.46 Y167.40 E570.60863
G1 X159.06 Y168.06 E570.63294
G1 X157.51 Y168.63 E570.65899
G1 X155.91 Y169.04 E570.68493
G1 X155.84 Y169.06 E570.68602
G1 X154.27 Y169.30 E570.71096
G1 X152.62 Y169.39 E570.73692
G1 X152.50 Y169.40 E570.73892
G1 X150.98 Y169.32 E570.76281
G1 X150.85 Y169.32 E570.76483
G1 X149.28 Y169.09 E570.78981
G1 X147.67 Y168.69 E570.81589
G1 X146.08 Y168.13 E570.84235
G1 X144.61 Y167.44 E570.86797
G1 X143.16 Y166.58 E570.89442
G1 X141.85 Y165.62 E570.91986
G1 X140.61 Y164.50 E570.94620
G1 X139.48 Y163.26 E570.97255
G1 X138.51 Y161.96 E570.99804
G1 X137.63 Y160.52 E571.02465
G1 X136.93 Y159.05 E571.05021
G1 X136.33 Y157.40 E571.07776
G1 X135.94 Y155.86 E571.10273
G1 X135.68 Y154.16 E571.12983
G1 X135.60 Y152.57 E571.15477
G1 X135.60 Y152.50 E571.15598
G1 X135.68 Y150.93 E571.18068
G1 X135.68 Y150.85 E571.18184
G1 X135.91 Y149.28 E571.20679
G1 X136.31 Y147.68 E571.23280
G1 X136.85 Y146.14 E571.25840
G1 X137.56 Y144.61 E571.28485
G1 X138.40 Y143.19 E571.31084
G1 X139.38 Y141.85 E571.33688
G1 X140.47 Y140.64 E571.36249
G1 X141.71 Y139.50 E571.38889
G1 X141.78 Y139.43 E571.39055
G1 X143.03 Y138.51 E571.41492
G1 X143.11 Y138.45 E571.41650
G1 X144.54 Y137.60 E571.44264
G1 X145.94 Y136.94 E571.46695
G1 X147.49 Y136.37 E571.49301
G1 X149.09 Y135.96 E571.51895
G1 X149.16 Y135.94 E571.52004
G1 X150.73 Y135.70 E571.54498
G1 X152.38 Y135.61 E571.57094
G1 X152.50 Y135.60 E571.57294
G1 X154.02 Y135.68 E571.59683
G1 X154.15 Y135.68 E571.59885
G1 X155.72 Y135.91 E571.62383
G1 X157.33 Y136.31 E571.64989
G1 X158.92 Y136.87 E571.67635
G1 X160.39 Y137.56 E571.70198
G1 X161.84 Y138.42 E571.72844
G1 X163.15 Y139.38 E571.75388
G0 F12000 X162.40 Y140.44
G1 F4920 X161.17 Y139.53 E571.77795
G1 X159.85 Y138.74 E571.80201
G1 X158.47 Y138.09 E571.82607
G1 X157.03 Y137.57 E571.85014
G1 X155.54 Y137.20 E571.87420
G1 X154.03 Y136.97 E571.89826
G1 X152.50 Y136.90 E571.92233
G1 X150.97 Y136.97 E571.94639
G1 X149.46 Y137.20 E571.97045
G1 X147.97 Y137.57 E571.99451
G1 X146.53 Y138.09 E572.01858
G1 X145.15 Y138.74 E572.04264
G1 X143.83 Y139.53 E572.06671
G1 X142.60 Y140.44 E572.09077
G1 X141.47 Y141.47 E572.11484
G1 X140.44 Y142.60 E572.13892
G1 X139.53 Y143.83 E572.16298
G1 X138.74 Y145.15 E572.18705
G1 X138.09 Y146.53 E572.21110
G1 X137.57 Y147.97 E572.23518
G1 X137.20 Y149.46 E572.25924
G1 X136.97 Y150.97 E572.28330
G1 X136.90 Y152.50 E572.30736
G1 X136.97 Y154.03 E572.33143
G1 X137.20 Y155.54 E572.35549
G1 X137.57 Y157.03 E572.37955
G1 X138.09 Y158.47 E572.40362
G1 X138.74 Y159.85 E572.42767
G1 X139.53 Y161.17 E572.45174
G1 X140.44 Y162.40 E572.47581
G1 X141.47 Y163.53 E572.49988
G1 X142.60 Y164.56 E572.52395
G1 X143.83 Y165.47 E572.54802
G1 X145.15 Y166.26 E572.57209
G1 X146.53 Y166.91 E572.59614
G1 X147.97 Y167.43 E572.62021
G1 X149.46 Y167.80 E572.64427
G1 X150.97 Y168.03 E572.66833
G1 X152.50 Y168.10 E572.69240
G1 X154.03 Y168.03 E572.71646
G1 X155.54 Y167.80 E572.74052
G1 X157.03 Y167.43 E572.76458
G1 X158.47 Y166.91 E572.78866
G1 X159.85 Y166.26 E572.81271
G1 X161.17 Y165.47 E572.83678
G1 X162.40 Y164.56 E572.86084
G1 X163.53 Y163.53 E572.88492
G1 X164.56 Y162.40 E572.90899
G1 X165.47 Y161.17 E572.93305
G1 X166.26 Y159.85 E572.95712
G1 X166.91 Y158.47 E572.98118
G1 X167.43 Y157.03 E573.00525
G1 X167.80 Y155.54 E573.02931
G1 X168.03 Y154.03 E573.05337
G1 X168.10 Y152.50 E573.07743
G1 X168.03 Y150.97 E573.10150
G1 X167.80 Y149.46 E573.12556
G1 X167.43 Y147.97 E573.14962
G1 X166.91 Y146.53 E573.17369
G1 X166.26 Y145.15 E573.19775
G1 X165.47 Y143.83 E573.22181
G1 X164.56 Y142.60 E573.24588
G1 X163.53 Y141.47 E573.26995
G1 X162.40 Y140.44 E573.29402
G0 F12000 X162.14 Y140.75
;TYPE:WALL-OUTER
G1 F4920 X160.94 Y139.86 E573.31747
G1 X159.66 Y139.09 E573.34092
G1 X158.32 Y138.46 E573.36435
G1 X156.91 Y137.95 E573.38781
G1 X155.47 Y137.59 E573.41125
G1 X153.99 Y137.37 E573.43469
G1 X152.50 Y137.30 E573.45814
G1 X151.01 Y137.37 E573.48159
G1 X149.53 Y137.59 E573.50503
G1 X148.09 Y137.95 E573.52847
G1 X146.68 Y138.46 E573.55193
G1 X145.34 Y139.09 E573.57536
G1 X144.06 Y139.86 E573.59881
G1 X142.86 Y140.75 E573.62226
G1 X141.75 Y141.75 E573.64572
G1 X140.75 Y142.86 E573.66917
G1 X139.86 Y144.06 E573.69262
G1 X139.09 Y145.34 E573.71607
G1 X138.46 Y146.68 E573.73950
G1 X137.95 Y148.09 E573.76296
G1 X137.59 Y149.53 E573.78640
G1 X137.37 Y151.01 E573.80984
G1 X137.30 Y152.50 E573.83329
G1 X137.37 Y153.99 E573.85674
G1 X137.59 Y155.47 E573.88018
G1 X137.95 Y156.91 E573.90362
G1 X138.46 Y158.32 E573.92708
G1 X139.09 Y159.66 E573.95051
G1 X139.86 Y160.94 E573.97396
G1 X140.75 Y162.14 E573.99741
G1 X141.75 Y163.25 E574.02087
G1 X142.86 Y164.25 E574.04433
G1 X144.06 Y165.14 E574.06778
G1 X145.34 Y165.91 E574.09122
G1 X146.68 Y166.54 E574.11465
G1 X148.09 Y167.05 E574.13811
G1 X149.53 Y167.41 E574.16155
G1 X151.01 Y167.63 E574.18499
G1 X152.50 Y167.70 E574.20844
G1 X153.99 Y167.63 E574.23189
G1 X155.47 Y167.41 E574.25533
G1 X156.91 Y167.05 E574.27877
G1 X158.32 Y166.54 E574.30223
G1 X159.66 Y165.91 E574.32566
G1 X160.94 Y165.14 E574.34911
G1 X162.14 Y164.25 E574.37256
G1 X163.25 Y163.25 E574.39602
G1 X164.25 Y162.14 E574.41948
G1 X165.14 Y160.94 E574.44293
G1 X165.91 Y159.66 E574.46637
G1 X166.54 Y158.32 E574.48980
G1 X167.05 Y156.91 E574.51326
G1 X167.41 Y155.47 E574.53670
G1 X167.63 Y153.99 E574.56014
G1 X167.70 Y152.50 E574.58359
G1 X167.63 Y151.01 E574.60704
G1 X167.41 Y149.53 E574.63048
G1 X167.05 Y148.09 E574.65393
G1 X166.54 Y146.68 E574.67738
G1 X165.91 Y145.34 E574.70081
G1 X165.14 Y144.06 E574.72426
G1 X164.25 Y142.86 E574.74771
G1 X163.25 Y141.75 E574.77117
G1 X162.14 Y140.75 E574.79463
G0 F12000 X162.32 Y140.51
G0 X163.22 Y139.31
G0 X163.40 Y139.07
G1 F4920 X164.67 Y140.22 E574.82148
G1 X165.82 Y141.47 E574.84812
G1 X166.82 Y142.81 E574.87448
G1 X167.71 Y144.27 E574.90145
G1 X168.44 Y145.79 E574.92795
G1 X169.05 Y147.48 E574.95611
G1 X169.44 Y149.04 E574.98140
G1 X169.46 Y149.10 E574.98243
G1 X169.72 Y150.81 E575.00949
G1 X169.79 Y152.41 E575.03470
G1 X169.80 Y152.50 E575.03620
G1 X169.72 Y154.10 E575.06130
G1 X169.72 Y154.20 E575.06288
G1 X169.47 Y155.87 E575.08949
G1 X169.06 Y157.52 E575.11613
G1 X168.52 Y159.01 E575.14112
G1 X167.80 Y160.56 E575.16790
G1 X167.76 Y160.65 E575.16945
G1 X166.88 Y162.11 E575.19631
G1 X165.87 Y163.48 E575.22303
G1 X164.82 Y164.64 E575.24768
G1 X163.56 Y165.79 E575.27444
G1 X162.11 Y166.88 E575.30295
G1 X160.65 Y167.76 E575.32976
G1 X159.12 Y168.48 E575.35643
G1 X157.65 Y169.01 E575.38098
G1 X155.93 Y169.45 E575.40890
G1 X154.34 Y169.69 E575.43419
G1 X154.26 Y169.71 E575.43545
G1 X152.50 Y169.80 E575.46310
G1 X150.96 Y169.72 E575.48735
G1 X150.80 Y169.72 E575.48979
G1 X149.20 Y169.48 E575.51524
G1 X147.56 Y169.07 E575.54180
G1 X145.95 Y168.51 E575.56868
G1 X145.89 Y168.48 E575.56972
G1 X144.42 Y167.79 E575.59516
G1 X142.96 Y166.93 E575.62192
G1 X142.90 Y166.89 E575.62296
G1 X141.60 Y165.93 E575.64845
G1 X140.33 Y164.78 E575.67529
G1 X139.18 Y163.53 E575.70196
G1 X138.18 Y162.19 E575.72832
G1 X137.29 Y160.73 E575.75527
G1 X136.56 Y159.21 E575.78177
G1 X135.95 Y157.52 E575.80993
G1 X135.56 Y155.96 E575.83522
G1 X135.54 Y155.90 E575.83624
G1 X135.28 Y154.19 E575.86331
G1 X135.21 Y152.59 E575.88852
G1 X135.20 Y152.50 E575.89002
G1 X135.28 Y150.90 E575.91512
G1 X135.28 Y150.80 E575.91669
G1 X135.53 Y149.13 E575.94331
G1 X135.95 Y147.48 E575.97002
G1 X136.48 Y145.99 E575.99493
G1 X137.20 Y144.44 E576.02172
G1 X138.12 Y142.89 E576.05012
G1 X139.13 Y141.52 E576.07684
G1 X140.18 Y140.36 E576.10149
G1 X141.44 Y139.21 E576.12825
G1 X142.89 Y138.12 E576.15676
G1 X144.35 Y137.24 E576.18357
G1 X145.88 Y136.52 E576.21025
G1 X147.35 Y135.99 E576.23480
G1 X149.07 Y135.55 E576.26271
G1 X150.66 Y135.31 E576.28800
G1 X150.74 Y135.29 E576.28926
G1 X152.50 Y135.20 E576.31691
G1 X154.04 Y135.28 E576.34117
G1 X154.20 Y135.28 E576.34361
G1 X155.80 Y135.52 E576.36905
G1 X157.44 Y135.93 E576.39559
G1 X159.05 Y136.49 E576.42247
G1 X159.11 Y136.52 E576.42351
G1 X160.58 Y137.21 E576.44898
G1 X162.04 Y138.07 E576.47573
G1 X162.10 Y138.11 E576.47677
G1 X163.40 Y139.07 E576.50226
G0 F12000 X162.71 Y139.24
;TYPE:FILL
G1 F4920 X165.75 Y142.27 E576.56977
G0 F12000 X165.67 Y143.89
G1 F4920 X168.03 Y146.25 E576.62228
G0 F12000 X168.36 Y147.14
G1 F4920 X166.46 Y145.25 E576.66447
G0 F12000 X167.57 Y145.22
G1 F4920 X159.77 Y137.42 E576.83786
G0 F12000 X159.75 Y138.54
G1 F4920 X157.86 Y136.65 E576.87996
G0 F12000 X157.03 Y136.38
G1 F4920 X158.68 Y138.03 E576.91662
G0 F12000 X157.77 Y137.69
G1 F4920 X156.28 Y136.20 E576.94975
G0 F12000 X155.55 Y136.03
G1 F4920 X156.91 Y137.40 E576.98011
G0 F12000 X156.16 Y137.21
G1 F4920 X154.88 Y135.93 E577.00849
G0 F12000 X154.22 Y135.84
G1 F4920 X155.43 Y137.04 E577.03529
G0 F12000 X154.76 Y136.94
G1 F4920 X153.62 Y135.80 E577.06072
G0 F12000 X153.02 Y135.77
G1 F4920 X154.10 Y136.84 E577.08463
G0 F12000 X153.50 Y136.81
G1 F4920 X152.43 Y135.75 E577.10825
G0 F12000 X151.90 Y135.78
G1 F4920 X152.90 Y136.78 E577.13057
G0 F12000 X152.32 Y136.77
G1 F4920 X151.36 Y135.81 E577.15196
G0 F12000 X150.83 Y135.84
G1 F4920 X151.78 Y136.79 E577.17328
G0 F12000 X151.25 Y136.82
G1 F4920 X150.33 Y135.90 E577.19371
G0 F12000 X149.84 Y135.98
G1 F4920 X150.73 Y136.87 E577.21356
G0 F12000 X150.24 Y136.94
G1 F4920 X149.34 Y136.05 E577.23339
G0 F12000 X148.88 Y136.15
G1 F4920 X149.74 Y137.01 E577.25255
G0 F12000 X149.26 Y137.10
G1 F4920 X148.43 Y136.27 E577.27109
G0 F12000 X147.98 Y136.38
G1 F4920 X148.81 Y137.22 E577.28957
G0 F12000 X148.36 Y137.33
G1 F4920 X147.53 Y136.50 E577.30797
G0 F12000 X147.12 Y136.65
G1 F4920 X147.91 Y137.44 E577.32557
G0 F12000 X147.49 Y137.59
G1 F4920 X146.70 Y136.80 E577.34312
G0 F12000 X146.29 Y136.96
G1 F4920 X147.07 Y137.74 E577.36059
G0 F12000 X146.66 Y137.89
G1 F4920 X145.88 Y137.11 E577.37784
G0 F12000 X145.50 Y137.30
G1 F4920 X146.26 Y138.06 E577.39478
G0 F12000 X145.88 Y138.24
G1 F4920 X145.11 Y137.48 E577.41173
G0 F12000 X144.73 Y137.66
G1 F4920 X145.49 Y138.42 E577.42869
G0 F12000 X145.11 Y138.60
G1 F4920 X144.37 Y137.86 E577.44519
G0 F12000 X144.01 Y138.07
G1 F4920 X144.75 Y138.81 E577.46163
G0 F12000 X144.40 Y139.02
G1 F4920 X143.66 Y138.28 E577.47806
G0 F12000 X143.31 Y138.50
G1 F4920 X144.04 Y139.24 E577.49448
G0 F12000 X143.70 Y139.45
G1 F4920 X142.97 Y138.73 E577.51060
G0 F12000 X142.65 Y138.97
G1 F4920 X143.37 Y139.69 E577.52674
G0 F12000 X143.05 Y139.94
G1 F4920 X142.32 Y139.21 E577.54288
G0 F12000 X142.00 Y139.45
G1 F4920 X142.72 Y140.18 E577.55903
G0 F12000 X142.41 Y140.43
G1 F4920 X141.69 Y139.71 E577.57497
G0 F12000 X141.40 Y139.98
G1 F4920 X142.11 Y140.70 E577.59087
G0 F12000 X141.81 Y140.97
G1 F4920 X141.10 Y140.25 E577.60673
G0 F12000 X140.80 Y140.52
G1 F4920 X141.52 Y141.23 E577.62256
G0 F12000 X141.23 Y141.52
G1 F4920 X140.51 Y140.80 E577.63857
G0 F12000 X140.25 Y141.10
G1 F4920 X140.97 Y141.81 E577.65453
G0 F12000 X140.70 Y142.11
G1 F4920 X139.98 Y141.39 E577.67047
G0 F12000 X139.71 Y141.69
G1 F4920 X140.43 Y142.41 E577.68638
G0 F12000 X140.18 Y142.72
G1 F4920 X139.45 Y142.00 E577.70256
G0 F12000 X139.21 Y142.32
G1 F4920 X139.94 Y143.05 E577.71871
G0 F12000 X139.70 Y143.37
G1 F4920 X138.97 Y142.65 E577.73481
G0 F12000 X138.73 Y142.97
G1 F4920 X139.45 Y143.70 E577.75086
G0 F12000 X139.24 Y144.04
G1 F4920 X138.50 Y143.31 E577.76732
G0 F12000 X138.29 Y143.66
G1 F4920 X139.03 Y144.40 E577.78375
G0 F12000 X138.81 Y144.75
G1 F4920 X138.08 Y144.01 E577.80015
G0 F12000 X137.87 Y144.37
G1 F4920 X138.60 Y145.11 E577.81657
G0 F12000 X138.42 Y145.49
G1 F4920 X137.66 Y144.73 E577.83356
G0 F12000 X137.48 Y145.12
G1 F4920 X138.24 Y145.88 E577.85049
G0 F12000 X138.06 Y146.26
G1 F4920 X137.30 Y145.50 E577.86739
G0 F12000 X137.12 Y145.89
G1 F4920 X137.89 Y146.66 E577.88455
G0 F12000 X137.74 Y147.08
G1 F4920 X136.95 Y146.28 E577.90223
G0 F12000 X136.80 Y146.70
G1 F4920 X137.59 Y147.49 E577.91988
G0 F12000 X137.44 Y147.91
G1 F4920 X136.65 Y147.12 E577.93748
G0 F12000 X136.50 Y147.54
G1 F4920 X137.33 Y148.36 E577.95581
G0 F12000 X137.22 Y148.81
G1 F4920 X136.38 Y147.97 E577.97444
G0 F12000 X136.27 Y148.43
G1 F4920 X137.10 Y149.26 E577.99303
G0 F12000 X137.02 Y149.74
G1 F4920 X136.16 Y148.88 E578.01214
G0 F12000 X136.05 Y149.34
G1 F4920 X136.94 Y150.24 E578.03206
G0 F12000 X136.87 Y150.73
G1 F4920 X135.97 Y149.83 E578.05198
G0 F12000 X135.90 Y150.32
G1 F4920 X136.82 Y151.25 E578.07248
G0 F12000 X136.79 Y151.79
G1 F4920 X135.83 Y150.82 E578.09398
G0 F12000 X135.80 Y151.35
G1 F4920 X136.77 Y152.32 E578.11557
G0 F12000 X136.78 Y152.90
G1 F4920 X135.77 Y151.89 E578.13800
G0 F12000 X135.74 Y152.43
G1 F4920 X136.81 Y153.50 E578.16167
G0 F12000 X136.84 Y154.10
G1 F4920 X135.77 Y153.02 E578.18560
G0 F12000 X135.80 Y153.62
G1 F4920 X136.94 Y154.76 E578.21108
G0 F12000 X137.04 Y155.43
G1 F4920 X135.83 Y154.22 E578.23791
G0 F12000 X135.94 Y154.89
G1 F4920 X137.21 Y156.16 E578.26623
G0 F12000 X137.40 Y156.91
G1 F4920 X136.04 Y155.55 E578.29650
G0 F12000 X136.19 Y156.27
G1 F4920 X137.69 Y157.77 E578.32981
G0 F12000 X138.03 Y158.68
G1 F4920 X136.38 Y157.03 E578.36657
G0 F12000 X136.64 Y157.86
G1 F4920 X138.54 Y159.75 E578.40874
G0 F12000 X137.43 Y159.77
G1 F4920 X145.23 Y167.57 E578.58215
G0 F12000 X145.25 Y166.46
G1 F4920 X147.14 Y168.35 E578.62426
G0 F12000 X147.97 Y168.62
G1 F4920 X146.32 Y166.97 E578.66094
G0 F12000 X147.23 Y167.31
G1 F4920 X148.72 Y168.80 E578.69406
G0 F12000 X149.45 Y168.97
G1 F4920 X148.09 Y167.60 E578.72443
G0 F12000 X148.84 Y167.79
G1 F4920 X150.12 Y169.06 E578.75280
G0 F12000 X150.78 Y169.16
G1 F4920 X149.57 Y167.96 E578.77960
G0 F12000 X150.24 Y168.06
G1 F4920 X151.38 Y169.20 E578.80506
G0 F12000 X151.98 Y169.23
G1 F4920 X150.90 Y168.16 E578.82896
G0 F12000 X151.50 Y168.19
G1 F4920 X152.57 Y169.25 E578.85258
G0 F12000 X153.10 Y169.22
G1 F4920 X152.10 Y168.22 E578.87488
G0 F12000 X152.68 Y168.23
G1 F4920 X153.64 Y169.19 E578.89625
G0 F12000 X154.17 Y169.16
G1 F4920 X153.21 Y168.21 E578.91755
G0 F12000 X153.75 Y168.18
G1 F4920 X154.67 Y169.10 E578.93798
G0 F12000 X155.16 Y169.02
G1 F4920 X154.27 Y168.13 E578.95782
G0 F12000 X154.76 Y168.06
G1 F4920 X155.65 Y168.95 E578.97764
G0 F12000 X156.12 Y168.84
G1 F4920 X155.25 Y167.98 E578.99680
G0 F12000 X155.73 Y167.90
G1 F4920 X156.57 Y168.73 E579.01533
G0 F12000 X157.02 Y168.61
G1 F4920 X156.19 Y167.78 E579.03379
G0 F12000 X156.64 Y167.67
G1 F4920 X157.47 Y168.50 E579.05220
G0 F12000 X157.88 Y168.35
G1 F4920 X157.09 Y167.56 E579.06978
G0 F12000 X157.51 Y167.41
G1 F4920 X158.29 Y168.19 E579.08732
G0 F12000 X158.71 Y168.04
G1 F4920 X157.92 Y167.26 E579.10480
G0 F12000 X158.34 Y167.11
G1 F4920 X159.12 Y167.88 E579.12206
G0 F12000 X159.50 Y167.70
G1 F4920 X158.74 Y166.94 E579.13901
G0 F12000 X159.12 Y166.76
