;-- START GCODE --
;Sliced for Type A Machines Series 1
;Sliced at: Tue 07-07-2015 01:14:37
;Basic settings: Layer height: 0.1 Walls: 1.2 Fill: 15
;Print Speed: 130 Support: 0
;Retraction Speed: 40 Retraction Distance: 0.5
;Print time: #P_TIME#
;Filament used: #F_AMNT#m #F_WGHT#g
;Filament cost: #F_COST#
M106 S255	 ;start with the fan on
G21        ;metric values
G90        ;absolute positioning
M106 S255    ;start with the fan on
G28     ;move to endstops
G29		;allows for auto-levelling
G1 X150 Y5  Z15.0 F12000 ;center and move the platform down 15mm
M109 S220 ;Heat To temp
G92 E0                  ;zero the extruded length
G1 F200 E30              ;extrude 30mm of feed stock
G92 E0                  ;zero the extruded length again
G1 X175 Y25  Z0 F12000 ;remove bugger
G1 X220 F12000 ;remove bugger
G1 X150 Y150  Z15 F12000 ;recenter and begin
G1 F12000

;Layer count: 135
;LAYER:0
M106 S255
G0 F12000 X135.10 Y135.07 Z0.30
;TYPE:SKIRT
G1 F2700 X138.17 Y132.54 E0.18770
G1 X138.79 Y132.03 E0.22575
G1 X142.29 Y130.16 E0.41263
G1 X143.04 Y129.75 E0.45272
G1 X146.85 Y128.59 E0.64081
G1 X146.85 Y128.59 E0.64086
G1 X147.67 Y128.34 E0.68119
G1 X151.68 Y127.94 E0.87106
G1 X151.68 Y127.95 E0.87110
G1 X152.49 Y127.86 E0.90978
G1 X156.49 Y128.26 E1.09898
G1 X157.31 Y128.34 E1.13808
G1 X161.16 Y129.50 E1.32765
G1 X161.95 Y129.75 E1.36675
G1 X165.49 Y131.64 E1.55604
G1 X166.22 Y132.04 E1.59502
G1 X169.29 Y134.57 E1.78286
G1 X169.93 Y135.10 E1.82204
G1 X172.43 Y138.14 E2.00766
G1 X172.97 Y138.79 E2.04779
G1 X174.83 Y142.28 E2.23386
G1 X175.25 Y143.04 E2.27476
G1 X176.41 Y146.85 E2.46285
G1 X176.41 Y146.85 E2.46289
G1 X176.66 Y147.67 E2.50323
G1 X177.06 Y151.68 E2.69310
G1 X177.05 Y151.68 E2.69314
G1 X177.14 Y152.49 E2.73182
G1 X176.74 Y156.49 E2.92102
G1 X176.66 Y157.31 E2.96012
G1 X175.50 Y161.16 E3.14968
G1 X175.25 Y161.95 E3.18879
G1 X173.36 Y165.49 E3.37807
G1 X172.96 Y166.22 E3.41705
G1 X170.43 Y169.29 E3.60490
G1 X169.90 Y169.93 E3.64408
G1 X166.83 Y172.46 E3.83178
G1 X166.21 Y172.97 E3.86982
G1 X162.72 Y174.83 E4.05590
G1 X161.96 Y175.25 E4.09680
G1 X158.15 Y176.41 E4.28488
G1 X158.15 Y176.41 E4.28493
G1 X157.33 Y176.66 E4.32526
G1 X153.32 Y177.06 E4.51513
G1 X153.32 Y177.05 E4.51518
G1 X152.51 Y177.14 E4.55385
G1 X148.51 Y176.74 E4.74306
G1 X147.69 Y176.66 E4.78216
G1 X143.84 Y175.50 E4.97172
G1 X143.05 Y175.25 E5.01083
G1 X139.51 Y173.36 E5.20011
G1 X138.78 Y172.96 E5.23909
G1 X135.71 Y170.43 E5.42694
G1 X135.07 Y169.90 E5.46611
G1 X132.54 Y166.83 E5.65382
G1 X132.03 Y166.21 E5.69186
G1 X130.17 Y162.72 E5.87794
G1 X129.75 Y161.96 E5.91884
G1 X128.59 Y158.15 E6.10692
G1 X128.59 Y158.15 E6.10697
G1 X128.34 Y157.33 E6.14730
G1 X127.94 Y153.32 E6.33717
G1 X127.95 Y153.32 E6.33722
G1 X127.86 Y152.51 E6.37589
G1 X128.26 Y148.51 E6.56510
G1 X128.34 Y147.69 E6.60420
G1 X129.50 Y143.84 E6.79376
G1 X129.75 Y143.05 E6.83287
G1 X131.64 Y139.51 E7.02215
G1 X132.04 Y138.78 E7.06113
G1 X134.57 Y135.71 E7.24897
G1 X135.10 Y135.07 E7.28815
G0 F12000 X135.38 Y135.35
G1 F2700 X138.40 Y132.88 E7.47211
G1 X139.02 Y132.36 E7.51028
G1 X142.50 Y130.50 E7.69615
G1 X143.19 Y130.12 E7.73361
G1 X147.02 Y128.96 E7.92211
G1 X147.02 Y128.96 E7.92216
G1 X147.75 Y128.73 E7.95831
G1 X151.72 Y128.34 E8.14633
G1 X151.72 Y128.34 E8.14638
G1 X152.49 Y128.27 E8.18316
G1 X156.45 Y128.65 E8.37051
G1 X157.23 Y128.73 E8.40776
G1 X161.04 Y129.89 E8.59536
G1 X161.79 Y130.12 E8.63265
G1 X165.30 Y132.00 E8.82001
G1 X165.99 Y132.37 E8.85719
G1 X169.04 Y134.88 E9.04319
G1 X169.65 Y135.38 E9.08050
G1 X172.12 Y138.40 E9.26445
G1 X172.64 Y139.02 E9.30263
G1 X174.48 Y142.47 E9.48700
G1 X174.88 Y143.19 E9.52595
G1 X176.04 Y147.02 E9.71445
G1 X176.04 Y147.02 E9.71450
G1 X176.27 Y147.75 E9.75065
G1 X176.66 Y151.72 E9.93868
G1 X176.66 Y151.72 E9.93872
G1 X176.73 Y152.49 E9.97550
G1 X176.35 Y156.45 E10.16286
G1 X176.27 Y157.23 E10.20011
G1 X175.11 Y161.04 E10.38770
G1 X174.88 Y161.79 E10.42499
G1 X173.00 Y165.30 E10.61235
G1 X172.63 Y165.99 E10.64954
G1 X170.12 Y169.04 E10.83553
G1 X169.62 Y169.65 E10.87284
G1 X166.60 Y172.12 E11.05679
G1 X165.98 Y172.64 E11.09497
G1 X162.50 Y174.50 E11.28084
G1 X161.81 Y174.88 E11.31829
G1 X157.98 Y176.04 E11.50680
G1 X157.98 Y176.04 E11.50684
G1 X157.25 Y176.27 E11.54300
G1 X153.28 Y176.66 E11.73102
G1 X153.28 Y176.66 E11.73107
G1 X152.51 Y176.73 E11.76784
G1 X148.55 Y176.35 E11.95520
G1 X147.77 Y176.27 E11.99245
G1 X143.96 Y175.11 E12.18004
G1 X143.21 Y174.88 E12.21733
G1 X139.70 Y173.00 E12.40470
G1 X139.01 Y172.63 E12.44188
G1 X135.96 Y170.12 E12.62787
G1 X135.35 Y169.62 E12.66518
G1 X132.88 Y166.60 E12.84914
G1 X132.36 Y165.98 E12.88731
G1 X130.48 Y162.47 E13.07506
G1 X130.12 Y161.81 E13.11064
G1 X128.96 Y157.98 E13.29914
G1 X128.96 Y157.98 E13.29919
G1 X128.73 Y157.25 E13.33534
G1 X128.34 Y153.28 E13.52336
G1 X128.34 Y153.28 E13.52341
G1 X128.27 Y152.51 E13.56019
G1 X128.65 Y148.55 E13.74754
G1 X128.73 Y147.77 E13.78479
G1 X129.89 Y143.96 E13.97239
G1 X130.12 Y143.21 E14.00968
G1 X132.00 Y139.70 E14.19704
G1 X132.37 Y139.01 E14.23422
G1 X134.88 Y135.96 E14.42022
G1 X135.38 Y135.35 E14.45753
G0 F12000 X135.66 Y135.64
G1 F2700 X138.68 Y133.16 E14.64158
G1 X139.24 Y132.69 E14.67600
G1 X142.66 Y130.87 E14.85866
G1 X143.35 Y130.49 E14.89566
G1 X147.13 Y129.34 E15.08227
G1 X147.83 Y129.13 E15.11659
G1 X151.74 Y128.74 E15.30205
G1 X152.49 Y128.67 E15.33764
G1 X156.41 Y129.05 E15.52305
G1 X157.15 Y129.13 E15.55845
G1 X160.92 Y130.27 E15.74418
G1 X161.64 Y130.49 E15.77958
G1 X165.11 Y132.35 E15.96508
G1 X165.77 Y132.71 E16.00039
G1 X168.79 Y135.18 E16.18458
G1 X169.36 Y135.66 E16.22004
G1 X171.81 Y138.65 E16.40225
G1 X172.31 Y139.24 E16.43852
G1 X174.13 Y142.66 E16.62118
G1 X174.51 Y143.35 E16.65817
G1 X175.66 Y147.13 E16.84478
G1 X175.87 Y147.83 E16.87910
G1 X176.26 Y151.74 E17.06456
G1 X176.33 Y152.49 E17.10015
G1 X175.95 Y156.41 E17.28556
G1 X175.87 Y157.15 E17.32097
G1 X174.73 Y160.92 E17.50669
G1 X174.51 Y161.64 E17.54209
G1 X172.65 Y165.11 E17.72760
G1 X172.29 Y165.77 E17.76290
G1 X169.82 Y168.79 E17.94709
G1 X169.34 Y169.36 E17.98255
G1 X166.32 Y171.84 E18.16660
G1 X165.76 Y172.31 E18.20103
G1 X162.34 Y174.13 E18.38369
G1 X161.65 Y174.51 E18.42069
G1 X157.87 Y175.66 E18.60729
G1 X157.17 Y175.87 E18.64161
G1 X153.26 Y176.26 E18.82707
G1 X152.51 Y176.33 E18.86266
G1 X148.59 Y175.95 E19.04808
G1 X147.85 Y175.87 E19.08348
G1 X144.08 Y174.73 E19.26921
G1 X143.36 Y174.51 E19.30460
G1 X139.89 Y172.65 E19.49011
G1 X139.23 Y172.29 E19.52542
G1 X136.21 Y169.82 E19.70961
G1 X135.64 Y169.34 E19.74507
G1 X133.16 Y166.32 E19.92912
G1 X132.69 Y165.76 E19.96355
G1 X130.87 Y162.34 E20.14620
G1 X130.49 Y161.65 E20.18320
G1 X129.34 Y157.87 E20.36981
G1 X129.13 Y157.17 E20.40413
G1 X128.74 Y153.24 E20.59020
G1 X128.67 Y152.51 E20.62518
G1 X129.05 Y148.59 E20.81059
G1 X129.13 Y147.85 E20.84599
G1 X130.27 Y144.08 E21.03172
G1 X130.49 Y143.36 E21.06712
G1 X132.35 Y139.89 E21.25262
G1 X132.71 Y139.23 E21.28793
G1 X135.18 Y136.21 E21.47212
G1 X135.66 Y135.64 E21.50758
G0 F12000 X135.95 Y135.92
G1 F2700 X138.94 Y133.47 E21.68986
G1 X139.47 Y133.03 E21.72247
G1 X142.91 Y131.19 E21.90646
G1 X143.50 Y130.86 E21.93845
G1 X147.25 Y129.73 E22.12309
G1 X147.91 Y129.52 E22.15564
G1 X151.78 Y129.14 E22.33920
G1 X152.49 Y129.07 E22.37290
G1 X156.37 Y129.45 E22.55646
G1 X157.07 Y129.52 E22.58997
G1 X160.81 Y130.65 E22.77382
G1 X161.49 Y130.86 E22.80735
G1 X164.92 Y132.70 E22.99098
G1 X165.54 Y133.04 E23.02440
G1 X168.53 Y135.49 E23.20678
G1 X169.08 Y135.95 E23.24037
G1 X171.51 Y138.91 E23.42087
G1 X171.97 Y139.47 E23.45526
G1 X173.80 Y142.89 E23.63838
G1 X174.14 Y143.50 E23.67124
G1 X175.27 Y147.25 E23.85588
G1 X175.48 Y147.91 E23.88843
G1 X175.86 Y151.78 E24.07199
G1 X175.93 Y152.49 E24.10569
G1 X175.55 Y156.37 E24.28925
G1 X175.48 Y157.07 E24.32276
G1 X174.35 Y160.81 E24.50661
G1 X174.14 Y161.49 E24.54014
G1 X172.30 Y164.92 E24.72377
G1 X171.96 Y165.54 E24.75719
G1 X169.51 Y168.53 E24.93957
G1 X169.05 Y169.08 E24.97316
G1 X166.06 Y171.53 E25.15544
G1 X165.53 Y171.97 E25.18805
G1 X162.09 Y173.81 E25.37204
G1 X161.50 Y174.14 E25.40403
G1 X157.75 Y175.27 E25.58867
G1 X157.09 Y175.48 E25.62122
G1 X153.22 Y175.86 E25.80478
G1 X152.51 Y175.93 E25.83848
G1 X148.63 Y175.55 E26.02204
G1 X147.93 Y175.48 E26.05555
G1 X144.19 Y174.35 E26.23940
G1 X143.51 Y174.14 E26.27293
G1 X140.08 Y172.30 E26.45656
G1 X139.46 Y171.96 E26.48998
G1 X136.47 Y169.51 E26.67236
G1 X135.92 Y169.05 E26.70595
G1 X133.47 Y166.06 E26.88823
G1 X133.03 Y165.53 E26.92084
G1 X131.19 Y162.09 E27.10483
G1 X130.86 Y161.50 E27.13682
G1 X129.73 Y157.75 E27.32146
G1 X129.52 Y157.09 E27.35401
G1 X129.14 Y153.21 E27.53814
G1 X129.07 Y152.51 E27.57127
G1 X129.45 Y148.63 E27.75483
G1 X129.52 Y147.93 E27.78834
G1 X130.65 Y144.19 E27.97219
G1 X130.86 Y143.51 E28.00572
G1 X132.70 Y140.08 E28.18935
G1 X133.04 Y139.46 E28.22278
G1 X135.49 Y136.47 E28.40515
G1 X135.95 Y135.92 E28.43874
G0 F12000 X136.23 Y136.21
G1 F2700 X139.19 Y133.78 E28.61918
G1 X139.69 Y133.36 E28.65002
G1 X143.10 Y131.54 E28.83205
G1 X143.66 Y131.23 E28.86231
G1 X147.37 Y130.11 E29.04498
G1 X147.99 Y129.91 E29.07571
G1 X151.82 Y129.54 E29.25742
G1 X152.50 Y129.47 E29.28927
G1 X156.33 Y129.85 E29.47094
G1 X157.00 Y129.91 E29.50260
G1 X160.69 Y131.03 E29.68453
G1 X161.33 Y131.23 E29.71618
G1 X164.73 Y133.05 E29.89791
G1 X165.32 Y133.37 E29.92949
G1 X168.28 Y135.80 E30.11009
G1 X168.79 Y136.23 E30.14181
G1 X171.20 Y139.16 E30.32060
G1 X171.64 Y139.69 E30.35309
G1 X173.46 Y143.10 E30.53511
G1 X173.77 Y143.66 E30.56538
G1 X174.88 Y147.33 E30.74612
G1 X175.09 Y147.99 E30.77877
G1 X175.46 Y151.82 E30.96049
G1 X175.53 Y152.50 E30.99233
G1 X175.15 Y156.33 E31.17400
G1 X175.09 Y157.00 E31.20566
G1 X173.97 Y160.69 E31.38760
G1 X173.77 Y161.33 E31.41925
G1 X171.95 Y164.73 E31.60098
G1 X171.63 Y165.32 E31.63255
G1 X169.20 Y168.28 E31.81315
G1 X168.77 Y168.79 E31.84487
G1 X165.84 Y171.20 E32.02367
G1 X165.31 Y171.64 E32.05615
G1 X161.90 Y173.46 E32.23818
G1 X161.34 Y173.77 E32.26844
G1 X157.63 Y174.89 E32.45111
G1 X157.01 Y175.09 E32.48184
G1 X153.18 Y175.46 E32.66355
G1 X152.50 Y175.53 E32.69540
G1 X148.67 Y175.15 E32.87707
G1 X148.00 Y175.09 E32.90872
G1 X144.31 Y173.97 E33.09066
G1 X143.67 Y173.77 E33.12231
G1 X140.27 Y171.95 E33.30404
G1 X139.68 Y171.63 E33.33562
G1 X136.72 Y169.20 E33.51622
G1 X136.21 Y168.77 E33.54794
G1 X133.78 Y165.81 E33.72838
G1 X133.36 Y165.31 E33.75922
G1 X131.54 Y161.90 E33.94124
G1 X131.23 Y161.34 E33.97151
G1 X130.11 Y157.63 E34.15418
G1 X129.91 Y157.01 E34.18490
G1 X129.54 Y153.17 E34.36714
G1 X129.47 Y152.50 E34.39846
G1 X129.85 Y148.67 E34.58013
G1 X129.91 Y148.00 E34.61179
G1 X131.03 Y144.31 E34.79373
G1 X131.23 Y143.67 E34.82538
G1 X133.05 Y140.27 E35.00711
G1 X133.37 Y139.68 E35.03868
G1 X135.80 Y136.72 E35.21928
G1 X136.23 Y136.21 E35.25100
G0 F12000 X136.51 Y136.49
G1 F2700 X139.44 Y134.09 E35.42959
G1 X139.92 Y133.69 E35.45863
G1 X143.26 Y131.91 E35.63721
G1 X143.81 Y131.60 E35.66723
G1 X147.46 Y130.50 E35.84679
G1 X148.07 Y130.31 E35.87691
G1 X151.87 Y129.94 E36.05720
G1 X152.50 Y129.87 E36.08668
G1 X156.29 Y130.25 E36.26645
G1 X156.92 Y130.31 E36.29626
G1 X160.57 Y131.42 E36.47628
G1 X161.18 Y131.60 E36.50609
G1 X164.54 Y133.40 E36.68593
G1 X165.09 Y133.71 E36.71570
G1 X168.02 Y136.11 E36.89443
G1 X168.51 Y136.51 E36.92433
G1 X170.89 Y139.42 E37.10139
G1 X171.31 Y139.92 E37.13196
G1 X173.08 Y143.24 E37.30943
G1 X173.40 Y143.81 E37.34056
G1 X174.50 Y147.45 E37.51953
G1 X174.69 Y148.07 E37.55024
G1 X175.06 Y151.86 E37.73007
G1 X175.13 Y152.50 E37.76002
G1 X174.75 Y156.29 E37.93979
G1 X174.69 Y156.92 E37.96960
G1 X173.58 Y160.57 E38.14961
G1 X173.40 Y161.18 E38.17943
G1 X171.60 Y164.54 E38.35926
G1 X171.29 Y165.09 E38.38904
G1 X168.89 Y168.02 E38.56776
G1 X168.49 Y168.51 E38.59767
G1 X165.56 Y170.91 E38.77626
G1 X165.08 Y171.31 E38.80530
G1 X161.74 Y173.09 E38.98388
G1 X161.19 Y173.40 E39.01389
G1 X157.55 Y174.50 E39.19287
G1 X156.93 Y174.69 E39.22358
G1 X153.13 Y175.06 E39.40387
G1 X152.50 Y175.13 E39.43335
G1 X148.71 Y174.75 E39.61312
G1 X148.08 Y174.69 E39.64293
G1 X144.43 Y173.58 E39.82295
G1 X143.82 Y173.40 E39.85276
G1 X140.46 Y171.60 E40.03260
G1 X139.91 Y171.29 E40.06237
G1 X136.98 Y168.89 E40.24110
G1 X136.49 Y168.49 E40.27100
G1 X134.09 Y165.56 E40.44960
G1 X133.69 Y165.08 E40.47863
G1 X131.89 Y161.72 E40.65878
G1 X131.60 Y161.19 E40.68723
G1 X130.49 Y157.52 E40.86797
G1 X130.31 Y156.93 E40.89691
G1 X129.94 Y153.13 E41.07721
G1 X129.87 Y152.50 E41.10668
G1 X130.25 Y148.71 E41.28646
G1 X130.31 Y148.08 E41.31627
G1 X131.42 Y144.43 E41.49628
G1 X131.60 Y143.82 E41.52610
G1 X133.40 Y140.46 E41.70593
G1 X133.71 Y139.91 E41.73571
G1 X136.11 Y136.98 E41.91443
G1 X136.51 Y136.49 E41.94434
G0 F12000 X136.80 Y136.78
G1 F2700 X139.70 Y134.40 E42.12115
G1 X140.14 Y134.03 E42.14838
G1 X143.47 Y132.25 E42.32659
G1 X143.97 Y131.97 E42.35330
G1 X147.60 Y130.87 E42.53209
G1 X148.15 Y130.70 E42.55924
G1 X151.91 Y130.33 E42.73760
G1 X152.50 Y130.28 E42.76522
G1 X156.25 Y130.64 E42.94315
G1 X156.84 Y130.70 E42.97106
G1 X160.45 Y131.80 E43.14920
G1 X161.02 Y131.97 E43.17715
G1 X164.35 Y133.75 E43.35510
G1 X164.87 Y134.04 E43.38300
G1 X167.77 Y136.42 E43.55995
G1 X168.22 Y136.80 E43.58795
G1 X170.58 Y139.67 E43.76336
G1 X170.97 Y140.14 E43.79199
G1 X172.73 Y143.43 E43.96773
G1 X173.03 Y143.97 E43.99691
G1 X174.13 Y147.60 E44.17570
G1 X174.30 Y148.15 E44.20285
G1 X174.66 Y151.90 E44.38078
G1 X174.72 Y152.50 E44.40883
G1 X174.36 Y156.25 E44.58676
G1 X174.30 Y156.84 E44.61467
G1 X173.20 Y160.45 E44.79281
G1 X173.03 Y161.02 E44.82076
G1 X171.25 Y164.35 E44.99871
G1 X170.96 Y164.87 E45.02661
G1 X168.58 Y167.77 E45.20356
G1 X168.20 Y168.22 E45.23156
G1 X165.30 Y170.60 E45.40838
G1 X164.86 Y170.97 E45.43560
G1 X161.53 Y172.75 E45.61381
G1 X161.03 Y173.03 E45.64053
G1 X157.40 Y174.13 E45.81932
G1 X156.85 Y174.30 E45.84646
G1 X153.09 Y174.67 E46.02482
G1 X152.50 Y174.72 E46.05245
G1 X148.75 Y174.36 E46.23037
G1 X148.16 Y174.30 E46.25828
G1 X144.55 Y173.20 E46.43642
G1 X143.98 Y173.03 E46.46437
G1 X140.65 Y171.25 E46.64232
G1 X140.13 Y170.96 E46.67022
G1 X137.23 Y168.58 E46.84717
G1 X136.78 Y168.20 E46.87517
G1 X134.40 Y165.30 E47.05199
G1 X134.03 Y164.86 E47.07921
G1 X132.25 Y161.53 E47.25742
G1 X131.97 Y161.03 E47.28414
G1 X130.87 Y157.40 E47.46293
G1 X130.70 Y156.85 E47.49007
G1 X130.33 Y153.09 E47.66843
G1 X130.28 Y152.50 E47.69606
G1 X130.64 Y148.75 E47.87398
G1 X130.70 Y148.16 E47.90189
G1 X131.80 Y144.55 E48.08003
G1 X131.97 Y143.98 E48.10798
G1 X133.75 Y140.65 E48.28593
G1 X134.04 Y140.13 E48.31383
G1 X136.42 Y137.23 E48.49078
G1 X136.80 Y136.78 E48.51878
G0 F12000 X137.08 Y137.06
G1 F2700 X139.95 Y134.71 E48.69382
G1 X140.37 Y134.36 E48.71924
G1 X143.66 Y132.60 E48.89555
G1 X144.13 Y132.34 E48.92050
G1 X147.71 Y131.26 E49.09730
G1 X148.23 Y131.10 E49.12263
G1 X151.95 Y130.73 E49.29909
G1 X152.50 Y130.68 E49.32492
G1 X156.21 Y131.04 E49.50090
G1 X156.76 Y131.10 E49.52701
G1 X160.34 Y132.18 E49.70323
G1 X160.87 Y132.35 E49.72931
G1 X164.16 Y134.11 E49.90538
G1 X164.64 Y134.37 E49.93140
G1 X167.51 Y136.73 E50.10651
G1 X167.94 Y137.08 E50.13267
G1 X170.28 Y139.93 E50.30637
G1 X170.64 Y140.37 E50.33313
G1 X172.40 Y143.66 E50.50944
G1 X172.66 Y144.13 E50.53438
G1 X173.74 Y147.71 E50.71119
G1 X173.90 Y148.23 E50.73652
G1 X174.27 Y151.94 E50.91255
G1 X174.32 Y152.50 E50.93880
G1 X173.96 Y156.21 E51.11478
G1 X173.90 Y156.76 E51.14090
G1 X172.82 Y160.34 E51.31712
G1 X172.65 Y160.87 E51.34319
G1 X170.89 Y164.16 E51.51927
G1 X170.63 Y164.64 E51.54529
G1 X168.27 Y167.51 E51.72040
G1 X167.92 Y167.94 E51.74655
G1 X165.05 Y170.29 E51.92160
G1 X164.63 Y170.64 E51.94702
G1 X161.34 Y172.40 E52.12333
G1 X160.87 Y172.66 E52.14827
G1 X157.29 Y173.74 E52.32508
G1 X156.77 Y173.90 E52.35040
G1 X153.05 Y174.27 E52.52686
G1 X152.50 Y174.32 E52.55269
G1 X148.79 Y173.96 E52.72867
G1 X148.24 Y173.90 E52.75478
G1 X144.66 Y172.82 E52.93101
G1 X144.13 Y172.65 E52.95708
G1 X140.84 Y170.89 E53.13316
G1 X140.36 Y170.63 E53.15918
G1 X137.49 Y168.27 E53.33429
G1 X137.06 Y167.92 E53.36044
G1 X134.71 Y165.05 E53.53548
G1 X134.36 Y164.63 E53.56090
G1 X132.60 Y161.34 E53.73721
G1 X132.34 Y160.87 E53.76216
G1 X131.26 Y157.29 E53.93896
G1 X131.10 Y156.77 E53.96429
G1 X130.73 Y153.05 E54.14075
G1 X130.68 Y152.50 E54.16658
G1 X131.04 Y148.79 E54.34256
G1 X131.10 Y148.24 E54.36867
G1 X132.18 Y144.66 E54.54489
G1 X132.35 Y144.13 E54.57097
G1 X134.11 Y140.84 E54.74704
G1 X134.37 Y140.36 E54.77306
G1 X136.73 Y137.49 E54.94817
G1 X137.08 Y137.06 E54.97433
G0 F12000 X137.36 Y137.34
G1 F2700 X140.18 Y135.03 E55.14632
G1 X140.59 Y134.70 E55.17114
G1 X143.85 Y132.95 E55.34553
G1 X144.28 Y132.72 E55.36874
G1 X147.83 Y131.64 E55.54358
G1 X148.31 Y131.49 E55.56713
G1 X151.99 Y131.13 E55.74165
G1 X152.50 Y131.08 E55.76563
G1 X156.17 Y131.44 E55.93976
G1 X156.68 Y131.49 E55.96399
G1 X160.22 Y132.56 E56.13827
G1 X160.71 Y132.72 E56.16253
G1 X163.97 Y134.46 E56.33668
G1 X164.42 Y134.70 E56.36087
G1 X167.26 Y137.03 E56.53416
G1 X167.66 Y137.36 E56.55848
G1 X169.97 Y140.18 E56.73047
G1 X170.30 Y140.59 E56.75529
G1 X172.05 Y143.85 E56.92968
G1 X172.28 Y144.28 E56.95289
G1 X173.36 Y147.83 E57.12773
G1 X173.51 Y148.31 E57.15128
G1 X173.87 Y151.98 E57.32542
G1 X173.92 Y152.50 E57.34978
G1 X173.56 Y156.17 E57.52391
G1 X173.51 Y156.68 E57.54814
G1 X172.44 Y160.22 E57.72242
G1 X172.28 Y160.71 E57.74667
G1 X170.54 Y163.97 E57.92083
G1 X170.30 Y164.42 E57.94502
G1 X167.97 Y167.26 E58.11831
G1 X167.64 Y167.66 E58.14263
G1 X164.82 Y169.97 E58.31462
G1 X164.41 Y170.30 E58.33944
G1 X161.15 Y172.05 E58.51383
G1 X160.72 Y172.28 E58.53704
G1 X157.17 Y173.36 E58.71188
G1 X156.69 Y173.51 E58.73543
G1 X153.01 Y173.87 E58.90994
G1 X152.50 Y173.92 E58.93393
G1 X148.83 Y173.56 E59.10806
G1 X148.32 Y173.51 E59.13229
G1 X144.78 Y172.44 E59.30657
G1 X144.29 Y172.28 E59.33082
G1 X141.03 Y170.54 E59.50498
G1 X140.58 Y170.30 E59.52917
G1 X137.74 Y167.97 E59.70246
G1 X137.34 Y167.64 E59.72678
G1 X135.03 Y164.82 E59.89877
G1 X134.70 Y164.41 E59.92359
G1 X132.95 Y161.15 E60.09797
G1 X132.72 Y160.72 E60.12119
G1 X131.64 Y157.17 E60.29603
G1 X131.49 Y156.69 E60.31958
G1 X131.13 Y153.01 E60.49409
G1 X131.08 Y152.50 E60.51808
G1 X131.44 Y148.83 E60.69221
G1 X131.49 Y148.32 E60.71643
G1 X132.56 Y144.78 E60.89072
G1 X132.72 Y144.29 E60.91497
G1 X134.46 Y141.03 E61.08913
G1 X134.70 Y140.58 E61.11331
G1 X137.03 Y137.74 E61.28661
G1 X137.36 Y137.34 E61.31093
G0 F12000 X137.65 Y137.63
G1 F2700 X140.46 Y135.32 E61.48232
G1 X140.81 Y135.03 E61.50415
G1 X144.00 Y133.32 E61.67472
G1 X144.44 Y133.09 E61.69804
G1 X147.95 Y132.02 E61.87095
G1 X148.39 Y131.89 E61.89273
G1 X152.03 Y131.53 E62.06530
G1 X152.50 Y131.48 E62.08743
G1 X156.13 Y131.84 E62.25967
G1 X156.60 Y131.89 E62.28205
G1 X160.10 Y132.95 E62.45447
G1 X160.56 Y133.09 E62.47683
G1 X163.78 Y134.81 E62.64913
G1 X164.19 Y135.04 E62.67144
G1 X167.00 Y137.34 E62.84293
G1 X167.37 Y137.65 E62.86536
G1 X169.66 Y140.44 E63.03565
G1 X169.97 Y140.81 E63.05859
G1 X171.68 Y144.00 E63.22916
G1 X171.91 Y144.44 E63.25247
G1 X172.97 Y147.92 E63.42411
G1 X173.11 Y148.39 E63.44717
G1 X173.47 Y152.02 E63.61941
G1 X173.52 Y152.50 E63.64187
G1 X173.16 Y156.13 E63.81411
G1 X173.11 Y156.60 E63.83649
G1 X172.05 Y160.10 E64.00891
G1 X171.91 Y160.56 E64.03127
G1 X170.19 Y163.78 E64.20357
G1 X169.96 Y164.19 E64.22587
G1 X167.66 Y167.00 E64.39737
G1 X167.35 Y167.37 E64.41980
G1 X164.54 Y169.68 E64.59119
G1 X164.19 Y169.97 E64.61302
G1 X161.00 Y171.68 E64.78359
G1 X160.56 Y171.91 E64.80691
G1 X157.05 Y172.98 E64.97983
G1 X156.61 Y173.11 E65.00160
G1 X152.97 Y173.47 E65.17418
G1 X152.50 Y173.52 E65.19631
G1 X148.87 Y173.16 E65.36855
G1 X148.40 Y173.11 E65.39092
G1 X144.90 Y172.05 E65.56335
G1 X144.44 Y171.91 E65.58570
G1 X141.22 Y170.19 E65.75801
G1 X140.81 Y169.96 E65.78031
G1 X138.00 Y167.66 E65.95180
G1 X137.63 Y167.35 E65.97424
G1 X135.32 Y164.54 E66.14563
G1 X135.03 Y164.19 E66.16746
G1 X133.32 Y161.00 E66.33803
G1 X133.09 Y160.56 E66.36135
G1 X132.02 Y157.05 E66.53426
G1 X131.89 Y156.61 E66.55604
G1 X131.53 Y152.97 E66.72862
G1 X131.48 Y152.50 E66.75075
G1 X131.84 Y148.87 E66.92299
G1 X131.89 Y148.40 E66.94536
G1 X132.95 Y144.90 E67.11778
G1 X133.09 Y144.44 E67.14014
G1 X134.81 Y141.22 E67.31244
G1 X135.04 Y140.81 E67.33475
G1 X137.34 Y138.00 E67.50624
G1 X137.65 Y137.63 E67.52868
G0 F12000 X137.93 Y137.91
G1 F2700 X140.71 Y135.63 E67.69829
G1 X141.04 Y135.36 E67.71828
G1 X144.19 Y133.68 E67.88714
G1 X144.59 Y133.46 E67.90852
G1 X148.04 Y132.41 E68.07848
G1 X148.47 Y132.28 E68.09942
G1 X152.07 Y131.93 E68.27015
G1 X152.50 Y131.88 E68.29043
G1 X156.09 Y132.24 E68.46078
G1 X156.53 Y132.28 E68.48130
G1 X159.99 Y133.33 E68.65180
G1 X160.40 Y133.46 E68.67229
G1 X163.59 Y135.16 E68.84269
G1 X163.97 Y135.37 E68.86319
G1 X166.75 Y137.65 E69.03283
G1 X167.09 Y137.93 E69.05339
G1 X169.35 Y140.69 E69.22197
G1 X169.64 Y141.04 E69.24300
G1 X171.32 Y144.19 E69.41186
G1 X171.54 Y144.59 E69.43324
G1 X172.59 Y148.04 E69.60305
G1 X172.72 Y148.47 E69.62414
G1 X173.07 Y152.06 E69.79453
G1 X173.12 Y152.50 E69.81515
G1 X172.76 Y156.09 E69.98550
G1 X172.72 Y156.53 E70.00602
G1 X171.67 Y159.99 E70.17651
G1 X171.54 Y160.40 E70.19701
G1 X169.84 Y163.59 E70.36741
G1 X169.63 Y163.97 E70.38790
G1 X167.35 Y166.75 E70.55755
G1 X167.07 Y167.09 E70.57811
G1 X164.29 Y169.37 E70.74772
G1 X163.96 Y169.64 E70.76772
G1 X160.81 Y171.32 E70.93658
G1 X160.41 Y171.54 E70.95795
G1 X156.96 Y172.59 E71.12776
G1 X156.53 Y172.72 E71.14885
G1 X152.93 Y173.07 E71.31958
G1 X152.50 Y173.12 E71.33986
G1 X148.91 Y172.76 E71.51021
G1 X148.47 Y172.72 E71.53073
G1 X145.01 Y171.67 E71.70123
G1 X144.60 Y171.54 E71.72172
G1 X141.41 Y169.84 E71.89212
G1 X141.03 Y169.63 E71.91262
G1 X138.25 Y167.35 E72.08226
G1 X137.91 Y167.07 E72.10283
G1 X135.63 Y164.29 E72.27244
G1 X135.36 Y163.96 E72.29243
G1 X133.68 Y160.81 E72.46129
G1 X133.46 Y160.41 E72.48267
G1 X132.41 Y156.94 E72.65361
G1 X132.28 Y156.53 E72.67357
G1 X131.93 Y152.93 E72.84430
G1 X131.88 Y152.50 E72.86458
G1 X132.24 Y148.91 E73.03493
G1 X132.28 Y148.47 E73.05545
G1 X133.33 Y145.01 E73.22595
G1 X133.46 Y144.60 E73.24644
G1 X135.16 Y141.41 E73.41684
G1 X135.37 Y141.03 E73.43733
G1 X137.65 Y138.25 E73.60698
G1 X137.93 Y137.91 E73.62754
G0 F12000 X138.21 Y138.20
G1 F2700 X140.97 Y135.94 E73.79534
G1 X141.26 Y135.70 E73.81353
G1 X144.39 Y134.03 E73.98064
G1 X144.75 Y133.83 E74.00010
G1 X148.18 Y132.79 E74.16907
G1 X148.55 Y132.67 E74.18724
G1 X152.11 Y132.32 E74.35602
G1 X152.50 Y132.28 E74.37446
G1 X156.05 Y132.63 E74.54291
G1 X156.45 Y132.67 E74.56158
G1 X159.87 Y133.71 E74.73017
G1 X160.25 Y133.83 E74.74883
G1 X163.40 Y135.51 E74.91731
G1 X163.74 Y135.70 E74.93597
G1 X166.50 Y137.96 E75.10381
G1 X166.80 Y138.21 E75.12252
G1 X169.04 Y140.95 E75.28942
G1 X169.30 Y141.26 E75.30851
G1 X170.97 Y144.39 E75.47562
G1 X171.17 Y144.75 E75.49508
G1 X172.21 Y148.18 E75.66406
G1 X172.33 Y148.55 E75.68222
G1 X172.68 Y152.10 E75.85072
G1 X172.72 Y152.50 E75.86944
G1 X172.37 Y156.05 E76.03789
G1 X172.33 Y156.45 E76.05657
G1 X171.29 Y159.87 E76.22515
G1 X171.17 Y160.25 E76.24381
G1 X169.49 Y163.40 E76.41229
G1 X169.30 Y163.74 E76.43095
G1 X167.04 Y166.50 E76.59879
G1 X166.79 Y166.80 E76.61751
G1 X164.03 Y169.06 E76.78531
G1 X163.74 Y169.30 E76.80349
G1 X160.61 Y170.97 E76.97060
G1 X160.25 Y171.17 E76.99006
G1 X156.82 Y172.21 E77.15904
G1 X156.45 Y172.33 E77.17720
G1 X152.89 Y172.68 E77.34599
G1 X152.50 Y172.72 E77.36442
G1 X148.95 Y172.37 E77.53288
G1 X148.55 Y172.33 E77.55155
G1 X145.13 Y171.29 E77.72013
G1 X144.75 Y171.17 E77.73879
G1 X141.60 Y169.49 E77.90727
G1 X141.26 Y169.30 E77.92593
G1 X138.50 Y167.04 E78.09377
G1 X138.20 Y166.79 E78.11249
G1 X135.94 Y164.03 E78.28029
G1 X135.70 Y163.74 E78.29848
G1 X134.03 Y160.61 E78.46559
G1 X133.83 Y160.25 E78.48504
G1 X132.79 Y156.82 E78.65402
G1 X132.67 Y156.45 E78.67219
G1 X132.32 Y152.89 E78.84097
G1 X132.28 Y152.50 E78.85940
G1 X132.63 Y148.95 E79.02786
G1 X132.67 Y148.55 E79.04653
G1 X133.71 Y145.13 E79.21512
G1 X133.83 Y144.75 E79.23378
G1 X135.51 Y141.60 E79.40226
G1 X135.70 Y141.26 E79.42091
G1 X137.96 Y138.50 E79.58875
G1 X138.21 Y138.20 E79.60747
G0 F12000 X138.50 Y138.49
G1 F2700 X141.21 Y136.26 E79.77266
G1 X141.49 Y136.03 E79.78987
G1 X144.60 Y134.36 E79.95664
G1 X144.90 Y134.20 E79.97272
G1 X148.29 Y133.17 E80.13977
G1 X148.63 Y133.07 E80.15617
G1 X152.15 Y132.72 E80.32301
G1 X152.50 Y132.69 E80.33959
G1 X156.01 Y133.03 E80.50620
G1 X156.37 Y133.07 E80.52297
G1 X159.75 Y134.09 E80.68968
G1 X160.09 Y134.20 E80.70648
G1 X163.21 Y135.87 E80.87308
G1 X163.52 Y136.04 E80.88986
G1 X166.24 Y138.27 E81.05588
G1 X166.51 Y138.50 E81.07273
G1 X168.74 Y141.21 E81.23792
G1 X168.97 Y141.49 E81.25513
G1 X170.62 Y144.58 E81.42051
G1 X170.80 Y144.90 E81.43799
G1 X171.83 Y148.29 E81.60504
G1 X171.93 Y148.63 E81.62143
G1 X172.28 Y152.14 E81.78798
G1 X172.31 Y152.50 E81.80486
G1 X171.97 Y156.01 E81.97146
G1 X171.93 Y156.37 E81.98824
G1 X170.91 Y159.75 E82.15494
G1 X170.80 Y160.09 E82.17174
G1 X169.13 Y163.21 E82.33834
G1 X168.96 Y163.52 E82.35512
G1 X166.73 Y166.24 E82.52115
G1 X166.50 Y166.51 E82.53799
G1 X163.79 Y168.74 E82.70318
G1 X163.51 Y168.97 E82.72039
G1 X160.40 Y170.64 E82.88717
G1 X160.10 Y170.80 E82.90325
G1 X156.71 Y171.83 E83.07030
G1 X156.37 Y171.93 E83.08669
G1 X152.85 Y172.28 E83.25353
G1 X152.50 Y172.31 E83.27012
G1 X148.99 Y171.97 E83.43672
G1 X148.63 Y171.93 E83.45350
G1 X145.25 Y170.91 E83.62021
G1 X144.91 Y170.80 E83.63700
G1 X141.79 Y169.13 E83.80360
G1 X141.48 Y168.96 E83.82038
G1 X138.76 Y166.73 E83.98641
G1 X138.49 Y166.50 E84.00325
G1 X136.26 Y163.79 E84.16844
G1 X136.03 Y163.51 E84.18566
G1 X134.36 Y160.40 E84.35243
G1 X134.20 Y160.10 E84.36851
G1 X133.17 Y156.71 E84.53556
G1 X133.07 Y156.37 E84.55195
G1 X132.72 Y152.85 E84.71879
G1 X132.69 Y152.50 E84.73538
G1 X133.03 Y148.99 E84.90198
G1 X133.07 Y148.63 E84.91876
G1 X134.09 Y145.25 E85.08547
G1 X134.20 Y144.91 E85.10226
G1 X135.87 Y141.79 E85.26887
G1 X136.04 Y141.48 E85.28564
G1 X138.27 Y138.76 E85.45167
G1 X138.50 Y138.49 E85.46852
G0 F12000 X138.78 Y138.77
G1 F2700 X141.47 Y136.56 E85.63270
G1 X141.71 Y136.36 E85.64730
G1 X144.79 Y134.72 E85.81215
G1 X145.06 Y134.57 E85.82650
G1 X148.41 Y133.55 E85.99159
G1 X148.71 Y133.46 E86.00616
G1 X152.19 Y133.12 E86.17110
G1 X152.50 Y133.09 E86.18589
G1 X155.97 Y133.43 E86.35055
G1 X156.29 Y133.46 E86.36548
G1 X159.63 Y134.48 E86.53030
G1 X159.94 Y134.57 E86.54522
G1 X163.02 Y136.22 E86.70997
G1 X163.29 Y136.37 E86.72487
G1 X165.99 Y138.58 E86.88909
G1 X166.23 Y138.78 E86.90406
G1 X168.43 Y141.46 E87.06757
G1 X168.64 Y141.71 E87.08284
G1 X170.27 Y144.77 E87.24651
G1 X170.43 Y145.06 E87.26205
G1 X171.44 Y148.39 E87.42634
G1 X171.54 Y148.71 E87.44170
G1 X171.88 Y152.19 E87.60664
G1 X171.91 Y152.50 E87.62143
G1 X171.57 Y155.97 E87.78609
G1 X171.54 Y156.29 E87.80102
G1 X170.52 Y159.63 E87.96585
G1 X170.43 Y159.94 E87.98076
G1 X168.78 Y163.02 E88.14551
G1 X168.63 Y163.29 E88.16041
G1 X166.42 Y165.99 E88.32463
G1 X166.22 Y166.23 E88.33960
G1 X163.53 Y168.44 E88.50378
G1 X163.29 Y168.64 E88.51838
G1 X160.21 Y170.28 E88.68324
G1 X159.94 Y170.43 E88.69759
G1 X156.59 Y171.45 E88.86267
G1 X156.29 Y171.54 E88.87724
G1 X152.81 Y171.88 E89.04218
G1 X152.50 Y171.91 E89.05697
G1 X149.03 Y171.57 E89.22163
G1 X148.71 Y171.54 E89.23656
G1 X145.37 Y170.52 E89.40139
G1 X145.06 Y170.43 E89.41630
G1 X141.98 Y168.78 E89.58105
G1 X141.71 Y168.63 E89.59595
G1 X139.01 Y166.42 E89.76017
G1 X138.77 Y166.22 E89.77514
G1 X136.56 Y163.53 E89.93933
G1 X136.36 Y163.29 E89.95393
G1 X134.72 Y160.21 E90.11878
G1 X134.57 Y159.94 E90.13313
G1 X133.55 Y156.59 E90.29821
G1 X133.46 Y156.29 E90.31278
G1 X133.12 Y152.81 E90.47773
G1 X133.09 Y152.50 E90.49251
G1 X133.43 Y149.03 E90.65717
G1 X133.46 Y148.71 E90.67210
G1 X134.48 Y145.37 E90.83693
G1 X134.57 Y145.06 E90.85184
G1 X136.22 Y141.98 E91.01659
G1 X136.37 Y141.71 E91.03149
G1 X138.58 Y139.01 E91.19571
G1 X138.78 Y138.77 E91.21068
G0 F12000 X139.06 Y139.06
G1 F2700 X141.73 Y136.87 E91.37306
G1 X141.93 Y136.70 E91.38581
G1 X144.96 Y135.08 E91.54778
G1 X145.22 Y134.94 E91.56137
G1 X148.51 Y133.94 E91.72384
G1 X148.78 Y133.86 E91.73728
G1 X152.22 Y133.52 E91.90008
G1 X152.50 Y133.49 E91.91321
G1 X155.93 Y133.83 E92.07603
G1 X156.21 Y133.86 E92.08910
G1 X159.51 Y134.86 E92.25198
G1 X159.78 Y134.94 E92.26506
G1 X162.83 Y136.57 E92.42793
G1 X163.07 Y136.70 E92.44095
G1 X165.73 Y138.89 E92.60336
G1 X165.94 Y139.06 E92.61649
G1 X168.12 Y141.72 E92.77826
G1 X168.30 Y141.93 E92.79162
G1 X169.92 Y144.96 E92.95358
G1 X170.06 Y145.22 E92.96717
G1 X171.06 Y148.51 E93.12964
G1 X171.14 Y148.78 E93.14308
G1 X171.48 Y152.22 E93.30589
G1 X171.51 Y152.50 E93.31902
G1 X171.17 Y155.93 E93.48183
G1 X171.14 Y156.21 E93.49491
G1 X170.14 Y159.51 E93.65778
G1 X170.06 Y159.78 E93.67086
G1 X168.43 Y162.83 E93.83373
G1 X168.30 Y163.07 E93.84676
G1 X166.11 Y165.73 E94.00917
G1 X165.94 Y165.94 E94.02229
G1 X163.27 Y168.13 E94.18467
G1 X163.07 Y168.30 E94.19742
G1 X160.04 Y169.92 E94.35939
G1 X159.78 Y170.06 E94.37298
G1 X156.49 Y171.06 E94.53545
G1 X156.22 Y171.14 E94.54889
G1 X152.78 Y171.48 E94.71170
G1 X152.50 Y171.51 E94.72482
G1 X149.07 Y171.17 E94.88764
G1 X148.79 Y171.14 E94.90072
G1 X145.49 Y170.14 E95.06359
G1 X145.22 Y170.06 E95.07667
G1 X142.17 Y168.43 E95.23954
G1 X141.93 Y168.30 E95.25256
G1 X139.27 Y166.11 E95.41497
G1 X139.06 Y165.94 E95.42810
G1 X136.87 Y163.27 E95.59047
G1 X136.70 Y163.07 E95.60323
G1 X135.07 Y160.02 E95.76620
G1 X134.94 Y159.78 E95.77878
G1 X133.94 Y156.47 E95.94194
G1 X133.86 Y156.22 E95.95469
G1 X133.52 Y152.78 E96.11769
G1 X133.49 Y152.50 E96.13063
G1 X133.83 Y149.07 E96.29344
G1 X133.86 Y148.79 E96.30652
G1 X134.86 Y145.49 E96.46939
G1 X134.94 Y145.22 E96.48248
G1 X136.57 Y142.17 E96.64534
G1 X136.70 Y141.93 E96.65837
G1 X138.89 Y139.27 E96.82078
G1 X139.06 Y139.06 E96.83390
G0 F12000 X139.35 Y139.34
G1 F2700 X141.98 Y137.18 E96.99447
G1 X141.98 Y137.18 E96.99453
G1 X142.16 Y137.03 E97.00555
G1 X145.17 Y135.42 E97.16654
G1 X145.37 Y135.31 E97.17734
G1 X148.64 Y134.32 E97.33859
G1 X148.87 Y134.25 E97.34954
G1 X152.26 Y133.92 E97.51046
G1 X152.50 Y133.89 E97.52169
G1 X155.90 Y134.23 E97.68265
G1 X156.13 Y134.25 E97.69384
G1 X159.40 Y135.24 E97.85483
G1 X159.62 Y135.31 E97.86605
G1 X162.63 Y136.92 E98.02700
G1 X162.84 Y137.03 E98.03822
G1 X165.48 Y139.19 E98.19882
G1 X165.66 Y139.35 E98.21004
G1 X167.82 Y141.98 E98.37060
G1 X167.82 Y141.98 E98.37067
G1 X167.97 Y142.16 E98.38168
G1 X169.57 Y145.16 E98.54187
G1 X169.69 Y145.37 E98.55348
G1 X170.68 Y148.63 E98.71413
G1 X170.75 Y148.87 E98.72568
G1 X171.08 Y152.26 E98.88659
G1 X171.11 Y152.50 E98.89783
G1 X170.77 Y155.90 E99.05879
G1 X170.75 Y156.13 E99.06997
G1 X169.76 Y159.40 E99.23097
G1 X169.69 Y159.62 E99.24218
G1 X168.08 Y162.63 E99.40313
G1 X167.97 Y162.84 E99.41436
G1 X165.81 Y165.48 E99.57496
G1 X165.65 Y165.66 E99.58618
G1 X163.02 Y167.82 E99.74674
G1 X163.02 Y167.82 E99.74681
G1 X162.84 Y167.97 E99.75782
G1 X159.83 Y169.58 E99.91881
G1 X159.63 Y169.69 E99.92962
G1 X156.36 Y170.68 E100.09086
G1 X156.13 Y170.75 E100.10181
G1 X152.74 Y171.08 E100.26273
G1 X152.50 Y171.11 E100.27396
G1 X149.10 Y170.77 E100.43493
G1 X148.87 Y170.75 E100.44611
G1 X145.60 Y169.76 E100.60710
G1 X145.38 Y169.69 E100.61832
G1 X142.37 Y168.08 E100.77927
G1 X142.16 Y167.97 E100.79050
G1 X139.52 Y165.81 E100.95110
G1 X139.34 Y165.65 E100.96231
G1 X137.18 Y163.02 E101.12288
G1 X137.18 Y163.02 E101.12294
G1 X137.03 Y162.84 E101.13396
G1 X135.42 Y159.83 E101.29495
G1 X135.31 Y159.63 E101.30575
G1 X134.32 Y156.36 E101.46700
G1 X134.25 Y156.13 E101.47795
G1 X133.92 Y152.74 E101.63901
G1 X133.89 Y152.50 E101.65010
G1 X134.23 Y149.10 E101.81106
G1 X134.25 Y148.87 E101.82225
G1 X135.24 Y145.60 E101.98324
G1 X135.31 Y145.38 E101.99446
G1 X136.92 Y142.37 E102.15541
G1 X137.03 Y142.16 E102.16663
G1 X139.19 Y139.52 E102.32723
G1 X139.35 Y139.34 E102.33845
G0 F12000 X139.63 Y139.62
G1 F2700 X142.23 Y137.49 E102.49721
G1 X142.38 Y137.37 E102.50642
G1 X145.36 Y135.77 E102.66555
G1 X145.53 Y135.68 E102.67458
G1 X148.76 Y134.70 E102.83385
G1 X148.94 Y134.65 E102.84298
G1 X152.30 Y134.31 E103.00205
G1 X152.50 Y134.29 E103.01143
G1 X155.85 Y134.62 E103.17045
G1 X156.05 Y134.65 E103.17979
G1 X159.28 Y135.62 E103.33890
G1 X159.47 Y135.68 E103.34823
G1 X162.44 Y137.27 E103.50732
G1 X162.62 Y137.37 E103.51667
G1 X165.22 Y139.50 E103.67543
G1 X165.38 Y139.63 E103.68480
G1 X167.50 Y142.23 E103.84319
G1 X167.63 Y142.38 E103.85277
G1 X169.23 Y145.36 E104.01191
G1 X169.32 Y145.53 E104.02094
G1 X170.29 Y148.75 E104.17975
G1 X170.35 Y148.94 E104.18933
G1 X170.69 Y152.30 E104.34840
G1 X170.71 Y152.50 E104.35778
G1 X170.38 Y155.85 E104.51681
G1 X170.35 Y156.05 E104.52614
G1 X169.38 Y159.28 E104.68526
G1 X169.32 Y159.47 E104.69458
G1 X167.73 Y162.44 E104.85368
G1 X167.63 Y162.62 E104.86302
G1 X165.50 Y165.22 E105.02178
G1 X165.37 Y165.38 E105.03116
G1 X162.77 Y167.51 E105.18992
G1 X162.62 Y167.63 E105.19912
G1 X159.64 Y169.23 E105.35826
G1 X159.47 Y169.32 E105.36729
G1 X156.24 Y170.30 E105.52656
G1 X156.06 Y170.35 E105.53569
G1 X152.70 Y170.69 E105.69475
G1 X152.50 Y170.71 E105.70414
G1 X149.15 Y170.38 E105.86316
G1 X148.95 Y170.35 E105.87250
G1 X145.72 Y169.38 E106.03161
G1 X145.53 Y169.32 E106.04094
G1 X142.56 Y167.73 E106.20003
G1 X142.38 Y167.63 E106.20938
G1 X139.78 Y165.50 E106.36814
G1 X139.62 Y165.37 E106.37751
G1 X137.49 Y162.77 E106.53627
G1 X137.37 Y162.62 E106.54548
G1 X135.77 Y159.64 E106.70462
G1 X135.68 Y159.47 E106.71365
G1 X134.70 Y156.24 E106.87291
G1 X134.65 Y156.06 E106.88204
G1 X134.31 Y152.70 E107.04120
G1 X134.29 Y152.50 E107.05049
G1 X134.62 Y149.15 E107.20952
G1 X134.65 Y148.95 E107.21885
G1 X135.62 Y145.72 E107.37797
G1 X135.68 Y145.53 E107.38729
G1 X137.27 Y142.56 E107.54639
G1 X137.37 Y142.38 E107.55573
G1 X139.50 Y139.78 E107.71449
G1 X139.63 Y139.62 E107.72387
G0 F12000 X139.91 Y139.91
G1 F2700 X142.48 Y137.80 E107.88055
G1 X142.48 Y137.80 E107.88062
G1 X142.61 Y137.70 E107.88825
G1 X145.55 Y136.13 E108.04551
G1 X145.68 Y136.05 E108.05277
G1 X148.88 Y135.09 E108.21007
G1 X149.02 Y135.04 E108.21742
G1 X152.34 Y134.71 E108.37455
G1 X152.50 Y134.70 E108.38208
G1 X155.82 Y135.02 E108.53926
G1 X155.97 Y135.04 E108.54674
G1 X159.16 Y136.01 E108.70389
G1 X159.31 Y136.05 E108.71139
G1 X162.25 Y137.62 E108.86859
G1 X162.39 Y137.70 E108.87608
G1 X164.97 Y139.81 E109.03303
G1 X165.09 Y139.91 E109.04056
G1 X167.20 Y142.48 E109.19724
G1 X167.20 Y142.48 E109.19731
G1 X167.30 Y142.61 E109.20495
G1 X168.87 Y145.54 E109.36172
G1 X168.95 Y145.68 E109.36946
G1 X169.91 Y148.87 E109.52646
G1 X169.96 Y149.02 E109.53411
G1 X170.29 Y152.34 E109.69124
G1 X170.30 Y152.50 E109.69877
G1 X169.98 Y155.82 E109.85595
G1 X169.96 Y155.97 E109.86344
G1 X168.99 Y159.16 E110.02058
G1 X168.95 Y159.31 E110.02809
G1 X167.38 Y162.25 E110.18528
G1 X167.30 Y162.39 E110.19277
G1 X165.19 Y164.97 E110.34972
G1 X165.09 Y165.09 E110.35725
G1 X162.52 Y167.20 E110.51393
G1 X162.52 Y167.20 E110.51400
G1 X162.39 Y167.30 E110.52164
G1 X159.45 Y168.87 E110.67890
G1 X159.32 Y168.95 E110.68616
G1 X156.12 Y169.91 E110.84345
G1 X155.98 Y169.96 E110.85080
G1 X152.66 Y170.29 E111.00793
G1 X152.50 Y170.30 E111.01547
G1 X149.18 Y169.98 E111.17264
G1 X149.03 Y169.96 E111.18013
G1 X145.84 Y168.99 E111.33728
G1 X145.69 Y168.95 E111.34478
G1 X142.75 Y167.38 E111.50197
G1 X142.61 Y167.30 E111.50947
G1 X140.03 Y165.19 E111.66641
G1 X139.91 Y165.09 E111.67395
G1 X137.80 Y162.52 E111.83063
G1 X137.80 Y162.52 E111.83069
G1 X137.70 Y162.39 E111.83833
G1 X136.13 Y159.45 E111.99559
G1 X136.05 Y159.32 E112.00285
G1 X135.09 Y156.12 E112.16014
G1 X135.04 Y155.98 E112.16750
G1 X134.71 Y152.66 E112.32472
G1 X134.70 Y152.50 E112.33216
G1 X135.02 Y149.18 E112.48933
G1 X135.04 Y149.03 E112.49682
G1 X136.01 Y145.84 E112.65397
G1 X136.05 Y145.69 E112.66147
G1 X137.62 Y142.75 E112.81866
G1 X137.70 Y142.61 E112.82616
G1 X139.81 Y140.03 E112.98310
G1 X139.91 Y139.91 E112.99064
G0 F12000 X140.20 Y140.19
G1 F2700 X142.74 Y138.11 E113.14577
G1 X142.83 Y138.03 E113.15140
G1 X145.74 Y136.48 E113.30668
G1 X145.84 Y136.42 E113.31216
G1 X148.99 Y135.47 E113.46734
G1 X149.10 Y135.43 E113.47311
G1 X152.38 Y135.11 E113.62834
G1 X152.50 Y135.10 E113.63398
G1 X155.78 Y135.42 E113.78926
G1 X155.90 Y135.43 E113.79490
G1 X159.05 Y136.39 E113.95017
G1 X159.16 Y136.42 E113.95580
G1 X162.06 Y137.98 E114.11108
G1 X162.17 Y138.03 E114.11673
G1 X164.71 Y140.12 E114.27188
G1 X164.81 Y140.20 E114.27753
G1 X166.89 Y142.74 E114.43254
G1 X166.97 Y142.83 E114.43830
G1 X168.52 Y145.73 E114.59330
G1 X168.58 Y145.84 E114.59906
G1 X169.53 Y148.99 E114.75423
G1 X169.57 Y149.10 E114.76001
G1 X169.89 Y152.38 E114.91524
G1 X169.90 Y152.50 E114.92088
G1 X169.58 Y155.78 E115.07615
G1 X169.57 Y155.90 E115.08179
G1 X168.61 Y159.05 E115.23706
G1 X168.58 Y159.16 E115.24270
G1 X167.02 Y162.06 E115.39797
G1 X166.97 Y162.17 E115.40363
G1 X164.88 Y164.71 E115.55877
G1 X164.80 Y164.81 E115.56443
G1 X162.26 Y166.89 E115.71956
G1 X162.17 Y166.97 E115.72519
G1 X159.26 Y168.52 E115.88046
G1 X159.16 Y168.58 E115.88595
G1 X156.01 Y169.53 E116.04113
G1 X155.90 Y169.57 E116.04690
G1 X152.62 Y169.89 E116.20213
G1 X152.50 Y169.90 E116.20777
G1 X149.22 Y169.58 E116.36305
G1 X149.10 Y169.57 E116.36869
G1 X145.95 Y168.61 E116.52396
G1 X145.84 Y168.58 E116.52959
G1 X142.94 Y167.02 E116.68487
G1 X142.83 Y166.97 E116.69052
G1 X140.29 Y164.88 E116.84567
G1 X140.19 Y164.80 E116.85132
G1 X138.11 Y162.26 E117.00646
G1 X138.03 Y162.17 E117.01208
G1 X136.48 Y159.26 E117.16736
G1 X136.42 Y159.16 E117.17285
G1 X135.47 Y156.01 E117.32822
G1 X135.43 Y155.90 E117.33380
G1 X135.11 Y152.62 E117.48907
G1 X135.10 Y152.50 E117.49467
G1 X135.42 Y149.22 E117.64994
G1 X135.43 Y149.10 E117.65558
G1 X136.39 Y145.95 E117.81085
G1 X136.42 Y145.84 E117.81649
G1 X137.98 Y142.94 E117.97176
G1 X138.03 Y142.83 E117.97742
G1 X140.12 Y140.29 E118.13256
G1 X140.20 Y140.19 E118.13822
G0 F12000 X140.48 Y140.48
G1 F2700 X142.99 Y138.42 E118.29158
G1 X143.06 Y138.37 E118.29536
G1 X145.93 Y136.83 E118.44876
G1 X145.99 Y136.79 E118.45247
G1 X149.11 Y135.85 E118.60583
G1 X149.18 Y135.83 E118.60963
G1 X152.50 Y135.50 E118.76681
G1 X155.82 Y135.83 E118.92393
G1 X158.93 Y136.77 E119.07733
G1 X159.00 Y136.79 E119.08109
G1 X161.87 Y138.33 E119.23449
G1 X161.94 Y138.37 E119.23827
G1 X164.46 Y140.43 E119.39160
G1 X164.52 Y140.48 E119.39538
G1 X166.58 Y142.99 E119.54868
G1 X166.63 Y143.06 E119.55253
G1 X168.17 Y145.92 E119.70582
G1 X168.21 Y145.99 E119.70964
G1 X169.15 Y149.11 E119.86299
G1 X169.17 Y149.18 E119.86680
G1 X169.50 Y152.50 E120.02397
G1 X169.17 Y155.82 E120.18110
G1 X168.23 Y158.93 E120.33450
G1 X168.21 Y159.00 E120.33826
G1 X166.67 Y161.87 E120.49165
G1 X166.63 Y161.94 E120.49543
G1 X164.57 Y164.46 E120.64876
G1 X164.52 Y164.52 E120.65255
G1 X162.01 Y166.58 E120.80591
G1 X161.94 Y166.63 E120.80969
G1 X159.07 Y168.17 E120.96309
G1 X159.01 Y168.21 E120.96680
G1 X155.89 Y169.15 E121.12016
G1 X155.82 Y169.17 E121.12396
G1 X152.50 Y169.50 E121.28114
G1 X149.18 Y169.17 E121.43826
G1 X146.07 Y168.23 E121.59166
G1 X146.00 Y168.21 E121.59542
G1 X143.13 Y166.67 E121.74882
G1 X143.06 Y166.63 E121.75260
G1 X140.54 Y164.57 E121.90593
G1 X140.48 Y164.52 E121.90971
G1 X138.42 Y162.01 E122.06307
G1 X138.37 Y161.94 E122.06686
G1 X136.83 Y159.07 E122.22025
G1 X136.79 Y159.01 E122.22397
G1 X135.85 Y155.89 E122.37737
G1 X135.83 Y155.82 E122.38113
G1 X135.50 Y152.50 E122.53830
G1 X135.83 Y149.18 E122.69543
G1 X136.77 Y146.07 E122.84883
G1 X136.79 Y146.00 E122.85259
G1 X138.33 Y143.13 E123.00598
G1 X138.37 Y143.06 E123.00976
G1 X140.43 Y140.54 E123.16309
G1 X140.48 Y140.48 E123.16688
G0 F12000 X141.33 Y141.33
;TYPE:WALL-INNER
G1 F2700 X143.73 Y139.37 E123.31294
G1 X146.46 Y137.91 E123.45923
G1 X149.42 Y137.01 E123.60505
G1 X152.50 Y136.71 E123.75099
G1 X155.58 Y137.01 E123.89688
G1 X158.54 Y137.91 E124.04285
G1 X161.27 Y139.37 E124.18882
G1 X163.67 Y141.33 E124.33488
G1 X165.63 Y143.73 E124.48094
G1 X167.09 Y146.46 E124.62723
G1 X167.99 Y149.42 E124.77305
G1 X168.29 Y152.50 E124.91894
G1 X167.99 Y155.58 E125.06488
G1 X167.09 Y158.54 E125.21085
G1 X165.63 Y161.27 E125.35682
G1 X163.67 Y163.67 E125.50288
G1 X161.27 Y165.63 E125.64894
G1 X158.54 Y167.09 E125.79523
G1 X155.58 Y167.99 E125.94105
G1 X152.50 Y168.29 E126.08699
G1 X149.42 Y167.99 E126.23289
G1 X146.46 Y167.09 E126.37886
G1 X143.73 Y165.63 E126.52483
G1 X141.33 Y163.67 E126.67089
G1 X139.37 Y161.27 E126.81695
G1 X137.91 Y158.54 E126.96323
G1 X137.01 Y155.58 E127.10906
G1 X136.71 Y152.50 E127.25500
G1 X137.01 Y149.42 E127.40089
G1 X137.91 Y146.46 E127.54686
G1 X139.37 Y143.73 E127.69283
G1 X141.33 Y141.33 E127.83889
G0 F12000 X141.04 Y141.05
G1 F2700 X143.50 Y139.03 E127.98883
G1 X146.30 Y137.54 E128.13862
G1 X149.34 Y136.62 E128.28828
G1 X152.50 Y136.31 E128.43792
G1 X155.66 Y136.62 E128.58756
G1 X158.69 Y137.53 E128.73711
G1 X161.49 Y139.03 E128.88686
G1 X163.95 Y141.05 E129.03673
G1 X165.97 Y143.50 E129.18654
G1 X167.46 Y146.30 E129.33633
G1 X168.38 Y149.34 E129.48599
G1 X168.69 Y152.50 E129.63563
G1 X168.38 Y155.66 E129.78527
G1 X167.47 Y158.69 E129.93482
G1 X165.97 Y161.49 E130.08446
G1 X163.96 Y163.95 E130.23431
G1 X161.50 Y165.97 E130.38425
G1 X158.70 Y167.46 E130.53404
G1 X155.66 Y168.38 E130.68370
G1 X152.50 Y168.69 E130.83334
G1 X149.34 Y168.38 E130.98298
G1 X146.31 Y167.47 E131.13253
G1 X143.51 Y165.97 E131.28227
G1 X141.05 Y163.95 E131.43215
G1 X139.03 Y161.50 E131.58196
G1 X137.54 Y158.70 E131.73175
G1 X136.62 Y155.66 E131.88141
G1 X136.31 Y152.50 E132.03105
G1 X136.62 Y149.34 E132.18069
G1 X137.53 Y146.31 E132.33024
G1 X139.03 Y143.51 E132.47998
G1 X141.04 Y141.05 E132.62973
G0 F12000 X140.74 Y140.80
;TYPE:WALL-OUTER
G1 F2700 X140.76 Y140.76 E132.63167
G1 X143.25 Y138.73 E132.78326
G1 X143.28 Y138.70 E132.78533
G1 X146.11 Y137.19 E132.93675
G1 X146.15 Y137.16 E132.93869
G1 X149.22 Y136.23 E133.09016
G1 X149.26 Y136.22 E133.09204
G1 X152.50 Y135.90 E133.24547
G1 X155.74 Y136.22 E133.39900
G1 X158.81 Y137.15 E133.55034
G1 X158.85 Y137.17 E133.55237
G1 X161.68 Y138.68 E133.70374
G1 X161.72 Y138.70 E133.70551
G1 X164.20 Y140.74 E133.85720
G1 X164.24 Y140.76 E133.85914
G1 X166.27 Y143.25 E134.01073
G1 X166.30 Y143.28 E134.01280
G1 X167.81 Y146.11 E134.16422
G1 X167.84 Y146.15 E134.16616
G1 X168.77 Y149.22 E134.31763
G1 X168.78 Y149.26 E134.31951
G1 X169.10 Y152.50 E134.47294
G1 X168.78 Y155.74 E134.62647
G1 X167.85 Y158.81 E134.77781
G1 X167.83 Y158.85 E134.77984
G1 X166.32 Y161.68 E134.93121
G1 X166.30 Y161.72 E134.93298
G1 X164.26 Y164.20 E135.08467
G1 X164.24 Y164.24 E135.08661
G1 X161.75 Y166.27 E135.23819
G1 X161.72 Y166.30 E135.24027
G1 X158.89 Y167.81 E135.39168
G1 X158.85 Y167.84 E135.39363
G1 X155.78 Y168.77 E135.54510
G1 X155.74 Y168.78 E135.54698
G1 X152.50 Y169.10 E135.70041
G1 X149.26 Y168.78 E135.85393
G1 X146.19 Y167.85 E136.00528
G1 X146.15 Y167.83 E136.00730
G1 X143.31 Y166.32 E136.15878
G1 X143.28 Y166.30 E136.16045
G1 X140.80 Y164.26 E136.31220
G1 X140.76 Y164.24 E136.31408
G1 X138.73 Y161.75 E136.46566
G1 X138.70 Y161.72 E136.46774
G1 X137.19 Y158.89 E136.61915
G1 X137.16 Y158.85 E136.62110
G1 X136.23 Y155.78 E136.77257
G1 X136.22 Y155.74 E136.77445
G1 X135.90 Y152.50 E136.92788
G1 X136.22 Y149.26 E137.08140
G1 X137.15 Y146.19 E137.23275
G1 X137.17 Y146.15 E137.23477
G1 X138.68 Y143.32 E137.38615
G1 X138.70 Y143.28 E137.38792
G1 X140.74 Y140.80 E137.53961
G0 F12000 X141.30 Y141.59
;TYPE:FILL
G1 F2700 X163.41 Y163.69 E139.01416
G0 F12000 X163.70 Y163.41
G1 F2700 X141.59 Y141.30 E140.48867
G0 F12000 X141.90 Y141.05
G1 F2700 X163.95 Y163.10 E141.95946
G0 F12000 X164.21 Y162.79
G1 F2700 X142.21 Y140.79 E143.42644
G0 F12000 X142.52 Y140.54
G1 F2700 X164.46 Y162.48 E144.88969
G0 F12000 X164.72 Y162.17
G1 F2700 X142.83 Y140.28 E146.34917
G0 F12000 X143.14 Y140.03
G1 F2700 X164.97 Y161.86 E147.80495
G0 F12000 X165.22 Y161.55
G1 F2700 X143.45 Y139.78 E149.25692
G0 F12000 X143.76 Y139.52
G1 F2700 X165.48 Y161.24 E150.70516
G0 F12000 X165.69 Y160.88
G1 F2700 X144.12 Y139.31 E152.14317
G0 F12000 X144.49 Y139.12
G1 F2700 X165.88 Y160.51 E153.56967
G0 F12000 X166.08 Y160.14
G1 F2700 X144.86 Y138.92 E154.98473
G0 F12000 X145.23 Y138.72
G1 F2700 X166.28 Y159.77 E156.38839
G0 F12000 X166.47 Y159.40
G1 F2700 X145.60 Y138.53 E157.78068
G0 F12000 X145.97 Y138.33
G1 F2700 X166.67 Y159.03 E159.16154
G0 F12000 X166.87 Y158.67
G1 F2700 X146.33 Y138.13 E160.53098
G0 F12000 X146.74 Y137.97
G1 F2700 X167.03 Y158.26 E161.88446
G0 F12000 X167.16 Y157.83
G1 F2700 X147.17 Y137.84 E163.21773
G0 F12000 X147.60 Y137.71
G1 F2700 X167.29 Y157.39 E164.53079
G0 F12000 X167.43 Y156.96
G1 F2700 X148.04 Y137.57 E165.82368
G0 F12000 X148.47 Y137.44
G1 F2700 X167.56 Y156.53 E167.09646
G0 F12000 X167.69 Y156.09
G1 F2700 X148.91 Y137.31 E168.34903
G0 F12000 X149.34 Y137.18
G1 F2700 X167.82 Y155.66 E169.58146
G0 F12000 X167.89 Y155.16
G1 F2700 X149.84 Y137.11 E170.78549
G0 F12000 X150.35 Y137.06
G1 F2700 X167.94 Y154.65 E171.95846
G0 F12000 X167.99 Y154.13
G1 F2700 X150.87 Y137.01 E173.10047
G0 F12000 X151.38 Y136.96
G1 F2700 X168.04 Y153.62 E174.21146
G0 F12000 X168.09 Y153.10
G1 F2700 X151.90 Y136.91 E175.29150
G0 F12000 X152.41 Y136.86
G1 F2700 X168.14 Y152.59 E176.34050
G0 F12000 X168.10 Y151.98
G1 F2700 X153.02 Y136.90 E177.34612
G0 F12000 X153.65 Y136.96
G1 F2700 X168.04 Y151.35 E178.30586
G0 F12000 X167.98 Y150.72
G1 F2700 X154.28 Y137.02 E179.21972
G0 F12000 X154.90 Y137.08
G1 F2700 X167.92 Y150.10 E180.08762
G0 F12000 X167.85 Y149.47
G1 F2700 X155.53 Y137.14 E180.90964
G0 F12000 X156.33 Y137.38
G1 F2700 X167.62 Y148.66 E181.66197
G0 F12000 X167.37 Y147.85
G1 F2700 X157.15 Y137.63 E182.34375
G0 F12000 X157.96 Y137.88
G1 F2700 X167.12 Y147.04 E182.95496
G0 F12000 X166.73 Y146.09
G1 F2700 X158.91 Y138.26 E183.47671
G0 F12000 X160.13 Y138.91
G1 F2700 X166.08 Y144.87 E183.87392
G0 F12000 X165.19 Y143.41
G1 F2700 X161.59 Y139.81 E184.11400
G0 F12000 X141.05 Y141.90
G1 F2700 X163.10 Y163.95 E185.58475
G0 F12000 X162.79 Y164.21
G1 F2700 X140.79 Y142.21 E187.05177
G0 F12000 X140.54 Y142.52
G1 F2700 X162.48 Y164.46 E188.51501
G0 F12000 X162.17 Y164.71
G1 F2700 X140.28 Y142.83 E189.97453
G0 F12000 X140.03 Y143.14
G1 F2700 X161.86 Y164.97 E191.43031
G0 F12000 X161.55 Y165.22
G1 F2700 X139.77 Y143.45 E192.88232
G0 F12000 X139.52 Y143.76
G1 F2700 X161.24 Y165.48 E194.33056
G0 F12000 X160.88 Y165.68
G1 F2700 X139.31 Y144.12 E195.76856
G0 F12000 X139.12 Y144.49
G1 F2700 X160.51 Y165.88 E197.19506
G0 F12000 X160.14 Y166.08
G1 F2700 X138.92 Y144.86 E198.61016
G0 F12000 X138.72 Y145.23
G1 F2700 X159.77 Y166.28 E200.01385
G0 F12000 X159.40 Y166.47
G1 F2700 X138.53 Y145.60 E201.40608
G0 F12000 X138.33 Y145.96
G1 F2700 X159.03 Y166.67 E202.78696
G0 F12000 X158.66 Y166.87
G1 F2700 X138.13 Y146.33 E204.15641
G0 F12000 X137.97 Y146.74
G1 F2700 X158.26 Y167.03 E205.50989
G0 F12000 X157.83 Y167.16
G1 F2700 X137.84 Y147.17 E206.84315
G0 F12000 X137.70 Y147.60
G1 F2700 X157.39 Y167.29 E208.15625
G0 F12000 X156.96 Y167.43
G1 F2700 X137.57 Y148.04 E209.44917
G0 F12000 X137.44 Y148.47
G1 F2700 X156.53 Y167.56 E210.72195
G0 F12000 X156.09 Y167.69
G1 F2700 X137.31 Y148.91 E211.97452
G0 F12000 X137.18 Y149.34
G1 F2700 X155.66 Y167.82 E213.20696
G0 F12000 X155.16 Y167.89
G1 F2700 X137.11 Y149.84 E214.41098
G0 F12000 X137.06 Y150.35
G1 F2700 X154.65 Y167.94 E215.58396
G0 F12000 X154.13 Y167.99
G1 F2700 X137.01 Y150.87 E216.72596
G0 F12000 X136.96 Y151.38
G1 F2700 X153.62 Y168.04 E217.83695
G0 F12000 X153.10 Y168.09
G1 F2700 X136.91 Y151.90 E218.91696
G0 F12000 X136.86 Y152.41
G1 F2700 X152.59 Y168.14 E219.96596
G0 F12000 X151.98 Y168.10
G1 F2700 X136.90 Y153.02 E220.97152
G0 F12000 X136.96 Y153.65
G1 F2700 X151.35 Y168.04 E221.93126
G0 F12000 X150.72 Y167.98
G1 F2700 X137.02 Y154.28 E222.84508
G0 F12000 X137.08 Y154.90
G1 F2700 X150.10 Y167.91 E223.71291
G0 F12000 X149.47 Y167.85
G1 F2700 X137.14 Y155.53 E224.53490
G0 F12000 X137.38 Y156.33
G1 F2700 X148.66 Y167.62 E225.28723
G0 F12000 X147.85 Y167.37
G1 F2700 X137.63 Y157.15 E225.96901
G0 F12000 X137.88 Y157.96
G1 F2700 X147.04 Y167.12 E226.58016
G0 F12000 X146.09 Y166.74
G1 F2700 X138.26 Y158.91 E227.10184
G0 F12000 X138.92 Y160.13
G1 F2700 X144.87 Y166.08 E227.49898
G0 F12000 X143.41 Y165.19
G1 F2700 X139.81 Y161.59 E227.73900
;LAYER:1
G0 F12000 X139.37 Y161.28 Z0.40
;TYPE:WALL-INNER
G1 F3900 X137.91 Y158.54 E227.78754
G1 X137.01 Y155.58 E227.83612
G1 X136.70 Y152.49 E227.88474
G1 X137.00 Y149.42 E227.93314
G1 X137.90 Y146.46 E227.98172
G1 X139.37 Y143.72 E228.03031
G1 X141.33 Y141.33 E228.07888
G1 X143.72 Y139.37 E228.12743
G1 X146.46 Y137.91 E228.17598
G1 X149.42 Y137.01 E228.22456
G1 X152.51 Y136.70 E228.27318
G1 X155.58 Y137.00 E228.32158
G1 X158.54 Y137.90 E228.37016
G1 X161.28 Y139.37 E228.41874
G1 X163.67 Y141.33 E228.46732
G1 X165.63 Y143.72 E228.51587
G1 X167.09 Y146.46 E228.56441
G1 X167.99 Y149.42 E228.61300
G1 X168.30 Y152.51 E228.66162
G1 X168.00 Y155.58 E228.71002
G1 X167.10 Y158.54 E228.75860
G1 X165.63 Y161.28 E228.80718
G1 X163.67 Y163.67 E228.85576
G1 X161.28 Y165.63 E228.90431
G1 X158.54 Y167.09 E228.95285
G1 X155.58 Y167.99 E229.00144
G1 X152.49 Y168.30 E229.05006
G1 X149.42 Y168.00 E229.09845
G1 X146.46 Y167.10 E229.14703
G1 X143.72 Y165.63 E229.19562
G1 X141.33 Y163.67 E229.24419
G1 X139.37 Y161.28 E229.29275
G0 F12000 X139.03 Y161.50
G1 F3900 X137.53 Y158.70 E229.34254
G1 X136.62 Y155.68 E229.39195
G1 X136.61 Y155.66 E229.39236
G1 X136.31 Y152.52 E229.44176
G1 X136.30 Y152.50 E229.44220
G1 X136.61 Y149.37 E229.49141
G1 X136.61 Y149.34 E229.49190
G1 X137.53 Y146.33 E229.54124
G1 X137.53 Y146.30 E229.54165
G1 X139.03 Y143.50 E229.59149
G1 X141.05 Y141.05 E229.64127
G1 X143.50 Y139.03 E229.69105
G1 X146.30 Y137.53 E229.74084
G1 X149.32 Y136.62 E229.79025
G1 X149.34 Y136.61 E229.79066
G1 X152.48 Y136.31 E229.84005
G1 X152.50 Y136.30 E229.84050
G1 X155.63 Y136.61 E229.88971
G1 X155.66 Y136.61 E229.89020
G1 X158.67 Y137.53 E229.93957
G1 X158.70 Y137.53 E229.93995
G1 X161.50 Y139.03 E229.98979
G1 X163.95 Y141.05 E230.03957
G1 X165.97 Y143.50 E230.08934
G1 X167.47 Y146.30 E230.13914
G1 X168.38 Y149.32 E230.18855
G1 X168.39 Y149.34 E230.18896
G1 X168.69 Y152.48 E230.23835
G1 X168.70 Y152.50 E230.23879
G1 X168.39 Y155.63 E230.28801
G1 X168.39 Y155.66 E230.28850
G1 X167.47 Y158.67 E230.33784
G1 X167.47 Y158.70 E230.33825
G1 X165.97 Y161.50 E230.38809
G1 X163.95 Y163.95 E230.43786
G1 X161.50 Y165.97 E230.48764
G1 X158.70 Y167.47 E230.53743
G1 X155.68 Y168.38 E230.58685
G1 X155.66 Y168.39 E230.58726
G1 X152.52 Y168.69 E230.63665
G1 X152.50 Y168.70 E230.63709
G1 X149.37 Y168.39 E230.68631
G1 X149.34 Y168.39 E230.68680
G1 X146.33 Y167.47 E230.73617
G1 X146.30 Y167.47 E230.73655
G1 X143.50 Y165.97 E230.78639
G1 X141.05 Y163.95 E230.83616
G1 X139.03 Y161.50 E230.88594
G0 F12000 X138.70 Y161.72
;TYPE:WALL-OUTER
G1 F3900 X137.16 Y158.85 E230.93694
G1 X136.22 Y155.74 E230.98794
G1 X135.91 Y152.56 E231.03797
G1 X135.90 Y152.50 E231.03901
G1 X136.21 Y149.33 E231.08895
G1 X136.22 Y149.26 E231.09002
G1 X137.16 Y146.15 E231.14101
G1 X138.70 Y143.28 E231.19201
G1 X140.76 Y140.76 E231.24306
G1 X143.28 Y138.70 E231.29411
G1 X146.15 Y137.16 E231.34510
G1 X149.26 Y136.22 E231.39611
G1 X152.44 Y135.91 E231.44613
G1 X152.50 Y135.90 E231.44717
G1 X155.67 Y136.21 E231.49712
G1 X155.74 Y136.22 E231.49819
G1 X158.85 Y137.16 E231.54918
G1 X161.72 Y138.70 E231.60018
G1 X164.24 Y140.76 E231.65122
G1 X166.30 Y143.28 E231.70227
G1 X167.84 Y146.15 E231.75327
G1 X168.78 Y149.26 E231.80428
G1 X169.09 Y152.44 E231.85430
G1 X169.10 Y152.50 E231.85531
G1 X168.79 Y155.67 E231.90528
G1 X168.78 Y155.74 E231.90635
G1 X167.84 Y158.85 E231.95734
G1 X166.30 Y161.72 E232.00834
G1 X164.24 Y164.24 E232.05939
G1 X161.72 Y166.30 E232.11044
G1 X158.85 Y167.84 E232.16144
G1 X155.74 Y168.78 E232.21244
G1 X152.56 Y169.09 E232.26246
G1 X152.50 Y169.10 E232.26350
G1 X149.33 Y168.79 E232.31345
G1 X149.26 Y168.78 E232.31452
G1 X146.15 Y167.84 E232.36551
G1 X143.28 Y166.30 E232.41651
G1 X140.76 Y164.24 E232.46756
G1 X138.70 Y161.72 E232.51860
G0 F12000 X139.41 Y161.06
;TYPE:FILL
G1 F3900 X161.06 Y139.41 E232.99874
G0 F12000 X161.40 Y139.64
G1 F3900 X139.65 Y161.39 E233.48103
G0 F12000 X139.90 Y161.70
G1 F3900 X161.70 Y139.90 E233.96456
G0 F12000 X162.01 Y140.15
G1 F3900 X140.15 Y162.01 E234.44933
G0 F12000 X140.41 Y162.32
G1 F3900 X162.32 Y140.41 E234.93532
G0 F12000 X162.63 Y140.66
G1 F3900 X140.66 Y162.63 E235.42256
G0 F12000 X140.92 Y162.94
G1 F3900 X162.94 Y140.91 E235.91103
G0 F12000 X163.25 Y141.17
G1 F3900 X141.17 Y163.25 E236.40071
G0 F12000 X141.42 Y163.56
G1 F3900 X163.56 Y141.42 E236.89166
G0 F12000 X163.82 Y141.73
G1 F3900 X141.73 Y163.82 E237.38142
G0 F12000 X142.04 Y164.07
G1 F3900 X164.07 Y142.04 E237.86992
G0 F12000 X164.33 Y142.35
G1 F3900 X142.35 Y164.33 E238.35719
G0 F12000 X142.66 Y164.58
G1 F3900 X164.58 Y142.66 E238.84324
G0 F12000 X164.84 Y142.97
G1 F3900 X142.97 Y164.84 E239.32804
G0 F12000 X143.28 Y165.09
G1 F3900 X165.09 Y143.28 E239.81162
G0 F12000 X165.34 Y143.59
G1 F3900 X143.59 Y165.34 E240.29393
G0 F12000 X143.92 Y165.58
G1 F3900 X165.58 Y143.92 E240.77419
G0 F12000 X165.78 Y144.29
G1 F3900 X144.29 Y165.78 E241.25067
G0 F12000 X144.66 Y165.97
G1 F3900 X165.97 Y144.66 E241.72337
G0 F12000 X166.17 Y145.03
G1 F3900 X145.02 Y166.17 E242.19227
G0 F12000 X145.39 Y166.37
G1 F3900 X166.37 Y145.39 E242.65739
G0 F12000 X166.56 Y145.76
G1 F3900 X145.76 Y166.56 E243.11872
G0 F12000 X146.13 Y166.76
G1 F3900 X166.76 Y146.13 E243.57624
G0 F12000 X166.96 Y146.50
G1 F3900 X146.49 Y166.96 E244.02999
G0 F12000 X146.92 Y167.09
G1 F3900 X167.09 Y146.93 E244.47716
G0 F12000 X167.22 Y147.36
G1 F3900 X147.36 Y167.22 E244.91763
G0 F12000 X147.79 Y167.35
G1 F3900 X167.35 Y147.79 E245.35142
G0 F12000 X167.48 Y148.22
G1 F3900 X148.22 Y167.49 E245.77851
G0 F12000 X148.66 Y167.62
G1 F3900 X167.62 Y148.66 E246.19891
G0 F12000 X167.75 Y149.09
G1 F3900 X149.09 Y167.75 E246.61260
G0 F12000 X149.54 Y167.87
G1 F3900 X167.86 Y149.54 E247.01897
G0 F12000 X167.91 Y150.05
G1 F3900 X150.05 Y167.91 E247.41505
G0 F12000 X150.56 Y167.97
G1 F3900 X167.96 Y150.57 E247.80086
G0 F12000 X168.01 Y151.08
G1 F3900 X151.08 Y168.02 E248.17639
G0 F12000 X151.59 Y168.07
G1 F3900 X168.06 Y151.59 E248.54163
G0 F12000 X168.12 Y152.11
G1 F3900 X152.11 Y168.12 E248.89659
G0 F12000 X152.65 Y168.14
G1 F3900 X168.14 Y152.65 E249.24010
G0 F12000 X168.08 Y153.27
G1 F3900 X153.27 Y168.08 E249.56837
G0 F12000 X153.90 Y168.02
G1 F3900 X168.02 Y153.90 E249.88140
G0 F12000 X167.96 Y154.53
G1 F3900 X154.53 Y167.96 E250.17923
G0 F12000 X155.15 Y167.89
G1 F3900 X167.89 Y155.15 E250.46180
G0 F12000 X167.77 Y155.84
G1 F3900 X155.84 Y167.77 E250.72624
G0 F12000 X156.65 Y167.52
G1 F3900 X167.52 Y156.65 E250.96729
G0 F12000 X167.28 Y157.46
G1 F3900 X157.46 Y167.28 E251.18493
G0 F12000 X158.27 Y167.03
G1 F3900 X167.03 Y158.27 E251.37919
G0 F12000 X166.49 Y159.38
G1 F3900 X159.38 Y166.49 E251.53697
G0 F12000 X160.59 Y165.84
G1 F3900 X165.84 Y160.59 E251.65341
G0 F12000 X164.23 Y162.77
G1 F3900 X162.77 Y164.23 E251.68578
G0 F12000 X139.22 Y160.69
G1 F3900 X160.70 Y139.21 E252.16211
G0 F12000 X160.33 Y139.02
G1 F3900 X139.02 Y160.33 E252.63466
G0 F12000 X138.82 Y159.96
G1 F3900 X159.96 Y138.82 E253.10343
G0 F12000 X159.59 Y138.62
G1 F3900 X138.62 Y159.59 E253.56842
G0 F12000 X138.43 Y159.22
G1 F3900 X159.23 Y138.43 E254.02962
G0 F12000 X158.86 Y138.23
G1 F3900 X138.23 Y158.86 E254.48703
G0 F12000 X138.03 Y158.49
G1 F3900 X158.49 Y138.03 E254.94064
G0 F12000 X158.06 Y137.90
G1 F3900 X137.90 Y158.06 E255.38757
G0 F12000 X137.77 Y157.62
G1 F3900 X157.63 Y137.77 E255.82782
G0 F12000 X157.19 Y137.64
G1 F3900 X137.64 Y157.19 E256.26136
G0 F12000 X137.51 Y156.76
G1 F3900 X156.76 Y137.51 E256.68822
G0 F12000 X156.33 Y137.38
G1 F3900 X137.38 Y156.32 E257.10838
G0 F12000 X137.25 Y155.89
G1 F3900 X155.89 Y137.25 E257.52186
G0 F12000 X155.44 Y137.13
G1 F3900 X137.13 Y155.44 E257.92786
G0 F12000 X137.08 Y154.93
G1 F3900 X154.93 Y137.08 E258.32359
G0 F12000 X154.41 Y137.03
G1 F3900 X137.03 Y154.41 E258.70902
G0 F12000 X136.98 Y153.90
G1 F3900 X153.90 Y136.98 E259.08418
G0 F12000 X153.39 Y136.93
G1 F3900 X136.93 Y153.38 E259.44905
G0 F12000 X136.88 Y152.87
G1 F3900 X152.87 Y136.88 E259.80362
G0 F12000 X152.33 Y136.86
G1 F3900 X136.86 Y152.33 E260.14657
G0 F12000 X136.92 Y151.70
G1 F3900 X151.70 Y136.92 E260.47429
G0 F12000 X151.08 Y136.98
G1 F3900 X136.98 Y151.08 E260.78677
G0 F12000 X137.04 Y150.45
G1 F3900 X150.45 Y137.04 E261.08404
G0 F12000 X149.83 Y137.11
G1 F3900 X137.11 Y149.83 E261.36610
G0 F12000 X137.24 Y149.13
G1 F3900 X149.13 Y137.24 E261.62972
G0 F12000 X148.32 Y137.49
G1 F3900 X137.49 Y148.32 E261.86994
G0 F12000 X137.73 Y147.51
G1 F3900 X147.51 Y137.73 E262.08677
G0 F12000 X146.70 Y137.98
G1 F3900 X137.97 Y146.70 E262.28019
G0 F12000 X138.53 Y145.58
G1 F3900 X145.58 Y138.53 E262.43654
G0 F12000 X144.37 Y139.18
G1 F3900 X139.18 Y144.37 E262.55153
G0 F12000 X140.86 Y142.12
G1 F3900 X142.12 Y140.86 E262.57945
;LAYER:2
G0 F12000 X141.33 Y141.33 Z0.50
;TYPE:WALL-INNER
G1 F5220 X143.72 Y139.37 E262.62803
G1 X146.44 Y137.91 E262.67637
G1 X149.41 Y137.01 E262.72498
G1 X152.49 Y136.71 E262.77352
G1 X152.50 Y136.70 E262.77371
G1 X155.57 Y137.00 E262.82200
G1 X155.58 Y137.01 E262.82222
G1 X158.53 Y137.90 E262.87054
G1 X161.27 Y139.36 E262.91918
G1 X161.28 Y139.37 E262.91935
G1 X163.67 Y141.33 E262.96788
G1 X165.63 Y143.72 E263.01646
G1 X167.09 Y146.44 E263.06480
G1 X167.99 Y149.41 E263.11341
G1 X168.29 Y152.49 E263.16195
G1 X168.00 Y155.57 E263.21043
G1 X167.99 Y155.58 E263.21065
G1 X167.10 Y158.53 E263.25897
G1 X165.64 Y161.27 E263.30760
G1 X165.63 Y161.28 E263.30778
G1 X163.67 Y163.67 E263.35631
G1 X161.28 Y165.63 E263.40488
G1 X158.56 Y167.09 E263.45323
G1 X155.59 Y167.99 E263.50183
G1 X152.51 Y168.29 E263.55038
G1 X152.50 Y168.30 E263.55057
G1 X149.43 Y168.00 E263.59886
G1 X149.42 Y167.99 E263.59908
G1 X146.47 Y167.10 E263.64740
G1 X143.73 Y165.64 E263.69603
G1 X143.72 Y165.63 E263.69621
G1 X141.33 Y163.67 E263.74474
G1 X139.37 Y161.28 E263.79331
G1 X137.91 Y158.55 E263.84170
G1 X137.01 Y155.59 E263.89027
G1 X136.71 Y152.51 E263.93881
G1 X136.70 Y152.50 E263.93900
G1 X137.00 Y149.43 E263.98729
G1 X137.01 Y149.42 E263.98751
G1 X137.90 Y146.47 E264.03583
G1 X139.36 Y143.73 E264.08446
G1 X139.37 Y143.72 E264.08464
G1 X141.33 Y141.33 E264.13317
G0 F12000 X141.05 Y141.05
G1 F5220 X143.50 Y139.03 E264.18295
G1 X146.26 Y137.56 E264.23195
G1 X146.30 Y137.53 E264.23275
G1 X149.29 Y136.63 E264.28177
G1 X149.34 Y136.61 E264.28259
G1 X152.45 Y136.31 E264.33156
G1 X152.50 Y136.30 E264.33235
G1 X155.61 Y136.61 E264.38128
G1 X155.66 Y136.61 E264.38210
G1 X158.65 Y137.52 E264.43106
G1 X158.70 Y137.54 E264.43192
G1 X161.46 Y139.01 E264.48091
G1 X161.50 Y139.03 E264.48173
G1 X163.95 Y141.05 E264.53146
G1 X165.97 Y143.50 E264.58124
G1 X167.44 Y146.26 E264.63025
G1 X167.47 Y146.30 E264.63105
G1 X168.37 Y149.29 E264.68007
G1 X168.39 Y149.34 E264.68089
G1 X168.69 Y152.45 E264.72985
G1 X168.70 Y152.50 E264.73061
G1 X168.39 Y155.61 E264.77958
G1 X168.39 Y155.66 E264.78039
G1 X167.48 Y158.65 E264.82935
G1 X167.46 Y158.70 E264.83021
G1 X165.99 Y161.46 E264.87920
G1 X165.97 Y161.50 E264.88002
G1 X163.95 Y163.95 E264.92976
G1 X161.50 Y165.97 E264.97953
G1 X158.74 Y167.44 E265.02854
G1 X158.70 Y167.47 E265.02934
G1 X155.71 Y168.37 E265.07836
G1 X155.66 Y168.39 E265.07918
G1 X152.55 Y168.69 E265.12815
G1 X152.50 Y168.70 E265.12893
G1 X149.39 Y168.39 E265.17787
G1 X149.34 Y168.39 E265.17869
G1 X146.35 Y167.48 E265.22765
G1 X146.30 Y167.46 E265.22850
G1 X143.54 Y165.99 E265.27749
G1 X143.50 Y165.97 E265.27832
G1 X141.05 Y163.95 E265.32805
G1 X139.03 Y161.50 E265.37783
G1 X137.56 Y158.74 E265.42685
G1 X137.53 Y158.70 E265.42763
G1 X136.63 Y155.71 E265.47665
G1 X136.61 Y155.66 E265.47747
G1 X136.31 Y152.55 E265.52644
G1 X136.30 Y152.50 E265.52723
G1 X136.61 Y149.39 E265.57616
G1 X136.61 Y149.34 E265.57698
G1 X137.52 Y146.35 E265.62594
G1 X137.54 Y146.30 E265.62680
G1 X139.01 Y143.54 E265.67579
G1 X139.03 Y143.50 E265.67661
G1 X141.05 Y141.05 E265.72634
G0 F12000 X140.76 Y140.76
;TYPE:WALL-OUTER
G1 F5220 X143.28 Y138.70 E265.77739
G1 X146.15 Y137.16 E265.82839
G1 X149.26 Y136.22 E265.87939
G1 X152.50 Y135.90 E265.93042
G1 X155.74 Y136.22 E265.98146
G1 X158.85 Y137.16 E266.03246
G1 X161.72 Y138.70 E266.08346
G1 X164.24 Y140.76 E266.13451
G1 X166.30 Y143.28 E266.18556
G1 X167.84 Y146.15 E266.23655
G1 X168.78 Y149.26 E266.28756
G1 X169.10 Y152.50 E266.33859
G1 X168.78 Y155.74 E266.38962
G1 X167.84 Y158.85 E266.44063
G1 X166.30 Y161.72 E266.49162
G1 X164.24 Y164.24 E266.54267
G1 X161.72 Y166.30 E266.59372
G1 X158.85 Y167.84 E266.64472
G1 X155.74 Y168.78 E266.69572
G1 X152.50 Y169.10 E266.74676
G1 X149.26 Y168.78 E266.79779
G1 X146.15 Y167.84 E266.84879
G1 X143.28 Y166.30 E266.89979
G1 X140.76 Y164.24 E266.95084
G1 X138.70 Y161.72 E267.00189
G1 X137.16 Y158.85 E267.05288
G1 X136.22 Y155.74 E267.10389
G1 X135.90 Y152.50 E267.15492
G1 X136.22 Y149.26 E267.20595
G1 X137.16 Y146.15 E267.25696
G1 X138.70 Y143.28 E267.30796
G1 X140.76 Y140.76 E267.35900
G0 F12000 X141.30 Y141.58
;TYPE:FILL
G1 F5220 X163.41 Y163.70 E267.84939
G0 F12000 X163.70 Y163.42
G1 F5220 X141.58 Y141.30 E268.33978
G0 F12000 X141.89 Y141.05
G1 F5220 X163.95 Y163.11 E268.82890
G0 F12000 X164.21 Y162.80
G1 F5220 X142.20 Y140.79 E269.31681
G0 F12000 X142.51 Y140.54
G1 F5220 X164.46 Y162.49 E269.80348
G0 F12000 X164.71 Y162.18
G1 F5220 X142.82 Y140.28 E270.28890
G0 F12000 X143.13 Y140.03
G1 F5220 X164.97 Y161.87 E270.77308
G0 F12000 X165.22 Y161.56
G1 F5220 X143.44 Y139.78 E271.25604
G0 F12000 X143.75 Y139.52
G1 F5220 X165.48 Y161.25 E271.73775
G0 F12000 X165.68 Y160.89
G1 F5220 X144.11 Y139.32 E272.21606
G0 F12000 X144.48 Y139.12
G1 F5220 X165.88 Y160.52 E272.69057
G0 F12000 X166.07 Y160.15
G1 F5220 X144.85 Y138.92 E273.16129
G0 F12000 X145.21 Y138.73
G1 F5220 X166.27 Y159.78 E273.62821
G0 F12000 X166.47 Y159.41
G1 F5220 X145.58 Y138.53 E274.09134
G0 F12000 X145.95 Y138.33
G1 F5220 X166.66 Y159.05 E274.55066
G0 F12000 X166.86 Y158.68
G1 F5220 X146.32 Y138.14 E275.00619
G0 F12000 X146.72 Y137.97
G1 F5220 X167.03 Y158.28 E275.45654
G0 F12000 X167.16 Y157.85
G1 F5220 X147.15 Y137.84 E275.90021
G0 F12000 X147.58 Y137.71
G1 F5220 X167.29 Y157.42 E276.33718
G0 F12000 X167.42 Y156.98
G1 F5220 X148.02 Y137.58 E276.76748
G0 F12000 X148.45 Y137.45
G1 F5220 X167.55 Y156.55 E277.19110
G0 F12000 X167.69 Y156.12
G1 F5220 X148.88 Y137.31 E277.60805
G0 F12000 X149.31 Y137.18
G1 F5220 X167.82 Y155.69 E278.01830
G0 F12000 X167.89 Y155.19
G1 F5220 X149.81 Y137.11 E278.41930
G0 F12000 X150.32 Y137.06
G1 F5220 X167.94 Y154.68 E278.81003
G0 F12000 X167.99 Y154.17
G1 F5220 X150.83 Y137.01 E279.19047
G0 F12000 X151.35 Y136.96
G1 F5220 X168.04 Y153.65 E279.56063
G0 F12000 X168.09 Y153.14
G1 F5220 X151.86 Y136.91 E279.92051
G0 F12000 X152.37 Y136.86
G1 F5220 X168.14 Y152.62 E280.27011
G0 F12000 X168.11 Y152.03
G1 F5220 X152.97 Y136.89 E280.60573
G0 F12000 X153.60 Y136.95
G1 F5220 X168.04 Y151.40 E280.92610
G0 F12000 X167.98 Y150.77
G1 F5220 X154.22 Y137.01 E281.23123
G0 F12000 X154.85 Y137.07
G1 F5220 X167.92 Y150.15 E281.52110
G0 F12000 X167.86 Y149.52
G1 F5220 X155.47 Y137.14 E281.79574
G0 F12000 X156.26 Y137.36
G1 F5220 X167.64 Y148.74 E282.04806
G0 F12000 X167.39 Y147.93
G1 F5220 X157.07 Y137.60 E282.27697
G0 F12000 X157.88 Y137.85
G1 F5220 X167.15 Y147.12 E282.48247
G0 F12000 X166.81 Y146.21
G1 F5220 X158.80 Y138.20 E282.66007
G0 F12000 X160.01 Y138.85
G1 F5220 X166.16 Y145.00 E282.79638
G0 F12000 X165.47 Y143.75
G1 F5220 X161.25 Y139.53 E282.88994
G0 F12000 X141.05 Y141.89
G1 F5220 X163.10 Y163.95 E283.37906
G0 F12000 X162.79 Y164.21
G1 F5220 X140.79 Y142.20 E283.86697
G0 F12000 X140.54 Y142.51
G1 F5220 X162.48 Y164.46 E284.35362
G0 F12000 X162.17 Y164.71
G1 F5220 X140.28 Y142.82 E284.83904
G0 F12000 X140.03 Y143.13
G1 F5220 X161.87 Y164.97 E285.32324
G0 F12000 X161.55 Y165.22
G1 F5220 X139.78 Y143.44 E285.80619
G0 F12000 X139.52 Y143.75
G1 F5220 X161.25 Y165.48 E286.28790
G0 F12000 X160.89 Y165.68
G1 F5220 X139.32 Y144.11 E286.76620
G0 F12000 X139.12 Y144.48
G1 F5220 X160.52 Y165.88 E287.24071
G0 F12000 X160.15 Y166.08
G1 F5220 X138.92 Y144.85 E287.71142
G0 F12000 X138.73 Y145.22
G1 F5220 X159.78 Y166.27 E288.17835
G0 F12000 X159.42 Y166.47
G1 F5220 X138.53 Y145.58 E288.64148
G0 F12000 X138.33 Y145.95
G1 F5220 X159.05 Y166.67 E289.10080
G0 F12000 X158.68 Y166.86
G1 F5220 X138.14 Y146.32 E289.55633
G0 F12000 X137.97 Y146.72
G1 F5220 X158.28 Y167.03 E290.00670
G0 F12000 X157.85 Y167.16
G1 F5220 X137.84 Y147.15 E290.45036
G0 F12000 X137.71 Y147.58
G1 F5220 X157.41 Y167.29 E290.88736
G0 F12000 X156.98 Y167.42
G1 F5220 X137.58 Y148.02 E291.31764
G0 F12000 X137.44 Y148.45
G1 F5220 X156.55 Y167.55 E291.74124
G0 F12000 X156.12 Y167.68
G1 F5220 X137.31 Y148.88 E292.15816
G0 F12000 X137.18 Y149.31
G1 F5220 X155.68 Y167.81 E292.56840
G0 F12000 X155.19 Y167.89
G1 F5220 X137.11 Y149.80 E292.96939
G0 F12000 X137.06 Y150.32
G1 F5220 X154.68 Y167.94 E293.36011
G0 F12000 X154.16 Y167.99
G1 F5220 X137.01 Y150.83 E293.74055
G0 F12000 X136.96 Y151.35
G1 F5220 X153.65 Y168.04 E294.11071
G0 F12000 X153.14 Y168.09
G1 F5220 X136.91 Y151.86 E294.47060
G0 F12000 X136.86 Y152.37
G1 F5220 X152.62 Y168.14 E294.82023
G0 F12000 X152.03 Y168.11
G1 F5220 X136.89 Y152.97 E295.15581
G0 F12000 X136.95 Y153.60
G1 F5220 X151.40 Y168.05 E295.47614
G0 F12000 X150.77 Y167.99
G1 F5220 X137.01 Y154.23 E295.78124
G0 F12000 X137.08 Y154.85
G1 F5220 X150.15 Y167.92 E296.07109
G0 F12000 X149.52 Y167.86
G1 F5220 X137.14 Y155.48 E296.34570
G0 F12000 X137.36 Y156.26
G1 F5220 X148.74 Y167.64 E296.59797
G0 F12000 X147.93 Y167.39
G1 F5220 X137.61 Y157.07 E296.82681
G0 F12000 X137.85 Y157.88
G1 F5220 X147.12 Y167.15 E297.03226
G0 F12000 X146.20 Y166.79
G1 F5220 X138.19 Y158.79 E297.20975
G0 F12000 X138.84 Y160.00
G1 F5220 X144.99 Y166.15 E297.34594
G0 F12000 X143.74 Y165.46
G1 F5220 X139.53 Y161.26 E297.43920
;LAYER:3
G0 F12000 X139.39 Y161.30 Z0.60
;TYPE:WALL-INNER
G1 F6480 X139.37 Y161.28 E297.43975
G1 X137.92 Y158.57 E297.48777
G1 X137.90 Y158.54 E297.48836
G1 X137.02 Y155.61 E297.53633
G1 X137.01 Y155.58 E297.53692
G1 X136.70 Y152.50 E297.58540
G1 X137.01 Y149.42 E297.63394
G1 X137.89 Y146.49 E297.68190
G1 X137.91 Y146.46 E297.68249
G1 X139.35 Y143.76 E297.73046
G1 X139.37 Y143.73 E297.73102
G1 X141.31 Y141.36 E297.77910
G1 X141.33 Y141.33 E297.77961
G1 X143.70 Y139.39 E297.82763
G1 X143.72 Y139.37 E297.82819
G1 X146.43 Y137.92 E297.87621
G1 X146.46 Y137.90 E297.87680
G1 X149.39 Y137.02 E297.92477
G1 X149.42 Y137.01 E297.92536
G1 X152.50 Y136.70 E297.97384
G1 X155.58 Y137.01 E298.02238
G1 X158.51 Y137.89 E298.07034
G1 X158.54 Y137.91 E298.07093
G1 X161.24 Y139.35 E298.11890
G1 X161.27 Y139.37 E298.11945
G1 X163.64 Y141.31 E298.16754
G1 X163.67 Y141.33 E298.16804
G1 X165.61 Y143.69 E298.21601
G1 X165.63 Y143.72 E298.21663
G1 X167.08 Y146.43 E298.26464
G1 X167.10 Y146.46 E298.26523
G1 X167.98 Y149.39 E298.31320
G1 X167.99 Y149.42 E298.31379
G1 X168.30 Y152.50 E298.36227
G1 X167.99 Y155.58 E298.41081
G1 X167.11 Y158.51 E298.45877
G1 X167.09 Y158.54 E298.45936
G1 X165.65 Y161.24 E298.50734
G1 X165.63 Y161.27 E298.50789
G1 X163.69 Y163.64 E298.55598
G1 X163.67 Y163.67 E298.55648
G1 X161.30 Y165.61 E298.60451
G1 X161.28 Y165.63 E298.60506
G1 X158.57 Y167.08 E298.65308
G1 X158.54 Y167.10 E298.65367
G1 X155.61 Y167.98 E298.70164
G1 X155.58 Y167.99 E298.70223
G1 X152.50 Y168.30 E298.75071
G1 X149.42 Y167.99 E298.79925
G1 X146.49 Y167.11 E298.84721
G1 X146.46 Y167.09 E298.84780
G1 X143.76 Y165.65 E298.89577
G1 X143.73 Y165.63 E298.89633
G1 X141.36 Y163.69 E298.94441
G1 X141.33 Y163.67 E298.94491
G1 X139.39 Y161.30 E298.99294
G0 F12000 X139.08 Y161.56
G1 F6480 X139.03 Y161.50 E298.99409
G1 X137.57 Y158.76 E299.04275
G1 X137.53 Y158.69 E299.04395
G1 X136.63 Y155.73 E299.09254
G1 X136.61 Y155.66 E299.09374
G1 X136.30 Y152.50 E299.14346
G1 X136.61 Y149.34 E299.19325
G1 X137.51 Y146.38 E299.24183
G1 X137.54 Y146.30 E299.24308
G1 X139.00 Y143.57 E299.29162
G1 X139.03 Y143.50 E299.29289
G1 X141.00 Y141.10 E299.34146
G1 X141.05 Y141.04 E299.34265
G1 X143.44 Y139.08 E299.39122
G1 X143.50 Y139.03 E299.39239
G1 X146.24 Y137.57 E299.44105
G1 X146.31 Y137.53 E299.44224
G1 X149.27 Y136.63 E299.49084
G1 X149.34 Y136.61 E299.49203
G1 X152.50 Y136.30 E299.54175
G1 X155.66 Y136.61 E299.59154
G1 X158.62 Y137.51 E299.64012
G1 X158.70 Y137.54 E299.64137
G1 X161.43 Y139.00 E299.68991
G1 X161.50 Y139.03 E299.69118
G1 X163.90 Y141.00 E299.73976
G1 X163.96 Y141.05 E299.74095
G1 X165.92 Y143.44 E299.78951
G1 X165.97 Y143.50 E299.79068
G1 X167.43 Y146.24 E299.83934
G1 X167.47 Y146.31 E299.84054
G1 X168.37 Y149.27 E299.88913
G1 X168.39 Y149.34 E299.89033
G1 X168.70 Y152.50 E299.94005
G1 X168.39 Y155.66 E299.98984
G1 X167.49 Y158.62 E300.03842
G1 X167.46 Y158.70 E300.03967
G1 X166.00 Y161.43 E300.08821
G1 X165.97 Y161.50 E300.08948
G1 X164.00 Y163.90 E300.13805
G1 X163.95 Y163.96 E300.13924
G1 X161.56 Y165.92 E300.18781
G1 X161.50 Y165.97 E300.18898
G1 X158.76 Y167.43 E300.23764
G1 X158.69 Y167.47 E300.23883
G1 X155.73 Y168.37 E300.28743
G1 X155.66 Y168.39 E300.28862
G1 X152.50 Y168.70 E300.33835
G1 X149.34 Y168.39 E300.38813
G1 X146.38 Y167.49 E300.43671
G1 X146.30 Y167.46 E300.43796
G1 X143.57 Y166.00 E300.48650
G1 X143.50 Y165.97 E300.48777
G1 X141.10 Y164.00 E300.53635
G1 X141.04 Y163.95 E300.53754
G1 X139.08 Y161.56 E300.58612
G0 F12000 X138.70 Y161.72
;TYPE:WALL-OUTER
G1 F6480 X137.16 Y158.85 E300.63712
G1 X136.22 Y155.74 E300.68813
G1 X135.90 Y152.50 E300.73916
G1 X136.22 Y149.26 E300.79019
G1 X137.16 Y146.15 E300.84119
G1 X138.70 Y143.28 E300.89219
G1 X140.76 Y140.76 E300.94324
G1 X143.28 Y138.70 E300.99429
G1 X146.15 Y137.16 E301.04529
G1 X149.26 Y136.22 E301.09629
G1 X152.50 Y135.90 E301.14732
G1 X155.74 Y136.22 E301.19835
G1 X158.85 Y137.16 E301.24936
G1 X161.72 Y138.70 E301.30036
G1 X164.24 Y140.76 E301.35141
G1 X166.30 Y143.28 E301.40245
G1 X167.84 Y146.15 E301.45345
G1 X168.78 Y149.26 E301.50446
G1 X169.10 Y152.50 E301.55549
G1 X168.78 Y155.74 E301.60652
G1 X167.84 Y158.85 E301.65753
G1 X166.30 Y161.72 E301.70852
G1 X164.24 Y164.24 E301.75957
G1 X161.72 Y166.30 E301.81062
G1 X158.85 Y167.84 E301.86162
G1 X155.74 Y168.78 E301.91262
G1 X152.50 Y169.10 E301.96365
G1 X149.26 Y168.78 E302.01468
G1 X146.15 Y167.84 E302.06569
G1 X143.28 Y166.30 E302.11669
G1 X140.76 Y164.24 E302.16774
G1 X138.70 Y161.72 E302.21879
G0 F12000 X139.41 Y161.06
;TYPE:FILL
G1 F6480 X161.06 Y139.41 E302.69892
G0 F12000 X161.39 Y139.65
G1 F6480 X139.65 Y161.39 E303.18118
G0 F12000 X139.90 Y161.70
G1 F6480 X161.70 Y139.90 E303.66467
G0 F12000 X162.01 Y140.15
G1 F6480 X140.15 Y162.01 E304.14940
G0 F12000 X140.41 Y162.32
G1 F6480 X162.32 Y140.41 E304.63537
G0 F12000 X162.63 Y140.66
G1 F6480 X140.66 Y162.63 E305.12257
G0 F12000 X140.92 Y162.94
G1 F6480 X162.94 Y140.92 E305.61101
G0 F12000 X163.25 Y141.17
G1 F6480 X141.17 Y163.25 E306.10067
G0 F12000 X141.43 Y163.56
G1 F6480 X163.56 Y141.42 E306.59159
G0 F12000 X163.82 Y141.73
G1 F6480 X141.73 Y163.82 E307.08131
G0 F12000 X142.04 Y164.07
G1 F6480 X164.07 Y142.04 E307.56977
G0 F12000 X164.33 Y142.35
G1 F6480 X142.35 Y164.33 E308.05702
G0 F12000 X142.66 Y164.58
G1 F6480 X164.58 Y142.66 E308.54302
G0 F12000 X164.84 Y142.97
G1 F6480 X142.97 Y164.84 E309.02778
G0 F12000 X143.28 Y165.09
G1 F6480 X165.09 Y143.28 E309.51134
G0 F12000 X165.34 Y143.59
G1 F6480 X143.59 Y165.34 E309.99364
G0 F12000 X143.92 Y165.58
G1 F6480 X165.58 Y143.92 E310.47389
G0 F12000 X165.78 Y144.29
G1 F6480 X144.29 Y165.78 E310.95035
G0 F12000 X144.66 Y165.97
G1 F6480 X165.97 Y144.66 E311.42303
G0 F12000 X166.17 Y145.03
G1 F6480 X145.02 Y166.17 E311.89192
G0 F12000 X145.39 Y166.37
G1 F6480 X166.37 Y145.39 E312.35702
G0 F12000 X166.56 Y145.76
G1 F6480 X145.76 Y166.56 E312.81834
G0 F12000 X146.13 Y166.76
G1 F6480 X166.76 Y146.13 E313.27585
G0 F12000 X166.96 Y146.50
G1 F6480 X146.49 Y166.96 E313.72958
G0 F12000 X146.93 Y167.09
G1 F6480 X167.09 Y146.93 E314.17674
G0 F12000 X167.22 Y147.36
G1 F6480 X147.36 Y167.22 E314.61719
G0 F12000 X147.79 Y167.35
G1 F6480 X167.35 Y147.79 E315.05096
G0 F12000 X167.48 Y148.23
G1 F6480 X148.22 Y167.49 E315.47802
G0 F12000 X148.66 Y167.62
G1 F6480 X167.62 Y148.66 E315.89840
G0 F12000 X167.75 Y149.09
G1 F6480 X149.09 Y167.75 E316.31208
G0 F12000 X149.54 Y167.87
G1 F6480 X167.86 Y149.54 E316.71844
G0 F12000 X167.91 Y150.05
G1 F6480 X150.05 Y167.91 E317.11451
G0 F12000 X150.57 Y167.97
G1 F6480 X167.96 Y150.57 E317.50030
G0 F12000 X168.01 Y151.08
G1 F6480 X151.08 Y168.01 E317.87580
G0 F12000 X151.59 Y168.06
G1 F6480 X168.06 Y151.59 E318.24103
G0 F12000 X168.12 Y152.11
G1 F6480 X152.11 Y168.12 E318.59597
G0 F12000 X152.65 Y168.14
G1 F6480 X168.14 Y152.65 E318.93948
G0 F12000 X168.08 Y153.27
G1 F6480 X153.27 Y168.08 E319.26775
G0 F12000 X153.90 Y168.02
G1 F6480 X168.02 Y153.90 E319.58079
G0 F12000 X167.96 Y154.53
G1 F6480 X154.53 Y167.96 E319.87861
G0 F12000 X155.15 Y167.89
G1 F6480 X167.89 Y155.15 E320.16118
G0 F12000 X167.77 Y155.84
G1 F6480 X155.84 Y167.77 E320.42561
G0 F12000 X156.65 Y167.52
G1 F6480 X167.52 Y156.65 E320.66664
G0 F12000 X167.28 Y157.46
G1 F6480 X157.46 Y167.28 E320.88426
G0 F12000 X158.27 Y167.03
G1 F6480 X167.03 Y158.27 E321.07850
G0 F12000 X166.49 Y159.38
G1 F6480 X159.38 Y166.49 E321.23622
G0 F12000 X160.59 Y165.84
G1 F6480 X165.84 Y160.59 E321.35269
G0 F12000 X164.22 Y162.78
G1 F6480 X162.77 Y164.22 E321.38476
G0 F12000 X139.22 Y160.69
G1 F6480 X160.70 Y139.21 E321.86107
G0 F12000 X160.33 Y139.02
G1 F6480 X139.02 Y160.33 E322.33361
G0 F12000 X138.82 Y159.96
G1 F6480 X159.96 Y138.82 E322.80236
G0 F12000 X159.59 Y138.62
G1 F6480 X138.63 Y159.59 E323.26730
G0 F12000 X138.43 Y159.22
G1 F6480 X159.23 Y138.43 E323.72846
G0 F12000 X158.86 Y138.23
G1 F6480 X138.23 Y158.86 E324.18583
G0 F12000 X138.04 Y158.49
G1 F6480 X158.49 Y138.03 E324.63941
G0 F12000 X158.06 Y137.90
G1 F6480 X137.90 Y158.06 E325.08632
G0 F12000 X137.77 Y157.62
G1 F6480 X157.62 Y137.77 E325.52655
G0 F12000 X157.19 Y137.64
G1 F6480 X137.64 Y157.19 E325.96008
G0 F12000 X137.51 Y156.76
G1 F6480 X156.76 Y137.51 E326.38691
G0 F12000 X156.33 Y137.38
G1 F6480 X137.38 Y156.32 E326.80705
G0 F12000 X137.25 Y155.89
G1 F6480 X155.89 Y137.25 E327.22050
G0 F12000 X155.44 Y137.13
G1 F6480 X137.13 Y155.44 E327.62648
G0 F12000 X137.08 Y154.93
G1 F6480 X154.93 Y137.08 E328.02218
G0 F12000 X154.41 Y137.03
G1 F6480 X137.03 Y154.41 E328.40760
G0 F12000 X136.98 Y153.90
G1 F6480 X153.90 Y136.98 E328.78273
G0 F12000 X153.39 Y136.93
G1 F6480 X136.93 Y153.38 E329.14760
G0 F12000 X136.88 Y152.87
G1 F6480 X152.87 Y136.88 E329.50219
G0 F12000 X152.33 Y136.86
G1 F6480 X136.86 Y152.33 E329.84515
G0 F12000 X136.92 Y151.70
G1 F6480 X151.70 Y136.92 E330.17287
G0 F12000 X151.08 Y136.98
G1 F6480 X136.98 Y151.08 E330.48535
G0 F12000 X137.04 Y150.45
G1 F6480 X150.45 Y137.04 E330.78262
G0 F12000 X149.83 Y137.11
G1 F6480 X137.11 Y149.82 E331.06466
G0 F12000 X137.24 Y149.13
G1 F6480 X149.13 Y137.24 E331.32826
G0 F12000 X148.32 Y137.49
G1 F6480 X137.49 Y148.32 E331.56845
G0 F12000 X137.73 Y147.51
G1 F6480 X147.51 Y137.73 E331.78525
G0 F12000 X146.70 Y137.98
G1 F6480 X137.98 Y146.70 E331.97866
G0 F12000 X138.53 Y145.58
G1 F6480 X145.58 Y138.53 E332.13494
G0 F12000 X144.37 Y139.18
G1 F6480 X139.18 Y144.37 E332.24996
G0 F12000 X140.87 Y142.11
G1 F6480 X142.11 Y140.87 E332.27753
;LAYER:4
G0 F12000 X141.33 Y141.33 Z0.70
;TYPE:WALL-INNER
G1 F7800 X143.68 Y139.40 E332.32519
G1 X143.73 Y139.36 E332.32616
G1 X146.41 Y137.93 E332.37374
G1 X146.46 Y137.91 E332.37468
G1 X149.36 Y137.02 E332.42229
G1 X149.42 Y137.01 E332.42325
G1 X152.44 Y136.71 E332.47086
G1 X152.50 Y136.70 E332.47180
G1 X155.52 Y137.00 E332.51930
G1 X155.58 Y137.01 E332.52030
G1 X158.49 Y137.89 E332.56788
G1 X158.54 Y137.91 E332.56882
G1 X161.22 Y139.34 E332.61647
G1 X161.28 Y139.37 E332.61742
G1 X163.62 Y141.29 E332.66499
G1 X163.67 Y141.33 E332.66596
G1 X165.60 Y143.68 E332.71362
G1 X165.64 Y143.73 E332.71459
G1 X167.07 Y146.41 E332.76217
G1 X167.09 Y146.46 E332.76311
G1 X167.98 Y149.36 E332.81073
G1 X167.99 Y149.42 E332.81168
G1 X168.29 Y152.44 E332.85929
G1 X168.30 Y152.50 E332.86017
G1 X168.00 Y155.52 E332.90774
G1 X167.99 Y155.58 E332.90873
G1 X167.11 Y158.49 E332.95631
G1 X167.09 Y158.54 E332.95725
G1 X165.66 Y161.22 E333.00490
G1 X165.63 Y161.28 E333.00585
G1 X163.71 Y163.62 E333.05342
G1 X163.67 Y163.67 E333.05439
G1 X161.32 Y165.60 E333.10205
G1 X161.27 Y165.64 E333.10302
G1 X158.59 Y167.07 E333.15061
G1 X158.54 Y167.09 E333.15155
G1 X155.64 Y167.98 E333.19916
G1 X155.58 Y167.99 E333.20011
G1 X152.56 Y168.29 E333.24772
G1 X152.50 Y168.30 E333.24867
G1 X149.48 Y168.00 E333.29617
G1 X149.42 Y167.99 E333.29716
G1 X146.51 Y167.11 E333.34479
G1 X146.46 Y167.09 E333.34568
G1 X143.78 Y165.66 E333.39333
G1 X143.72 Y165.63 E333.39428
G1 X141.38 Y163.71 E333.44185
G1 X141.33 Y163.67 E333.44282
G1 X139.40 Y161.32 E333.49049
G1 X139.36 Y161.27 E333.49146
G1 X137.93 Y158.59 E333.53904
G1 X137.91 Y158.54 E333.53998
G1 X137.02 Y155.64 E333.58759
G1 X137.01 Y155.58 E333.58854
G1 X136.71 Y152.56 E333.63615
G1 X136.70 Y152.50 E333.63710
G1 X137.00 Y149.48 E333.68460
G1 X137.01 Y149.42 E333.68559
G1 X137.89 Y146.51 E333.73318
G1 X137.91 Y146.46 E333.73411
G1 X139.34 Y143.78 E333.78177
G1 X139.37 Y143.72 E333.78271
G1 X141.29 Y141.38 E333.83029
G1 X141.33 Y141.33 E333.83126
G0 F12000 X141.05 Y141.05
G1 F7800 X143.43 Y139.09 E333.87950
G1 X143.50 Y139.03 E333.88107
G1 X146.30 Y137.53 E333.93080
G1 X149.25 Y136.64 E333.97907
G1 X149.34 Y136.61 E333.98063
G1 X152.40 Y136.31 E334.02887
G1 X152.50 Y136.30 E334.03043
G1 X155.56 Y136.60 E334.07859
G1 X155.66 Y136.61 E334.08017
G1 X158.60 Y137.51 E334.12839
G1 X158.70 Y137.54 E334.12997
G1 X161.50 Y139.03 E334.17975
G1 X163.88 Y140.98 E334.22796
G1 X163.95 Y141.05 E334.22955
G1 X165.91 Y143.43 E334.27779
G1 X165.97 Y143.50 E334.27936
G1 X167.47 Y146.30 E334.32910
G1 X168.36 Y149.25 E334.37737
G1 X168.39 Y149.34 E334.37892
G1 X168.69 Y152.40 E334.42716
G1 X168.70 Y152.50 E334.42868
G1 X168.40 Y155.56 E334.47689
G1 X168.39 Y155.66 E334.47846
G1 X167.49 Y158.60 E334.52669
G1 X167.46 Y158.70 E334.52826
G1 X165.97 Y161.50 E334.57805
G1 X164.02 Y163.88 E334.62626
G1 X163.95 Y163.95 E334.62785
G1 X161.57 Y165.91 E334.67609
G1 X161.50 Y165.97 E334.67766
G1 X158.70 Y167.47 E334.72739
G1 X155.75 Y168.36 E334.77566
G1 X155.66 Y168.39 E334.77722
G1 X152.60 Y168.69 E334.82546
G1 X152.50 Y168.70 E334.82702
G1 X149.44 Y168.40 E334.87518
G1 X149.34 Y168.39 E334.87676
G1 X146.40 Y167.49 E334.92498
G1 X146.30 Y167.46 E334.92656
G1 X143.50 Y165.97 E334.97634
G1 X141.12 Y164.02 E335.02455
G1 X141.05 Y163.95 E335.02614
G1 X139.09 Y161.57 E335.07438
G1 X139.03 Y161.50 E335.07595
G1 X137.53 Y158.70 E335.12569
G1 X136.64 Y155.75 E335.17396
G1 X136.61 Y155.66 E335.17552
G1 X136.31 Y152.60 E335.22376
G1 X136.30 Y152.50 E335.22532
G1 X136.60 Y149.44 E335.27348
G1 X136.61 Y149.34 E335.27506
G1 X137.51 Y146.40 E335.32328
G1 X137.54 Y146.30 E335.32486
G1 X139.03 Y143.50 E335.37464
G1 X140.98 Y141.12 E335.42285
G1 X141.05 Y141.05 E335.42444
G0 F12000 X140.76 Y140.76
;TYPE:WALL-OUTER
G1 F7800 X143.28 Y138.70 E335.47549
G1 X146.15 Y137.16 E335.52649
G1 X149.26 Y136.22 E335.57749
G1 X152.50 Y135.90 E335.62852
G1 X155.74 Y136.22 E335.67955
G1 X158.85 Y137.16 E335.73056
G1 X161.72 Y138.70 E335.78156
G1 X164.24 Y140.76 E335.83260
G1 X166.30 Y143.28 E335.88365
G1 X167.84 Y146.15 E335.93465
G1 X168.78 Y149.26 E335.98566
G1 X169.10 Y152.50 E336.03669
G1 X168.78 Y155.74 E336.08772
G1 X167.84 Y158.85 E336.13872
G1 X166.30 Y161.72 E336.18972
G1 X164.24 Y164.24 E336.24077
G1 X161.72 Y166.30 E336.29182
G1 X158.85 Y167.84 E336.34282
G1 X155.74 Y168.78 E336.39382
G1 X152.50 Y169.10 E336.44485
G1 X149.26 Y168.78 E336.49588
G1 X146.15 Y167.84 E336.54689
G1 X143.28 Y166.30 E336.59789
G1 X140.76 Y164.24 E336.64894
G1 X138.70 Y161.72 E336.69998
G1 X137.16 Y158.85 E336.75098
G1 X136.22 Y155.74 E336.80199
G1 X135.90 Y152.50 E336.85302
G1 X136.22 Y149.26 E336.90405
G1 X137.16 Y146.15 E336.95505
G1 X138.70 Y143.28 E337.00605
G1 X140.76 Y140.76 E337.05710
G0 F12000 X141.30 Y141.58
;TYPE:FILL
G1 F7800 X163.41 Y163.70 E337.54749
G0 F12000 X163.70 Y163.42
G1 F7800 X141.58 Y141.30 E338.03788
G0 F12000 X141.89 Y141.05
G1 F7800 X163.95 Y163.11 E338.52700
G0 F12000 X164.21 Y162.79
G1 F7800 X142.20 Y140.79 E339.01486
G0 F12000 X142.51 Y140.54
G1 F7800 X164.46 Y162.49 E339.50152
G0 F12000 X164.71 Y162.18
G1 F7800 X142.82 Y140.28 E339.98692
G0 F12000 X143.13 Y140.03
G1 F7800 X164.97 Y161.87 E340.47109
G0 F12000 X165.22 Y161.56
G1 F7800 X143.44 Y139.78 E340.95401
G0 F12000 X143.75 Y139.52
G1 F7800 X165.48 Y161.25 E341.43568
G0 F12000 X165.68 Y160.89
G1 F7800 X144.11 Y139.32 E341.91398
G0 F12000 X144.48 Y139.12
G1 F7800 X165.88 Y160.52 E342.38849
G0 F12000 X166.08 Y160.15
G1 F7800 X144.85 Y138.92 E342.85922
G0 F12000 X145.22 Y138.73
G1 F7800 X166.27 Y159.78 E343.32616
G0 F12000 X166.47 Y159.42
G1 F7800 X145.58 Y138.53 E343.78931
G0 F12000 X145.95 Y138.33
G1 F7800 X166.67 Y159.05 E344.24865
G0 F12000 X166.86 Y158.68
G1 F7800 X146.32 Y138.14 E344.70420
G0 F12000 X146.72 Y137.97
G1 F7800 X167.03 Y158.28 E345.15458
G0 F12000 X167.16 Y157.85
G1 F7800 X147.15 Y137.84 E345.59827
G0 F12000 X147.58 Y137.71
G1 F7800 X167.29 Y157.42 E346.03528
G0 F12000 X167.42 Y156.98
G1 F7800 X148.02 Y137.58 E346.46561
G0 F12000 X148.45 Y137.45
G1 F7800 X167.55 Y156.55 E346.88923
G0 F12000 X167.69 Y156.12
G1 F7800 X148.88 Y137.31 E347.30618
G0 F12000 X149.31 Y137.18
G1 F7800 X167.82 Y155.69 E347.71643
G0 F12000 X167.89 Y155.19
G1 F7800 X149.80 Y137.11 E348.11748
G0 F12000 X150.32 Y137.06
G1 F7800 X167.94 Y154.68 E348.50825
G0 F12000 X167.99 Y154.17
G1 F7800 X150.83 Y137.01 E348.88873
G0 F12000 X151.35 Y136.96
G1 F7800 X168.04 Y153.65 E349.25892
G0 F12000 X168.09 Y153.14
G1 F7800 X151.86 Y136.91 E349.61885
G0 F12000 X152.37 Y136.86
G1 F7800 X168.14 Y152.62 E349.96850
G0 F12000 X168.11 Y152.03
G1 F7800 X152.97 Y136.89 E350.30415
G0 F12000 X153.60 Y136.95
G1 F7800 X168.05 Y151.40 E350.62455
G0 F12000 X167.99 Y150.78
G1 F7800 X154.22 Y137.01 E350.92972
G0 F12000 X154.85 Y137.07
G1 F7800 X167.92 Y150.15 E351.21965
G0 F12000 X167.86 Y149.52
G1 F7800 X155.47 Y137.14 E351.49435
G0 F12000 X156.26 Y137.36
G1 F7800 X167.64 Y148.74 E351.74667
G0 F12000 X167.39 Y147.93
G1 F7800 X157.07 Y137.60 E351.97560
G0 F12000 X157.88 Y137.85
G1 F7800 X167.15 Y147.12 E352.18114
G0 F12000 X166.80 Y146.21
G1 F7800 X158.79 Y138.20 E352.35876
G0 F12000 X160.00 Y138.85
G1 F7800 X166.15 Y144.99 E352.49508
G0 F12000 X165.46 Y143.74
G1 F7800 X161.25 Y139.53 E352.58836
G0 F12000 X141.05 Y141.89
G1 F7800 X163.10 Y163.95 E353.07748
G0 F12000 X162.79 Y164.21
G1 F7800 X140.79 Y142.20 E353.56535
G0 F12000 X140.54 Y142.51
G1 F7800 X162.48 Y164.46 E354.05200
G0 F12000 X162.17 Y164.71
G1 F7800 X140.28 Y142.82 E354.53740
G0 F12000 X140.03 Y143.13
G1 F7800 X161.86 Y164.97 E355.02155
G0 F12000 X161.55 Y165.22
G1 F7800 X139.78 Y143.44 E355.50448
G0 F12000 X139.52 Y143.75
G1 F7800 X161.24 Y165.48 E355.98614
G0 F12000 X160.88 Y165.68
G1 F7800 X139.31 Y144.11 E356.46444
G0 F12000 X139.12 Y144.48
G1 F7800 X160.52 Y165.88 E356.93895
G0 F12000 X160.15 Y166.08
G1 F7800 X138.92 Y144.85 E357.40968
G0 F12000 X138.72 Y145.22
G1 F7800 X159.78 Y166.27 E357.87661
G0 F12000 X159.41 Y166.47
G1 F7800 X138.53 Y145.58 E358.33977
G0 F12000 X138.33 Y145.95
G1 F7800 X159.05 Y166.66 E358.79911
G0 F12000 X158.68 Y166.86
G1 F7800 X138.13 Y146.32 E359.25466
G0 F12000 X137.97 Y146.72
G1 F7800 X158.28 Y167.03 E359.70505
G0 F12000 X157.85 Y167.16
G1 F7800 X137.84 Y147.15 E360.14872
G0 F12000 X137.71 Y147.58
G1 F7800 X157.41 Y167.29 E360.58571
G0 F12000 X156.98 Y167.42
G1 F7800 X137.58 Y148.01 E361.01601
G0 F12000 X137.44 Y148.45
G1 F7800 X156.55 Y167.55 E361.43961
G0 F12000 X156.12 Y167.68
G1 F7800 X137.31 Y148.88 E361.85654
G0 F12000 X137.18 Y149.31
G1 F7800 X155.68 Y167.81 E362.26676
G0 F12000 X155.19 Y167.89
G1 F7800 X137.11 Y149.80 E362.66778
G0 F12000 X137.06 Y150.32
G1 F7800 X154.68 Y167.94 E363.05851
G0 F12000 X154.16 Y167.99
G1 F7800 X137.01 Y150.83 E363.43897
G0 F12000 X136.96 Y151.35
G1 F7800 X153.65 Y168.04 E363.80915
G0 F12000 X153.14 Y168.09
G1 F7800 X136.91 Y151.86 E364.16907
G0 F12000 X136.86 Y152.37
G1 F7800 X152.62 Y168.14 E364.51869
G0 F12000 X152.03 Y168.11
G1 F7800 X136.89 Y152.97 E364.85427
G0 F12000 X136.95 Y153.60
G1 F7800 X151.40 Y168.05 E365.17462
G0 F12000 X150.77 Y167.99
G1 F7800 X137.01 Y154.22 E365.47977
G0 F12000 X137.07 Y154.85
G1 F7800 X150.15 Y167.92 E365.76965
G0 F12000 X149.52 Y167.86
G1 F7800 X137.14 Y155.47 E366.04433
G0 F12000 X137.36 Y156.26
G1 F7800 X148.74 Y167.64 E366.29660
G0 F12000 X147.93 Y167.39
G1 F7800 X137.60 Y157.07 E366.52546
G0 F12000 X137.85 Y157.88
G1 F7800 X147.12 Y167.15 E366.73093
G0 F12000 X146.21 Y166.80
G1 F7800 X138.20 Y158.80 E366.90845
G0 F12000 X138.85 Y160.01
G1 F7800 X144.99 Y166.15 E367.04467
G0 F12000 X143.74 Y165.46
G1 F7800 X139.54 Y161.27 E367.13766
;LAYER:5
G0 F12000 X139.37 Y161.28 Z0.80
;TYPE:WALL-INNER
G1 F7800 X137.91 Y158.54 E367.18620
G1 X137.03 Y155.66 E367.23348
G1 X137.01 Y155.58 E367.23480
G1 X136.71 Y152.58 E367.28201
G1 X136.70 Y152.50 E367.28334
G1 X137.00 Y149.50 E367.33054
G1 X137.01 Y149.42 E367.33185
G1 X137.88 Y146.54 E367.37907
G1 X137.91 Y146.46 E367.38038
G1 X139.37 Y143.72 E367.42895
G1 X141.33 Y141.33 E367.47753
G1 X143.72 Y139.37 E367.52610
G1 X146.46 Y137.91 E367.57464
G1 X149.34 Y137.03 E367.62192
G1 X149.42 Y137.01 E367.62324
G1 X152.42 Y136.71 E367.67045
G1 X152.50 Y136.70 E367.67178
G1 X155.50 Y137.00 E367.71898
G1 X155.58 Y137.01 E367.72029
G1 X158.46 Y137.88 E367.76751
G1 X158.54 Y137.91 E367.76882
G1 X161.28 Y139.37 E367.81739
G1 X163.67 Y141.33 E367.86597
G1 X165.63 Y143.72 E367.91454
G1 X167.09 Y146.46 E367.96308
G1 X167.97 Y149.34 E368.01036
G1 X167.99 Y149.42 E368.01168
G1 X168.29 Y152.42 E368.05890
G1 X168.30 Y152.50 E368.06019
G1 X168.00 Y155.50 E368.10742
G1 X167.99 Y155.58 E368.10873
G1 X167.12 Y158.46 E368.15595
G1 X167.09 Y158.54 E368.15726
G1 X165.63 Y161.28 E368.20583
G1 X163.67 Y163.67 E368.25441
G1 X161.28 Y165.63 E368.30298
G1 X158.54 Y167.09 E368.35152
G1 X155.66 Y167.97 E368.39880
G1 X155.58 Y167.99 E368.40012
G1 X152.58 Y168.29 E368.44734
G1 X152.50 Y168.30 E368.44866
G1 X149.50 Y168.00 E368.49586
G1 X149.42 Y167.99 E368.49717
G1 X146.53 Y167.12 E368.54444
G1 X146.46 Y167.09 E368.54570
G1 X143.72 Y165.63 E368.59427
G1 X141.33 Y163.67 E368.64285
G1 X139.37 Y161.28 E368.69142
G0 F12000 X139.03 Y161.50
G1 F7800 X137.53 Y158.70 E368.74122
G1 X136.65 Y155.78 E368.78911
G1 X136.61 Y155.66 E368.79104
G1 X136.31 Y152.62 E368.83889
G1 X136.30 Y152.50 E368.84081
G1 X136.60 Y149.46 E368.88864
G1 X136.61 Y149.34 E368.89058
G1 X137.50 Y146.42 E368.93843
G1 X137.54 Y146.30 E368.94038
G1 X139.03 Y143.50 E368.99016
G1 X141.05 Y141.05 E369.03994
G1 X143.50 Y139.03 E369.08972
G1 X146.30 Y137.53 E369.13951
G1 X149.22 Y136.65 E369.18740
G1 X149.34 Y136.61 E369.18934
G1 X152.38 Y136.31 E369.23718
G1 X152.50 Y136.30 E369.23911
G1 X155.54 Y136.60 E369.28694
G1 X155.66 Y136.61 E369.28888
G1 X158.58 Y137.50 E369.33672
G1 X158.70 Y137.54 E369.33868
G1 X161.50 Y139.03 E369.38846
G1 X163.95 Y141.05 E369.43824
G1 X165.97 Y143.50 E369.48802
G1 X167.47 Y146.30 E369.53781
G1 X168.35 Y149.22 E369.58570
G1 X168.39 Y149.34 E369.58763
G1 X168.69 Y152.38 E369.63548
G1 X168.70 Y152.50 E369.63739
G1 X168.40 Y155.54 E369.68523
G1 X168.39 Y155.66 E369.68717
G1 X167.50 Y158.58 E369.73502
G1 X167.46 Y158.70 E369.73697
G1 X165.97 Y161.50 E369.78676
G1 X163.95 Y163.95 E369.83653
G1 X161.50 Y165.97 E369.88631
G1 X158.70 Y167.47 E369.93610
G1 X155.78 Y168.35 E369.98399
G1 X155.66 Y168.39 E369.98593
G1 X152.62 Y168.69 E370.03378
G1 X152.50 Y168.70 E370.03570
G1 X149.46 Y168.40 E370.08353
G1 X149.34 Y168.39 E370.08547
G1 X146.42 Y167.50 E370.13331
G1 X146.30 Y167.46 E370.13527
G1 X143.50 Y165.97 E370.18505
G1 X141.05 Y163.95 E370.23483
G1 X139.03 Y161.50 E370.28461
G0 F12000 X138.70 Y161.72
;TYPE:WALL-OUTER
G1 F7800 X137.16 Y158.85 E370.33560
G1 X136.22 Y155.74 E370.38661
G1 X135.90 Y152.50 E370.43764
G1 X136.22 Y149.26 E370.48867
G1 X137.16 Y146.15 E370.53968
G1 X138.70 Y143.28 E370.59068
G1 X140.76 Y140.76 E370.64172
G1 X143.28 Y138.70 E370.69277
G1 X146.15 Y137.16 E370.74377
G1 X149.26 Y136.22 E370.79478
G1 X152.50 Y135.90 E370.84581
G1 X155.74 Y136.22 E370.89684
G1 X158.85 Y137.16 E370.94784
G1 X161.72 Y138.70 E370.99884
G1 X164.24 Y140.76 E371.04989
G1 X166.30 Y143.28 E371.10094
G1 X167.84 Y146.15 E371.15194
G1 X168.78 Y149.26 E371.20294
G1 X169.10 Y152.50 E371.25397
G1 X168.78 Y155.74 E371.30500
G1 X167.84 Y158.85 E371.35601
G1 X166.30 Y161.72 E371.40701
G1 X164.24 Y164.24 E371.45805
G1 X161.72 Y166.30 E371.50910
G1 X158.85 Y167.84 E371.56010
G1 X155.74 Y168.78 E371.61111
G1 X152.50 Y169.10 E371.66214
G1 X149.26 Y168.78 E371.71317
G1 X146.15 Y167.84 E371.76417
G1 X143.28 Y166.30 E371.81517
G1 X140.76 Y164.24 E371.86622
G1 X138.70 Y161.72 E371.91727
G0 F12000 X139.41 Y161.06
;TYPE:FILL
G1 F7800 X161.06 Y139.41 E372.39737
G0 F12000 X161.40 Y139.64
G1 F7800 X139.65 Y161.39 E372.87966
G0 F12000 X139.90 Y161.70
G1 F7800 X161.70 Y139.90 E373.36319
G0 F12000 X162.01 Y140.15
G1 F7800 X140.15 Y162.01 E373.84792
G0 F12000 X140.41 Y162.32
G1 F7800 X162.32 Y140.41 E374.33391
G0 F12000 X162.63 Y140.66
G1 F7800 X140.66 Y162.63 E374.82112
G0 F12000 X140.92 Y162.94
G1 F7800 X162.94 Y140.91 E375.30959
G0 F12000 X163.25 Y141.17
G1 F7800 X141.17 Y163.25 E375.79927
G0 F12000 X141.42 Y163.56
G1 F7800 X163.56 Y141.42 E376.29023
G0 F12000 X163.82 Y141.73
G1 F7800 X141.73 Y163.82 E376.77998
G0 F12000 X142.04 Y164.07
G1 F7800 X164.07 Y142.04 E377.26849
G0 F12000 X164.33 Y142.35
G1 F7800 X142.35 Y164.33 E377.75576
G0 F12000 X142.66 Y164.58
G1 F7800 X164.58 Y142.66 E378.24178
G0 F12000 X164.84 Y142.97
G1 F7800 X142.97 Y164.84 E378.72658
G0 F12000 X143.28 Y165.09
G1 F7800 X165.09 Y143.28 E379.21014
G0 F12000 X165.34 Y143.59
G1 F7800 X143.59 Y165.34 E379.69245
G0 F12000 X143.92 Y165.58
G1 F7800 X165.58 Y143.92 E380.17270
G0 F12000 X165.78 Y144.29
G1 F7800 X144.29 Y165.78 E380.64915
G0 F12000 X144.66 Y165.97
G1 F7800 X165.97 Y144.66 E381.12182
G0 F12000 X166.17 Y145.03
G1 F7800 X145.03 Y166.17 E381.59069
G0 F12000 X145.39 Y166.37
G1 F7800 X166.37 Y145.39 E382.05576
G0 F12000 X166.56 Y145.76
G1 F7800 X145.76 Y166.56 E382.51705
G0 F12000 X146.13 Y166.76
G1 F7800 X166.76 Y146.13 E382.97453
G0 F12000 X166.96 Y146.50
G1 F7800 X146.50 Y166.96 E383.42823
G0 F12000 X146.93 Y167.09
G1 F7800 X167.09 Y146.93 E383.87537
G0 F12000 X167.22 Y147.36
G1 F7800 X147.36 Y167.22 E384.31581
G0 F12000 X147.79 Y167.35
G1 F7800 X167.35 Y147.79 E384.74957
G0 F12000 X167.48 Y148.23
G1 F7800 X148.22 Y167.49 E385.17662
G0 F12000 X148.66 Y167.62
G1 F7800 X167.62 Y148.66 E385.59699
G0 F12000 X167.75 Y149.09
G1 F7800 X149.09 Y167.75 E386.01068
G0 F12000 X149.54 Y167.87
G1 F7800 X167.86 Y149.54 E386.41704
G0 F12000 X167.91 Y150.05
G1 F7800 X150.05 Y167.91 E386.81310
G0 F12000 X150.57 Y167.97
G1 F7800 X167.96 Y150.57 E387.19890
G0 F12000 X168.01 Y151.08
G1 F7800 X151.08 Y168.01 E387.57440
G0 F12000 X151.59 Y168.06
G1 F7800 X168.06 Y151.59 E387.93962
G0 F12000 X168.12 Y152.11
G1 F7800 X152.11 Y168.12 E388.29460
G0 F12000 X152.65 Y168.14
G1 F7800 X168.14 Y152.65 E388.63808
G0 F12000 X168.08 Y153.28
G1 F7800 X153.27 Y168.08 E388.96633
G0 F12000 X153.90 Y168.02
G1 F7800 X168.02 Y153.90 E389.27937
G0 F12000 X167.96 Y154.53
G1 F7800 X154.53 Y167.96 E389.57719
G0 F12000 X155.15 Y167.89
G1 F7800 X167.89 Y155.15 E389.85976
G0 F12000 X167.77 Y155.84
G1 F7800 X155.84 Y167.77 E390.12419
G0 F12000 X156.65 Y167.52
G1 F7800 X167.52 Y156.65 E390.36522
G0 F12000 X167.28 Y157.46
G1 F7800 X157.46 Y167.28 E390.58284
G0 F12000 X158.27 Y167.03
G1 F7800 X167.03 Y158.27 E390.77709
G0 F12000 X166.49 Y159.38
G1 F7800 X159.38 Y166.49 E390.93477
G0 F12000 X160.59 Y165.84
G1 F7800 X165.84 Y160.59 E391.05116
G0 F12000 X164.23 Y162.76
G1 F7800 X162.76 Y164.23 E391.08380
G0 F12000 X139.22 Y160.69
G1 F7800 X160.69 Y139.22 E391.56010
G0 F12000 X160.33 Y139.02
G1 F7800 X139.02 Y160.33 E392.03261
G0 F12000 X138.82 Y159.96
G1 F7800 X159.96 Y138.82 E392.50133
G0 F12000 X159.59 Y138.62
G1 F7800 X138.63 Y159.59 E392.96626
G0 F12000 X138.43 Y159.22
G1 F7800 X159.22 Y138.43 E393.42740
G0 F12000 X158.86 Y138.23
G1 F7800 X138.23 Y158.86 E393.88474
G0 F12000 X138.04 Y158.49
G1 F7800 X158.49 Y138.03 E394.33828
G0 F12000 X158.06 Y137.90
G1 F7800 X137.90 Y158.06 E394.78519
G0 F12000 X137.77 Y157.62
G1 F7800 X157.62 Y137.77 E395.22539
G0 F12000 X157.19 Y137.64
G1 F7800 X137.64 Y157.19 E395.65891
G0 F12000 X137.51 Y156.76
G1 F7800 X156.76 Y137.51 E396.08574
G0 F12000 X156.33 Y137.38
G1 F7800 X137.38 Y156.32 E396.50588
G0 F12000 X137.25 Y155.89
G1 F7800 X155.89 Y137.25 E396.91932
G0 F12000 X155.44 Y137.13
G1 F7800 X137.13 Y155.44 E397.32530
G0 F12000 X137.08 Y154.93
G1 F7800 X154.93 Y137.08 E397.72101
G0 F12000 X154.41 Y137.03
G1 F7800 X137.03 Y154.41 E398.10642
G0 F12000 X136.98 Y153.90
G1 F7800 X153.90 Y136.98 E398.48158
G0 F12000 X153.39 Y136.93
G1 F7800 X136.93 Y153.38 E398.84645
G0 F12000 X136.88 Y152.87
G1 F7800 X152.87 Y136.88 E399.20104
G0 F12000 X152.33 Y136.86
G1 F7800 X136.86 Y152.33 E399.54399
G0 F12000 X136.92 Y151.70
G1 F7800 X151.70 Y136.92 E399.87171
G0 F12000 X151.08 Y136.98
G1 F7800 X136.98 Y151.08 E400.18419
G0 F12000 X137.04 Y150.45
G1 F7800 X150.45 Y137.04 E400.48146
G0 F12000 X149.83 Y137.11
G1 F7800 X137.11 Y149.82 E400.76350
G0 F12000 X137.24 Y149.13
G1 F7800 X149.13 Y137.24 E401.02710
G0 F12000 X148.32 Y137.49
G1 F7800 X137.49 Y148.32 E401.26727
G0 F12000 X137.73 Y147.51
G1 F7800 X147.51 Y137.73 E401.48402
G0 F12000 X146.70 Y137.98
G1 F7800 X137.98 Y146.70 E401.67739
G0 F12000 X138.53 Y145.58
G1 F7800 X145.58 Y138.53 E401.83356
G0 F12000 X144.37 Y139.18
G1 F7800 X139.18 Y144.37 E401.94851
G0 F12000 X140.85 Y142.13
G1 F7800 X142.13 Y140.85 E401.97673
;LAYER:6
G0 F12000 X141.33 Y141.33 Z0.90
;TYPE:WALL-INNER
G1 F7800 X143.64 Y139.43 E402.02366
G1 X143.72 Y139.37 E402.02533
G1 X146.46 Y137.91 E402.07386
G1 X149.32 Y137.04 E402.12077
G1 X149.42 Y137.01 E402.12246
G1 X152.50 Y136.70 E402.17097
G1 X155.58 Y137.01 E402.21953
G1 X158.44 Y137.87 E402.26636
G1 X158.54 Y137.91 E402.26805
G1 X161.28 Y139.37 E402.31662
G1 X163.59 Y141.26 E402.36351
G1 X163.67 Y141.33 E402.36517
G1 X165.57 Y143.64 E402.41210
G1 X165.63 Y143.72 E402.41377
G1 X167.09 Y146.46 E402.46230
G1 X167.96 Y149.32 E402.50921
G1 X167.99 Y149.42 E402.51090
G1 X168.30 Y152.50 E402.55941
G1 X167.99 Y155.58 E402.60797
G1 X167.13 Y158.44 E402.65480
G1 X167.09 Y158.54 E402.65649
G1 X165.63 Y161.28 E402.70506
G1 X163.74 Y163.59 E402.75195
G1 X163.67 Y163.67 E402.75361
G1 X161.36 Y165.57 E402.80054
G1 X161.28 Y165.63 E402.80221
G1 X158.54 Y167.09 E402.85074
G1 X155.68 Y167.96 E402.89765
G1 X155.58 Y167.99 E402.89934
G1 X152.50 Y168.30 E402.94785
G1 X149.42 Y167.99 E402.99641
G1 X146.56 Y167.13 E403.04329
G1 X146.46 Y167.09 E403.04493
G1 X143.72 Y165.63 E403.09350
G1 X141.41 Y163.74 E403.14042
G1 X141.33 Y163.67 E403.14205
G1 X139.43 Y161.36 E403.18898
G1 X139.37 Y161.28 E403.19065
G1 X137.91 Y158.54 E403.23919
G1 X137.04 Y155.68 E403.28609
G1 X137.01 Y155.58 E403.28779
G1 X136.70 Y152.50 E403.33630
G1 X137.01 Y149.42 E403.38485
G1 X137.87 Y146.56 E403.43168
G1 X137.91 Y146.46 E403.43337
G1 X139.37 Y143.72 E403.48194
G1 X141.26 Y141.41 E403.52883
G1 X141.33 Y141.33 E403.53049
G0 F12000 X141.05 Y141.05
G1 F7800 X143.50 Y139.03 E403.58027
G1 X146.30 Y137.53 E403.63006
G1 X149.20 Y136.66 E403.67758
G1 X149.34 Y136.61 E403.67989
G1 X152.50 Y136.30 E403.72964
G1 X155.66 Y136.61 E403.77943
G1 X158.56 Y137.49 E403.82690
G1 X158.70 Y137.54 E403.82924
G1 X161.50 Y139.03 E403.87901
G1 X163.95 Y141.05 E403.92879
G1 X165.97 Y143.50 E403.97857
G1 X167.47 Y146.30 E404.02836
G1 X168.34 Y149.20 E404.07587
G1 X168.39 Y149.34 E404.07819
G1 X168.70 Y152.50 E404.12794
G1 X168.39 Y155.66 E404.17773
G1 X167.51 Y158.56 E404.22520
G1 X167.46 Y158.70 E404.22754
G1 X165.97 Y161.50 E404.27731
G1 X163.95 Y163.95 E404.32709
G1 X161.50 Y165.97 E404.37687
G1 X158.70 Y167.47 E404.42666
G1 X155.80 Y168.34 E404.47417
G1 X155.66 Y168.39 E404.47648
G1 X152.50 Y168.70 E404.52624
G1 X149.34 Y168.39 E404.57602
G1 X146.44 Y167.51 E404.62349
G1 X146.30 Y167.46 E404.62584
G1 X143.50 Y165.97 E404.67561
G1 X141.05 Y163.95 E404.72539
G1 X139.03 Y161.50 E404.77516
G1 X137.53 Y158.70 E404.82495
G1 X136.66 Y155.80 E404.87247
G1 X136.61 Y155.66 E404.87478
G1 X136.30 Y152.50 E404.92453
G1 X136.61 Y149.34 E404.97432
G1 X137.49 Y146.44 E405.02179
G1 X137.54 Y146.30 E405.02414
G1 X139.03 Y143.50 E405.07391
G1 X141.05 Y141.05 E405.12368
G0 F12000 X140.76 Y140.76
;TYPE:WALL-OUTER
G1 F7800 X143.28 Y138.70 E405.17473
G1 X146.15 Y137.16 E405.22573
G1 X149.26 Y136.22 E405.27673
G1 X152.50 Y135.90 E405.32777
G1 X155.74 Y136.22 E405.37880
G1 X158.85 Y137.16 E405.42980
G1 X161.72 Y138.70 E405.48080
G1 X164.24 Y140.76 E405.53185
G1 X166.30 Y143.28 E405.58290
G1 X167.84 Y146.15 E405.63389
G1 X168.78 Y149.26 E405.68490
G1 X169.10 Y152.50 E405.73593
G1 X168.78 Y155.74 E405.78696
G1 X167.84 Y158.85 E405.83797
G1 X166.30 Y161.72 E405.88897
G1 X164.24 Y164.24 E405.94001
G1 X161.72 Y166.30 E405.99106
G1 X158.85 Y167.84 E406.04206
G1 X155.74 Y168.78 E406.09307
G1 X152.50 Y169.10 E406.14410
G1 X149.26 Y168.78 E406.19513
G1 X146.15 Y167.84 E406.24613
G1 X143.28 Y166.30 E406.29713
G1 X140.76 Y164.24 E406.34818
G1 X138.70 Y161.72 E406.39923
G1 X137.16 Y158.85 E406.45022
G1 X136.22 Y155.74 E406.50123
G1 X135.90 Y152.50 E406.55226
G1 X136.22 Y149.26 E406.60329
G1 X137.16 Y146.15 E406.65430
G1 X138.70 Y143.28 E406.70530
G1 X140.76 Y140.76 E406.75634
G0 F12000 X141.30 Y141.58
;TYPE:FILL
G1 F7800 X163.41 Y163.70 E407.24673
G0 F12000 X163.70 Y163.42
G1 F7800 X141.58 Y141.30 E407.73712
G0 F12000 X141.89 Y141.05
G1 F7800 X163.95 Y163.11 E408.22624
G0 F12000 X164.21 Y162.80
G1 F7800 X142.20 Y140.79 E408.71413
G0 F12000 X142.51 Y140.54
G1 F7800 X164.46 Y162.49 E409.20079
G0 F12000 X164.71 Y162.18
G1 F7800 X142.82 Y140.28 E409.68620
G0 F12000 X143.13 Y140.03
G1 F7800 X164.97 Y161.87 E410.17037
G0 F12000 X165.22 Y161.56
G1 F7800 X143.44 Y139.78 E410.65331
G0 F12000 X143.75 Y139.52
G1 F7800 X165.48 Y161.25 E411.13500
G0 F12000 X165.68 Y160.89
G1 F7800 X144.11 Y139.32 E411.61329
G0 F12000 X144.48 Y139.12
G1 F7800 X165.88 Y160.52 E412.08778
G0 F12000 X166.08 Y160.15
G1 F7800 X144.85 Y138.92 E412.55849
G0 F12000 X145.22 Y138.73
G1 F7800 X166.27 Y159.78 E413.02541
G0 F12000 X166.47 Y159.42
G1 F7800 X145.58 Y138.53 E413.48852
G0 F12000 X145.95 Y138.33
G1 F7800 X166.66 Y159.05 E413.94784
G0 F12000 X166.86 Y158.68
G1 F7800 X146.32 Y138.14 E414.40337
G0 F12000 X146.72 Y137.97
G1 F7800 X167.03 Y158.28 E414.85375
G0 F12000 X167.16 Y157.85
G1 F7800 X147.15 Y137.84 E415.29744
G0 F12000 X147.58 Y137.71
G1 F7800 X167.29 Y157.42 E415.73443
G0 F12000 X167.42 Y156.98
G1 F7800 X148.02 Y137.58 E416.16474
G0 F12000 X148.45 Y137.45
G1 F7800 X167.55 Y156.55 E416.58837
G0 F12000 X167.68 Y156.12
G1 F7800 X148.88 Y137.31 E417.00529
G0 F12000 X149.31 Y137.18
G1 F7800 X167.82 Y155.69 E417.41554
G0 F12000 X167.89 Y155.19
G1 F7800 X149.80 Y137.11 E417.81659
G0 F12000 X150.32 Y137.06
G1 F7800 X167.94 Y154.68 E418.20736
G0 F12000 X167.99 Y154.17
G1 F7800 X150.83 Y137.01 E418.58784
G0 F12000 X151.35 Y136.96
G1 F7800 X168.04 Y153.65 E418.95804
G0 F12000 X168.09 Y153.14
G1 F7800 X151.86 Y136.91 E419.31797
G0 F12000 X152.37 Y136.86
G1 F7800 X168.14 Y152.62 E419.66762
G0 F12000 X168.11 Y152.03
G1 F7800 X152.97 Y136.89 E420.00325
G0 F12000 X153.60 Y136.95
G1 F7800 X168.05 Y151.40 E420.32363
G0 F12000 X167.99 Y150.78
G1 F7800 X154.22 Y137.01 E420.62880
G0 F12000 X154.85 Y137.07
G1 F7800 X167.92 Y150.15 E420.91873
G0 F12000 X167.86 Y149.52
G1 F7800 X155.47 Y137.14 E421.19342
G0 F12000 X156.26 Y137.36
G1 F7800 X167.64 Y148.74 E421.44575
G0 F12000 X167.39 Y147.93
G1 F7800 X157.07 Y137.60 E421.67468
G0 F12000 X157.88 Y137.85
G1 F7800 X167.15 Y147.12 E421.88021
G0 F12000 X166.80 Y146.21
G1 F7800 X158.79 Y138.20 E422.05781
G0 F12000 X160.01 Y138.85
G1 F7800 X166.15 Y144.99 E422.19411
G0 F12000 X165.47 Y143.75
G1 F7800 X161.25 Y139.53 E422.28764
G0 F12000 X141.05 Y141.89
G1 F7800 X163.10 Y163.95 E422.77677
G0 F12000 X162.79 Y164.21
G1 F7800 X140.79 Y142.20 E423.26465
G0 F12000 X140.54 Y142.51
G1 F7800 X162.48 Y164.46 E423.75130
G0 F12000 X162.17 Y164.71
G1 F7800 X140.28 Y142.82 E424.23672
G0 F12000 X140.03 Y143.13
G1 F7800 X161.86 Y164.97 E424.72090
G0 F12000 X161.55 Y165.22
G1 F7800 X139.78 Y143.44 E425.20384
G0 F12000 X139.52 Y143.75
G1 F7800 X161.24 Y165.48 E425.68551
G0 F12000 X160.88 Y165.68
