;-- START GCODE --
;Sliced for Type A Machines Series 1
;Sliced at: Fri 17-04-2015 03:27:39
;Basic settings: Layer height: 0.2 Walls: 0.8 Fill: 12
;Print Speed: 120 Support: 0
;Retraction Speed: 40 Retraction Distance: 1.2
;Print time: #P_TIME#
;Filament used: #F_AMNT#m #F_WGHT#g
;Filament cost: #F_COST#
M106 S255	 ;start with the fan on
G21        ;metric values
G90        ;absolute positioning
M106 S255    ;start with the fan on
G28     ;move to endstops
G29		;allows for auto-levelling
G1 X150 Y5  Z15.0 F12000 ;center and move the platform down 15mm
M109 S220 ;Heat To temp
G92 E0                  ;zero the extruded length
G1 F200 E30              ;extrude 30mm of feed stock
G92 E0                  ;zero the extruded length again
G1 X175 Y25  Z0 F12000 ;remove bugger
G1 X220 F12000 ;remove bugger
G1 X150 Y150  Z15 F12000 ;recenter and begin
G1 F12000

;Layer count: 171
;LAYER:0
M106 S255
G0 F12000 X134.70 Y134.70 Z0.25
;TYPE:SKIRT
G1 F2700 X170.30 Y134.70 E1.48008
G1 X170.30 Y170.30 E2.96015
G1 X134.70 Y170.30 E4.44023
G1 X134.70 Y134.70 E5.92030
G0 F12000 X135.10 Y135.10
G1 F2700 X169.90 Y135.10 E7.36712
G1 X169.90 Y169.90 E8.81394
G1 X135.10 Y169.90 E10.26075
G1 X135.10 Y135.10 E11.70757
G0 F12000 X135.50 Y135.50
G1 F2700 X169.50 Y135.50 E13.12112
G1 X169.50 Y169.50 E14.53468
G1 X135.50 Y169.50 E15.94823
G1 X135.50 Y135.50 E17.36179
G0 F12000 X135.90 Y135.90
G1 F2700 X169.10 Y135.90 E18.74209
G1 X169.10 Y169.10 E20.12238
G1 X135.90 Y169.10 E21.50268
G1 X135.90 Y135.90 E22.88297
G0 F12000 X136.30 Y136.30
G1 F2700 X168.70 Y136.30 E24.23001
G1 X168.70 Y168.70 E25.57704
G1 X136.30 Y168.70 E26.92408
G1 X136.30 Y136.30 E28.27111
G0 F12000 X136.70 Y136.70
G1 F2700 X168.30 Y136.70 E29.58489
G1 X168.30 Y168.30 E30.89867
G1 X136.70 Y168.30 E32.21244
G1 X136.70 Y136.70 E33.52622
G0 F12000 X137.10 Y137.10
G1 F2700 X167.90 Y137.10 E34.80673
G1 X167.90 Y167.90 E36.08725
G1 X137.10 Y167.90 E37.36776
G1 X137.10 Y137.10 E38.64828
G0 F12000 X137.50 Y137.50
G1 F2700 X167.50 Y137.50 E39.89553
G1 X167.50 Y167.50 E41.14279
G1 X137.50 Y167.50 E42.39004
G1 X137.50 Y137.50 E43.63730
G0 F12000 X137.90 Y137.90
G1 F2700 X167.10 Y137.90 E44.85129
G1 X167.10 Y167.10 E46.06529
G1 X137.90 Y167.10 E47.27928
G1 X137.90 Y137.90 E48.49328
G0 F12000 X138.30 Y138.30
G1 F2700 X166.70 Y138.30 E49.67401
G1 X166.70 Y166.70 E50.85475
G1 X138.30 Y166.70 E52.03548
G1 X138.30 Y138.30 E53.21622
G0 F12000 X138.70 Y138.70
G1 F2700 X166.30 Y138.70 E54.36369
G1 X166.30 Y166.30 E55.51117
G1 X138.70 Y166.30 E56.65864
G1 X138.70 Y138.70 E57.80611
G0 F12000 X139.10 Y139.10
G1 F2700 X165.90 Y139.10 E58.92033
G1 X165.90 Y165.90 E60.03454
G1 X139.10 Y165.90 E61.14876
G1 X139.10 Y139.10 E62.26297
G0 F12000 X139.50 Y139.50
G1 F2700 X165.50 Y139.50 E63.34393
G1 X165.50 Y165.50 E64.42488
G1 X139.50 Y165.50 E65.50584
G1 X139.50 Y139.50 E66.58679
G0 F12000 X139.90 Y139.90
G1 F2700 X165.10 Y139.90 E67.63448
G1 X165.10 Y165.10 E68.68218
G1 X139.90 Y165.10 E69.72987
G1 X139.90 Y139.90 E70.77757
G0 F12000 X140.30 Y140.30
G1 F2700 X164.70 Y140.30 E71.79200
G1 X164.70 Y164.70 E72.80644
G1 X140.30 Y164.70 E73.82087
G1 X140.30 Y140.30 E74.83530
G0 F12000 X140.70 Y140.70
G1 F2700 X164.30 Y140.70 E75.81648
G1 X164.30 Y164.30 E76.79765
G1 X140.70 Y164.30 E77.77883
G1 X140.70 Y140.70 E78.76000
G0 F12000 X141.10 Y141.10
G1 F2700 X163.90 Y141.10 E79.70791
G1 X163.90 Y163.90 E80.65583
G1 X141.10 Y163.90 E81.60374
G1 X141.10 Y141.10 E82.55166
G0 F12000 X141.50 Y141.50
G1 F2700 X163.50 Y141.50 E83.46631
G1 X163.50 Y163.50 E84.38096
G1 X141.50 Y163.50 E85.29562
G1 X141.50 Y141.50 E86.21027
G0 F12000 X141.90 Y141.90
G1 F2700 X163.10 Y141.90 E87.09166
G1 X163.10 Y163.10 E87.97306
G1 X141.90 Y163.10 E88.85445
G1 X141.90 Y141.90 E89.73584
G0 F12000 X142.30 Y142.30
G1 F2700 X162.70 Y142.30 E90.58398
G1 X162.70 Y162.70 E91.43211
G1 X142.30 Y162.70 E92.28024
G1 X142.30 Y142.30 E93.12838
G0 F12000 X143.10 Y143.10
;TYPE:WALL-INNER
G1 F2700 X161.90 Y143.10 E93.90999
G1 X161.90 Y161.90 E94.69160
G1 X143.10 Y161.90 E95.47322
G1 X143.10 Y143.10 E96.25483
G0 F12000 X142.70 Y142.70
;TYPE:WALL-OUTER
G1 F2700 X162.30 Y142.70 E97.06970
G1 X162.30 Y162.30 E97.88458
G1 X142.70 Y162.30 E98.69945
G1 X142.70 Y142.70 E99.51432
G0 F12000 X143.24 Y143.52
;TYPE:FILL
G1 F2700 X161.48 Y161.76 E100.58659
G0 F12000 X161.76 Y161.48
G1 F2700 X143.52 Y143.24 E101.65886
G0 F12000 X144.09 Y143.24
G1 F2700 X161.76 Y160.91 E102.69784
G0 F12000 X161.76 Y160.34
G1 F2700 X144.65 Y143.24 E103.70355
G0 F12000 X145.22 Y143.24
G1 F2700 X161.76 Y159.78 E104.67601
G0 F12000 X161.76 Y159.21
G1 F2700 X145.78 Y143.24 E105.61522
G0 F12000 X146.35 Y143.24
G1 F2700 X161.76 Y158.65 E106.52115
G0 F12000 X161.76 Y158.08
G1 F2700 X146.92 Y143.24 E107.39383
G0 F12000 X147.48 Y143.24
G1 F2700 X161.76 Y157.52 E108.23327
G0 F12000 X161.76 Y156.95
G1 F2700 X148.05 Y143.24 E109.03942
G0 F12000 X148.61 Y143.24
G1 F2700 X161.76 Y156.38 E109.81230
G0 F12000 X161.76 Y155.82
G1 F2700 X149.18 Y143.24 E110.55195
G0 F12000 X149.75 Y143.24
G1 F2700 X161.76 Y155.25 E111.25833
G0 F12000 X161.76 Y154.69
G1 F2700 X150.31 Y143.24 E111.93143
G0 F12000 X150.88 Y143.24
G1 F2700 X161.76 Y154.12 E112.57131
G0 F12000 X161.76 Y153.56
G1 F2700 X151.44 Y143.24 E113.17791
G0 F12000 X152.01 Y143.24
G1 F2700 X161.76 Y152.99 E113.75123
G0 F12000 X161.76 Y152.43
G1 F2700 X152.57 Y143.24 E114.29133
G0 F12000 X153.14 Y143.24
G1 F2700 X161.76 Y151.86 E114.79815
G0 F12000 X161.76 Y151.29
G1 F2700 X153.71 Y143.24 E115.27170
G0 F12000 X154.27 Y143.24
G1 F2700 X161.76 Y150.73 E115.71202
G0 F12000 X161.76 Y150.16
G1 F2700 X154.84 Y143.24 E116.11907
G0 F12000 X155.40 Y143.24
G1 F2700 X161.76 Y149.60 E116.49283
G0 F12000 X161.76 Y149.03
G1 F2700 X155.97 Y143.24 E116.83335
G0 F12000 X156.53 Y143.24
G1 F2700 X161.76 Y148.47 E117.14062
G0 F12000 X161.76 Y147.90
G1 F2700 X157.10 Y143.24 E117.41461
G0 F12000 X157.66 Y143.24
G1 F2700 X161.76 Y147.33 E117.65532
G0 F12000 X161.76 Y146.77
G1 F2700 X158.23 Y143.24 E117.86281
G0 F12000 X158.80 Y143.24
G1 F2700 X161.76 Y146.20 E118.03703
G0 F12000 X161.76 Y145.64
G1 F2700 X159.36 Y143.24 E118.17796
G0 F12000 X159.93 Y143.24
G1 F2700 X161.76 Y145.07 E118.28568
G0 F12000 X161.76 Y144.51
G1 F2700 X160.49 Y143.24 E118.36011
G0 F12000 X161.06 Y143.24
G1 F2700 X161.76 Y143.94 E118.40127
G0 F12000 X161.76 Y143.38
G1 F2700 X161.62 Y143.24 E118.40921
G0 F12000 X143.24 Y144.09
G1 F2700 X160.91 Y161.76 E119.44822
G0 F12000 X160.34 Y161.76
G1 F2700 X143.24 Y144.65 E120.45396
G0 F12000 X143.24 Y145.22
G1 F2700 X159.78 Y161.76 E121.42645
G0 F12000 X159.21 Y161.76
G1 F2700 X143.24 Y145.78 E122.36569
G0 F12000 X143.24 Y146.35
G1 F2700 X158.65 Y161.76 E123.27165
G0 F12000 X158.08 Y161.76
G1 F2700 X143.24 Y146.92 E124.14436
G0 F12000 X143.24 Y147.48
G1 F2700 X157.52 Y161.76 E124.98382
G0 F12000 X156.95 Y161.76
G1 F2700 X143.24 Y148.05 E125.79001
G0 F12000 X143.24 Y148.61
G1 F2700 X156.38 Y161.76 E126.56294
G0 F12000 X155.82 Y161.76
G1 F2700 X143.24 Y149.18 E127.30260
G0 F12000 X143.24 Y149.74
G1 F2700 X155.25 Y161.76 E128.00900
G0 F12000 X154.69 Y161.76
G1 F2700 X143.24 Y150.31 E128.68216
G0 F12000 X143.24 Y150.88
G1 F2700 X154.12 Y161.76 E129.32204
G0 F12000 X153.56 Y161.76
G1 F2700 X143.24 Y151.44 E129.92867
G0 F12000 X143.24 Y152.01
G1 F2700 X152.99 Y161.76 E130.50205
G0 F12000 X152.43 Y161.76
G1 F2700 X143.24 Y152.57 E131.04215
G0 F12000 X143.24 Y153.14
G1 F2700 X151.86 Y161.76 E131.54900
G0 F12000 X151.29 Y161.76
G1 F2700 X143.24 Y153.70 E132.02258
G0 F12000 X143.24 Y154.27
G1 F2700 X150.73 Y161.76 E132.46290
G0 F12000 X150.16 Y161.76
G1 F2700 X143.24 Y154.84 E132.86998
G0 F12000 X143.24 Y155.40
G1 F2700 X149.60 Y161.76 E133.24377
G0 F12000 X149.03 Y161.76
G1 F2700 X143.24 Y155.97 E133.58432
G0 F12000 X143.24 Y156.53
G1 F2700 X148.47 Y161.76 E133.89162
G0 F12000 X147.90 Y161.76
G1 F2700 X143.24 Y157.10 E134.16564
G0 F12000 X143.24 Y157.66
G1 F2700 X147.33 Y161.76 E134.40641
G0 F12000 X146.77 Y161.76
G1 F2700 X143.24 Y158.23 E134.61393
G0 F12000 X143.24 Y158.79
G1 F2700 X146.20 Y161.76 E134.78817
G0 F12000 X145.64 Y161.76
G1 F2700 X143.24 Y159.36 E134.92917
G0 F12000 X143.24 Y159.93
G1 F2700 X145.07 Y161.76 E135.03688
G0 F12000 X144.50 Y161.76
G1 F2700 X143.24 Y160.49 E135.11135
G0 F12000 X143.24 Y161.06
G1 F2700 X143.94 Y161.76 E135.15256
G0 F12000 X143.37 Y161.76
G1 F2700 X143.24 Y161.62 E135.16050
;LAYER:1
G0 F12000 X143.10 Y161.90 Z0.45
;TYPE:WALL-INNER
G1 F3780 X143.10 Y143.10 E135.78579
G1 X161.90 Y143.10 E136.41108
G1 X161.90 Y161.90 E137.03637
G1 X143.10 Y161.90 E137.66166
G0 F12000 X142.70 Y162.30
;TYPE:WALL-OUTER
G1 F3780 X142.70 Y142.70 E138.31356
G1 X162.30 Y142.70 E138.96546
G1 X162.30 Y162.30 E139.61736
G1 X142.70 Y162.30 E140.26926
G0 F12000 X143.43 Y161.76
;TYPE:FILL
G1 F3780 X161.76 Y143.43 E141.13151
G0 F12000 X161.38 Y143.24
G1 F3780 X143.24 Y161.38 E141.98486
G0 F12000 X143.24 Y160.81
G1 F3780 X160.82 Y143.24 E142.81158
G0 F12000 X160.25 Y143.24
G1 F3780 X143.24 Y160.25 E143.61170
G0 F12000 X143.24 Y159.68
G1 F3780 X159.69 Y143.24 E144.38522
G0 F12000 X159.12 Y143.24
G1 F3780 X143.24 Y159.12 E145.13212
G0 F12000 X143.24 Y158.55
G1 F3780 X158.55 Y143.24 E145.85242
G0 F12000 X157.99 Y143.24
G1 F3780 X143.24 Y157.99 E146.54612
G0 F12000 X143.24 Y157.42
G1 F3780 X157.42 Y143.24 E147.21320
G0 F12000 X156.86 Y143.24
G1 F3780 X143.24 Y156.86 E147.85368
G0 F12000 X143.24 Y156.29
G1 F3780 X156.29 Y143.24 E148.46756
G0 F12000 X155.72 Y143.24
G1 F3780 X143.24 Y155.72 E149.05482
G0 F12000 X143.24 Y155.16
G1 F3780 X155.16 Y143.24 E149.61547
G0 F12000 X154.59 Y143.24
G1 F3780 X143.24 Y154.59 E150.14953
G0 F12000 X143.24 Y154.03
G1 F3780 X154.03 Y143.24 E150.65696
G0 F12000 X153.46 Y143.24
G1 F3780 X143.24 Y153.46 E151.13778
G0 F12000 X143.24 Y152.90
G1 F3780 X152.90 Y143.24 E151.59199
G0 F12000 X152.33 Y143.24
G1 F3780 X143.24 Y152.33 E152.01960
G0 F12000 X143.24 Y151.76
G1 F3780 X151.76 Y143.24 E152.42059
G0 F12000 X151.20 Y143.24
G1 F3780 X143.24 Y151.20 E152.79498
G0 F12000 X143.24 Y150.63
G1 F3780 X150.63 Y143.24 E153.14277
G0 F12000 X150.07 Y143.24
G1 F3780 X143.24 Y150.07 E153.46394
G0 F12000 X143.24 Y149.50
G1 F3780 X149.50 Y143.24 E153.75851
G0 F12000 X148.94 Y143.24
G1 F3780 X143.24 Y148.94 E154.02648
G0 F12000 X143.24 Y148.37
G1 F3780 X148.37 Y143.24 E154.26782
G0 F12000 X147.81 Y143.24
G1 F3780 X143.24 Y147.81 E154.48257
G0 F12000 X143.24 Y147.24
G1 F3780 X147.24 Y143.24 E154.67072
G0 F12000 X146.67 Y143.24
G1 F3780 X143.24 Y146.67 E154.83224
G0 F12000 X143.24 Y146.11
G1 F3780 X146.11 Y143.24 E154.96717
G0 F12000 X145.54 Y143.24
G1 F3780 X143.24 Y145.54 E155.07550
G0 F12000 X143.24 Y144.98
G1 F3780 X144.98 Y143.24 E155.15720
G0 F12000 X144.41 Y143.24
G1 F3780 X143.24 Y144.41 E155.21230
G0 F12000 X143.24 Y143.84
G1 F3780 X143.85 Y143.24 E155.24081
G0 F12000 X161.76 Y143.99
G1 F3780 X143.99 Y161.76 E156.07647
G0 F12000 X144.56 Y161.76
G1 F3780 X161.76 Y144.56 E156.88552
G0 F12000 X161.76 Y145.12
G1 F3780 X145.12 Y161.76 E157.66796
G0 F12000 X145.69 Y161.76
G1 F3780 X161.76 Y145.69 E158.42380
G0 F12000 X161.76 Y146.26
G1 F3780 X146.25 Y161.76 E159.15303
G0 F12000 X146.82 Y161.76
G1 F3780 X161.76 Y146.82 E159.85565
G0 F12000 X161.76 Y147.39
G1 F3780 X147.39 Y161.76 E160.53166
G0 F12000 X147.95 Y161.76
G1 F3780 X161.76 Y147.95 E161.18108
G0 F12000 X161.76 Y148.52
G1 F3780 X148.52 Y161.76 E161.80387
G0 F12000 X149.08 Y161.76
G1 F3780 X161.76 Y149.08 E162.40006
G0 F12000 X161.76 Y149.65
G1 F3780 X149.65 Y161.76 E162.96966
G0 F12000 X150.22 Y161.76
G1 F3780 X161.76 Y150.22 E163.51263
G0 F12000 X161.76 Y150.78
G1 F3780 X150.78 Y161.76 E164.02898
G0 F12000 X151.35 Y161.76
G1 F3780 X161.76 Y151.35 E164.51873
G0 F12000 X161.76 Y151.91
G1 F3780 X151.91 Y161.76 E164.98187
G0 F12000 X152.48 Y161.76
G1 F3780 X161.76 Y152.48 E165.41840
G0 F12000 X161.76 Y153.04
G1 F3780 X153.04 Y161.76 E165.82833
G0 F12000 X153.61 Y161.76
G1 F3780 X161.76 Y153.61 E166.21165
G0 F12000 X161.76 Y154.18
G1 F3780 X154.18 Y161.76 E166.56836
G0 F12000 X154.74 Y161.76
G1 F3780 X161.76 Y154.74 E166.89846
G0 F12000 X161.76 Y155.31
G1 F3780 X155.31 Y161.76 E167.20197
G0 F12000 X155.87 Y161.76
G1 F3780 X161.76 Y155.87 E167.47885
G0 F12000 X161.76 Y156.44
G1 F3780 X156.44 Y161.76 E167.72914
G0 F12000 X157.00 Y161.76
G1 F3780 X161.76 Y157.00 E167.95282
G0 F12000 X161.76 Y157.57
G1 F3780 X157.57 Y161.76 E168.14988
G0 F12000 X158.13 Y161.76
G1 F3780 X161.76 Y158.13 E168.32034
G0 F12000 X161.76 Y158.70
G1 F3780 X158.70 Y161.76 E168.46421
G0 F12000 X159.27 Y161.76
G1 F3780 X161.76 Y159.27 E168.58145
G0 F12000 X161.76 Y159.83
G1 F3780 X159.83 Y161.76 E168.67206
G0 F12000 X160.40 Y161.76
G1 F3780 X161.76 Y160.40 E168.73610
G0 F12000 X161.76 Y160.96
G1 F3780 X160.96 Y161.76 E168.77352
G0 F12000 X161.53 Y161.76
G1 F3780 X161.76 Y161.53 E168.78432
;LAYER:2
G0 F12000 X161.90 Y161.90 Z0.65
;TYPE:WALL-INNER
G1 F4920 X143.10 Y161.90 E169.40961
G1 X143.10 Y143.10 E170.03490
G1 X161.90 Y143.10 E170.66019
G1 X161.90 Y161.90 E171.28548
G0 F12000 X162.30 Y162.30
;TYPE:WALL-OUTER
G1 F4920 X142.70 Y162.30 E171.93738
G1 X142.70 Y142.70 E172.58928
G1 X162.30 Y142.70 E173.24117
G1 X162.30 Y162.30 E173.89307
G0 F12000 X161.76 Y161.48
;TYPE:FILL
G1 F4920 X143.52 Y143.24 E174.75089
G0 F12000 X143.24 Y143.52
G1 F4920 X161.48 Y161.76 E175.60870
G0 F12000 X160.91 Y161.76
G1 F4920 X143.24 Y144.09 E176.43991
G0 F12000 X143.24 Y144.65
G1 F4920 X160.34 Y161.76 E177.24450
G0 F12000 X159.78 Y161.76
G1 F4920 X143.24 Y145.22 E178.02249
G0 F12000 X143.24 Y145.78
G1 F4920 X159.21 Y161.76 E178.77388
G0 F12000 X158.65 Y161.76
G1 F4920 X143.24 Y146.35 E179.49865
G0 F12000 X143.24 Y146.92
G1 F4920 X158.08 Y161.76 E180.19682
G0 F12000 X157.52 Y161.76
G1 F4920 X143.24 Y147.48 E180.86839
G0 F12000 X143.24 Y148.05
G1 F4920 X156.95 Y161.76 E181.51334
G0 F12000 X156.38 Y161.76
G1 F4920 X143.24 Y148.61 E182.13169
G0 F12000 X143.24 Y149.18
G1 F4920 X155.82 Y161.76 E182.72341
G0 F12000 X155.25 Y161.76
G1 F4920 X143.24 Y149.74 E183.28854
G0 F12000 X143.24 Y150.31
G1 F4920 X154.69 Y161.76 E183.82706
G0 F12000 X154.12 Y161.76
G1 F4920 X143.24 Y150.88 E184.33896
G0 F12000 X143.24 Y151.44
G1 F4920 X153.56 Y161.76 E184.82427
G0 F12000 X152.99 Y161.76
G1 F4920 X143.24 Y152.01 E185.28297
G0 F12000 X143.24 Y152.57
G1 F4920 X152.43 Y161.76 E185.71505
G0 F12000 X151.86 Y161.76
G1 F4920 X143.24 Y153.14 E186.12054
G0 F12000 X143.24 Y153.70
G1 F4920 X151.29 Y161.76 E186.49939
G0 F12000 X150.73 Y161.76
G1 F4920 X143.24 Y154.27 E186.85165
G0 F12000 X143.24 Y154.84
G1 F4920 X150.16 Y161.76 E187.17731
G0 F12000 X149.60 Y161.76
G1 F4920 X143.24 Y155.40 E187.47635
G0 F12000 X143.24 Y155.97
G1 F4920 X149.03 Y161.76 E187.74879
G0 F12000 X148.47 Y161.76
G1 F4920 X143.24 Y156.53 E187.99463
G0 F12000 X143.24 Y157.10
G1 F4920 X147.90 Y161.76 E188.21384
G0 F12000 X147.33 Y161.76
G1 F4920 X143.24 Y157.66 E188.40646
G0 F12000 X143.24 Y158.23
G1 F4920 X146.77 Y161.76 E188.57248
G0 F12000 X146.20 Y161.76
G1 F4920 X143.24 Y158.79 E188.71187
G0 F12000 X143.24 Y159.36
G1 F4920 X145.64 Y161.76 E188.82467
G0 F12000 X145.07 Y161.76
G1 F4920 X143.24 Y159.93 E188.91084
G0 F12000 X143.24 Y160.49
G1 F4920 X144.50 Y161.76 E188.97041
G0 F12000 X143.94 Y161.76
G1 F4920 X143.24 Y161.06 E189.00338
G0 F12000 X143.24 Y161.62
G1 F4920 X143.37 Y161.76 E189.00973
G0 F12000 X161.76 Y160.91
G1 F4920 X144.09 Y143.24 E189.84092
G0 F12000 X144.65 Y143.24
G1 F4920 X161.76 Y160.34 E190.64549
G0 F12000 X161.76 Y159.78
G1 F4920 X145.22 Y143.24 E191.42346
G0 F12000 X145.78 Y143.24
G1 F4920 X161.76 Y159.21 E192.17482
G0 F12000 X161.76 Y158.65
G1 F4920 X146.35 Y143.24 E192.89957
G0 F12000 X146.92 Y143.24
G1 F4920 X161.76 Y158.08 E193.59772
G0 F12000 X161.76 Y157.52
G1 F4920 X147.48 Y143.24 E194.26926
G0 F12000 X148.05 Y143.24
G1 F4920 X161.76 Y156.95 E194.91418
G0 F12000 X161.76 Y156.38
G1 F4920 X148.61 Y143.24 E195.53249
G0 F12000 X149.18 Y143.24
G1 F4920 X161.76 Y155.82 E196.12421
G0 F12000 X161.76 Y155.25
G1 F4920 X149.75 Y143.24 E196.68931
G0 F12000 X150.31 Y143.24
G1 F4920 X161.76 Y154.69 E197.22779
G0 F12000 X161.76 Y154.12
G1 F4920 X150.88 Y143.24 E197.73969
G0 F12000 X151.44 Y143.24
G1 F4920 X161.76 Y153.56 E198.22497
G0 F12000 X161.76 Y152.99
G1 F4920 X152.01 Y143.24 E198.68363
G0 F12000 X152.57 Y143.24
G1 F4920 X161.76 Y152.43 E199.11571
G0 F12000 X161.76 Y151.86
G1 F4920 X153.14 Y143.24 E199.52117
G0 F12000 X153.71 Y143.24
G1 F4920 X161.76 Y151.29 E199.90001
G0 F12000 X161.76 Y150.73
G1 F4920 X154.27 Y143.24 E200.25227
G0 F12000 X154.84 Y143.24
G1 F4920 X161.76 Y150.16 E200.57790
G0 F12000 X161.76 Y149.60
G1 F4920 X155.40 Y143.24 E200.87692
G0 F12000 X155.97 Y143.24
G1 F4920 X161.76 Y149.03 E201.14933
G0 F12000 X161.76 Y148.47
G1 F4920 X156.53 Y143.24 E201.39515
G0 F12000 X157.10 Y143.24
G1 F4920 X161.76 Y147.90 E201.61434
G0 F12000 X161.76 Y147.33
G1 F4920 X157.66 Y143.24 E201.80691
G0 F12000 X158.23 Y143.24
G1 F4920 X161.76 Y146.77 E201.97290
G0 F12000 X161.76 Y146.20
G1 F4920 X158.80 Y143.24 E202.11227
G0 F12000 X159.36 Y143.24
G1 F4920 X161.76 Y145.64 E202.22502
G0 F12000 X161.76 Y145.07
G1 F4920 X159.93 Y143.24 E202.31119
G0 F12000 X160.49 Y143.24
G1 F4920 X161.76 Y144.51 E202.37074
G0 F12000 X161.76 Y143.94
G1 F4920 X161.06 Y143.24 E202.40366
G0 F12000 X161.62 Y143.24
G1 F4920 X161.76 Y143.38 E202.41001
;LAYER:3
G0 F12000 X161.90 Y143.10 Z0.85
;TYPE:WALL-INNER
G1 F6060 X161.90 Y161.90 E203.03530
G1 X143.10 Y161.90 E203.66060
G1 X143.10 Y143.10 E204.28589
G1 X161.90 Y143.10 E204.91118
G0 F12000 X162.30 Y142.70
;TYPE:WALL-OUTER
G1 F6060 X162.30 Y162.30 E205.56307
G1 X142.70 Y162.30 E206.21497
G1 X142.70 Y142.70 E206.86687
G1 X162.30 Y142.70 E207.51877
G0 F12000 X161.76 Y143.43
;TYPE:FILL
G1 F6060 X143.43 Y161.76 E208.38103
G0 F12000 X143.24 Y161.38
G1 F6060 X161.38 Y143.24 E209.23437
G0 F12000 X160.82 Y143.24
G1 F6060 X143.24 Y160.81 E210.06109
G0 F12000 X143.24 Y160.25
G1 F6060 X160.25 Y143.24 E210.86122
G0 F12000 X159.69 Y143.24
G1 F6060 X143.24 Y159.68 E211.63474
G0 F12000 X143.24 Y159.12
G1 F6060 X159.12 Y143.24 E212.38164
G0 F12000 X158.55 Y143.24
G1 F6060 X143.24 Y158.55 E213.10194
G0 F12000 X143.24 Y157.99
G1 F6060 X157.99 Y143.24 E213.79564
G0 F12000 X157.42 Y143.24
G1 F6060 X143.24 Y157.42 E214.46272
G0 F12000 X143.24 Y156.86
G1 F6060 X156.86 Y143.24 E215.10319
G0 F12000 X156.29 Y143.24
G1 F6060 X143.24 Y156.29 E215.71707
G0 F12000 X143.24 Y155.72
G1 F6060 X155.72 Y143.24 E216.30433
G0 F12000 X155.16 Y143.24
G1 F6060 X143.24 Y155.16 E216.86499
G0 F12000 X143.24 Y154.59
G1 F6060 X154.59 Y143.24 E217.39904
G0 F12000 X154.03 Y143.24
G1 F6060 X143.24 Y154.03 E217.90648
G0 F12000 X143.24 Y153.46
G1 F6060 X153.46 Y143.24 E218.38729
G0 F12000 X152.90 Y143.24
G1 F6060 X143.24 Y152.90 E218.84150
G0 F12000 X143.24 Y152.33
G1 F6060 X152.33 Y143.24 E219.26911
G0 F12000 X151.76 Y143.24
G1 F6060 X143.24 Y151.76 E219.67010
G0 F12000 X143.24 Y151.20
G1 F6060 X151.20 Y143.24 E220.04449
G0 F12000 X150.63 Y143.24
G1 F6060 X143.24 Y150.63 E220.39229
G0 F12000 X143.24 Y150.07
G1 F6060 X150.07 Y143.24 E220.71345
G0 F12000 X149.50 Y143.24
G1 F6060 X143.24 Y149.50 E221.00802
G0 F12000 X143.24 Y148.94
G1 F6060 X148.94 Y143.24 E221.27599
G0 F12000 X148.37 Y143.24
G1 F6060 X143.24 Y148.37 E221.51734
G0 F12000 X143.24 Y147.81
G1 F6060 X147.81 Y143.24 E221.73209
G0 F12000 X147.24 Y143.24
G1 F6060 X143.24 Y147.24 E221.92023
G0 F12000 X143.24 Y146.67
G1 F6060 X146.67 Y143.24 E222.08176
G0 F12000 X146.11 Y143.24
G1 F6060 X143.24 Y146.11 E222.21668
G0 F12000 X143.24 Y145.54
G1 F6060 X145.54 Y143.24 E222.32501
G0 F12000 X144.98 Y143.24
G1 F6060 X143.24 Y144.98 E222.40671
G0 F12000 X143.24 Y144.41
G1 F6060 X144.41 Y143.24 E222.46182
G0 F12000 X143.85 Y143.24
G1 F6060 X143.24 Y143.84 E222.49032
G0 F12000 X143.99 Y161.76
G1 F6060 X161.76 Y143.99 E223.32598
G0 F12000 X161.76 Y144.56
G1 F6060 X144.56 Y161.76 E224.13504
G0 F12000 X145.12 Y161.76
G1 F6060 X161.76 Y145.12 E224.91747
G0 F12000 X161.76 Y145.69
G1 F6060 X145.69 Y161.76 E225.67331
G0 F12000 X146.25 Y161.76
G1 F6060 X161.76 Y146.26 E226.40255
G0 F12000 X161.76 Y146.82
G1 F6060 X146.82 Y161.76 E227.10516
G0 F12000 X147.39 Y161.76
G1 F6060 X161.76 Y147.39 E227.78118
G0 F12000 X161.76 Y147.95
G1 F6060 X147.95 Y161.76 E228.43059
G0 F12000 X148.52 Y161.76
G1 F6060 X161.76 Y148.52 E229.05338
G0 F12000 X161.76 Y149.08
G1 F6060 X149.08 Y161.76 E229.64958
G0 F12000 X149.65 Y161.76
G1 F6060 X161.76 Y149.65 E230.21917
G0 F12000 X161.76 Y150.22
G1 F6060 X150.22 Y161.76 E230.76214
G0 F12000 X150.78 Y161.76
G1 F6060 X161.76 Y150.78 E231.27849
G0 F12000 X161.76 Y151.35
G1 F6060 X151.35 Y161.76 E231.76824
G0 F12000 X151.91 Y161.76
G1 F6060 X161.76 Y151.91 E232.23139
G0 F12000 X161.76 Y152.48
G1 F6060 X152.48 Y161.76 E232.66791
G0 F12000 X153.04 Y161.76
G1 F6060 X161.76 Y153.04 E233.07784
G0 F12000 X161.76 Y153.61
G1 F6060 X153.61 Y161.76 E233.46117
G0 F12000 X154.18 Y161.76
G1 F6060 X161.76 Y154.18 E233.81787
G0 F12000 X161.76 Y154.74
G1 F6060 X154.74 Y161.76 E234.14798
G0 F12000 X155.31 Y161.76
G1 F6060 X161.76 Y155.31 E234.45148
G0 F12000 X161.76 Y155.87
G1 F6060 X155.87 Y161.76 E234.72837
G0 F12000 X156.44 Y161.76
G1 F6060 X161.76 Y156.44 E234.97865
G0 F12000 X161.76 Y157.00
G1 F6060 X157.00 Y161.76 E235.20233
G0 F12000 X157.57 Y161.76
G1 F6060 X161.76 Y157.57 E235.39940
G0 F12000 X161.76 Y158.13
G1 F6060 X158.13 Y161.76 E235.56986
G0 F12000 X158.70 Y161.76
G1 F6060 X161.76 Y158.70 E235.71372
G0 F12000 X161.76 Y159.27
G1 F6060 X159.27 Y161.76 E235.83096
G0 F12000 X159.83 Y161.76
G1 F6060 X161.76 Y159.83 E235.92158
G0 F12000 X161.76 Y160.40
G1 F6060 X160.40 Y161.76 E235.98562
G0 F12000 X160.96 Y161.76
G1 F6060 X161.76 Y160.96 E236.02304
G0 F12000 X161.76 Y161.53
G1 F6060 X161.53 Y161.76 E236.03383
;LAYER:4
G0 F12000 X161.90 Y161.90 Z1.05
;TYPE:WALL-INNER
G1 F7200 X143.10 Y161.90 E236.65912
G1 X143.10 Y143.10 E237.28441
G1 X161.90 Y143.10 E237.90970
G1 X161.90 Y161.90 E238.53499
G0 F12000 X162.30 Y162.30
;TYPE:WALL-OUTER
G1 F7200 X142.70 Y162.30 E239.18689
G1 X142.70 Y142.70 E239.83879
G1 X162.30 Y142.70 E240.49069
G1 X162.30 Y162.30 E241.14259
G0 F12000 X161.76 Y161.48
;TYPE:FILL
G1 F7200 X143.52 Y143.24 E242.00040
G0 F12000 X143.24 Y143.52
G1 F7200 X161.48 Y161.76 E242.85821
G0 F12000 X160.91 Y161.76
G1 F7200 X143.24 Y144.09 E243.68943
G0 F12000 X143.24 Y144.65
G1 F7200 X160.34 Y161.76 E244.49402
G0 F12000 X159.78 Y161.76
G1 F7200 X143.24 Y145.22 E245.27201
G0 F12000 X143.24 Y145.78
G1 F7200 X159.21 Y161.76 E246.02340
G0 F12000 X158.65 Y161.76
G1 F7200 X143.24 Y146.35 E246.74817
G0 F12000 X143.24 Y146.92
G1 F7200 X158.08 Y161.76 E247.44634
G0 F12000 X157.52 Y161.76
G1 F7200 X143.24 Y147.48 E248.11791
G0 F12000 X143.24 Y148.05
G1 F7200 X156.95 Y161.76 E248.76285
G0 F12000 X156.38 Y161.76
G1 F7200 X143.24 Y148.61 E249.38120
G0 F12000 X143.24 Y149.18
G1 F7200 X155.82 Y161.76 E249.97292
G0 F12000 X155.25 Y161.76
G1 F7200 X143.24 Y149.74 E250.53805
G0 F12000 X143.24 Y150.31
G1 F7200 X154.69 Y161.76 E251.07658
G0 F12000 X154.12 Y161.76
G1 F7200 X143.24 Y150.88 E251.58848
G0 F12000 X143.24 Y151.44
G1 F7200 X153.56 Y161.76 E252.07378
G0 F12000 X152.99 Y161.76
G1 F7200 X143.24 Y152.01 E252.53249
G0 F12000 X143.24 Y152.57
G1 F7200 X152.43 Y161.76 E252.96457
G0 F12000 X151.86 Y161.76
G1 F7200 X143.24 Y153.14 E253.37005
G0 F12000 X143.24 Y153.70
G1 F7200 X151.29 Y161.76 E253.74891
G0 F12000 X150.73 Y161.76
G1 F7200 X143.24 Y154.27 E254.10117
G0 F12000 X143.24 Y154.84
G1 F7200 X150.16 Y161.76 E254.42683
G0 F12000 X149.60 Y161.76
G1 F7200 X143.24 Y155.40 E254.72587
G0 F12000 X143.24 Y155.97
G1 F7200 X149.03 Y161.76 E254.99830
G0 F12000 X148.47 Y161.76
G1 F7200 X143.24 Y156.53 E255.24414
G0 F12000 X143.24 Y157.10
G1 F7200 X147.90 Y161.76 E255.46336
G0 F12000 X147.33 Y161.76
G1 F7200 X143.24 Y157.66 E255.65597
G0 F12000 X143.24 Y158.23
G1 F7200 X146.77 Y161.76 E255.82199
G0 F12000 X146.20 Y161.76
G1 F7200 X143.24 Y158.79 E255.96139
G0 F12000 X143.24 Y159.36
G1 F7200 X145.64 Y161.76 E256.07418
G0 F12000 X145.07 Y161.76
G1 F7200 X143.24 Y159.93 E256.16035
G0 F12000 X143.24 Y160.49
G1 F7200 X144.50 Y161.76 E256.21992
G0 F12000 X143.94 Y161.76
G1 F7200 X143.24 Y161.06 E256.25290
G0 F12000 X143.24 Y161.62
G1 F7200 X143.37 Y161.76 E256.25925
G0 F12000 X161.76 Y160.91
G1 F7200 X144.09 Y143.24 E257.09044
G0 F12000 X144.65 Y143.24
G1 F7200 X161.76 Y160.34 E257.89500
G0 F12000 X161.76 Y159.78
G1 F7200 X145.22 Y143.24 E258.67297
G0 F12000 X145.78 Y143.24
G1 F7200 X161.76 Y159.21 E259.42434
G0 F12000 X161.76 Y158.65
G1 F7200 X146.35 Y143.24 E260.14908
G0 F12000 X146.92 Y143.24
G1 F7200 X161.76 Y158.08 E260.84723
G0 F12000 X161.76 Y157.52
G1 F7200 X147.48 Y143.24 E261.51878
G0 F12000 X148.05 Y143.24
G1 F7200 X161.76 Y156.95 E262.16370
G0 F12000 X161.76 Y156.38
G1 F7200 X148.61 Y143.24 E262.78200
G0 F12000 X149.18 Y143.24
G1 F7200 X161.76 Y155.82 E263.37372
G0 F12000 X161.76 Y155.25
G1 F7200 X149.75 Y143.24 E263.93883
G0 F12000 X150.31 Y143.24
G1 F7200 X161.76 Y154.69 E264.47730
G0 F12000 X161.76 Y154.12
G1 F7200 X150.88 Y143.24 E264.98921
G0 F12000 X151.44 Y143.24
G1 F7200 X161.76 Y153.56 E265.47449
G0 F12000 X161.76 Y152.99
G1 F7200 X152.01 Y143.24 E265.93314
G0 F12000 X152.57 Y143.24
G1 F7200 X161.76 Y152.43 E266.36523
G0 F12000 X161.76 Y151.86
G1 F7200 X153.14 Y143.24 E266.77068
G0 F12000 X153.71 Y143.24
G1 F7200 X161.76 Y151.29 E267.14952
G0 F12000 X161.76 Y150.73
G1 F7200 X154.27 Y143.24 E267.50178
G0 F12000 X154.84 Y143.24
G1 F7200 X161.76 Y150.16 E267.82742
G0 F12000 X161.76 Y149.60
G1 F7200 X155.40 Y143.24 E268.12643
G0 F12000 X155.97 Y143.24
G1 F7200 X161.76 Y149.03 E268.39884
G0 F12000 X161.76 Y148.47
G1 F7200 X156.53 Y143.24 E268.64466
G0 F12000 X157.10 Y143.24
G1 F7200 X161.76 Y147.90 E268.86385
G0 F12000 X161.76 Y147.33
G1 F7200 X157.66 Y143.24 E269.05642
G0 F12000 X158.23 Y143.24
G1 F7200 X161.76 Y146.77 E269.22241
G0 F12000 X161.76 Y146.20
G1 F7200 X158.80 Y143.24 E269.36178
G0 F12000 X159.36 Y143.24
G1 F7200 X161.76 Y145.64 E269.47453
G0 F12000 X161.76 Y145.07
G1 F7200 X159.93 Y143.24 E269.56070
G0 F12000 X160.49 Y143.24
G1 F7200 X161.76 Y144.51 E269.62025
G0 F12000 X161.76 Y143.94
G1 F7200 X161.06 Y143.24 E269.65318
G0 F12000 X161.62 Y143.24
G1 F7200 X161.76 Y143.38 E269.65953
;LAYER:5
G0 F12000 X161.90 Y143.10 Z1.25
;TYPE:WALL-INNER
G1 F5280 X161.90 Y161.90 E270.28482
G1 X143.10 Y161.90 E270.91011
G1 X143.10 Y143.10 E271.53540
G1 X161.90 Y143.10 E272.16069
G0 F12000 X162.30 Y142.70
;TYPE:WALL-OUTER
G1 F5280 X162.30 Y162.30 E272.81259
G1 X142.70 Y162.30 E273.46449
G1 X142.70 Y142.70 E274.11639
G1 X162.30 Y142.70 E274.76828
G0 F12000 X162.00 Y142.91
G0 X161.76 Y144.62
;TYPE:FILL
G1 F5280 X144.62 Y161.76 E275.57433
G0 F12000 X147.62 Y161.76
G1 F5280 X143.24 Y157.38 E275.78031
G0 F12000 X143.24 Y153.72
G1 F5280 X153.72 Y143.24 E276.27304
G0 F12000 X157.38 Y143.24
G1 F5280 X161.76 Y147.62 E276.47902
G0 F12000 X161.76 Y154.05
G1 F5280 X154.05 Y161.76 E276.84165
G0 F12000 X157.04 Y161.76
G1 F5280 X143.24 Y147.95 E277.49106
G0 F12000 X143.24 Y144.29
G1 F5280 X144.29 Y143.24 E277.54036
G0 F12000 X147.95 Y143.24
G1 F5280 X161.76 Y157.05 E278.18975
;LAYER:6
G0 F12000 X161.90 Y161.90 Z1.45
;TYPE:WALL-INNER
G1 F5460 X143.10 Y161.90 E278.81504
G1 X143.10 Y143.10 E279.44033
G1 X161.90 Y143.10 E280.06562
G1 X161.90 Y161.90 E280.69091
G0 F12000 X162.30 Y162.30
;TYPE:WALL-OUTER
G1 F5460 X142.70 Y162.30 E281.34281
G1 X142.70 Y142.70 E281.99471
G1 X162.30 Y142.70 E282.64661
G1 X162.30 Y162.30 E283.29851
G0 F12000 X162.00 Y162.09
G0 X161.76 Y157.05
;TYPE:FILL
G1 F5460 X147.95 Y143.24 E283.94790
G0 F12000 X144.29 Y143.24
G1 F5460 X143.24 Y144.29 E283.99719
G0 F12000 X143.24 Y147.95
G1 F5460 X157.04 Y161.76 E284.64661
G0 F12000 X154.05 Y161.76
G1 F5460 X161.76 Y154.05 E285.00924
G0 F12000 X161.76 Y147.62
G1 F5460 X157.38 Y143.24 E285.21522
G0 F12000 X153.72 Y143.24
G1 F5460 X143.24 Y153.72 E285.70795
G0 F12000 X143.24 Y157.38
G1 F5460 X147.62 Y161.76 E285.91393
G0 F12000 X144.62 Y161.76
G1 F5460 X161.76 Y144.62 E286.71997
;LAYER:7
G0 F12000 X161.90 Y143.10 Z1.65
;TYPE:WALL-INNER
G1 F5400 X161.90 Y161.90 E287.34527
G1 X143.10 Y161.90 E287.97056
G1 X143.10 Y143.10 E288.59585
G1 X161.90 Y143.10 E289.22114
G0 F12000 X162.30 Y142.70
;TYPE:WALL-OUTER
G1 F5400 X162.30 Y162.30 E289.87304
G1 X142.70 Y162.30 E290.52493
G1 X142.70 Y142.70 E291.17683
G1 X162.30 Y142.70 E291.82873
G0 F12000 X162.00 Y142.91
G0 X161.76 Y144.62
;TYPE:FILL
G1 F5400 X144.62 Y161.76 E292.63478
G0 F12000 X147.62 Y161.76
G1 F5400 X143.24 Y157.38 E292.84075
G0 F12000 X143.24 Y153.72
G1 F5400 X153.72 Y143.24 E293.33349
G0 F12000 X157.38 Y143.24
G1 F5400 X161.76 Y147.62 E293.53946
G0 F12000 X161.76 Y154.05
G1 F5400 X154.05 Y161.76 E293.90210
G0 F12000 X157.04 Y161.76
G1 F5400 X143.24 Y147.95 E294.55151
G0 F12000 X143.24 Y144.29
G1 F5400 X144.29 Y143.24 E294.60081
G0 F12000 X147.95 Y143.24
G1 F5400 X161.76 Y157.05 E295.25020
;LAYER:8
G0 F12000 X161.90 Y161.90 Z1.85
;TYPE:WALL-INNER
G1 F5460 X143.10 Y161.90 E295.87549
G1 X143.10 Y143.10 E296.50078
G1 X161.90 Y143.10 E297.12607
G1 X161.90 Y161.90 E297.75136
G0 F12000 X162.30 Y162.30
;TYPE:WALL-OUTER
G1 F5460 X142.70 Y162.30 E298.40326
G1 X142.70 Y142.70 E299.05516
G1 X162.30 Y142.70 E299.70706
G1 X162.30 Y162.30 E300.35895
G0 F12000 X162.00 Y162.09
G0 X161.76 Y157.05
;TYPE:FILL
G1 F5460 X147.95 Y143.24 E301.00835
G0 F12000 X144.29 Y143.24
G1 F5460 X143.24 Y144.29 E301.05764
G0 F12000 X143.24 Y147.95
G1 F5460 X157.04 Y161.76 E301.70706
G0 F12000 X154.05 Y161.76
G1 F5460 X161.76 Y154.05 E302.06969
G0 F12000 X161.76 Y147.62
G1 F5460 X157.38 Y143.24 E302.27566
G0 F12000 X153.72 Y143.24
G1 F5460 X143.24 Y153.72 E302.76840
G0 F12000 X143.24 Y157.38
G1 F5460 X147.62 Y161.76 E302.97437
G0 F12000 X144.62 Y161.76
G1 F5460 X161.76 Y144.62 E303.78042
;LAYER:9
G0 F12000 X161.90 Y143.10 Z2.05
;TYPE:WALL-INNER
G1 F5400 X161.90 Y161.90 E304.40571
G1 X143.10 Y161.90 E305.03100
G1 X143.10 Y143.10 E305.65629
G1 X161.90 Y143.10 E306.28158
G0 F12000 X162.30 Y142.70
;TYPE:WALL-OUTER
G1 F5400 X162.30 Y162.30 E306.93348
G1 X142.70 Y162.30 E307.58538
G1 X142.70 Y142.70 E308.23728
G1 X162.30 Y142.70 E308.88918
G0 F12000 X162.00 Y142.91
G0 X161.76 Y144.62
;TYPE:FILL
G1 F5400 X144.62 Y161.76 E309.69523
G0 F12000 X147.62 Y161.76
G1 F5400 X143.24 Y157.38 E309.90120
G0 F12000 X143.24 Y153.72
G1 F5400 X153.72 Y143.24 E310.39394
G0 F12000 X157.38 Y143.24
G1 F5400 X161.76 Y147.62 E310.59991
G0 F12000 X161.76 Y154.05
G1 F5400 X154.05 Y161.76 E310.96254
G0 F12000 X157.04 Y161.76
G1 F5400 X143.24 Y147.95 E311.61196
G0 F12000 X143.24 Y144.29
G1 F5400 X144.29 Y143.24 E311.66125
G0 F12000 X147.95 Y143.24
G1 F5400 X161.76 Y157.05 E312.31064
;LAYER:10
G0 F12000 X161.90 Y161.90 Z2.25
;TYPE:WALL-INNER
G1 F5460 X143.10 Y161.90 E312.93594
G1 X143.10 Y143.10 E313.56123
G1 X161.90 Y143.10 E314.18652
G1 X161.90 Y161.90 E314.81181
G0 F12000 X162.30 Y162.30
;TYPE:WALL-OUTER
G1 F5460 X142.70 Y162.30 E315.46371
G1 X142.70 Y142.70 E316.11560
G1 X162.30 Y142.70 E316.76750
G1 X162.30 Y162.30 E317.41940
G0 F12000 X162.00 Y162.09
G0 X161.76 Y157.05
;TYPE:FILL
G1 F5460 X147.95 Y143.24 E318.06879
G0 F12000 X144.29 Y143.24
G1 F5460 X143.24 Y144.29 E318.11809
G0 F12000 X143.24 Y147.95
G1 F5460 X157.04 Y161.76 E318.76750
G0 F12000 X154.05 Y161.76
G1 F5460 X161.76 Y154.05 E319.13013
G0 F12000 X161.76 Y147.62
G1 F5460 X157.38 Y143.24 E319.33611
G0 F12000 X153.72 Y143.24
G1 F5460 X143.24 Y153.72 E319.82884
G0 F12000 X143.24 Y157.38
G1 F5460 X147.62 Y161.76 E320.03482
G0 F12000 X144.62 Y161.76
G1 F5460 X161.76 Y144.62 E320.84087
;LAYER:11
G0 F12000 X161.90 Y143.10 Z2.45
;TYPE:WALL-INNER
G1 F5400 X161.90 Y161.90 E321.46616
G1 X143.10 Y161.90 E322.09145
G1 X143.10 Y143.10 E322.71674
G1 X161.90 Y143.10 E323.34203
G0 F12000 X162.30 Y142.70
;TYPE:WALL-OUTER
G1 F5400 X162.30 Y162.30 E323.99393
G1 X142.70 Y162.30 E324.64583
G1 X142.70 Y142.70 E325.29773
G1 X162.30 Y142.70 E325.94962
G0 F12000 X162.00 Y142.91
G0 X161.76 Y144.62
;TYPE:FILL
G1 F5400 X144.62 Y161.76 E326.75567
G0 F12000 X147.62 Y161.76
G1 F5400 X143.24 Y157.38 E326.96165
G0 F12000 X143.24 Y153.72
G1 F5400 X153.72 Y143.24 E327.45438
G0 F12000 X157.38 Y143.24
G1 F5400 X161.76 Y147.62 E327.66036
G0 F12000 X161.76 Y154.05
G1 F5400 X154.05 Y161.76 E328.02299
G0 F12000 X157.04 Y161.76
G1 F5400 X143.24 Y147.95 E328.67240
G0 F12000 X143.24 Y144.29
G1 F5400 X144.29 Y143.24 E328.72170
G0 F12000 X147.95 Y143.24
G1 F5400 X161.76 Y157.05 E329.37109
;LAYER:12
G0 F12000 X161.90 Y161.90 Z2.65
;TYPE:WALL-INNER
G1 F5460 X143.10 Y161.90 E329.99638
G1 X143.10 Y143.10 E330.62167
G1 X161.90 Y143.10 E331.24696
G1 X161.90 Y161.90 E331.87225
G0 F12000 X162.30 Y162.30
;TYPE:WALL-OUTER
G1 F5460 X142.70 Y162.30 E332.52415
G1 X142.70 Y142.70 E333.17605
G1 X162.30 Y142.70 E333.82795
G1 X162.30 Y162.30 E334.47985
G0 F12000 X162.00 Y162.09
G0 X161.76 Y157.05
;TYPE:FILL
G1 F5460 X147.95 Y143.24 E335.12924
G0 F12000 X144.29 Y143.24
G1 F5460 X143.24 Y144.29 E335.17853
G0 F12000 X143.24 Y147.95
G1 F5460 X157.04 Y161.76 E335.82795
G0 F12000 X154.05 Y161.76
G1 F5460 X161.76 Y154.05 E336.19058
G0 F12000 X161.76 Y147.62
G1 F5460 X157.38 Y143.24 E336.39656
G0 F12000 X153.72 Y143.24
G1 F5460 X143.24 Y153.72 E336.88929
G0 F12000 X143.24 Y157.38
G1 F5460 X147.62 Y161.76 E337.09527
G0 F12000 X144.62 Y161.76
G1 F5460 X161.76 Y144.62 E337.90131
;LAYER:13
G0 F12000 X161.90 Y143.10 Z2.85
;TYPE:WALL-INNER
G1 F5400 X161.90 Y161.90 E338.52661
G1 X143.10 Y161.90 E339.15190
G1 X143.10 Y143.10 E339.77719
G1 X161.90 Y143.10 E340.40248
G0 F12000 X162.30 Y142.70
;TYPE:WALL-OUTER
G1 F5400 X162.30 Y162.30 E341.05438
G1 X142.70 Y162.30 E341.70627
G1 X142.70 Y142.70 E342.35817
G1 X162.30 Y142.70 E343.01007
G0 F12000 X162.00 Y142.91
G0 X161.76 Y144.62
;TYPE:FILL
G1 F5400 X144.62 Y161.76 E343.81612
G0 F12000 X147.62 Y161.76
G1 F5400 X143.24 Y157.38 E344.02209
G0 F12000 X143.24 Y153.72
G1 F5400 X153.72 Y143.24 E344.51483
G0 F12000 X157.38 Y143.24
G1 F5400 X161.76 Y147.62 E344.72080
G0 F12000 X161.76 Y154.05
G1 F5400 X154.05 Y161.76 E345.08344
G0 F12000 X157.04 Y161.76
G1 F5400 X143.24 Y147.95 E345.73285
G0 F12000 X143.24 Y144.29
G1 F5400 X144.29 Y143.24 E345.78215
G0 F12000 X147.95 Y143.24
G1 F5400 X161.76 Y157.05 E346.43154
;LAYER:14
G0 F12000 X161.90 Y161.90 Z3.05
;TYPE:WALL-INNER
G1 F5460 X143.10 Y161.90 E347.05683
G1 X143.10 Y143.10 E347.68212
G1 X161.90 Y143.10 E348.30741
G1 X161.90 Y161.90 E348.93270
G0 F12000 X162.30 Y162.30
;TYPE:WALL-OUTER
G1 F5460 X142.70 Y162.30 E349.58460
G1 X142.70 Y142.70 E350.23650
G1 X162.30 Y142.70 E350.88840
G1 X162.30 Y162.30 E351.54029
G0 F12000 X162.00 Y162.09
G0 X161.76 Y157.05
;TYPE:FILL
G1 F5460 X147.95 Y143.24 E352.18969
G0 F12000 X144.29 Y143.24
G1 F5460 X143.24 Y144.29 E352.23898
G0 F12000 X143.24 Y147.95
G1 F5460 X157.04 Y161.76 E352.88840
G0 F12000 X154.05 Y161.76
G1 F5460 X161.76 Y154.05 E353.25103
G0 F12000 X161.76 Y147.62
G1 F5460 X157.38 Y143.24 E353.45700
G0 F12000 X153.72 Y143.24
G1 F5460 X143.24 Y153.72 E353.94974
G0 F12000 X143.24 Y157.38
G1 F5460 X147.62 Y161.76 E354.15571
G0 F12000 X144.62 Y161.76
G1 F5460 X161.76 Y144.62 E354.96176
;LAYER:15
G0 F12000 X161.90 Y143.10 Z3.25
;TYPE:WALL-INNER
G1 F5400 X161.90 Y161.90 E355.58705
G1 X143.10 Y161.90 E356.21234
G1 X143.10 Y143.10 E356.83763
G1 X161.90 Y143.10 E357.46292
G0 F12000 X162.30 Y142.70
;TYPE:WALL-OUTER
G1 F5400 X162.30 Y162.30 E358.11482
G1 X142.70 Y162.30 E358.76672
G1 X142.70 Y142.70 E359.41862
G1 X162.30 Y142.70 E360.07052
G0 F12000 X162.00 Y142.91
G0 X161.76 Y144.62
;TYPE:FILL
G1 F5400 X144.62 Y161.76 E360.87657
G0 F12000 X147.62 Y161.76
G1 F5400 X143.24 Y157.38 E361.08254
G0 F12000 X143.24 Y153.72
G1 F5400 X153.72 Y143.24 E361.57528
G0 F12000 X157.38 Y143.24
G1 F5400 X161.76 Y147.62 E361.78125
G0 F12000 X161.76 Y154.05
G1 F5400 X154.05 Y161.76 E362.14388
G0 F12000 X157.04 Y161.76
G1 F5400 X143.24 Y147.95 E362.79330
G0 F12000 X143.24 Y144.29
G1 F5400 X144.29 Y143.24 E362.84259
G0 F12000 X147.95 Y143.24
G1 F5400 X161.76 Y157.05 E363.49198
;LAYER:16
G0 F12000 X161.90 Y161.90 Z3.45
;TYPE:WALL-INNER
G1 F5460 X143.10 Y161.90 E364.11728
G1 X143.10 Y143.10 E364.74257
G1 X161.90 Y143.10 E365.36786
G1 X161.90 Y161.90 E365.99315
G0 F12000 X162.30 Y162.30
;TYPE:WALL-OUTER
G1 F5460 X142.70 Y162.30 E366.64505
G1 X142.70 Y142.70 E367.29694
G1 X162.30 Y142.70 E367.94884
G1 X162.30 Y162.30 E368.60074
G0 F12000 X162.00 Y162.09
G0 X161.76 Y157.05
;TYPE:FILL
G1 F5460 X147.95 Y143.24 E369.25013
G0 F12000 X144.29 Y143.24
G1 F5460 X143.24 Y144.29 E369.29943
G0 F12000 X143.24 Y147.95
G1 F5460 X157.04 Y161.76 E369.94884
G0 F12000 X154.05 Y161.76
G1 F5460 X161.76 Y154.05 E370.31147
G0 F12000 X161.76 Y147.62
G1 F5460 X157.38 Y143.24 E370.51745
G0 F12000 X153.72 Y143.24
G1 F5460 X143.24 Y153.72 E371.01018
G0 F12000 X143.24 Y157.38
G1 F5460 X147.62 Y161.76 E371.21616
G0 F12000 X144.62 Y161.76
G1 F5460 X161.76 Y144.62 E372.02221
;LAYER:17
G0 F12000 X161.90 Y143.10 Z3.65
;TYPE:WALL-INNER
G1 F5400 X161.90 Y161.90 E372.64750
G1 X143.10 Y161.90 E373.27279
G1 X143.10 Y143.10 E373.89808
G1 X161.90 Y143.10 E374.52337
G0 F12000 X162.30 Y142.70
;TYPE:WALL-OUTER
G1 F5400 X162.30 Y162.30 E375.17527
G1 X142.70 Y162.30 E375.82717
G1 X142.70 Y142.70 E376.47907
G1 X162.30 Y142.70 E377.13096
G0 F12000 X162.00 Y142.91
G0 X161.76 Y144.62
;TYPE:FILL
G1 F5400 X144.62 Y161.76 E377.93701
G0 F12000 X147.62 Y161.76
G1 F5400 X143.24 Y157.38 E378.14299
G0 F12000 X143.24 Y153.72
G1 F5400 X153.72 Y143.24 E378.63572
G0 F12000 X157.38 Y143.24
G1 F5400 X161.76 Y147.62 E378.84170
G0 F12000 X161.76 Y154.05
G1 F5400 X154.05 Y161.76 E379.20433
G0 F12000 X157.04 Y161.76
G1 F5400 X143.24 Y147.95 E379.85374
G0 F12000 X143.24 Y144.29
G1 F5400 X144.29 Y143.24 E379.90304
G0 F12000 X147.95 Y143.24
G1 F5400 X161.76 Y157.05 E380.55243
;LAYER:18
G0 F12000 X161.90 Y161.90 Z3.85
;TYPE:WALL-INNER
G1 F5460 X143.10 Y161.90 E381.17772
G1 X143.10 Y143.10 E381.80301
G1 X161.90 Y143.10 E382.42830
G1 X161.90 Y161.90 E383.05359
G0 F12000 X162.30 Y162.30
;TYPE:WALL-OUTER
G1 F5460 X142.70 Y162.30 E383.70549
G1 X142.70 Y142.70 E384.35739
G1 X162.30 Y142.70 E385.00929
G1 X162.30 Y162.30 E385.66119
G0 F12000 X162.00 Y162.09
G0 X161.76 Y157.05
;TYPE:FILL
G1 F5460 X147.95 Y143.24 E386.31058
G0 F12000 X144.29 Y143.24
G1 F5460 X143.24 Y144.29 E386.35987
G0 F12000 X143.24 Y147.95
G1 F5460 X157.04 Y161.76 E387.00929
G0 F12000 X154.05 Y161.76
G1 F5460 X161.76 Y154.05 E387.37192
G0 F12000 X161.76 Y147.62
G1 F5460 X157.38 Y143.24 E387.57790
G0 F12000 X153.72 Y143.24
G1 F5460 X143.24 Y153.72 E388.07063
G0 F12000 X143.24 Y157.38
G1 F5460 X147.62 Y161.76 E388.27661
G0 F12000 X144.62 Y161.76
G1 F5460 X161.76 Y144.62 E389.08265
;LAYER:19
G0 F12000 X161.90 Y143.10 Z4.05
;TYPE:WALL-INNER
G1 F5880 X161.90 Y161.90 E389.70795
G1 X143.10 Y161.90 E390.33324
G1 X143.10 Y143.10 E390.95853
G1 X161.90 Y143.10 E391.58382
G0 F12000 X162.30 Y142.70
;TYPE:WALL-OUTER
G1 F5880 X162.30 Y162.30 E392.23572
G1 X142.70 Y162.30 E392.88761
G1 X142.70 Y142.70 E393.53951
G1 X162.30 Y142.70 E394.19141
G0 F12000 X162.00 Y142.91
G0 X161.76 Y144.62
;TYPE:FILL
G1 F5880 X144.62 Y161.76 E394.99746
G0 F12000 X147.62 Y161.76
G1 F5880 X143.24 Y157.38 E395.20343
G0 F12000 X143.24 Y153.72
G1 F5880 X153.72 Y143.24 E395.69617
G0 F12000 X157.38 Y143.24
G1 F5880 X161.76 Y147.62 E395.90214
G0 F12000 X161.76 Y154.05
G1 F5880 X154.05 Y161.76 E396.26478
G0 F12000 X157.04 Y161.76
G1 F5880 X143.24 Y147.95 E396.91419
G0 F12000 X143.24 Y144.29
G1 F5880 X144.29 Y143.24 E396.96349
G0 F12000 X147.95 Y143.24
G1 F5880 X161.76 Y157.05 E397.61288
G0 F12000 X154.39 Y152.49
G1 F5880 X152.49 Y154.39 E397.70248
G0 F12000 X152.21 Y154.11
G1 F5880 X154.11 Y152.21 E397.79209
G0 F12000 X153.83 Y151.92
G1 F5880 X151.92 Y153.83 E397.88165
G0 F12000 X151.64 Y153.55
G1 F5880 X153.55 Y151.64 E397.97125
G0 F12000 X153.26 Y151.36
G1 F5880 X151.36 Y153.26 E398.06086
G0 F12000 X151.07 Y152.98
G1 F5880 X152.98 Y151.07 E398.15046
G0 F12000 X152.70 Y150.79
G1 F5880 X150.79 Y152.70 E398.24007
;LAYER:20
G0 F12000 X143.10 Y161.90 Z4.25
;TYPE:WALL-INNER
G1 F6540 X143.10 Y143.10 E398.86536
G1 X161.90 Y143.10 E399.49065
G1 X161.90 Y161.90 E400.11594
G1 X143.10 Y161.90 E400.74123
G0 F12000 X142.70 Y162.30
;TYPE:WALL-OUTER
G1 F6540 X142.70 Y142.70 E401.39313
G1 X162.30 Y142.70 E402.04503
G1 X162.30 Y162.30 E402.69693
G1 X142.70 Y162.30 E403.34883
G0 F12000 X142.91 Y162.00
G0 X144.62 Y161.76
;TYPE:FILL
G1 F6540 X152.19 Y154.20 E403.70457
G0 F12000 X152.20 Y154.75
G1 F6540 X150.25 Y152.80 E403.79622
G0 F12000 X150.25 Y152.22
G1 F6540 X152.78 Y154.75 E403.91520
G0 F12000 X153.20 Y154.62
G1 F6540 X150.39 Y151.80 E404.04761
G0 F12000 X150.53 Y151.38
G1 F6540 X153.63 Y154.48 E404.19337
G0 F12000 X153.98 Y154.26
G1 F6540 X150.73 Y151.02 E404.34596
G0 F12000 X151.02 Y150.74
G1 F6540 X154.26 Y153.98 E404.49855
G0 F12000 X154.47 Y153.62
G1 F6540 X151.37 Y150.52 E404.64434
G0 F12000 X151.80 Y150.38
G1 F6540 X154.61 Y153.20 E404.77675
G0 F12000 X154.75 Y152.77
G1 F6540 X152.22 Y150.24 E404.89575
G0 F12000 X152.79 Y150.25
G1 F6540 X154.74 Y152.20 E404.98743
G0 F12000 X154.19 Y152.19
G1 F6540 X161.76 Y144.62 E405.34329
G0 F12000 X161.76 Y147.62
G1 F6540 X157.38 Y143.24 E405.54926
G0 F12000 X153.72 Y143.24
G1 F6540 X143.24 Y153.72 E406.04200
G0 F12000 X143.24 Y157.38
G1 F6540 X147.62 Y161.76 E406.24797
G0 F12000 X154.05 Y161.76
G1 F6540 X161.76 Y154.05 E406.61060
G0 F12000 X161.76 Y157.05
G1 F6540 X147.95 Y143.24 E407.25999
G0 F12000 X144.29 Y143.24
G1 F6540 X143.24 Y144.29 E407.30929
G0 F12000 X143.24 Y147.95
G1 F6540 X157.04 Y161.76 E407.95870
G0 F12000 X151.37 Y154.48
G1 F6540 X150.54 Y153.65 E407.99751
G0 F12000 X153.63 Y150.52
G1 F6540 X154.46 Y151.35 E408.03627
;LAYER:21
G0 F12000 X161.90 Y143.10 Z4.45
;TYPE:WALL-INNER
G1 F6900 X161.90 Y161.90 E408.66156
G1 X143.10 Y161.90 E409.28685
G1 X143.10 Y143.10 E409.91214
G1 X161.90 Y143.10 E410.53743
G0 F12000 X162.30 Y142.70
;TYPE:WALL-OUTER
G1 F6900 X162.30 Y162.30 E411.18933
G1 X142.70 Y162.30 E411.84123
G1 X142.70 Y142.70 E412.49313
G1 X162.30 Y142.70 E413.14502
G0 F12000 X162.00 Y142.91
G0 X161.76 Y144.62
;TYPE:FILL
G1 F6900 X154.65 Y151.74 E413.47955
G0 F12000 X155.17 Y151.71
G1 F6900 X151.70 Y155.19 E413.64296
G0 F12000 X151.25 Y155.07
G1 F6900 X155.07 Y151.25 E413.82271
G0 F12000 X154.83 Y150.92
G1 F6900 X153.27 Y152.48 E413.89609
G0 F12000 X153.13 Y152.06
G1 F6900 X154.54 Y150.65 E413.96262
G0 F12000 X154.25 Y150.37
G1 F6900 X152.80 Y151.82 E414.03089
G0 F12000 X152.25 Y151.80
G1 F6900 X153.96 Y150.09 E414.11142
G0 F12000 X153.62 Y149.87
G1 F6900 X149.89 Y153.60 E414.28673
G0 F12000 X150.07 Y153.98
G1 F6900 X151.81 Y152.25 E414.36843
G0 F12000 X151.82 Y152.80
G1 F6900 X150.36 Y154.26 E414.43729
G0 F12000 X150.65 Y154.54
G1 F6900 X152.06 Y153.13 E414.50343
G0 F12000 X152.48 Y153.27
G1 F6900 X150.94 Y154.81 E414.57605
G0 F12000 X151.72 Y154.66
G1 F6900 X144.62 Y161.76 E414.90997
G0 F12000 X147.62 Y161.76
G1 F6900 X143.24 Y157.38 E415.11594
G0 F12000 X143.24 Y153.72
G1 F6900 X153.72 Y143.24 E415.60868
G0 F12000 X157.38 Y143.24
G1 F6900 X161.76 Y147.62 E415.81465
G0 F12000 X161.76 Y154.05
G1 F6900 X154.05 Y161.76 E416.17728
G0 F12000 X157.04 Y161.76
G1 F6900 X143.24 Y147.95 E416.82670
G0 F12000 X143.24 Y144.29
G1 F6900 X144.29 Y143.24 E416.87599
G0 F12000 X147.95 Y143.24
G1 F6900 X161.76 Y157.05 E417.52539
G0 F12000 X155.14 Y153.44
G1 F6900 X153.42 Y155.16 E417.60648
G0 F12000 X152.72 Y155.29
G1 F6900 X155.29 Y152.73 E417.72706
G0 F12000 X155.27 Y152.18
G1 F6900 X152.18 Y155.27 E417.87249
G0 F12000 X152.59 Y153.79
G1 F6900 X153.79 Y152.59 E417.92920
G0 F12000 X153.14 Y149.78
G1 F6900 X149.79 Y153.13 E418.08658
G0 F12000 X149.70 Y152.66
G1 F6900 X152.66 Y149.69 E418.22602
G0 F12000 X152.04 Y149.75
G1 F6900 X149.76 Y152.03 E418.33336
G0 F12000 X149.91 Y151.32
G1 F6900 X151.35 Y149.88 E418.40112
;LAYER:22
G0 F12000 X143.10 Y143.10 Z4.65
;TYPE:WALL-INNER
G1 F7020 X161.90 Y143.10 E419.02641
G1 X161.90 Y161.90 E419.65170
G1 X143.10 Y161.90 E420.27699
G1 X143.10 Y143.10 E420.90228
G0 F12000 X142.70 Y142.70
;TYPE:WALL-OUTER
G1 F7020 X162.30 Y142.70 E421.55418
G1 X162.30 Y162.30 E422.20608
G1 X142.70 Y162.30 E422.85798
G1 X142.70 Y142.70 E423.50988
G0 F12000 X143.00 Y142.91
G0 X143.24 Y144.29
;TYPE:FILL
G1 F7020 X144.29 Y143.24 E423.55917
G0 F12000 X147.95 Y143.24
G1 F7020 X161.76 Y157.05 E424.20856
G0 F12000 X161.76 Y154.05
G1 F7020 X154.05 Y161.76 E424.57119
G0 F12000 X157.04 Y161.76
G1 F7020 X143.24 Y147.95 E425.22061
G0 F12000 X143.24 Y153.72
G1 F7020 X153.72 Y143.24 E425.71334
G0 F12000 X157.38 Y143.24
G1 F7020 X161.76 Y147.62 E425.91932
G0 F12000 X161.76 Y144.62
G1 F7020 X154.95 Y151.43 E426.23955
G0 F12000 X155.38 Y151.14
G1 F7020 X153.90 Y149.66 E426.30944
G0 F12000 X153.07 Y149.40
G1 F7020 X155.59 Y151.91 E426.42760
G0 F12000 X155.69 Y152.58
G1 F7020 X152.42 Y149.31 E426.58160
G0 F12000 X151.94 Y149.40
G1 F7020 X155.59 Y153.05 E426.75350
G0 F12000 X155.50 Y153.52
G1 F7020 X151.46 Y149.48 E426.94327
G0 F12000 X151.08 Y149.67
G1 F7020 X152.58 Y151.17 E427.01392
G0 F12000 X152.08 Y151.23
G1 F7020 X150.71 Y149.87 E427.07796
G0 F12000 X150.38 Y150.09
G1 F7020 X151.74 Y151.45 E427.14193
G0 F12000 X151.45 Y151.73
G1 F7020 X150.10 Y150.38 E427.20529
G0 F12000 X149.88 Y150.73
G1 F7020 X151.24 Y152.09 E427.26926
G0 F12000 X151.17 Y152.59
G1 F7020 X149.66 Y151.07 E427.34038
G0 F12000 X149.50 Y151.48
G1 F7020 X153.54 Y155.52 E427.53017
G0 F12000 X153.92 Y155.33
G1 F7020 X152.42 Y153.83 E427.60077
G0 F12000 X152.92 Y153.77
G1 F7020 X154.28 Y155.13 E427.66479
G0 F12000 X154.62 Y154.91
G1 F7020 X153.26 Y153.54 E427.72878
G0 F12000 X153.55 Y153.27
G1 F7020 X154.90 Y154.62 E427.79214
G0 F12000 X155.12 Y154.27
G1 F7020 X153.76 Y152.91 E427.85609
G0 F12000 X153.83 Y152.41
G1 F7020 X155.34 Y153.93 E427.92723
G0 F12000 X154.29 Y152.09
G1 F7020 X152.08 Y154.30 E428.03100
G0 F12000 X151.44 Y154.94
G1 F7020 X144.62 Y161.76 E428.35183
G0 F12000 X147.62 Y161.76
G1 F7020 X143.24 Y157.38 E428.55781
G0 F12000 X149.61 Y153.86
G1 F7020 X151.10 Y155.34 E428.62771
G0 F12000 X151.92 Y155.60
G1 F7020 X149.41 Y153.09 E428.74586
G0 F12000 X149.31 Y152.42
G1 F7020 X152.58 Y155.69 E428.89986
G0 F12000 X153.06 Y155.60
G1 F7020 X149.40 Y151.95 E429.07176
;LAYER:23
G0 F12000 X143.10 Y143.10 Z4.85
;TYPE:WALL-INNER
G1 F7200 X161.90 Y143.10 E429.69705
G1 X161.90 Y161.90 E430.32234
G1 X143.10 Y161.90 E430.94763
G1 X143.10 Y143.10 E431.57292
G0 F12000 X142.70 Y142.70
;TYPE:WALL-OUTER
G1 F7200 X162.30 Y142.70 E432.22482
G1 X162.30 Y162.30 E432.87672
G1 X142.70 Y162.30 E433.52862
G1 X142.70 Y142.70 E434.18052
G0 F12000 X143.00 Y142.91
G0 X143.24 Y144.29
;TYPE:FILL
G1 F7200 X144.29 Y143.24 E434.22981
G0 F12000 X147.95 Y143.24
G1 F7200 X161.76 Y157.05 E434.87920
G0 F12000 X161.76 Y154.05
G1 F7200 X154.05 Y161.76 E435.24183
G0 F12000 X157.04 Y161.76
G1 F7200 X143.24 Y147.95 E435.89125
G0 F12000 X143.24 Y153.72
G1 F7200 X153.72 Y143.24 E436.38398
G0 F12000 X157.38 Y143.24
G1 F7200 X161.76 Y147.62 E436.58996
G0 F12000 X161.76 Y144.62
G1 F7200 X155.18 Y151.20 E436.89944
G0 F12000 X155.53 Y150.79
G1 F7200 X154.15 Y152.17 E436.96435
G0 F12000 X154.03 Y151.73
G1 F7200 X155.31 Y150.44 E437.02470
G0 F12000 X155.09 Y150.10
G1 F7200 X153.81 Y151.38 E437.08507
G0 F12000 X153.51 Y151.11
G1 F7200 X154.79 Y149.83 E437.14509
G0 F12000 X154.46 Y149.60
G1 F7200 X153.15 Y150.91 E437.20661
G0 F12000 X152.68 Y150.81
G1 F7200 X154.09 Y149.40 E437.27301
G0 F12000 X153.72 Y149.20
G1 F7200 X152.07 Y150.86 E437.35102
G0 F12000 X150.87 Y152.05
G1 F7200 X149.17 Y153.75 E437.43100
G0 F12000 X149.39 Y154.10
G1 F7200 X150.81 Y152.67 E437.49789
G0 F12000 X150.91 Y153.14
G1 F7200 X149.62 Y154.44 E437.55899
G0 F12000 X149.84 Y154.78
G1 F7200 X151.12 Y153.50 E437.61931
G0 F12000 X151.37 Y153.82
G1 F7200 X150.11 Y155.08 E437.67844
G0 F12000 X150.42 Y155.33
G1 F7200 X151.73 Y154.02 E437.73996
G0 F12000 X152.16 Y154.16
G1 F7200 X150.79 Y155.53 E437.80455
G0 F12000 X151.15 Y155.73
G1 F7200 X152.70 Y154.18 E437.87736
G0 F12000 X153.61 Y153.84
G1 F7200 X151.54 Y155.91 E437.97449
G0 F12000 X152.02 Y155.99
G1 F7200 X155.98 Y152.04 E438.16047
G0 F12000 X155.89 Y151.56
G1 F7200 X153.76 Y153.69 E438.26043
G0 F12000 X154.18 Y152.71
G1 F7200 X155.75 Y151.13 E438.33458
G0 F12000 X154.60 Y151.78
G1 F7200 X151.77 Y154.62 E438.46781
G0 F12000 X151.21 Y155.17
G1 F7200 X144.62 Y161.76 E438.77772
G0 F12000 X147.62 Y161.76
G1 F7200 X143.24 Y157.38 E438.98369
G0 F12000 X149.08 Y153.28
G1 F7200 X153.29 Y149.06 E439.18186
G0 F12000 X152.81 Y148.98
G1 F7200 X148.99 Y152.80 E439.36152
G0 F12000 X148.98 Y152.25
G1 F7200 X152.25 Y148.97 E439.51563
G0 F12000 X151.57 Y149.09
G1 F7200 X149.11 Y151.55 E439.63137
G0 F12000 X149.75 Y150.34
G1 F7200 X150.44 Y149.65 E439.66373
G0 F12000 X156.05 Y152.53
G1 F7200 X152.53 Y156.05 E439.82958
G0 F12000 X153.19 Y155.95
G1 F7200 X155.94 Y153.21 E439.95860
G0 F12000 X155.58 Y154.13
G1 F7200 X154.14 Y155.57 E440.02652
;LAYER:24
G0 F12000 X152.50 Y154.32 Z5.05
;TYPE:WALL-INNER
G1 F7200 X153.40 Y153.41 E440.06905
G1 X154.32 Y152.50 E440.11218
G1 X152.50 Y150.68 E440.19802
G1 X151.60 Y151.59 E440.24054
G1 X150.68 Y152.50 E440.28368
G1 X152.50 Y154.32 E440.36952
G0 F12000 X161.90 Y161.90
G1 F7200 X143.10 Y161.90 E440.99481
G1 X143.10 Y143.10 E441.62010
G1 X161.90 Y143.10 E442.24539
G1 X161.90 Y161.90 E442.87068
G0 F12000 X162.30 Y162.30
;TYPE:WALL-OUTER
G1 F7200 X142.70 Y162.30 E443.52258
G1 X142.70 Y142.70 E444.17448
G1 X162.30 Y142.70 E444.82638
G1 X162.30 Y162.30 E445.47828
G0 F12000 X162.00 Y162.09
G0 X153.34 Y153.34
G0 X153.12 Y153.13
G1 F7200 X153.76 Y152.50 E445.50803
G1 X152.50 Y151.24 E445.56715
G1 X151.88 Y151.87 E445.59643
G1 X151.24 Y152.50 E445.62619
G1 X152.50 Y153.76 E445.68531
G1 X153.12 Y153.13 E445.71459
G0 F12000 X154.07 Y153.79
;TYPE:FILL
G1 F7200 X155.31 Y155.03 E445.77311
G0 F12000 X155.01 Y155.30
G1 F7200 X153.81 Y154.09 E445.82995
G0 F12000 X153.44 Y154.29
G1 F7200 X154.72 Y155.56 E445.88983
G0 F12000 X154.38 Y155.80
G1 F7200 X153.07 Y154.49 E445.95138
G0 F12000 X152.59 Y154.57
G1 F7200 X154.01 Y155.99 E446.01791
G0 F12000 X153.59 Y156.14
G1 F7200 X151.95 Y154.49 E446.09529
G0 F12000 X152.18 Y154.20
G1 F7200 X151.52 Y154.86 E446.12649
G0 F12000 X150.98 Y155.40
G1 F7200 X144.62 Y161.76 E446.42546
G0 F12000 X147.62 Y161.76
G1 F7200 X143.24 Y157.38 E446.63144
G0 F12000 X143.24 Y153.72
G1 F7200 X153.72 Y143.24 E447.12417
G0 F12000 X157.38 Y143.24
G1 F7200 X161.76 Y147.62 E447.33015
G0 F12000 X161.76 Y144.62
G1 F7200 X155.39 Y150.99 E447.62956
G0 F12000 X154.88 Y151.51
G1 F7200 X154.20 Y152.18 E447.66133
G0 F12000 X154.47 Y151.93
G1 F7200 X156.13 Y153.59 E447.73946
G0 F12000 X155.98 Y154.00
G1 F7200 X154.56 Y152.58 E447.80597
G0 F12000 X154.47 Y153.06
G1 F7200 X155.79 Y154.38 E447.86813
G0 F12000 X155.57 Y154.73
G1 F7200 X154.29 Y153.44 E447.92853
G0 F12000 X156.21 Y153.10
G1 F7200 X151.88 Y148.77 E448.13206
G0 F12000 X151.41 Y148.86
G1 F7200 X153.05 Y150.51 E448.20941
G0 F12000 X152.40 Y150.42
G1 F7200 X150.99 Y149.01 E448.27594
G0 F12000 X150.61 Y149.20
G1 F7200 X151.92 Y150.51 E448.33754
G0 F12000 X151.56 Y150.71
G1 F7200 X150.28 Y149.43 E448.39741
G0 F12000 X149.98 Y149.70
G1 F7200 X151.19 Y150.91 E448.45428
G0 F12000 X150.93 Y151.21
G1 F7200 X149.68 Y149.97 E448.51280
G0 F12000 X149.42 Y150.27
G1 F7200 X150.71 Y151.56 E448.57319
G0 F12000 X150.53 Y151.94
G1 F7200 X149.20 Y150.62 E448.63537
G0 F12000 X149.02 Y151.00
G1 F7200 X150.44 Y152.42 E448.70188
G0 F12000 X150.53 Y153.07
G1 F7200 X148.86 Y151.41 E448.78001
G0 F12000 X148.79 Y151.90
G1 F7200 X153.12 Y156.23 E448.98354
G0 F12000 X152.61 Y156.29
G1 F7200 X148.71 Y152.39 E449.16682
G0 F12000 X148.78 Y153.02
G1 F7200 X152.00 Y156.24 E449.31833
G0 F12000 X151.29 Y156.09
G1 F7200 X148.88 Y153.69 E449.43152
G0 F12000 X152.39 Y148.71
G1 F7200 X156.29 Y152.61 E449.61482
G0 F12000 X156.22 Y151.98
G1 F7200 X153.00 Y148.76 E449.76633
G0 F12000 X153.71 Y148.91
G1 F7200 X156.12 Y151.31 E449.87948
G0 F12000 X161.76 Y154.05
G1 F7200 X154.05 Y161.76 E450.24211
G0 F12000 X157.04 Y161.76
G1 F7200 X143.24 Y147.95 E450.89152
G0 F12000 X143.24 Y144.29
G1 F7200 X144.29 Y143.24 E450.94082
G0 F12000 X147.95 Y143.24
G1 F7200 X161.76 Y157.05 E451.59021
;LAYER:25
G0 F12000 X161.90 Y161.90 Z5.25
;TYPE:WALL-INNER
G1 F7200 X143.10 Y161.90 E452.21550
G1 X143.10 Y143.10 E452.84079
G1 X161.90 Y143.10 E453.46608
G1 X161.90 Y161.90 E454.09137
G0 F12000 X154.33 Y153.83
G1 F7200 X154.55 Y153.21 E454.11342
G1 X154.78 Y152.50 E454.13822
G1 X154.56 Y151.82 E454.16213
G1 X154.33 Y151.17 E454.18500
G1 X153.78 Y150.63 E454.21052
G1 X153.17 Y150.43 E454.23206
G1 X152.50 Y150.22 E454.25532
G1 X151.22 Y150.63 E454.30014
G1 X150.67 Y151.17 E454.32571
G1 X150.45 Y151.79 E454.34775
G1 X150.22 Y152.50 E454.37256
G1 X150.44 Y153.18 E454.39646
G1 X150.67 Y153.83 E454.41934
G1 X151.22 Y154.37 E454.44486
G1 X151.83 Y154.57 E454.46639
G1 X152.50 Y154.78 E454.48966
G1 X153.78 Y154.37 E454.53447
G1 X154.33 Y153.83 E454.56004
G0 F12000 X153.99 Y153.61
;TYPE:WALL-OUTER
G1 F7200 X154.17 Y153.08 E454.57882
G1 X154.36 Y152.50 E454.59911
G1 X154.18 Y151.94 E454.61856
G1 X153.99 Y151.39 E454.63817
G1 X153.57 Y150.99 E454.65741
G1 X152.50 Y150.64 E454.69486
G1 X151.43 Y150.98 E454.73226
G1 X151.01 Y151.39 E454.75155
G1 X150.83 Y151.92 E454.77032
G1 X150.64 Y152.50 E454.79061
G1 X150.82 Y153.06 E454.81007
G1 X151.01 Y153.61 E454.82967
G1 X151.43 Y154.01 E454.84891
G1 X152.50 Y154.36 E454.88636
G1 X153.57 Y154.02 E454.92376
G1 X153.99 Y153.61 E454.94305
G0 F12000 X154.27 Y153.71
G0 X162.00 Y162.09
G0 X162.30 Y162.30
G1 F7200 X142.70 Y162.30 E455.59495
G1 X142.70 Y142.70 E456.24685
G1 X162.30 Y142.70 E456.89875
G1 X162.30 Y162.30 E457.55064
G0 F12000 X162.00 Y162.09
G0 X161.76 Y157.05
;TYPE:FILL
G1 F7200 X155.58 Y150.86 E457.84147
G0 F12000 X155.56 Y150.82
G1 F7200 X161.76 Y144.62 E458.13313
G0 F12000 X161.76 Y147.62
G1 F7200 X157.38 Y143.24 E458.33910
G0 F12000 X153.72 Y143.24
G1 F7200 X143.24 Y153.72 E458.83184
G0 F12000 X143.24 Y157.38
G1 F7200 X147.62 Y161.76 E459.03781
G0 F12000 X144.62 Y161.76
G1 F7200 X150.79 Y155.59 E459.32808
G0 F12000 X150.94 Y155.65
G1 F7200 X157.04 Y161.76 E459.61531
G0 F12000 X154.05 Y161.76
G1 F7200 X161.76 Y154.05 E459.97794
G0 F12000 X156.42 Y153.29
G1 F7200 X153.26 Y156.45 E460.12686
G0 F12000 X152.62 Y156.53
G1 F7200 X156.53 Y152.62 E460.31087
G0 F12000 X156.48 Y152.10
G1 F7200 X152.09 Y156.50 E460.51778
G0 F12000 X151.58 Y156.43
G1 F7200 X153.34 Y154.67 E460.60057
G0 F12000 X152.53 Y154.92
G1 F7200 X151.16 Y156.29 E460.66491
G0 F12000 X150.75 Y156.14
G1 F7200 X152.09 Y154.79 E460.72799
G0 F12000 X151.71 Y154.67
G1 F7200 X151.29 Y155.09 E460.74789
G0 F12000 X151.65 Y154.67
G1 F7200 X150.37 Y155.95 E460.80798
G0 F12000 X150.06 Y155.69
G1 F7200 X151.23 Y154.52 E460.86334
G0 F12000 X150.92 Y154.27
G1 F7200 X149.76 Y155.43 E460.91790
G0 F12000 X149.46 Y155.16
G1 F7200 X150.63 Y153.99 E460.97305
G0 F12000 X150.44 Y153.61
G1 F7200 X149.20 Y154.86 E461.03152
G0 F12000 X149.01 Y154.48
G1 F7200 X150.28 Y153.21 E461.09135
G0 F12000 X150.16 Y152.77
G1 F7200 X148.83 Y154.10 E461.15386
G0 F12000 X148.64 Y153.71
G1 F7200 X150.17 Y152.19 E461.22573
G0 F12000 X150.46 Y151.33
G1 F7200 X148.56 Y153.23 E461.31487
G0 F12000 X148.49 Y152.74
G1 F7200 X152.74 Y148.48 E461.51499
G0 F12000 X153.25 Y148.54
G1 F7200 X151.35 Y150.44 E461.60426
G0 F12000 X152.19 Y150.17
G1 F7200 X153.69 Y148.66 E461.67520
G0 F12000 X154.11 Y148.81
G1 F7200 X152.77 Y150.16 E461.73844
G0 F12000 X153.21 Y150.28
G1 F7200 X154.51 Y148.98 E461.79942
G0 F12000 X154.84 Y149.21
G1 F7200 X153.62 Y150.43 E461.85681
G0 F12000 X153.99 Y150.64
G1 F7200 X155.14 Y149.48 E461.91118
G0 F12000 X155.44 Y149.75
G1 F7200 X154.27 Y150.91 E461.96612
G0 F12000 X154.51 Y151.24
G1 F7200 X155.71 Y150.04 E462.02280
G0 F12000 X155.93 Y150.39
G1 F7200 X154.67 Y151.65 E462.08214
G0 F12000 X154.67 Y151.72
G1 F7200 X155.08 Y151.31 E462.10147
G0 F12000 X154.79 Y152.09
G1 F7200 X156.11 Y150.77 E462.16337
G0 F12000 X156.29 Y151.16
G1 F7200 X154.92 Y152.53 E462.22797
G0 F12000 X154.67 Y153.35
G1 F7200 X156.41 Y151.61 E462.30996
G0 F12000 X156.16 Y154.12
G1 F7200 X154.08 Y156.20 E462.40805
G0 F12000 X149.42 Y154.13
G1 F7200 X143.24 Y147.95 E462.69888
G0 F12000 X143.24 Y144.29
G1 F7200 X144.29 Y143.24 E462.74818
G0 F12000 X147.95 Y143.24
G1 F7200 X154.06 Y149.35 E463.03543
G0 F12000 X152.17 Y148.49
G1 F7200 X148.50 Y152.16 E463.20771
G0 F12000 X148.61 Y151.49
G1 F7200 X151.50 Y148.59 E463.34395
G0 F12000 X150.62 Y148.91
G1 F7200 X149.01 Y150.52 E463.41998
G1 F2400 E462.21998
G0 F12000 X152.28 Y152.50
;TYPE:WALL-OUTER
G1 F2400 E463.41998
G1 F7200 X152.50 Y152.28 E463.43057
G1 X152.72 Y152.50 E463.44115
G1 X152.50 Y152.72 E463.45173
G1 X152.28 Y152.50 E463.46232
;LAYER:26
G0 F12000 X151.66 Y152.50 Z5.45
;TYPE:WALL-INNER
G1 F7200 X151.87 Y151.88 E463.48419
G1 X151.89 Y151.86 E463.48506
G1 X152.50 Y151.66 E463.50633
G1 X153.11 Y151.86 E463.52762
G1 X153.13 Y151.88 E463.52849
G1 X153.34 Y152.50 E463.55044
G1 X153.13 Y153.12 E463.57235
G1 X153.11 Y153.14 E463.57322
G1 X152.50 Y153.34 E463.59449
G1 X151.89 Y153.14 E463.61578
G1 X151.87 Y153.12 E463.61665
G1 X151.66 Y152.50 E463.63863
G0 F12000 X151.24 Y152.50
;TYPE:WALL-OUTER
G1 F7200 X151.52 Y151.66 E463.66829
G1 X151.68 Y151.51 E463.67544
G1 X152.50 Y151.24 E463.70416
G1 X153.32 Y151.51 E463.73281
G1 X153.47 Y151.66 E463.74001
G1 X153.76 Y152.50 E463.76965
G1 X153.48 Y153.34 E463.79931
G1 X153.32 Y153.49 E463.80646
G1 X152.50 Y153.76 E463.83517
G1 X151.68 Y153.49 E463.86382
G1 X151.53 Y153.34 E463.87102
G1 X151.24 Y152.50 E463.90066
G0 F12000 X152.36 Y152.70
G1 F2400 E462.70066
G0 F12000 X151.17 Y154.96
;TYPE:WALL-INNER
G1 F2400 E463.90066
G1 F7200 X151.38 Y155.06 E463.90823
G1 X152.50 Y155.27 E463.94628
G1 X153.63 Y155.06 E463.98447
G1 X153.83 Y154.96 E463.99206
G1 X154.89 Y153.93 E464.04110
G1 X155.02 Y153.73 E464.04900
G1 X155.21 Y152.81 E464.08042
G1 X155.27 Y152.50 E464.09091
G1 X155.05 Y151.40 E464.12815
G1 X155.02 Y151.26 E464.13294
G1 X154.90 Y151.07 E464.14051
G1 X153.83 Y150.04 E464.18982
G1 X153.62 Y149.94 E464.19739
G1 X152.50 Y149.73 E464.23544
G1 X151.37 Y149.94 E464.27362
G1 X151.17 Y150.04 E464.28122
G1 X150.11 Y151.07 E464.33026
G1 X149.98 Y151.27 E464.33816
G1 X149.79 Y152.19 E464.36958
G1 X149.73 Y152.50 E464.38006
G1 X149.95 Y153.60 E464.41731
G1 X149.98 Y153.74 E464.42209
G1 X150.10 Y153.93 E464.42967
G1 X151.17 Y154.96 E464.47897
G0 F12000 X143.10 Y161.90
G1 F7200 X143.10 Y143.10 E465.10426
G1 X161.90 Y143.10 E465.72956
G1 X161.90 Y161.90 E466.35485
G1 X143.10 Y161.90 E466.98014
G0 F12000 X142.70 Y162.30
;TYPE:WALL-OUTER
G1 F7200 X142.70 Y142.70 E467.63204
G1 X162.30 Y142.70 E468.28393
G1 X162.30 Y162.30 E468.93583
G1 X142.70 Y162.30 E469.58773
G0 F12000 X142.91 Y162.00
G0 X150.21 Y153.89
G0 X150.42 Y153.68
G1 F7200 X151.41 Y154.63 E469.63355
G1 X151.51 Y154.68 E469.63721
G1 X152.50 Y154.87 E469.67077
G1 X153.49 Y154.68 E469.70431
G1 X153.59 Y154.63 E469.70800
G1 X154.58 Y153.68 E469.75373
G1 X154.64 Y153.58 E469.75759
G1 X154.87 Y152.50 E469.79427
G1 X154.66 Y151.49 E469.82863
G1 X154.64 Y151.42 E469.83099
G1 X154.58 Y151.32 E469.83472
G1 X153.59 Y150.37 E469.88055
G1 X153.49 Y150.32 E469.88421
G1 X152.50 Y150.13 E469.91776
G1 X151.51 Y150.32 E469.95130
G1 X151.41 Y150.37 E469.95499
G1 X150.42 Y151.32 E470.00072
G1 X150.36 Y151.42 E470.00458
G1 X150.13 Y152.50 E470.04126
G1 X150.34 Y153.51 E470.07562
G1 X150.36 Y153.58 E470.07798
G1 X150.42 Y153.68 E470.08172
G0 F12000 X149.78 Y153.46
;TYPE:FILL
G1 F7200 X148.29 Y151.97 E470.15185
G0 F12000 X148.37 Y151.48
G1 F7200 X149.63 Y152.74 E470.21149
G0 F12000 X149.65 Y152.19
G1 F7200 X148.51 Y151.05 E470.26502
G0 F12000 X148.69 Y150.67
G1 F7200 X149.74 Y151.72 E470.31450
G0 F12000 X149.84 Y151.25
G1 F7200 X148.87 Y150.29 E470.35994
G0 F12000 X149.11 Y149.96
G1 F7200 X150.06 Y150.91 E470.40484
G0 F12000 X150.35 Y150.63
G1 F7200 X149.37 Y149.65 E470.45117
G0 F12000 X149.63 Y149.35
G1 F7200 X150.64 Y150.36 E470.49860
G0 F12000 X150.93 Y150.08
G1 F7200 X149.94 Y149.09 E470.54526
G0 F12000 X150.29 Y148.88
G1 F7200 X151.25 Y149.84 E470.59037
G0 F12000 X151.71 Y149.73
G1 F7200 X150.65 Y148.67 E470.64004
G0 F12000 X151.06 Y148.51
G1 F7200 X152.19 Y149.64 E470.69303
G0 F12000 X152.74 Y149.63
G1 F7200 X151.48 Y148.37 E470.75237
G0 F12000 X151.95 Y148.28
G1 F7200 X153.43 Y149.76 E470.82198
G0 F12000 X153.69 Y148.98
G1 F7200 X147.95 Y143.24 E471.09198
G0 F12000 X144.29 Y143.24
G1 F7200 X143.24 Y144.29 E471.14127
G0 F12000 X143.24 Y147.95
G1 F7200 X148.96 Y153.67 E471.41020
G0 F12000 X148.45 Y153.83
G1 F7200 X151.14 Y156.51 E471.53640
G0 F12000 X151.31 Y156.02
G1 F7200 X157.04 Y161.76 E471.80637
G0 F12000 X154.05 Y161.76
G1 F7200 X161.76 Y154.05 E472.16900
G0 F12000 X161.76 Y157.05
G1 F7200 X156.04 Y151.33 E472.43794
G0 F12000 X156.54 Y151.17
G1 F7200 X153.86 Y148.49 E472.56409
G0 F12000 X153.09 Y148.28
G1 F7200 X156.70 Y151.89 E472.73378
G0 F12000 X156.78 Y152.54
G1 F7200 X152.46 Y148.22 E472.93728
G0 F12000 X154.98 Y149.04
G1 F7200 X155.84 Y149.90 E472.97778
G0 F12000 X155.72 Y150.66
G1 F7200 X161.76 Y144.62 E473.26162
G0 F12000 X161.76 Y147.62
G1 F7200 X157.38 Y143.24 E473.46760
G0 F12000 X153.72 Y143.24
G1 F7200 X143.24 Y153.72 E473.96033
G0 F12000 X143.24 Y157.38
G1 F7200 X147.62 Y161.76 E474.16631
G0 F12000 X144.62 Y161.76
G1 F7200 X150.66 Y155.73 E474.45011
G0 F12000 X151.11 Y155.27
G1 F7200 X151.23 Y155.15 E474.45585
G0 F12000 X151.56 Y155.24
G1 F7200 X153.05 Y156.72 E474.52551
G0 F12000 X153.52 Y156.63
G1 F7200 X152.26 Y155.37 E474.58482
G0 F12000 X152.81 Y155.36
G1 F7200 X153.94 Y156.48 E474.63778
G0 F12000 X154.34 Y156.32
G1 F7200 X153.29 Y155.27 E474.68745
G0 F12000 X153.75 Y155.16
G1 F7200 X154.70 Y156.12 E474.73256
G0 F12000 X155.06 Y155.91
G1 F7200 X154.07 Y154.92 E474.77922
G0 F12000 X154.36 Y154.64
G1 F7200 X155.37 Y155.65 E474.82668
G0 F12000 X155.63 Y155.35
G1 F7200 X154.65 Y154.36 E474.87302
G0 F12000 X154.93 Y154.09
G1 F7200 X155.89 Y155.04 E474.91796
G0 F12000 X156.12 Y154.71
G1 F7200 X155.16 Y153.74 E474.96342
G0 F12000 X155.25 Y153.28
G1 F7200 X156.31 Y154.33 E475.01293
G0 F12000 X156.49 Y153.94
G1 F7200 X155.35 Y152.81 E475.06643
G0 F12000 X155.37 Y152.25
G1 F7200 X156.63 Y153.52 E475.12610
G0 F12000 X156.71 Y153.03
G1 F7200 X155.22 Y151.54 E475.19623
G0 F12000 X155.15 Y151.23
G1 F7200 X155.24 Y151.14 E475.20051
G0 F12000 X154.89 Y153.93
G0 X152.54 Y156.78
G1 F7200 X148.21 Y152.46 E475.40402
G0 F12000 X148.30 Y153.11
G1 F7200 X151.91 Y156.72 E475.57370
G0 F12000 X150.02 Y155.96
G1 F7200 X149.16 Y155.10 E475.61425
;LAYER:27
G1 F2400 E474.41425
G0 F12000 X151.22 Y153.14 Z5.65
;TYPE:WALL-INNER
G1 F2400 E475.61425
G1 F7200 X151.09 Y152.50 E475.63578
G1 X151.22 Y151.87 E475.65741
G1 X151.92 Y151.20 E475.68949
G1 X152.49 Y151.09 E475.70887
G1 X153.08 Y151.20 E475.72880
G1 X153.78 Y151.86 E475.76084
G1 X153.91 Y152.50 E475.78237
G1 X153.78 Y153.13 E475.80400
G1 X153.08 Y153.80 E475.83609
G1 X152.51 Y153.91 E475.85546
G1 X151.92 Y153.80 E475.87539
G1 X151.22 Y153.14 E475.90743
G0 F12000 X150.87 Y153.34
;TYPE:WALL-OUTER
G1 F7200 X150.68 Y152.50 E475.93621
G1 X150.85 Y151.70 E475.96345
G1 X150.86 Y151.66 E475.96493
G1 X151.31 Y151.23 E475.98530
G1 X151.72 Y150.83 E476.00445
G1 X152.50 Y150.68 E476.03082
G1 X153.25 Y150.82 E476.05608
G1 X153.28 Y150.83 E476.05715
G1 X154.13 Y151.66 E476.09669
G1 X154.32 Y152.50 E476.12548
G1 X154.15 Y153.30 E476.15272
G1 X154.14 Y153.34 E476.15419
G1 X153.69 Y153.77 E476.17456
G1 X153.28 Y154.17 E476.19371
G1 X152.50 Y154.32 E476.22008
G1 X151.75 Y154.18 E476.24534
G1 X151.72 Y154.17 E476.24641
G1 X150.87 Y153.34 E476.28596
G0 F12000 X151.14 Y153.21
G0 X152.64 Y153.74
;TYPE:FILL
G1 F7200 X153.73 Y152.65 E476.33727
G0 F12000 X155.44 Y153.00
G0 X155.65 Y152.50
;TYPE:WALL-INNER
G1 F7200 X155.39 Y151.27 E476.37916
G1 X154.81 Y150.36 E476.41508
G1 X154.49 Y150.04 E476.43004
G1 X153.59 Y149.55 E476.46413
G1 X152.50 Y149.35 E476.50093
G1 X151.41 Y149.55 E476.53769
G1 X150.51 Y150.04 E476.57176
G1 X150.19 Y150.35 E476.58667
G1 X149.61 Y151.27 E476.62269
G1 X149.35 Y152.50 E476.66457
G1 X149.61 Y153.73 E476.70646
G1 X150.19 Y154.64 E476.74239
G1 X150.51 Y154.96 E476.75735
G1 X151.41 Y155.45 E476.79143
G1 X152.50 Y155.65 E476.82823
G1 X153.59 Y155.45 E476.86499
G1 X154.49 Y154.96 E476.89906
G1 X154.81 Y154.65 E476.91397
G1 X155.39 Y153.73 E476.94999
G1 X155.65 Y152.50 E476.99188
G0 F12000 X161.90 Y161.90
G1 F7200 X143.10 Y161.90 E477.61717
G1 X143.10 Y143.10 E478.24246
G1 X161.90 Y143.10 E478.86775
G1 X161.90 Y161.90 E479.49304
G0 F12000 X162.30 Y162.30
;TYPE:WALL-OUTER
G1 F7200 X142.70 Y162.30 E480.14494
G1 X142.70 Y142.70 E480.79683
G1 X162.30 Y142.70 E481.44873
G1 X162.30 Y162.30 E482.10063
G0 F12000 X162.00 Y162.09
G0 X154.71 Y154.60
G0 X154.50 Y154.39
G1 F7200 X155.02 Y153.58 E482.13261
G1 X155.24 Y152.50 E482.16930
G1 X155.02 Y151.42 E482.20598
G1 X154.50 Y150.61 E482.23789
G1 X154.25 Y150.37 E482.24948
G1 X153.45 Y149.94 E482.27962
G1 X152.50 Y149.76 E482.31185
G1 X151.55 Y149.94 E482.34405
G1 X150.75 Y150.37 E482.37417
G1 X150.50 Y150.61 E482.38575
G1 X149.98 Y151.42 E482.41773
G1 X149.76 Y152.50 E482.45441
G1 X149.98 Y153.58 E482.49110
G1 X150.50 Y154.39 E482.52300
G1 X150.75 Y154.63 E482.53460
G1 X151.55 Y155.06 E482.56474
G1 X152.50 Y155.24 E482.59697
G1 X153.45 Y155.06 E482.62916
G1 X154.25 Y154.63 E482.65929
G1 X154.50 Y154.39 E482.67086
G0 F12000 X155.57 Y153.58
;TYPE:FILL
G1 F7200 X156.92 Y152.22 E482.73460
G0 F12000 X156.86 Y151.72
G1 F7200 X155.72 Y152.87 E482.78834
G0 F12000 X155.74 Y152.27
G1 F7200 X156.77 Y151.24 E482.83676
G0 F12000 X156.61 Y150.84
G1 F7200 X155.65 Y151.80 E482.88229
G0 F12000 X155.55 Y151.33
G1 F7200 X156.44 Y150.44 E482.92423
G0 F12000 X156.24 Y150.08
G1 F7200 X155.36 Y150.96 E482.96548
G0 F12000 X155.14 Y150.61
G1 F7200 X155.98 Y149.77 E483.00494
G0 F12000 X155.72 Y149.47
G1 F7200 X154.92 Y150.27 E483.04262
G0 F12000 X154.63 Y149.99
G1 F7200 X155.46 Y149.16 E483.08163
G0 F12000 X155.14 Y148.92
G1 F7200 X154.28 Y149.77 E483.12195
G0 F12000 X153.91 Y149.57
G1 F7200 X154.78 Y148.71 E483.16268
G0 F12000 X154.42 Y148.50
G1 F7200 X153.52 Y149.40 E483.20494
G0 F12000 X153.05 Y149.31
G1 F7200 X154.04 Y148.32 E483.25174
G0 F12000 X153.61 Y148.18
G1 F7200 X152.57 Y149.22 E483.30066
G0 F12000 X151.91 Y149.32
G1 F7200 X153.13 Y148.10 E483.35821
G0 F12000 X152.61 Y148.05
G1 F7200 X151.09 Y149.57 E483.42945
G0 F12000 X150.31 Y148.66
G1 F7200 X148.59 Y150.37 E483.51026
G0 F12000 X148.19 Y151.34
G1 F7200 X151.33 Y148.20 E483.65807
G0 F12000 X152.01 Y148.08
G1 F7200 X148.11 Y151.99 E483.84166
G0 F12000 X148.06 Y152.60
G1 F7200 X149.52 Y151.14 E483.91061
G0 F12000 X149.33 Y151.89
G1 F7200 X148.12 Y153.11 E483.96769
G0 F12000 X148.18 Y153.61
G1 F7200 X149.22 Y152.57 E484.01661
G0 F12000 X149.32 Y153.04
G1 F7200 X148.33 Y154.03 E484.06308
G0 F12000 X148.50 Y154.43
G1 F7200 X149.42 Y153.51 E484.10636
G0 F12000 X149.56 Y153.93
G1 F7200 X148.68 Y154.81 E484.14803
G0 F12000 X148.93 Y155.12
G1 F7200 X149.78 Y154.27 E484.18811
G0 F12000 X150.00 Y154.62
G1 F7200 X149.19 Y155.43 E484.22637
G0 F12000 X149.45 Y155.74
G1 F7200 X150.27 Y154.92 E484.26492
G0 F12000 X150.59 Y155.16
G1 F7200 X149.75 Y156.00 E484.30462
G0 F12000 X150.10 Y156.22
G1 F7200 X150.96 Y155.36 E484.34519
G0 F12000 X151.33 Y155.56
G1 F7200 X150.46 Y156.43 E484.38616
G0 F12000 X150.82 Y156.63
G1 F7200 X151.79 Y155.66 E484.43202
G0 F12000 X152.27 Y155.75
G1 F7200 X151.24 Y156.78 E484.48061
G0 F12000 X151.69 Y156.89
G1 F7200 X152.86 Y155.72 E484.53541
G0 F12000 X153.55 Y155.59
G1 F7200 X152.22 Y156.93 E484.59822
G0 F12000 X152.78 Y156.93
G1 F7200 X156.92 Y152.79 E484.79281
G0 F12000 X156.84 Y153.44
G1 F7200 X153.42 Y156.86 E484.95363
G0 F12000 X154.24 Y156.60
G1 F7200 X156.57 Y154.27 E485.06342
G0 F12000 X156.32 Y151.60
G1 F7200 X161.76 Y157.05 E485.31939
G0 F12000 X161.76 Y154.05
G1 F7200 X154.05 Y161.76 E485.68202
G0 F12000 X157.04 Y161.76
G1 F7200 X151.62 Y156.33 E485.93720
G0 F12000 X150.52 Y155.86
G1 F7200 X144.62 Y161.76 E486.21462
G0 F12000 X147.62 Y161.76
G1 F7200 X143.24 Y157.38 E486.42060
G0 F12000 X143.24 Y153.72
G1 F7200 X153.72 Y143.24 E486.91333
G0 F12000 X157.38 Y143.24
G1 F7200 X161.76 Y147.62 E487.11931
G0 F12000 X161.76 Y144.62
G1 F7200 X155.89 Y150.49 E487.39537
G0 F12000 X153.38 Y148.66
G1 F7200 X147.95 Y143.24 E487.65052
G0 F12000 X144.29 Y143.24
G1 F7200 X143.24 Y144.29 E487.69981
G0 F12000 X143.24 Y147.95
G1 F7200 X148.68 Y153.39 E487.95579
;LAYER:28
G0 F12000 X150.71 Y152.97 Z5.85
G0 X150.87 Y153.22
;TYPE:WALL-INNER
G1 F7200 X150.72 Y152.50 E487.98036
G1 X150.87 Y151.77 E488.00503
G1 X151.21 Y151.25 E488.02588
G1 X151.34 Y151.11 E488.03221
G1 X151.86 Y150.84 E488.05163
G1 X152.50 Y150.72 E488.07334
G1 X153.14 Y150.84 E488.09506
G1 X153.65 Y151.11 E488.11445
G1 X153.79 Y151.25 E488.12074
G1 X154.13 Y151.78 E488.14175
G1 X154.28 Y152.50 E488.16625
G1 X154.13 Y153.23 E488.19099
G1 X153.79 Y153.75 E488.21184
G1 X153.66 Y153.89 E488.21817
G1 X153.14 Y154.16 E488.23759
G1 X152.50 Y154.28 E488.25931
G1 X151.86 Y154.16 E488.28102
G1 X151.35 Y153.89 E488.30042
G1 X151.21 Y153.75 E488.30670
G1 X150.87 Y153.22 E488.32772
G0 F12000 X150.49 Y153.38
;TYPE:WALL-OUTER
G1 F7200 X150.31 Y152.50 E488.35751
G1 X150.49 Y151.62 E488.38738
G1 X150.90 Y150.99 E488.41218
G1 X151.11 Y150.79 E488.42196
G1 X151.72 Y150.45 E488.44530
G1 X152.50 Y150.31 E488.47158
G1 X153.28 Y150.45 E488.49785
G1 X153.90 Y150.79 E488.52127
G1 X154.10 Y150.99 E488.53072
G1 X154.51 Y151.62 E488.55584
G1 X154.69 Y152.50 E488.58560
G1 X154.51 Y153.38 E488.61550
G1 X154.10 Y154.01 E488.64030
G1 X153.89 Y154.21 E488.65008
G1 X153.28 Y154.55 E488.67342
G1 X152.50 Y154.69 E488.69970
G1 X151.72 Y154.55 E488.72597
G1 X151.10 Y154.21 E488.74939
G1 X150.90 Y154.01 E488.75884
G1 X150.49 Y153.38 E488.78396
G0 F12000 X150.78 Y153.27
G0 X152.28 Y154.10
;TYPE:FILL
G1 F7200 X154.09 Y152.29 E488.86914
G0 F12000 X155.80 Y151.97
G0 X156.00 Y152.49
;TYPE:WALL-INNER
G1 F7200 X155.77 Y151.27 E488.91040
G1 X155.04 Y150.14 E488.95517
G1 X154.61 Y149.75 E488.97456
G1 X153.89 Y149.36 E489.00165
G1 X153.55 Y149.17 E489.01475
G1 X152.87 Y149.05 E489.03754
G1 X152.50 Y149.00 E489.05006
G1 X152.13 Y149.05 E489.06259
G1 X151.45 Y149.17 E489.08534
G1 X150.39 Y149.75 E489.12555
G1 X149.96 Y150.14 E489.14501
G1 X149.23 Y151.27 E489.18955
G1 X149.07 Y152.05 E489.21615
G1 X149.00 Y152.51 E489.23163
G1 X149.23 Y153.73 E489.27289
G1 X149.96 Y154.86 E489.31767
G1 X150.39 Y155.25 E489.33706
G1 X151.10 Y155.64 E489.36407
G1 X151.45 Y155.83 E489.37724
G1 X152.13 Y155.95 E489.40003
G1 X152.50 Y156.00 E489.41256
G1 X152.87 Y155.95 E489.42508
G1 X153.55 Y155.83 E489.44784
G1 X154.61 Y155.25 E489.48804
G1 X155.04 Y154.86 E489.50750
G1 X155.77 Y153.73 E489.55204
G1 X155.93 Y152.95 E489.57864
G1 X156.00 Y152.49 E489.59412
G0 F12000 X161.90 Y143.10
G1 F7200 X161.90 Y161.90 E490.21941
G1 X143.10 Y161.90 E490.84470
G1 X143.10 Y143.10 E491.47000
G1 X161.90 Y143.10 E492.09529
G0 F12000 X162.30 Y142.70
;TYPE:WALL-OUTER
G1 F7200 X162.30 Y162.30 E492.74718
G1 X142.70 Y162.30 E493.39908
G1 X142.70 Y142.70 E494.05098
G1 X162.30 Y142.70 E494.70288
G0 F12000 X162.00 Y142.91
G0 X154.94 Y150.18
G0 X154.74 Y150.40
G1 F7200 X154.38 Y150.08 E494.71892
G1 X153.41 Y149.55 E494.75549
G1 X152.81 Y149.44 E494.77568
G1 X152.50 Y149.41 E494.78623
G1 X152.19 Y149.44 E494.79674
G1 X151.59 Y149.55 E494.81696
G1 X150.62 Y150.08 E494.85349
G1 X150.26 Y150.40 E494.86960
G1 X149.61 Y151.42 E494.90984
G1 X149.46 Y152.12 E494.93365
G1 X149.41 Y152.50 E494.94651
G1 X149.61 Y153.58 E494.98289
G1 X150.26 Y154.60 E495.02324
G1 X150.62 Y154.92 E495.03928
G1 X151.59 Y155.45 E495.07585
G1 X152.19 Y155.56 E495.09604
G1 X152.50 Y155.59 E495.10659
G1 X152.81 Y155.56 E495.11710
G1 X153.41 Y155.45 E495.13732
G1 X154.38 Y154.92 E495.17384
G1 X154.74 Y154.60 E495.18996
G1 X155.39 Y153.58 E495.23019
G1 X155.54 Y152.88 E495.25401
G1 X155.59 Y152.50 E495.26687
G1 X155.39 Y151.42 E495.30325
G1 X154.74 Y150.40 E495.34360
G0 F12000 X155.68 Y150.87
;TYPE:FILL
G1 F7200 X157.09 Y152.28 E495.41001
G0 F12000 X157.08 Y152.84
G1 F7200 X156.00 Y151.76 E495.46053
G0 F12000 X156.51 Y151.79
G1 F7200 X161.76 Y157.05 E495.70764
G0 F12000 X161.76 Y154.05
G1 F7200 X154.05 Y161.76 E496.07027
G0 F12000 X157.04 Y161.76
G1 F7200 X151.83 Y156.54 E496.31566
G0 F12000 X151.79 Y156.03
G1 F7200 X152.85 Y157.09 E496.36538
G0 F12000 X153.35 Y157.03
G1 F7200 X152.45 Y156.13 E496.40776
G0 F12000 X152.97 Y156.08
G1 F7200 X153.81 Y156.92 E496.44756
G0 F12000 X154.24 Y156.79
G1 F7200 X153.44 Y155.99 E496.48514
G0 F12000 X153.84 Y155.82
G1 F7200 X154.62 Y156.60 E496.52154
G0 F12000 X154.98 Y156.39
G1 F7200 X154.21 Y155.62 E496.55762
G0 F12000 X154.58 Y155.43
G1 F7200 X155.30 Y156.15 E496.59177
G0 F12000 X155.62 Y155.90
G1 F7200 X154.90 Y155.18 E496.62578
G0 F12000 X155.18 Y154.90
G1 F7200 X155.90 Y155.61 E496.65927
G0 F12000 X156.15 Y155.31
G1 F7200 X155.41 Y154.56 E496.69452
G0 F12000 X155.62 Y154.21
G1 F7200 X156.40 Y154.98 E496.73088
G0 F12000 X156.60 Y154.62
G1 F7200 X155.85 Y153.87 E496.76635
G0 F12000 X155.97 Y153.43
G1 F7200 X156.76 Y154.21 E496.80339
G0 F12000 X156.92 Y153.81
G1 F7200 X156.07 Y152.96 E496.84337
G0 F12000 X156.14 Y152.46
G1 F7200 X157.01 Y153.34 E496.88472
G0 F12000 X157.01 Y151.64
G1 F7200 X153.34 Y147.96 E497.05748
G0 F12000 X153.17 Y148.46
G1 F7200 X147.95 Y143.24 E497.30287
G0 F12000 X144.29 Y143.24
G1 F7200 X143.24 Y144.29 E497.35217
G0 F12000 X143.24 Y147.95
G1 F7200 X148.49 Y153.21 E497.59930
G0 F12000 X148.99 Y153.24
G1 F7200 X147.92 Y152.16 E497.64980
G0 F12000 X147.98 Y151.66
G1 F7200 X148.86 Y152.54 E497.69112
G0 F12000 X148.93 Y152.04
G1 F7200 X148.08 Y151.19 E497.73110
G0 F12000 X148.24 Y150.78
G1 F7200 X149.03 Y151.57 E497.76814
G0 F12000 X149.15 Y151.13
G1 F7200 X148.40 Y150.38 E497.80358
G0 F12000 X148.60 Y150.01
G1 F7200 X149.37 Y150.79 E497.83990
G0 F12000 X149.59 Y150.44
G1 F7200 X148.84 Y149.69 E497.87515
G0 F12000 X149.10 Y149.38
G1 F7200 X149.81 Y150.10 E497.90864
G0 F12000 X150.10 Y149.82
G1 F7200 X149.38 Y149.09 E497.94265
G0 F12000 X149.69 Y148.85
G1 F7200 X150.42 Y149.57 E497.97682
G0 F12000 X150.79 Y149.37
G1 F7200 X150.02 Y148.61 E498.01290
G0 F12000 X150.38 Y148.40
G1 F7200 X151.15 Y149.17 E498.04933
G0 F12000 X151.55 Y149.01
G1 F7200 X150.75 Y148.21 E498.08691
G0 F12000 X151.19 Y148.08
G1 F7200 X152.03 Y148.92 E498.12670
G0 F12000 X152.54 Y148.87
G1 F7200 X151.64 Y147.97 E498.16908
G0 F12000 X152.15 Y147.91
G1 F7200 X153.21 Y148.97 E498.21880
G0 F12000 X154.15 Y149.34
G1 F7200 X152.71 Y147.90 E498.28665
G0 F12000 X154.09 Y148.15
G1 F7200 X156.78 Y150.84 E498.41318
G0 F12000 X156.01 Y150.37
G1 F7200 X161.76 Y144.62 E498.68355
G0 F12000 X161.76 Y147.62
G1 F7200 X157.38 Y143.24 E498.88952
G0 F12000 X153.72 Y143.24
G1 F7200 X143.24 Y153.72 E499.38226
G0 F12000 X143.24 Y157.38
G1 F7200 X147.62 Y161.76 E499.58823
G0 F12000 X144.62 Y161.76
G1 F7200 X150.38 Y156.00 E499.85917
G0 F12000 X150.85 Y155.66
G1 F7200 X152.29 Y157.10 E499.92704
G0 F12000 X151.66 Y157.03
G1 F7200 X147.99 Y153.36 E500.09981
G0 F12000 X147.91 Y152.71
G1 F7200 X149.32 Y154.12 E500.16618
G0 F12000 X148.22 Y154.16
G1 F7200 X150.91 Y156.85 E500.29271
G0 F12000 X149.47 Y155.97
G1 F7200 X149.08 Y155.59 E500.31093
G0 F12000 X149.24 Y151.27
G0 X150.39 Y149.75
G0 X152.50 Y149.00
G0 X154.61 Y149.75
G0 X155.53 Y149.02
G1 F7200 X155.92 Y149.41 E500.32916
;LAYER:29
G1 F2400 E499.12916
G0 F12000 X154.02 Y151.02 Z6.05
;TYPE:WALL-INNER
G1 F2400 E500.32916
G1 F7200 X154.39 Y151.60 E500.35224
G1 X154.50 Y151.78 E500.35912
G1 X154.61 Y152.29 E500.37652
G1 X154.64 Y152.49 E500.38331
G1 X154.50 Y153.22 E500.40816
G1 X154.02 Y153.98 E500.43795
G1 X153.83 Y154.15 E500.44643
G1 X153.10 Y154.55 E500.47404
G1 X152.66 Y154.63 E500.48893
G1 X152.51 Y154.65 E500.49395
G1 X151.89 Y154.54 E500.51478
G1 X151.17 Y154.15 E500.54223
G1 X150.98 Y153.98 E500.55064
G1 X150.61 Y153.40 E500.57372
G1 X150.50 Y153.22 E500.58060
G1 X150.39 Y152.70 E500.59830
G1 X150.36 Y152.51 E500.60479
G1 X150.50 Y151.78 E500.62964
G1 X150.98 Y151.02 E500.65943
G1 X151.17 Y150.85 E500.66792
G1 X151.90 Y150.45 E500.69553
G1 X152.34 Y150.37 E500.71041
G1 X152.49 Y150.35 E500.71544
G1 X153.11 Y150.46 E500.73626
G1 X153.83 Y150.85 E500.76371
G1 X154.02 Y151.02 E500.77212
G0 F12000 X154.33 Y150.76
;TYPE:WALL-OUTER
G1 F7200 X154.88 Y151.62 E500.80635
G1 X155.01 Y152.23 E500.82690
G1 X155.05 Y152.50 E500.83602
G1 X154.89 Y153.32 E500.86374
G1 X154.88 Y153.38 E500.86583
G1 X154.33 Y154.24 E500.89995
G1 X154.06 Y154.48 E500.91167
G1 X153.24 Y154.93 E500.94300
G1 X152.72 Y155.02 E500.96042
G1 X152.50 Y155.05 E500.96782
G1 X151.76 Y154.93 E500.99266
G1 X150.94 Y154.48 E501.02392
G1 X150.67 Y154.24 E501.03572
G1 X150.12 Y153.38 E501.06994
G1 X149.99 Y152.76 E501.09084
G1 X149.95 Y152.50 E501.09965
G1 X150.11 Y151.68 E501.12734
G1 X150.12 Y151.62 E501.12943
G1 X150.67 Y150.76 E501.16355
G1 X150.94 Y150.52 E501.17527
G1 X151.76 Y150.07 E501.20660
G1 X152.28 Y149.98 E501.22402
G1 X152.50 Y149.95 E501.23142
G1 X153.24 Y150.07 E501.25626
G1 X154.06 Y150.52 E501.28752
G1 X154.33 Y150.76 E501.29932
G0 F12000 X153.55 Y151.64
;TYPE:FILL
G1 F7200 X151.64 Y153.55 E501.38893
G0 F12000 X151.92 Y153.83
G1 F7200 X153.83 Y151.92 E501.47849
G0 F12000 X154.11 Y152.21
G1 F7200 X152.21 Y154.11 E501.56809
G0 F12000 X151.97 Y154.41
G1 F7200 X154.40 Y151.98 E501.68268
G0 F12000 X154.39 Y152.49
G1 F7200 X152.49 Y154.39 E501.77228
G0 F12000 X151.36 Y153.26
G1 F7200 X153.26 Y151.36 E501.86189
G0 F12000 X152.98 Y151.07
G1 F7200 X151.07 Y152.98 E501.95149
G0 F12000 X150.79 Y152.70
G1 F7200 X152.70 Y150.79 E502.04110
G0 F12000 X152.93 Y148.91
G0 X152.50 Y148.76
;TYPE:WALL-INNER
G1 F7200 X151.56 Y148.87 E502.07265
G1 X150.94 Y149.09 E502.09450
G1 X150.48 Y149.34 E502.11203
G1 X149.58 Y150.14 E502.15180
G1 X149.27 Y150.62 E502.17104
G1 X148.94 Y151.32 E502.19657
G1 X148.82 Y152.09 E502.22242
G1 X148.76 Y152.50 E502.23638
G1 X148.88 Y153.33 E502.26435
G1 X148.94 Y153.68 E502.27613
G1 X149.27 Y154.37 E502.30160
G1 X149.58 Y154.86 E502.32087
G1 X150.47 Y155.66 E502.36064
G1 X150.94 Y155.91 E502.37819
G1 X151.56 Y156.13 E502.40003
G1 X152.50 Y156.24 E502.43162
G1 X153.44 Y156.13 E502.46318
G1 X154.06 Y155.91 E502.48503
G1 X154.52 Y155.66 E502.50256
G1 X155.42 Y154.86 E502.54233
G1 X155.73 Y154.38 E502.56156
G1 X156.06 Y153.68 E502.58709
G1 X156.18 Y152.91 E502.61295
G1 X156.24 Y152.50 E502.62691
G1 X156.12 Y151.67 E502.65487
G1 X156.06 Y151.32 E502.66666
G1 X155.73 Y150.63 E502.69213
G1 X155.42 Y150.14 E502.71139
G1 X154.53 Y149.34 E502.75116
G1 X154.06 Y149.09 E502.76871
G1 X153.44 Y148.87 E502.79055
G1 X152.50 Y148.76 E502.82214
G0 F12000 X143.10 Y143.10
G1 F7200 X161.90 Y143.10 E503.44743
G1 X161.90 Y161.90 E504.07272
G1 X143.10 Y161.90 E504.69801
G1 X143.10 Y143.10 E505.32330
G0 F12000 X142.70 Y142.70
;TYPE:WALL-OUTER
G1 F7200 X162.30 Y142.70 E505.97520
G1 X162.30 Y162.30 E506.62710
G1 X142.70 Y162.30 E507.27900
G1 X142.70 Y142.70 E507.93090
G0 F12000 X143.00 Y142.91
G0 X149.69 Y150.18
G0 X149.89 Y150.40
G1 F7200 X149.62 Y150.82 E507.94746
G1 X149.33 Y151.44 E507.97019
G1 X149.16 Y152.50 E508.00597
G1 X149.33 Y153.56 E508.04171
G1 X149.62 Y154.18 E508.06443
G1 X149.89 Y154.60 E508.08100
G1 X150.71 Y155.33 E508.11742
G1 X151.10 Y155.54 E508.13238
G1 X151.65 Y155.74 E508.15171
G1 X152.50 Y155.84 E508.18022
G1 X153.35 Y155.74 E508.20870
G1 X153.90 Y155.54 E508.22804
G1 X154.29 Y155.33 E508.24299
G1 X155.11 Y154.60 E508.27941
G1 X155.38 Y154.18 E508.29597
G1 X155.67 Y153.56 E508.31870
G1 X155.84 Y152.50 E508.35447
G1 X155.67 Y151.44 E508.39021
G1 X155.38 Y150.82 E508.41293
G1 X155.11 Y150.40 E508.42950
G1 X154.29 Y149.67 E508.46593
G1 X153.90 Y149.46 E508.48088
G1 X153.35 Y149.26 E508.50022
G1 X152.50 Y149.16 E508.52873
G1 X151.65 Y149.26 E508.55720
G1 X151.10 Y149.46 E508.57655
G1 X150.71 Y149.67 E508.59149
G1 X149.89 Y150.40 E508.62791
G0 F12000 X149.56 Y149.97
;TYPE:FILL
G1 F7200 X151.74 Y147.79 E508.73045
G0 F12000 X152.37 Y147.73
G1 F7200 X151.27 Y148.83 E508.78215
G0 F12000 X151.98 Y148.68
G1 F7200 X152.91 Y147.75 E508.82596
G0 F12000 X153.41 Y147.82
G1 F7200 X152.60 Y148.63 E508.86406
G0 F12000 X153.10 Y148.69
G1 F7200 X153.86 Y147.93 E508.89986
G0 F12000 X154.28 Y148.08
G1 F7200 X153.58 Y148.78 E508.93264
G0 F12000 X154.00 Y148.92
G1 F7200 X154.69 Y148.24 E508.96496
G0 F12000 X155.04 Y148.45
G1 F7200 X154.38 Y149.11 E508.99586
G0 F12000 X154.72 Y149.33
G1 F7200 X155.36 Y148.70 E509.02573
G0 F12000 X155.67 Y148.95
G1 F7200 X155.02 Y149.60 E509.05640
G0 F12000 X155.32 Y149.87
G1 F7200 X155.98 Y149.20 E509.08758
G0 F12000 X156.22 Y149.53
G1 F7200 X155.60 Y150.16 E509.11712
G0 F12000 X155.82 Y150.50
G1 F7200 X156.46 Y149.86 E509.14708
G0 F12000 X156.69 Y150.20
G1 F7200 X156.01 Y150.88 E509.17909
G0 F12000 X156.19 Y151.26
G1 F7200 X156.85 Y150.60 E509.21023
G0 F12000 X157.01 Y151.01
G1 F7200 X156.27 Y151.75 E509.24509
G0 F12000 X156.69 Y151.98
G1 F7200 X161.76 Y157.05 E509.48335
G0 F12000 X161.76 Y154.05
G1 F7200 X154.05 Y161.76 E509.84598
G0 F12000 X157.04 Y161.76
G1 F7200 X152.01 Y156.72 E510.08293
G0 F12000 X152.23 Y156.35
G1 F7200 X151.44 Y157.14 E510.12025
G0 F12000 X150.99 Y157.03
G1 F7200 X151.73 Y156.29 E510.15502
G0 F12000 X151.28 Y156.17
G1 F7200 X150.58 Y156.87 E510.18766
G0 F12000 X150.18 Y156.70
G1 F7200 X150.86 Y156.02 E510.21955
G0 F12000 X150.49 Y155.82
G1 F7200 X149.85 Y156.46 E510.24965
G0 F12000 X149.54 Y156.22
G1 F7200 X150.18 Y155.58 E510.27976
G0 F12000 X149.88 Y155.31
G1 F7200 X149.22 Y155.97 E510.31075
G0 F12000 X148.93 Y155.69
G1 F7200 X149.58 Y155.04 E510.34126
G0 F12000 X149.33 Y154.73
G1 F7200 X148.70 Y155.36 E510.37094
G0 F12000 X148.47 Y155.02
G1 F7200 X149.11 Y154.38 E510.40137
G0 F12000 X148.93 Y153.99
G1 F7200 X148.25 Y154.67 E510.43324
G0 F12000 X148.09 Y154.26
G1 F7200 X148.78 Y153.58 E510.46555
G0 F12000 X148.71 Y153.09
G1 F7200 X147.94 Y153.85 E510.50168
G0 F12000 X147.83 Y153.40
G1 F7200 X148.63 Y152.60 E510.53935
G0 F12000 X148.31 Y153.02
G1 F7200 X143.24 Y147.95 E510.77764
G0 F12000 X143.24 Y144.29
G1 F7200 X144.29 Y143.24 E510.82694
G0 F12000 X147.95 Y143.24
G1 F7200 X152.99 Y148.28 E511.06389
G0 F12000 X150.99 Y147.97
G1 F7200 X148.01 Y150.95 E511.20415
G0 F12000 X147.81 Y151.72
G1 F7200 X149.46 Y150.07 E511.28148
G0 F12000 X148.57 Y149.83
G1 F7200 X149.90 Y148.50 E511.34378
G0 F12000 X148.80 Y151.29
G1 F7200 X147.73 Y152.36 E511.39411
G0 F12000 X147.76 Y152.90
G1 F7200 X148.70 Y151.96 E511.43802
G0 F12000 X149.27 Y154.37
G0 X150.26 Y156.12
G1 F7200 X144.62 Y161.76 E511.70326
G0 F12000 X147.62 Y161.76
G1 F7200 X143.24 Y157.38 E511.90923
G0 F12000 X143.24 Y153.72
G1 F7200 X153.72 Y143.24 E512.40197
G0 F12000 X157.38 Y143.24
G1 F7200 X161.76 Y147.62 E512.60794
G0 F12000 X161.76 Y144.62
G1 F7200 X156.11 Y150.27 E512.87373
G0 F12000 X157.15 Y151.43
G1 F7200 X156.34 Y152.24 E512.91159
G0 F12000 X156.34 Y152.81
G1 F7200 X157.21 Y151.93 E512.95284
G0 F12000 X157.28 Y152.44
G1 F7200 X156.23 Y153.48 E513.00195
G0 F12000 X157.11 Y153.73
G1 F7200 X153.75 Y157.09 E513.16011
G0 F12000 X153.04 Y157.24
G1 F7200 X154.39 Y155.88 E513.22373
G0 F12000 X154.62 Y156.79
G1 F7200 X156.75 Y154.66 E513.32363
G0 F12000 X155.87 Y154.41
G1 F7200 X157.21 Y153.06 E513.38699
G0 F12000 X154.52 Y155.66
G0 X153.44 Y156.27
G1 F7200 X152.44 Y157.28 E513.43450
G0 F12000 X151.91 Y157.24
G1 F7200 X152.80 Y156.34 E513.47646
;LAYER:30
G0 F12000 X152.50 Y154.89 Z6.25
;TYPE:WALL-INNER
G1 F7200 X152.00 Y154.83 E513.49341
G1 X151.88 Y154.82 E513.49736
G1 X151.46 Y154.67 E513.51193
G1 X151.25 Y154.56 E513.51986
G1 X150.61 Y153.98 E513.54868
G1 X150.45 Y153.74 E513.55812
G1 X150.23 Y153.28 E513.57526
G1 X150.11 Y152.50 E513.60141
G1 X150.23 Y151.72 E513.62757
G1 X150.45 Y151.25 E513.64483
G1 X150.60 Y151.02 E513.65407
G1 X151.25 Y150.44 E513.68289
G1 X151.47 Y150.33 E513.69100
G1 X151.87 Y150.19 E513.70532
G1 X152.50 Y150.11 E513.72632
G1 X153.00 Y150.17 E513.74327
G1 X153.12 Y150.18 E513.74723
G1 X153.54 Y150.33 E513.76180
G1 X153.75 Y150.44 E513.76973
G1 X154.39 Y151.02 E513.79854
G1 X154.55 Y151.26 E513.80798
G1 X154.77 Y151.72 E513.82512
G1 X154.89 Y152.50 E513.85128
G1 X154.77 Y153.28 E513.87743
G1 X154.55 Y153.75 E513.89469
G1 X154.40 Y153.98 E513.90394
G1 X153.75 Y154.56 E513.93275
G1 X153.53 Y154.67 E513.94086
G1 X153.13 Y154.81 E513.95518
G1 X152.50 Y154.89 E513.97619
G0 F12000 X152.50 Y155.29
;TYPE:WALL-OUTER
G1 F7200 X151.95 Y155.23 E513.99467
G1 X151.79 Y155.21 E514.00010
G1 X151.30 Y155.04 E514.01718
G1 X151.02 Y154.89 E514.02773
G1 X150.30 Y154.24 E514.05991
G1 X150.10 Y153.94 E514.07195
G1 X149.85 Y153.40 E514.09196
G1 X149.71 Y152.50 E514.12209
G1 X149.85 Y151.60 E514.15222
G1 X150.10 Y151.06 E514.17232
G1 X150.30 Y150.76 E514.18426
G1 X150.68 Y150.42 E514.20114
G1 X151.02 Y150.12 E514.21628
G1 X151.30 Y149.96 E514.22710
G1 X151.78 Y149.79 E514.24393
G1 X152.30 Y149.73 E514.26129
G1 X152.50 Y149.71 E514.26802
G1 X153.05 Y149.77 E514.28651
G1 X153.21 Y149.79 E514.29193
G1 X153.70 Y149.96 E514.30901
G1 X153.98 Y150.11 E514.31956
G1 X154.70 Y150.76 E514.35174
G1 X154.90 Y151.06 E514.36378
G1 X155.15 Y151.60 E514.38379
G1 X155.29 Y152.50 E514.41392
G1 X155.15 Y153.40 E514.44405
G1 X154.90 Y153.94 E514.46415
G1 X154.70 Y154.24 E514.47610
G1 X154.32 Y154.58 E514.49297
G1 X153.98 Y154.88 E514.50812
G1 X153.70 Y155.04 E514.51894
G1 X153.22 Y155.21 E514.53577
G1 X152.70 Y155.27 E514.55312
G1 X152.50 Y155.29 E514.55985
G0 F12000 X152.74 Y154.72
;TYPE:FILL
G1 F7200 X150.29 Y152.27 E514.67514
G0 F12000 X150.38 Y151.80
G1 F7200 X153.20 Y154.62 E514.80769
G0 F12000 X153.62 Y154.47
G1 F7200 X150.54 Y151.39 E514.95228
G0 F12000 X150.77 Y151.06
G1 F7200 X153.93 Y154.21 E515.10047
G0 F12000 X154.22 Y153.94
G1 F7200 X151.07 Y150.79 E515.24866
G0 F12000 X151.38 Y150.53
G1 F7200 X154.46 Y153.61 E515.39323
G0 F12000 X154.61 Y153.20
G1 F7200 X151.80 Y150.38 E515.52576
G0 F12000 X152.26 Y150.28
G1 F7200 X154.71 Y152.73 E515.64104
G0 F12000 X154.69 Y152.14
G1 F7200 X152.84 Y150.29 E515.72823
G0 F12000 X153.71 Y150.60
G1 F7200 X154.40 Y151.29 E515.76061
G0 F12000 X154.62 Y151.76
G1 F7200 X154.19 Y152.19 E515.78093
G0 F12000 X152.19 Y154.20
G1 F7200 X151.76 Y154.62 E515.80106
G0 F12000 X152.16 Y154.71
G1 F7200 X150.31 Y152.85 E515.88825
G0 F12000 X150.60 Y153.71
G1 F7200 X151.28 Y154.40 E515.92063
G0 F12000 X150.20 Y155.61
G0 X150.32 Y155.85
;TYPE:WALL-INNER
G1 F7200 X150.65 Y156.04 E515.93347
G1 X151.60 Y156.38 E515.96681
G1 X152.50 Y156.49 E515.99706
G1 X153.40 Y156.38 E516.02731
G1 X154.35 Y156.04 E516.06063
G1 X154.68 Y155.85 E516.07351
G1 X155.50 Y155.12 E516.11001
G1 X155.77 Y154.79 E516.12405
G1 X156.08 Y154.16 E516.14740
G1 X156.31 Y153.68 E516.16510
G1 X156.49 Y152.50 E516.20484
G1 X156.31 Y151.32 E516.24459
G1 X155.93 Y150.53 E516.27355
G1 X155.77 Y150.21 E516.28563
G1 X155.50 Y149.88 E516.29964
G1 X154.68 Y149.15 E516.33620
G1 X154.35 Y148.96 E516.34904
G1 X153.40 Y148.62 E516.38238
G1 X152.50 Y148.51 E516.41263
G1 X151.60 Y148.62 E516.44288
G1 X150.65 Y148.96 E516.47620
G1 X150.32 Y149.15 E516.48908
G1 X149.50 Y149.88 E516.52558
G1 X149.23 Y150.21 E516.53962
G1 X148.92 Y150.84 E516.56297
G1 X148.69 Y151.32 E516.58067
G1 X148.51 Y152.50 E516.62041
G1 X148.69 Y153.68 E516.66016
G1 X149.07 Y154.47 E516.68912
G1 X149.23 Y154.79 E516.70120
G1 X149.50 Y155.12 E516.71521
G1 X150.32 Y155.85 E516.75177
G0 F12000 X143.10 Y161.90
G1 F7200 X143.10 Y143.10 E517.37706
G1 X161.90 Y143.10 E518.00235
G1 X161.90 Y161.90 E518.62764
G1 X143.10 Y161.90 E519.25293
G0 F12000 X142.70 Y162.30
;TYPE:WALL-OUTER
G1 F7200 X142.70 Y142.70 E519.90483
G1 X162.30 Y142.70 E520.55673
G1 X162.30 Y162.30 E521.20863
G1 X142.70 Y162.30 E521.86053
G0 F12000 X142.91 Y162.00
G0 X149.59 Y155.06
G0 X149.78 Y154.84
G1 F7200 X150.55 Y155.52 E521.89471
G1 X150.82 Y155.68 E521.90499
G1 X151.69 Y155.99 E521.93565
G1 X152.50 Y156.08 E521.96282
G1 X153.31 Y155.99 E521.98998
G1 X154.18 Y155.68 E522.02060
G1 X154.45 Y155.52 E522.03092
G1 X155.22 Y154.84 E522.06506
G1 X155.44 Y154.58 E522.07647
G1 X155.92 Y153.56 E522.11382
G1 X156.08 Y152.50 E522.14960
G1 X155.92 Y151.44 E522.18534
G1 X155.44 Y150.42 E522.22272
G1 X155.22 Y150.16 E522.23408
G1 X154.45 Y149.48 E522.26827
G1 X154.18 Y149.32 E522.27855
G1 X153.31 Y149.01 E522.30920
G1 X152.50 Y148.92 E522.33637
G1 X151.69 Y149.01 E522.36354
G1 X150.82 Y149.32 E522.39415
G1 X150.55 Y149.48 E522.40448
G1 X149.78 Y150.16 E522.43861
G1 X149.56 Y150.42 E522.45002
G1 X149.08 Y151.44 E522.48738
G1 X148.92 Y152.50 E522.52315
G1 X149.08 Y153.56 E522.55889
G1 X149.56 Y154.58 E522.59628
G1 X149.78 Y154.84 E522.60763
G0 F12000 X148.75 Y154.13
;TYPE:FILL
G1 F7200 X147.61 Y152.99 E522.66121
G0 F12000 X148.12 Y152.83
G1 F7200 X143.24 Y147.95 E522.89082
G0 F12000 X143.24 Y144.29
G1 F7200 X144.29 Y143.24 E522.94011
G0 F12000 X147.95 Y143.24
G1 F7200 X152.82 Y148.10 E523.16888
G0 F12000 X152.63 Y148.39
G1 F7200 X151.85 Y147.60 E523.20583
G0 F12000 X151.39 Y147.71
G1 F7200 X152.10 Y148.42 E523.23922
G0 F12000 X151.59 Y148.48
G1 F7200 X150.95 Y147.84 E523.26933
G0 F12000 X150.55 Y148.00
G1 F7200 X151.17 Y148.63 E523.29875
G0 F12000 X150.75 Y148.77
G1 F7200 X150.15 Y148.17 E523.32697
G0 F12000 X149.80 Y148.39
G1 F7200 X150.37 Y148.96 E523.35388
G0 F12000 X150.05 Y149.20
G1 F7200 X149.48 Y148.63 E523.38062
G0 F12000 X149.17 Y148.89
G1 F7200 X149.75 Y149.47 E523.40799
G0 F12000 X149.45 Y149.73
G1 F7200 X148.88 Y149.16 E523.43490
G0 F12000 X148.64 Y149.49
G1 F7200 X149.19 Y150.03 E523.46067
G0 F12000 X148.98 Y150.39
G1 F7200 X148.41 Y149.82 E523.48765
G0 F12000 X148.18 Y150.16
G1 F7200 X148.80 Y150.78 E523.51686
G0 F12000 X148.62 Y151.16
G1 F7200 X148.00 Y150.55 E523.54564
G0 F12000 X147.84 Y150.96
G1 F7200 X148.51 Y151.62 E523.57685
G0 F12000 X148.43 Y152.11
G1 F7200 X147.69 Y151.37 E523.61161
G0 F12000 X147.63 Y151.87
G1 F7200 X148.39 Y152.63 E523.64750
G0 F12000 X148.50 Y153.30
G1 F7200 X147.57 Y152.38 E523.69111
G0 F12000 X147.69 Y153.63
G1 F7200 X151.33 Y157.27 E523.86230
G0 F12000 X152.03 Y157.40
G1 F7200 X150.90 Y156.28 E523.91517
G0 F12000 X150.15 Y156.23
G1 F7200 X144.62 Y161.76 E524.17535
G0 F12000 X147.62 Y161.76
G1 F7200 X143.24 Y157.38 E524.38133
G0 F12000 X143.24 Y153.72
G1 F7200 X153.72 Y143.24 E524.87406
G0 F12000 X157.38 Y143.24
G1 F7200 X161.76 Y147.62 E525.08004
G0 F12000 X161.76 Y144.62
G1 F7200 X156.21 Y150.18 E525.34123
G0 F12000 X156.25 Y150.87
G1 F7200 X157.38 Y152.01 E525.39481
G0 F12000 X156.88 Y152.16
G1 F7200 X161.76 Y157.05 E525.62440
G0 F12000 X161.76 Y154.05
G1 F7200 X154.05 Y161.76 E525.98703
G0 F12000 X157.04 Y161.76
G1 F7200 X152.18 Y156.90 E526.21579
G0 F12000 X152.37 Y156.61
G1 F7200 X153.15 Y157.39 E526.25276
G0 F12000 X153.61 Y157.29
G1 F7200 X152.90 Y156.58 E526.28611
G0 F12000 X153.41 Y156.52
G1 F7200 X154.04 Y157.16 E526.31617
G0 F12000 X154.45 Y157.00
G1 F7200 X153.83 Y156.37 E526.34557
G0 F12000 X154.24 Y156.22
G1 F7200 X154.84 Y156.82 E526.37381
G0 F12000 X155.20 Y156.61
G1 F7200 X154.62 Y156.04 E526.40074
G0 F12000 X154.95 Y155.80
G1 F7200 X155.52 Y156.37 E526.42748
G0 F12000 X155.83 Y156.11
G1 F7200 X155.25 Y155.53 E526.45486
G0 F12000 X155.55 Y155.26
G1 F7200 X156.12 Y155.84 E526.48176
G0 F12000 X156.36 Y155.51
G1 F7200 X155.81 Y154.96 E526.50754
G0 F12000 X156.02 Y154.60
G1 F7200 X156.59 Y155.18 E526.53454
G0 F12000 X156.82 Y154.84
G1 F7200 X156.20 Y154.22 E526.56375
G0 F12000 X156.38 Y153.84
G1 F7200 X157.00 Y154.45 E526.59251
G0 F12000 X157.15 Y154.04
G1 F7200 X156.49 Y153.38 E526.62372
G0 F12000 X156.57 Y152.89
G1 F7200 X157.31 Y153.63 E526.65848
G0 F12000 X157.37 Y153.13
G1 F7200 X156.61 Y152.36 E526.69437
G0 F12000 X156.50 Y151.69
G1 F7200 X157.43 Y152.62 E526.73797
G0 F12000 X157.31 Y151.37
G1 F7200 X153.67 Y147.73 E526.90914
G0 F12000 X152.97 Y147.60
G1 F7200 X154.09 Y148.72 E526.96201
G0 F12000 X154.54 Y148.03
G1 F7200 X156.96 Y150.45 E527.07556
G0 F12000 X153.28 Y148.47
G1 F7200 X152.38 Y147.57 E527.11789
G0 F12000 X149.23 Y150.21
G0 X148.51 Y152.50
G0 X148.04 Y154.55
G1 F7200 X150.46 Y156.96 E527.23144
G0 F12000 X151.72 Y156.53
G1 F7200 X152.62 Y157.43 E527.27379
;LAYER:31
G1 F2400 E526.07379
G0 F12000 X152.50 Y155.13 Z6.45
;TYPE:WALL-INNER
G1 F2400 E527.27379
G1 F7200 X151.91 Y155.06 E527.29352
G1 X151.42 Y154.89 E527.31088
G1 X151.24 Y154.82 E527.31731
G1 X151.08 Y154.73 E527.32339
G1 X150.50 Y154.22 E527.34931
G1 X150.35 Y154.05 E527.35663
G1 X149.99 Y153.28 E527.38498
G1 X149.91 Y152.74 E527.40305
G1 X149.87 Y152.50 E527.41123
G1 X149.99 Y151.72 E527.43735
G1 X150.35 Y150.95 E527.46572
G1 X150.49 Y150.79 E527.47280
G1 X151.08 Y150.27 E527.49886
G1 X151.24 Y150.17 E527.50527
G1 X151.67 Y150.02 E527.52046
G1 X151.91 Y149.94 E527.52881
G1 X152.50 Y149.87 E527.54854
G1 X153.09 Y149.94 E527.56827
G1 X153.58 Y150.11 E527.58552
G1 X153.76 Y150.18 E527.59205
G1 X153.92 Y150.27 E527.59813
G1 X154.50 Y150.78 E527.62405
G1 X154.65 Y150.95 E527.63137
G1 X155.01 Y151.72 E527.65973
G1 X155.09 Y152.26 E527.67780
G1 X155.13 Y152.50 E527.68591
G1 X155.01 Y153.28 E527.71210
G1 X154.65 Y154.05 E527.74047
G1 X154.51 Y154.21 E527.74755
G1 X153.92 Y154.73 E527.77361
G1 X153.76 Y154.83 E527.78002
G1 X153.33 Y154.98 E527.79521
G1 X153.09 Y155.06 E527.80356
G1 X152.50 Y155.13 E527.82329
G0 F12000 X152.50 Y155.54
;TYPE:WALL-OUTER
G1 F7200 X151.82 Y155.46 E527.84606
G1 X151.29 Y155.27 E527.86490
G1 X151.07 Y155.19 E527.87246
G1 X150.84 Y155.06 E527.88122
G1 X150.20 Y154.49 E527.90963
G1 X150.02 Y154.27 E527.91934
G1 X149.60 Y153.40 E527.95153
G1 X149.46 Y152.50 E527.98165
G1 X149.60 Y151.60 E528.01176
G1 X150.01 Y150.73 E528.04385
G1 X150.20 Y150.51 E528.05360
G1 X150.85 Y149.94 E528.08218
G1 X151.07 Y149.81 E528.09088
G1 X151.82 Y149.54 E528.11711
G1 X152.50 Y149.46 E528.14002
G1 X153.18 Y149.54 E528.16279
G1 X153.71 Y149.73 E528.18163
G1 X153.93 Y149.81 E528.18918
G1 X154.16 Y149.94 E528.19795
G1 X154.80 Y150.51 E528.22636
G1 X154.98 Y150.73 E528.23607
G1 X155.40 Y151.60 E528.26826
G1 X155.54 Y152.50 E528.29838
G1 X155.40 Y153.40 E528.32849
G1 X154.99 Y154.27 E528.36058
G1 X154.80 Y154.49 E528.37033
G1 X154.15 Y155.06 E528.39891
G1 X153.93 Y155.19 E528.40761
G1 X153.18 Y155.46 E528.43384
G1 X152.50 Y155.54 E528.45675
G0 F12000 X152.46 Y154.99
;TYPE:FILL
G1 F7200 X154.98 Y152.47 E528.57533
G0 F12000 X154.91 Y151.97
G1 F7200 X151.96 Y154.93 E528.71423
G0 F12000 X151.72 Y154.66
G1 F7200 X151.58 Y154.80 E528.72074
G0 F12000 X151.54 Y154.78
G1 F7200 X154.77 Y151.55 E528.87295
G0 F12000 X154.79 Y151.59
G1 F7200 X154.65 Y151.74 E528.87980
G0 F12000 X154.59 Y151.16
G1 F7200 X153.27 Y152.48 E528.94188
G0 F12000 X153.13 Y152.06
G1 F7200 X154.35 Y150.84 E528.99953
G0 F12000 X154.05 Y150.57
G1 F7200 X152.80 Y151.82 E529.05837
G0 F12000 X152.25 Y151.80
G1 F7200 X153.73 Y150.32 E529.12808
G0 F12000 X153.32 Y150.17
G1 F7200 X150.16 Y153.32 E529.27658
G0 F12000 X150.35 Y153.71
G1 F7200 X151.81 Y152.25 E529.34534
G0 F12000 X151.82 Y152.80
G1 F7200 X150.55 Y154.07 E529.40515
G0 F12000 X150.85 Y154.34
G1 F7200 X152.06 Y153.13 E529.46202
G0 F12000 X152.48 Y153.27
G1 F7200 X151.15 Y154.61 E529.52486
G0 F12000 X152.59 Y153.79
G1 F7200 X153.79 Y152.59 E529.58156
G0 F12000 X154.89 Y153.12
G1 F7200 X153.11 Y154.91 E529.66562
G0 F12000 X150.06 Y152.86
G1 F7200 X152.87 Y150.05 E529.79770
G0 F12000 X152.33 Y150.03
G1 F7200 X150.04 Y152.32 E529.90565
G0 F12000 X150.21 Y151.58
G1 F7200 X151.60 Y150.19 E529.97110
G0 F12000 X151.07 Y148.68
G0 X151.10 Y148.57
;TYPE:WALL-INNER
G1 F7200 X150.74 Y148.69 E529.98394
G1 X149.94 Y149.15 E530.01437
G1 X149.63 Y149.43 E530.02834
G1 X149.28 Y149.86 E530.04674
G1 X148.98 Y150.20 E530.06189
G1 X148.45 Y151.32 E530.10293
G1 X148.27 Y152.50 E530.14271
G1 X148.45 Y153.68 E530.18249
G1 X148.98 Y154.79 E530.22350
G1 X149.63 Y155.57 E530.25703
G1 X149.94 Y155.85 E530.27100
G1 X150.74 Y156.30 E530.30141
G1 X151.39 Y156.54 E530.32456
G1 X151.64 Y156.63 E530.33323
G1 X152.40 Y156.72 E530.35882
G1 X152.48 Y156.73 E530.36165
G1 X153.20 Y156.64 E530.38568
G1 X153.36 Y156.63 E530.39096
G1 X153.90 Y156.43 E530.41004
G1 X154.26 Y156.31 E530.42288
G1 X155.06 Y155.85 E530.45331
G1 X155.37 Y155.57 E530.46728
G1 X155.72 Y155.14 E530.48567
G1 X156.02 Y154.80 E530.50083
G1 X156.55 Y153.68 E530.54187
G1 X156.73 Y152.50 E530.58165
G1 X156.55 Y151.32 E530.62142
G1 X156.02 Y150.21 E530.66244
G1 X155.37 Y149.43 E530.69596
G1 X155.06 Y149.15 E530.70993
G1 X154.26 Y148.70 E530.74034
G1 X153.61 Y148.46 E530.76360
G1 X153.36 Y148.37 E530.77217
G1 X152.60 Y148.28 E530.79776
G1 X152.52 Y148.27 E530.80059
G1 X151.80 Y148.36 E530.82461
G1 X151.64 Y148.37 E530.82990
G1 X151.10 Y148.57 E530.84897
G0 F12000 X143.10 Y143.10
G1 F7200 X161.90 Y143.10 E531.47426
G1 X161.90 Y161.90 E532.09955
G1 X143.10 Y161.90 E532.72484
G1 X143.10 Y143.10 E533.35013
G0 F12000 X142.70 Y142.70
;TYPE:WALL-OUTER
G1 F7200 X162.30 Y142.70 E534.00203
G1 X162.30 Y162.30 E534.65393
G1 X142.70 Y162.30 E535.30583
G1 X142.70 Y142.70 E535.95773
G0 F12000 X143.00 Y142.91
G0 X149.72 Y149.49
G0 X149.92 Y149.71
G1 F7200 X149.32 Y150.42 E535.98863
G1 X148.84 Y151.44 E536.02599
G1 X148.67 Y152.50 E536.06176
G1 X148.84 Y153.56 E536.09754
G1 X149.32 Y154.58 E536.13489
G1 X149.92 Y155.29 E536.16577
G1 X150.18 Y155.52 E536.17741
G1 X150.90 Y155.94 E536.20524
G1 X151.73 Y156.23 E536.23438
G1 X152.46 Y156.32 E536.25884
G1 X152.50 Y156.33 E536.26005
G1 X153.15 Y156.25 E536.28206
G1 X153.27 Y156.23 E536.28601
G1 X153.77 Y156.06 E536.30354
G1 X154.09 Y155.94 E536.31514
G1 X154.82 Y155.52 E536.34299
G1 X155.08 Y155.29 E536.35463
G1 X155.68 Y154.58 E536.38554
G1 X156.16 Y153.56 E536.42289
G1 X156.33 Y152.50 E536.45867
G1 X156.16 Y151.44 E536.49444
G1 X155.68 Y150.42 E536.53180
G1 X155.08 Y149.71 E536.56268
G1 X154.82 Y149.48 E536.57431
G1 X154.10 Y149.06 E536.60215
G1 X153.27 Y148.77 E536.63129
G1 X152.54 Y148.68 E536.65574
G1 X152.50 Y148.67 E536.65695
G1 X151.85 Y148.75 E536.67897
G1 X151.73 Y148.77 E536.68292
G1 X151.23 Y148.94 E536.70044
G1 X150.91 Y149.06 E536.71205
G1 X150.18 Y149.48 E536.73990
G1 X149.92 Y149.71 E536.75154
G0 F12000 X150.01 Y148.95
;TYPE:FILL
G1 F7200 X151.40 Y147.56 E536.81703
G0 F12000 X152.06 Y147.47
G1 F7200 X151.12 Y148.41 E536.86120
G0 F12000 X150.54 Y147.86
G1 F7200 X147.86 Y150.54 E536.98750
G0 F12000 X148.37 Y151.16
G1 F7200 X147.50 Y152.03 E537.02851
G0 F12000 X147.46 Y152.63
G1 F7200 X148.22 Y151.87 E537.06426
G0 F12000 X148.13 Y152.53
G1 F7200 X147.52 Y153.14 E537.09305
G0 F12000 X147.58 Y153.65
G1 F7200 X148.21 Y153.02 E537.12268
G0 F12000 X148.00 Y152.71
G1 F7200 X143.24 Y147.95 E537.34639
G0 F12000 X143.24 Y144.29
G1 F7200 X144.29 Y143.24 E537.39568
G0 F12000 X147.95 Y143.24
G1 F7200 X152.69 Y147.98 E537.61868
G0 F12000 X152.53 Y148.13
G1 F7200 X153.17 Y147.49 E537.64865
G0 F12000 X153.66 Y147.57
G1 F7200 X153.03 Y148.19 E537.67807
G0 F12000 X153.51 Y148.28
G1 F7200 X154.08 Y147.71 E537.70481
G0 F12000 X154.49 Y147.87
G1 F7200 X154.14 Y148.50 E537.73109
G1 X155.05 Y148.16 E537.75562
G1 X154.88 Y148.89 E537.78078
G1 X155.71 Y148.62 E537.80461
G1 X155.51 Y149.40 E537.82746
G1 X156.28 Y149.18 E537.85123
G1 X156.03 Y150.01 E537.87553
G1 X156.76 Y149.84 E537.89882
G1 X156.34 Y150.55 E537.92645
G0 F12000 X156.52 Y150.93
G1 F7200 X157.09 Y150.36 E537.95312
G0 F12000 X157.23 Y150.78
G1 F7200 X156.69 Y151.32 E537.97849
G0 F12000 X156.77 Y151.81
G1 F7200 X157.37 Y151.21 E538.00707
G0 F12000 X157.46 Y151.69
G1 F7200 X156.84 Y152.30 E538.03614
G0 F12000 X157.00 Y152.29
G1 F7200 X161.76 Y157.05 E538.25984
G0 F12000 X161.76 Y154.05
G1 F7200 X154.05 Y161.76 E538.62247
G0 F12000 X157.04 Y161.76
G1 F7200 X152.31 Y157.02 E538.84545
G0 F12000 X152.30 Y156.84
G1 F7200 X151.66 Y157.48 E538.87537
G0 F12000 X151.19 Y157.39
G1 F7200 X151.80 Y156.78 E538.90394
G0 F12000 X151.35 Y156.67
G1 F7200 X150.78 Y157.24 E538.93057
G0 F12000 X150.38 Y157.07
G1 F7200 X150.73 Y156.43 E538.95634
G1 X149.82 Y156.78 E538.98103
G1 X150.18 Y156.14 E539.00515
G0 F12000 X150.06 Y156.32
G1 F7200 X144.62 Y161.76 E539.26113
G0 F12000 X147.62 Y161.76
G1 F7200 X143.24 Y157.38 E539.46710
G0 F12000 X143.24 Y153.72
G1 F7200 X153.72 Y143.24 E539.95984
G0 F12000 X157.38 Y143.24
G1 F7200 X161.76 Y147.62 E540.16581
G0 F12000 X161.76 Y144.62
G1 F7200 X156.30 Y150.08 E540.42244
G0 F12000 X157.52 Y152.20
G1 F7200 X156.81 Y152.90 E540.45565
G0 F12000 X156.71 Y153.57
G1 F7200 X157.52 Y152.76 E540.49404
G0 F12000 X157.45 Y153.39
G1 F7200 X156.29 Y154.56 E540.54888
G0 F12000 X156.66 Y155.32
G1 F7200 X155.22 Y156.76 E540.61661
G0 F12000 X154.54 Y156.31
G1 F7200 X153.37 Y157.47 E540.67165
G0 F12000 X152.74 Y157.54
G1 F7200 X153.59 Y156.69 E540.71137
G0 F12000 X152.89 Y156.82
G1 F7200 X152.18 Y157.53 E540.74479
G0 F12000 X154.15 Y157.26
G1 F7200 X157.24 Y154.17 E540.89023
G0 F12000 X154.00 Y156.36
G0 X151.64 Y156.62
G0 X149.82 Y155.93
G1 F7200 X149.19 Y156.28 E540.91336
