;-- START GCODE --
;Sliced for Type A Machines Series 1
;Sliced at: Wed 15-04-2015 04:13:29
;Basic settings: Layer height: 0.2 Walls: 0.8 Fill: 12
;Print Speed: 120 Support: 0
;Retraction Speed: 40 Retraction Distance: 1.2
;Print time: #P_TIME#
;Filament used: #F_AMNT#m #F_WGHT#g
;Filament cost: #F_COST#
M106 S255	 ;start with the fan on
G21        ;metric values
G90        ;absolute positioning
M106 S255    ;start with the fan on
G28     ;move to endstops
G29		;allows for auto-levelling
G1 X150 Y5  Z15.0 F12000 ;center and move the platform down 15mm
M109 S220 ;Heat To temp
G92 E0                  ;zero the extruded length
G1 F200 E30              ;extrude 30mm of feed stock
G92 E0                  ;zero the extruded length again
G1 X175 Y25  Z0 F12000 ;remove bugger
G1 X220 F12000 ;remove bugger
G1 X150 Y150  Z15 F12000 ;recenter and begin
G1 F12000

;Layer count: 894
;LAYER:0
M106 S255
G0 F12000 X147.75 Y147.75 Z0.25
;TYPE:SKIRT
G1 F2700 X148.77 Y146.91 E0.05473
G1 X149.93 Y146.29 E0.10970
G1 X151.19 Y145.91 E0.16419
G1 X152.50 Y145.78 E0.21897
G1 X153.81 Y145.91 E0.27375
G1 X155.07 Y146.29 E0.32824
G1 X156.23 Y146.91 E0.38320
G1 X157.25 Y147.75 E0.43794
G1 X158.09 Y148.77 E0.49267
G1 X158.71 Y149.93 E0.54743
G1 X159.09 Y151.19 E0.60214
G1 X159.22 Y152.50 E0.65691
G1 X159.09 Y153.81 E0.71168
G1 X158.71 Y155.07 E0.76639
G1 X158.09 Y156.23 E0.82115
G1 X157.25 Y157.25 E0.87588
G1 X156.23 Y158.09 E0.93061
G1 X155.07 Y158.71 E0.98558
G1 X153.81 Y159.09 E1.04007
G1 X152.50 Y159.22 E1.09485
G1 X151.19 Y159.09 E1.14963
G1 X149.93 Y158.71 E1.20412
G1 X148.77 Y158.09 E1.25908
G1 X147.75 Y157.25 E1.31382
G1 X146.91 Y156.23 E1.36855
G1 X146.29 Y155.07 E1.42351
G1 X145.91 Y153.81 E1.47801
G1 X145.78 Y152.50 E1.53279
G1 X145.91 Y151.19 E1.58757
G1 X146.29 Y149.93 E1.64206
G1 X146.91 Y148.77 E1.69702
G1 X147.75 Y147.75 E1.75176
G0 F12000 X148.03 Y148.03
G1 F2700 X148.99 Y147.25 E1.80321
G1 X150.09 Y146.66 E1.85486
G1 X151.27 Y146.31 E1.90614
G1 X152.50 Y146.18 E1.95762
G1 X153.73 Y146.31 E2.00910
G1 X154.91 Y146.66 E2.06039
G1 X156.01 Y147.25 E2.11204
G1 X156.97 Y148.03 E2.16349
G1 X157.75 Y148.99 E2.21495
G1 X158.33 Y150.08 E2.26645
G1 X158.69 Y151.27 E2.31790
G1 X158.81 Y152.50 E2.36937
G1 X158.69 Y153.73 E2.42083
G1 X158.33 Y154.92 E2.47228
G1 X157.75 Y156.01 E2.52378
G1 X156.97 Y156.97 E2.57524
G1 X156.01 Y157.75 E2.62669
G1 X154.91 Y158.34 E2.67834
G1 X153.73 Y158.69 E2.72963
G1 X152.50 Y158.82 E2.78111
G1 X151.27 Y158.69 E2.83259
G1 X150.09 Y158.34 E2.88387
G1 X148.99 Y157.75 E2.93552
G1 X148.03 Y156.97 E2.98697
G1 X147.25 Y156.01 E3.03843
G1 X146.66 Y154.91 E3.09008
G1 X146.31 Y153.73 E3.14136
G1 X146.18 Y152.50 E3.19284
G1 X146.31 Y151.27 E3.24432
G1 X146.66 Y150.09 E3.29560
G1 X147.25 Y148.99 E3.34726
G1 X148.03 Y148.03 E3.39871
G0 F12000 X148.32 Y148.32
G1 F2700 X149.22 Y147.58 E3.44692
G1 X150.24 Y147.03 E3.49528
G1 X151.35 Y146.70 E3.54326
G1 X152.50 Y146.59 E3.59148
G1 X153.65 Y146.70 E3.63970
G1 X154.76 Y147.03 E3.68768
G1 X155.78 Y147.58 E3.73604
G1 X156.68 Y148.32 E3.78425
G1 X157.42 Y149.22 E3.83245
G1 X157.96 Y150.24 E3.88063
G1 X158.30 Y151.35 E3.92882
G1 X158.41 Y152.50 E3.97702
G1 X158.30 Y153.65 E4.02523
G1 X157.96 Y154.76 E4.07342
G1 X157.42 Y155.78 E4.12159
G1 X156.68 Y156.68 E4.16980
G1 X155.78 Y157.42 E4.21801
G1 X154.76 Y157.97 E4.26637
G1 X153.65 Y158.30 E4.31435
G1 X152.50 Y158.41 E4.36257
G1 X151.35 Y158.30 E4.41079
G1 X150.24 Y157.97 E4.45877
G1 X149.22 Y157.42 E4.50713
G1 X148.32 Y156.68 E4.55533
G1 X147.58 Y155.78 E4.60354
G1 X147.03 Y154.76 E4.65190
G1 X146.70 Y153.65 E4.69988
G1 X146.59 Y152.50 E4.74810
G1 X146.70 Y151.35 E4.79632
G1 X147.03 Y150.24 E4.84430
G1 X147.58 Y149.22 E4.89266
G1 X148.32 Y148.32 E4.94087
G0 F12000 X148.60 Y148.60
G1 F2700 X149.44 Y147.92 E4.98577
G1 X150.39 Y147.41 E5.03084
G1 X151.43 Y147.10 E5.07561
G1 X152.50 Y146.99 E5.12053
G1 X153.57 Y147.10 E5.16545
G1 X154.61 Y147.41 E5.21022
G1 X155.56 Y147.92 E5.25529
G1 X156.40 Y148.60 E5.30019
G1 X157.08 Y149.44 E5.34509
G1 X157.59 Y150.39 E5.39001
G1 X157.91 Y151.43 E5.43495
G1 X158.01 Y152.50 E5.47986
G1 X157.91 Y153.57 E5.52476
G1 X157.59 Y154.61 E5.56970
G1 X157.08 Y155.56 E5.61462
G1 X156.40 Y156.40 E5.65952
G1 X155.56 Y157.08 E5.70442
G1 X154.61 Y157.59 E5.74949
G1 X153.57 Y157.90 E5.79426
G1 X152.50 Y158.01 E5.83918
G1 X151.43 Y157.90 E5.88410
G1 X150.39 Y157.59 E5.92887
G1 X149.44 Y157.08 E5.97394
G1 X148.60 Y156.40 E6.01884
G1 X147.92 Y155.56 E6.06374
G1 X147.41 Y154.61 E6.10881
G1 X147.10 Y153.57 E6.15358
G1 X146.99 Y152.50 E6.19850
G1 X147.10 Y151.43 E6.24342
G1 X147.41 Y150.39 E6.28819
G1 X147.92 Y149.44 E6.33326
G1 X148.60 Y148.60 E6.37816
G1 F2400 E5.17816
G0 F12000 X151.30 Y151.30
;TYPE:WALL-INNER
G1 F2400 E6.37816
G1 F2700 X151.56 Y151.09 E6.39207
G1 X151.85 Y150.94 E6.40583
G1 X152.17 Y150.84 E6.41947
G1 X152.50 Y150.81 E6.43334
G1 X152.83 Y150.84 E6.44721
G1 X153.15 Y150.94 E6.46085
G1 X153.44 Y151.09 E6.47462
G1 X153.70 Y151.30 E6.48853
G1 X153.91 Y151.56 E6.50244
G1 X154.06 Y151.85 E6.51614
G1 X154.16 Y152.17 E6.52993
G1 X154.19 Y152.50 E6.54371
G1 X154.16 Y152.83 E6.55749
G1 X154.06 Y153.15 E6.57128
G1 X153.91 Y153.44 E6.58498
G1 X153.70 Y153.70 E6.59889
G1 X153.44 Y153.91 E6.61280
G1 X153.15 Y154.06 E6.62657
G1 X152.83 Y154.16 E6.64021
G1 X152.50 Y154.19 E6.65408
G1 X152.17 Y154.16 E6.66795
G1 X151.85 Y154.06 E6.68159
G1 X151.56 Y153.91 E6.69535
G1 X151.30 Y153.70 E6.70926
G1 X151.09 Y153.44 E6.72317
G1 X150.94 Y153.15 E6.73693
G1 X150.84 Y152.83 E6.75057
G1 X150.81 Y152.50 E6.76444
G1 X150.84 Y152.17 E6.77832
G1 X150.94 Y151.85 E6.79195
G1 X151.09 Y151.56 E6.80572
G1 X151.30 Y151.30 E6.81963
G0 F12000 X151.02 Y151.02
;TYPE:WALL-OUTER
G1 F2700 X151.34 Y150.76 E6.83688
G1 X151.70 Y150.56 E6.85375
G1 X152.09 Y150.45 E6.87078
G1 X152.50 Y150.41 E6.88791
G1 X152.91 Y150.45 E6.90504
G1 X153.30 Y150.56 E6.92208
G1 X153.66 Y150.76 E6.93895
G1 X153.98 Y151.02 E6.95620
G1 X154.24 Y151.34 E6.97345
G1 X154.44 Y151.70 E6.99034
G1 X154.56 Y152.09 E7.00737
G1 X154.59 Y152.50 E7.02450
G1 X154.56 Y152.91 E7.04163
G1 X154.44 Y153.30 E7.05866
G1 X154.24 Y153.66 E7.07555
G1 X153.98 Y153.98 E7.09280
G1 X153.66 Y154.24 E7.11005
G1 X153.30 Y154.44 E7.12692
G1 X152.91 Y154.55 E7.14395
G1 X152.50 Y154.59 E7.16109
G1 X152.09 Y154.55 E7.17822
G1 X151.70 Y154.44 E7.19525
G1 X151.34 Y154.24 E7.21212
G1 X151.02 Y153.98 E7.22937
G1 X150.76 Y153.66 E7.24662
G1 X150.56 Y153.30 E7.26349
G1 X150.45 Y152.91 E7.28053
G1 X150.41 Y152.50 E7.29766
G1 X150.45 Y152.09 E7.31479
G1 X150.56 Y151.70 E7.33182
G1 X150.76 Y151.34 E7.34869
G1 X151.02 Y151.02 E7.36594
G0 F12000 X151.27 Y151.56
;TYPE:FILL
G1 F2700 X153.44 Y153.72 E7.49335
G0 F12000 X153.72 Y153.44
G1 F2700 X151.56 Y151.27 E7.62082
G0 F12000 X151.91 Y151.06
G1 F2700 X153.94 Y153.09 E7.73986
G0 F12000 X154.04 Y152.62
G1 F2700 X152.38 Y150.96 E7.83772
G0 F12000 X153.02 Y151.04
G1 F2700 X153.95 Y151.97 E7.89246
G0 F12000 X153.09 Y153.94
G1 F2700 X151.06 Y151.91 E8.01155
G0 F12000 X150.96 Y152.37
G1 F2700 X152.62 Y154.04 E8.10939
G0 F12000 X151.97 Y153.96
G1 F2700 X151.04 Y153.02 E8.16425
;LAYER:1
G0 F12000 X150.94 Y153.15 Z0.45
;TYPE:WALL-INNER
G1 F780 X150.84 Y152.83 E8.17516
G1 X150.81 Y152.50 E8.18625
G1 X150.84 Y152.17 E8.19735
G1 X150.94 Y151.85 E8.20826
G1 X151.09 Y151.56 E8.21927
G1 X151.30 Y151.30 E8.23040
G1 X151.56 Y151.09 E8.24153
G1 X151.85 Y150.94 E8.25254
G1 X152.17 Y150.84 E8.26345
G1 X152.50 Y150.81 E8.27455
G1 X152.83 Y150.84 E8.28564
G1 X153.15 Y150.94 E8.29656
G1 X153.44 Y151.09 E8.30757
G1 X153.70 Y151.30 E8.31869
G1 X153.91 Y151.56 E8.32982
G1 X154.06 Y151.85 E8.34079
G1 X154.16 Y152.17 E8.35181
G1 X154.19 Y152.50 E8.36284
G1 X154.16 Y152.83 E8.37387
G1 X154.06 Y153.15 E8.38490
G1 X153.91 Y153.44 E8.39586
G1 X153.70 Y153.70 E8.40699
G1 X153.44 Y153.91 E8.41812
G1 X153.15 Y154.06 E8.42913
G1 X152.83 Y154.16 E8.44004
G1 X152.50 Y154.19 E8.45114
G1 X152.17 Y154.16 E8.46223
G1 X151.85 Y154.06 E8.47314
G1 X151.56 Y153.91 E8.48415
G1 X151.30 Y153.70 E8.49528
G1 X151.09 Y153.44 E8.50641
G1 X150.94 Y153.15 E8.51742
G0 F12000 X150.56 Y153.30
;TYPE:WALL-OUTER
G1 F780 X150.45 Y152.91 E8.53105
G1 X150.41 Y152.50 E8.54475
G1 X150.45 Y152.09 E8.55846
G1 X150.56 Y151.70 E8.57208
G1 X150.76 Y151.34 E8.58558
G1 X151.02 Y151.02 E8.59938
G1 X151.34 Y150.76 E8.61318
G1 X151.70 Y150.56 E8.62668
G1 X152.09 Y150.45 E8.64030
G1 X152.50 Y150.41 E8.65401
G1 X152.91 Y150.45 E8.66771
G1 X153.30 Y150.56 E8.68134
G1 X153.66 Y150.76 E8.69483
G1 X153.98 Y151.02 E8.70864
G1 X154.24 Y151.34 E8.72244
G1 X154.44 Y151.70 E8.73595
G1 X154.56 Y152.09 E8.74958
G1 X154.59 Y152.50 E8.76328
G1 X154.56 Y152.91 E8.77698
G1 X154.44 Y153.30 E8.79060
G1 X154.24 Y153.66 E8.80412
G1 X153.98 Y153.98 E8.81792
G1 X153.66 Y154.24 E8.83172
G1 X153.30 Y154.44 E8.84522
G1 X152.91 Y154.55 E8.85884
G1 X152.50 Y154.59 E8.87255
G1 X152.09 Y154.55 E8.88625
G1 X151.70 Y154.44 E8.89988
G1 X151.34 Y154.24 E8.91337
G1 X151.02 Y153.98 E8.92717
G1 X150.76 Y153.66 E8.94098
G1 X150.56 Y153.30 E8.95447
G0 F12000 X151.04 Y153.01
;TYPE:FILL
G1 F780 X153.01 Y151.04 E9.04732
G0 F12000 X153.39 Y151.23
G1 F780 X151.23 Y153.39 E9.14881
G0 F12000 X151.50 Y153.68
G1 F780 X153.68 Y151.51 E9.25113
G0 F12000 X153.90 Y151.85
G1 F780 X151.85 Y153.90 E9.34775
G0 F12000 X152.29 Y154.03
G1 F780 X154.03 Y152.29 E9.42973
G0 F12000 X154.00 Y152.89
G1 F780 X152.89 Y154.00 E9.48187
G0 F12000 X150.95 Y152.54
G1 F780 X152.54 Y150.95 E9.55647
G0 F12000 X151.81 Y151.12
G1 F780 X151.12 Y151.81 E9.58905
;LAYER:2
G0 F12000 X150.94 Y151.85 Z0.65
;TYPE:WALL-INNER
G1 F780 X151.09 Y151.56 E9.60018
G1 X151.30 Y151.31 E9.61107
G1 X151.55 Y151.10 E9.62196
G1 X151.86 Y150.93 E9.63343
G1 X152.17 Y150.84 E9.64424
G1 X152.50 Y150.81 E9.65534
G1 X152.83 Y150.84 E9.66643
G1 X153.15 Y150.94 E9.67734
G1 X153.44 Y151.09 E9.68847
G1 X153.69 Y151.30 E9.69937
G1 X153.90 Y151.55 E9.71026
G1 X154.06 Y151.86 E9.72168
G1 X154.16 Y152.17 E9.73261
G1 X154.19 Y152.50 E9.74363
G1 X154.16 Y152.83 E9.75466
G1 X154.06 Y153.15 E9.76569
G1 X153.91 Y153.44 E9.77677
G1 X153.70 Y153.69 E9.78767
G1 X153.45 Y153.90 E9.79855
G1 X153.14 Y154.07 E9.81003
G1 X152.83 Y154.16 E9.82083
G1 X152.50 Y154.19 E9.83193
G1 X152.17 Y154.16 E9.84303
G1 X151.85 Y154.06 E9.85394
G1 X151.56 Y153.91 E9.86507
G1 X151.31 Y153.70 E9.87596
G1 X151.10 Y153.45 E9.88685
G1 X150.93 Y153.14 E9.89832
G1 X150.84 Y152.83 E9.90913
G1 X150.81 Y152.50 E9.92023
G1 X150.84 Y152.17 E9.93132
G1 X150.94 Y151.85 E9.94223
G0 F12000 X150.56 Y151.70
;TYPE:WALL-OUTER
G1 F780 X150.76 Y151.34 E9.95583
G1 X151.02 Y151.02 E9.96937
G1 X151.33 Y150.76 E9.98298
G1 X151.70 Y150.56 E9.99694
G1 X152.09 Y150.45 E10.01046
G1 X152.50 Y150.41 E10.02416
G1 X152.91 Y150.45 E10.03787
G1 X153.30 Y150.56 E10.05149
G1 X153.66 Y150.76 E10.06509
G1 X153.98 Y151.02 E10.07863
G1 X154.24 Y151.33 E10.09223
G1 X154.44 Y151.70 E10.10619
G1 X154.56 Y152.09 E10.11972
G1 X154.59 Y152.50 E10.13342
G1 X154.56 Y152.91 E10.14713
G1 X154.44 Y153.30 E10.16075
G1 X154.24 Y153.66 E10.17437
G1 X153.98 Y153.98 E10.18790
G1 X153.67 Y154.24 E10.20151
G1 X153.30 Y154.44 E10.21547
G1 X152.91 Y154.55 E10.22899
G1 X152.50 Y154.59 E10.24269
G1 X152.09 Y154.55 E10.25640
G1 X151.70 Y154.44 E10.27002
G1 X151.34 Y154.24 E10.28362
G1 X151.02 Y153.98 E10.29716
G1 X150.76 Y153.67 E10.31077
G1 X150.56 Y153.30 E10.32472
G1 X150.45 Y152.91 E10.33824
G1 X150.41 Y152.50 E10.35195
G1 X150.45 Y152.09 E10.36565
G1 X150.56 Y151.70 E10.37928
G0 F12000 X151.06 Y151.91
;TYPE:FILL
G1 F780 X153.09 Y153.94 E10.47453
G0 F12000 X153.44 Y153.72
G1 F780 X151.27 Y151.56 E10.57646
G0 F12000 X151.56 Y151.27
G1 F780 X153.72 Y153.44 E10.67843
G0 F12000 X153.94 Y153.09
G1 F780 X151.91 Y151.06 E10.77366
G0 F12000 X152.38 Y150.96
G1 F780 X154.04 Y152.62 E10.85195
G0 F12000 X153.95 Y151.97
G1 F780 X153.02 Y151.04 E10.89574
G0 F12000 X150.96 Y152.37
G1 F780 X152.62 Y154.04 E10.97401
G0 F12000 X151.97 Y153.96
G1 F780 X151.04 Y153.02 E11.01785
;LAYER:3
G0 F12000 X150.94 Y153.15 Z0.85
;TYPE:WALL-INNER
G1 F840 X150.84 Y152.83 E11.02876
G1 X150.81 Y152.50 E11.03986
G1 X150.84 Y152.17 E11.05096
G1 X150.94 Y151.85 E11.06187
G1 X151.09 Y151.56 E11.07288
G1 X151.30 Y151.30 E11.08401
G1 X151.56 Y151.09 E11.09513
G1 X151.85 Y150.94 E11.10615
G1 X152.17 Y150.84 E11.11706
G1 X152.50 Y150.81 E11.12815
G1 X152.83 Y150.84 E11.13925
G1 X153.15 Y150.94 E11.15016
G1 X153.44 Y151.09 E11.16117
G1 X153.70 Y151.30 E11.17230
G1 X153.91 Y151.56 E11.18343
G1 X154.06 Y151.85 E11.19439
G1 X154.16 Y152.17 E11.20542
G1 X154.19 Y152.50 E11.21645
G1 X154.16 Y152.83 E11.22747
G1 X154.06 Y153.15 E11.23850
G1 X153.91 Y153.44 E11.24947
G1 X153.70 Y153.70 E11.26059
G1 X153.44 Y153.91 E11.27172
G1 X153.15 Y154.06 E11.28273
G1 X152.83 Y154.16 E11.29364
G1 X152.50 Y154.19 E11.30474
G1 X152.17 Y154.16 E11.31584
G1 X151.85 Y154.06 E11.32675
G1 X151.56 Y153.91 E11.33776
G1 X151.30 Y153.70 E11.34889
G1 X151.09 Y153.44 E11.36002
G1 X150.94 Y153.15 E11.37103
G0 F12000 X150.56 Y153.30
;TYPE:WALL-OUTER
G1 F840 X150.45 Y152.91 E11.38465
G1 X150.41 Y152.50 E11.39836
G1 X150.45 Y152.09 E11.41206
G1 X150.56 Y151.70 E11.42569
G1 X150.76 Y151.34 E11.43918
G1 X151.02 Y151.02 E11.45298
G1 X151.34 Y150.76 E11.46679
G1 X151.70 Y150.56 E11.48028
G1 X152.09 Y150.45 E11.49391
G1 X152.50 Y150.41 E11.50761
G1 X152.91 Y150.45 E11.52132
G1 X153.30 Y150.56 E11.53494
G1 X153.66 Y150.76 E11.54844
G1 X153.98 Y151.02 E11.56224
G1 X154.24 Y151.34 E11.57604
G1 X154.44 Y151.70 E11.58956
G1 X154.56 Y152.09 E11.60318
G1 X154.59 Y152.50 E11.61688
G1 X154.56 Y152.91 E11.63058
G1 X154.44 Y153.30 E11.64421
G1 X154.24 Y153.66 E11.65772
G1 X153.98 Y153.98 E11.67152
G1 X153.66 Y154.24 E11.68533
G1 X153.30 Y154.44 E11.69882
G1 X152.91 Y154.55 E11.71245
G1 X152.50 Y154.59 E11.72615
G1 X152.09 Y154.55 E11.73986
G1 X151.70 Y154.44 E11.75348
G1 X151.34 Y154.24 E11.76698
G1 X151.02 Y153.98 E11.78078
G1 X150.76 Y153.66 E11.79458
G1 X150.56 Y153.30 E11.80808
G0 F12000 X151.04 Y153.01
;TYPE:FILL
G1 F840 X153.01 Y151.04 E11.90093
G0 F12000 X153.39 Y151.23
G1 F840 X151.23 Y153.39 E12.00241
G0 F12000 X151.50 Y153.68
G1 F840 X153.68 Y151.51 E12.10474
G0 F12000 X153.90 Y151.85
G1 F840 X151.85 Y153.90 E12.20135
G0 F12000 X152.29 Y154.03
G1 F840 X154.03 Y152.29 E12.28334
G0 F12000 X154.00 Y152.89
G1 F840 X152.89 Y154.00 E12.33548
G0 F12000 X150.95 Y152.54
G1 F840 X152.54 Y150.95 E12.41008
G0 F12000 X151.81 Y151.12
G1 F840 X151.12 Y151.81 E12.44265
;LAYER:4
G0 F12000 X150.94 Y151.85 Z1.05
;TYPE:WALL-INNER
G1 F840 X151.09 Y151.56 E12.45366
G1 X151.30 Y151.30 E12.46479
G1 X151.56 Y151.09 E12.47592
G1 X151.85 Y150.94 E12.48693
G1 X152.17 Y150.84 E12.49784
G1 X152.50 Y150.81 E12.50894
G1 X152.83 Y150.84 E12.52004
G1 X153.15 Y150.94 E12.53095
G1 X153.44 Y151.09 E12.54196
G1 X153.70 Y151.30 E12.55309
G1 X153.91 Y151.56 E12.56421
G1 X154.06 Y151.85 E12.57518
G1 X154.16 Y152.17 E12.58620
G1 X154.19 Y152.50 E12.59723
G1 X154.16 Y152.83 E12.60826
G1 X154.06 Y153.15 E12.61929
G1 X153.91 Y153.44 E12.63025
G1 X153.70 Y153.70 E12.64138
G1 X153.44 Y153.91 E12.65251
G1 X153.15 Y154.06 E12.66352
G1 X152.83 Y154.16 E12.67443
G1 X152.50 Y154.19 E12.68553
G1 X152.17 Y154.16 E12.69662
G1 X151.85 Y154.06 E12.70753
G1 X151.56 Y153.91 E12.71854
G1 X151.30 Y153.70 E12.72967
G1 X151.09 Y153.44 E12.74080
G1 X150.94 Y153.15 E12.75181
G1 X150.84 Y152.83 E12.76272
G1 X150.81 Y152.50 E12.77382
G1 X150.84 Y152.17 E12.78492
G1 X150.94 Y151.85 E12.79583
G0 F12000 X150.56 Y151.70
;TYPE:WALL-OUTER
G1 F840 X150.76 Y151.34 E12.80932
G1 X151.02 Y151.02 E12.82313
G1 X151.34 Y150.76 E12.83693
G1 X151.70 Y150.56 E12.85042
G1 X152.09 Y150.45 E12.86405
G1 X152.50 Y150.41 E12.87775
G1 X152.91 Y150.45 E12.89146
G1 X153.30 Y150.56 E12.90508
G1 X153.66 Y150.76 E12.91858
G1 X153.98 Y151.02 E12.93238
G1 X154.24 Y151.34 E12.94618
G1 X154.44 Y151.70 E12.95970
G1 X154.56 Y152.09 E12.97332
G1 X154.59 Y152.50 E12.98702
G1 X154.56 Y152.91 E13.00072
G1 X154.44 Y153.30 E13.01435
G1 X154.24 Y153.66 E13.02786
G1 X153.98 Y153.98 E13.04166
G1 X153.66 Y154.24 E13.05547
G1 X153.30 Y154.44 E13.06896
G1 X152.91 Y154.55 E13.08259
G1 X152.50 Y154.59 E13.09629
G1 X152.09 Y154.55 E13.11000
G1 X151.70 Y154.44 E13.12362
G1 X151.34 Y154.24 E13.13712
G1 X151.02 Y153.98 E13.15092
G1 X150.76 Y153.66 E13.16472
G1 X150.56 Y153.30 E13.17822
G1 X150.45 Y152.91 E13.19184
G1 X150.41 Y152.50 E13.20555
G1 X150.45 Y152.09 E13.21925
G1 X150.56 Y151.70 E13.23288
G0 F12000 X151.06 Y151.91
;TYPE:FILL
G1 F840 X153.09 Y153.94 E13.32815
G0 F12000 X153.44 Y153.72
G1 F840 X151.27 Y151.56 E13.43008
G0 F12000 X151.56 Y151.27
G1 F840 X153.72 Y153.44 E13.53206
G0 F12000 X153.94 Y153.09
G1 F840 X151.91 Y151.06 E13.62728
G0 F12000 X152.38 Y150.96
G1 F840 X154.04 Y152.62 E13.70558
G0 F12000 X153.95 Y151.97
G1 F840 X153.02 Y151.04 E13.74937
G0 F12000 X150.96 Y152.37
G1 F840 X152.62 Y154.04 E13.82764
G0 F12000 X151.97 Y153.96
G1 F840 X151.04 Y153.02 E13.87152
;LAYER:5
G0 F12000 X150.94 Y153.15 Z1.25
;TYPE:WALL-INNER
G1 F540 X150.84 Y152.83 E13.88243
G1 X150.81 Y152.50 E13.89353
G1 X150.84 Y152.17 E13.90463
G1 X150.94 Y151.85 E13.91554
G1 X151.09 Y151.56 E13.92655
G1 X151.30 Y151.30 E13.93768
G1 X151.56 Y151.09 E13.94880
G1 X151.85 Y150.94 E13.95982
G1 X152.17 Y150.84 E13.97073
G1 X152.50 Y150.81 E13.98182
G1 X152.83 Y150.84 E13.99292
G1 X153.15 Y150.94 E14.00383
G1 X153.44 Y151.09 E14.01484
G1 X153.70 Y151.30 E14.02597
G1 X153.91 Y151.56 E14.03710
G1 X154.06 Y151.85 E14.04806
G1 X154.16 Y152.17 E14.05909
G1 X154.19 Y152.50 E14.07012
G1 X154.16 Y152.83 E14.08114
G1 X154.06 Y153.15 E14.09217
G1 X153.91 Y153.44 E14.10314
G1 X153.70 Y153.70 E14.11426
G1 X153.44 Y153.91 E14.12539
G1 X153.15 Y154.06 E14.13640
G1 X152.83 Y154.16 E14.14731
G1 X152.50 Y154.19 E14.15841
G1 X152.17 Y154.16 E14.16951
G1 X151.85 Y154.06 E14.18042
G1 X151.56 Y153.91 E14.19143
G1 X151.30 Y153.70 E14.20256
G1 X151.09 Y153.44 E14.21369
G1 X150.94 Y153.15 E14.22470
G0 F12000 X150.56 Y153.30
;TYPE:WALL-OUTER
G1 F540 X150.45 Y152.91 E14.23832
G1 X150.41 Y152.50 E14.25203
G1 X150.45 Y152.09 E14.26573
G1 X150.56 Y151.70 E14.27936
G1 X150.76 Y151.34 E14.29285
G1 X151.02 Y151.02 E14.30666
G1 X151.34 Y150.76 E14.32046
G1 X151.70 Y150.56 E14.33395
G1 X152.09 Y150.45 E14.34758
G1 X152.50 Y150.41 E14.36128
G1 X152.91 Y150.45 E14.37499
G1 X153.30 Y150.56 E14.38861
G1 X153.66 Y150.76 E14.40211
G1 X153.98 Y151.02 E14.41591
G1 X154.24 Y151.34 E14.42971
G1 X154.44 Y151.70 E14.44323
G1 X154.56 Y152.09 E14.45685
G1 X154.59 Y152.50 E14.47055
G1 X154.56 Y152.91 E14.48425
G1 X154.44 Y153.30 E14.49788
G1 X154.24 Y153.66 E14.51139
G1 X153.98 Y153.98 E14.52519
G1 X153.66 Y154.24 E14.53900
G1 X153.30 Y154.44 E14.55249
G1 X152.91 Y154.55 E14.56612
G1 X152.50 Y154.59 E14.57982
G1 X152.09 Y154.55 E14.59353
G1 X151.70 Y154.44 E14.60715
G1 X151.34 Y154.24 E14.62065
G1 X151.02 Y153.98 E14.63445
G1 X150.76 Y153.66 E14.64825
G1 X150.56 Y153.30 E14.66175
G0 F12000 X150.84 Y153.19
G0 X152.35 Y154.04
;TYPE:FILL
G1 F540 X154.04 Y152.35 E14.74124
;LAYER:6
G0 F12000 X154.16 Y152.17 Z1.45
;TYPE:WALL-INNER
G1 F540 X154.19 Y152.50 E14.75227
G1 X154.16 Y152.83 E14.76330
G1 X154.06 Y153.15 E14.77432
G1 X153.91 Y153.44 E14.78529
G1 X153.70 Y153.70 E14.79641
G1 X153.44 Y153.91 E14.80754
G1 X153.15 Y154.06 E14.81855
G1 X152.83 Y154.16 E14.82946
G1 X152.50 Y154.19 E14.84056
G1 X152.17 Y154.16 E14.85166
G1 X151.85 Y154.06 E14.86257
G1 X151.56 Y153.91 E14.87358
G1 X151.30 Y153.70 E14.88471
G1 X151.09 Y153.44 E14.89584
G1 X150.94 Y153.15 E14.90685
G1 X150.84 Y152.83 E14.91776
G1 X150.81 Y152.50 E14.92885
G1 X150.84 Y152.17 E14.93995
G1 X150.94 Y151.85 E14.95086
G1 X151.09 Y151.56 E14.96187
G1 X151.30 Y151.30 E14.97300
G1 X151.56 Y151.09 E14.98413
G1 X151.85 Y150.94 E14.99514
G1 X152.17 Y150.84 E15.00605
G1 X152.50 Y150.81 E15.01715
G1 X152.83 Y150.84 E15.02825
G1 X153.15 Y150.94 E15.03916
G1 X153.44 Y151.09 E15.05017
G1 X153.70 Y151.30 E15.06129
G1 X153.91 Y151.56 E15.07242
G1 X154.06 Y151.85 E15.08339
G1 X154.16 Y152.17 E15.09441
G0 F12000 X154.56 Y152.09
;TYPE:WALL-OUTER
G1 F540 X154.59 Y152.50 E15.10812
G1 X154.56 Y152.91 E15.12182
G1 X154.44 Y153.30 E15.13544
G1 X154.24 Y153.66 E15.14895
G1 X153.98 Y153.98 E15.16276
G1 X153.66 Y154.24 E15.17656
G1 X153.30 Y154.44 E15.19005
G1 X152.91 Y154.55 E15.20368
G1 X152.50 Y154.59 E15.21739
G1 X152.09 Y154.55 E15.23109
G1 X151.70 Y154.44 E15.24472
G1 X151.34 Y154.24 E15.25821
G1 X151.02 Y153.98 E15.27201
G1 X150.76 Y153.66 E15.28582
G1 X150.56 Y153.30 E15.29931
G1 X150.45 Y152.91 E15.31294
G1 X150.41 Y152.50 E15.32664
G1 X150.45 Y152.09 E15.34035
G1 X150.56 Y151.70 E15.35397
G1 X150.76 Y151.34 E15.36747
G1 X151.02 Y151.02 E15.38127
G1 X151.34 Y150.76 E15.39507
G1 X151.70 Y150.56 E15.40857
G1 X152.09 Y150.45 E15.42219
G1 X152.50 Y150.41 E15.43590
G1 X152.91 Y150.45 E15.44960
G1 X153.30 Y150.56 E15.46323
G1 X153.66 Y150.76 E15.47672
G1 X153.98 Y151.02 E15.49053
G1 X154.24 Y151.34 E15.50433
G1 X154.44 Y151.70 E15.51784
G1 X154.56 Y152.09 E15.53147
G0 F12000 X154.04 Y152.35
;TYPE:FILL
G1 F540 X152.35 Y154.04 E15.61096
;LAYER:7
G0 F12000 X152.17 Y154.16 Z1.65
;TYPE:WALL-INNER
G1 F540 X151.85 Y154.06 E15.62187
G1 X151.56 Y153.91 E15.63288
G1 X151.30 Y153.70 E15.64401
G1 X151.09 Y153.44 E15.65514
G1 X150.94 Y153.15 E15.66615
G1 X150.84 Y152.83 E15.67706
G1 X150.81 Y152.50 E15.68816
G1 X150.84 Y152.17 E15.69925
G1 X150.94 Y151.85 E15.71016
G1 X151.09 Y151.56 E15.72117
G1 X151.30 Y151.30 E15.73230
G1 X151.56 Y151.09 E15.74343
G1 X151.85 Y150.94 E15.75444
G1 X152.17 Y150.84 E15.76535
G1 X152.50 Y150.81 E15.77645
G1 X152.83 Y150.84 E15.78755
G1 X153.15 Y150.94 E15.79846
G1 X153.44 Y151.09 E15.80947
G1 X153.70 Y151.30 E15.82060
G1 X153.91 Y151.56 E15.83172
G1 X154.06 Y151.85 E15.84269
G1 X154.16 Y152.17 E15.85371
G1 X154.19 Y152.50 E15.86474
G1 X154.16 Y152.83 E15.87577
G1 X154.06 Y153.15 E15.88680
G1 X153.91 Y153.44 E15.89776
G1 X153.70 Y153.70 E15.90889
G1 X153.44 Y153.91 E15.92002
G1 X153.15 Y154.06 E15.93103
G1 X152.83 Y154.16 E15.94194
G1 X152.50 Y154.19 E15.95304
G1 X152.17 Y154.16 E15.96413
G0 F12000 X152.09 Y154.55
;TYPE:WALL-OUTER
G1 F540 X151.70 Y154.44 E15.97776
G1 X151.34 Y154.24 E15.99125
G1 X151.02 Y153.98 E16.00506
G1 X150.76 Y153.66 E16.01886
G1 X150.56 Y153.30 E16.03235
G1 X150.45 Y152.91 E16.04598
G1 X150.41 Y152.50 E16.05968
G1 X150.45 Y152.09 E16.07339
G1 X150.56 Y151.70 E16.08701
G1 X150.76 Y151.34 E16.10051
G1 X151.02 Y151.02 E16.11431
G1 X151.34 Y150.76 E16.12812
G1 X151.70 Y150.56 E16.14161
G1 X152.09 Y150.45 E16.15524
G1 X152.50 Y150.41 E16.16894
G1 X152.91 Y150.45 E16.18265
G1 X153.30 Y150.56 E16.19627
G1 X153.66 Y150.76 E16.20977
G1 X153.98 Y151.02 E16.22357
G1 X154.24 Y151.34 E16.23737
G1 X154.44 Y151.70 E16.25088
G1 X154.56 Y152.09 E16.26451
G1 X154.59 Y152.50 E16.27821
G1 X154.56 Y152.91 E16.29191
G1 X154.44 Y153.30 E16.30554
G1 X154.24 Y153.66 E16.31905
G1 X153.98 Y153.98 E16.33285
G1 X153.66 Y154.24 E16.34665
G1 X153.30 Y154.44 E16.36015
G1 X152.91 Y154.55 E16.37377
G1 X152.50 Y154.59 E16.38748
G1 X152.09 Y154.55 E16.40118
G0 F12000 X152.35 Y154.04
;TYPE:FILL
G1 F540 X154.04 Y152.35 E16.48068
;LAYER:8
G0 F12000 X154.16 Y152.17 Z1.85
;TYPE:WALL-INNER
G1 F540 X154.19 Y152.50 E16.49170
G1 X154.16 Y152.83 E16.50273
G1 X154.06 Y153.15 E16.51376
G1 X153.91 Y153.44 E16.52472
G1 X153.70 Y153.70 E16.53585
G1 X153.44 Y153.91 E16.54698
G1 X153.15 Y154.06 E16.55799
G1 X152.83 Y154.16 E16.56890
G1 X152.50 Y154.19 E16.58000
G1 X152.17 Y154.16 E16.59109
G1 X151.85 Y154.06 E16.60201
G1 X151.56 Y153.91 E16.61302
G1 X151.30 Y153.70 E16.62414
G1 X151.09 Y153.44 E16.63527
G1 X150.94 Y153.15 E16.64628
G1 X150.84 Y152.83 E16.65719
G1 X150.81 Y152.50 E16.66829
G1 X150.84 Y152.17 E16.67939
G1 X150.94 Y151.85 E16.69030
G1 X151.09 Y151.56 E16.70131
G1 X151.30 Y151.30 E16.71244
G1 X151.56 Y151.09 E16.72357
G1 X151.85 Y150.94 E16.73458
G1 X152.17 Y150.84 E16.74549
G1 X152.50 Y150.81 E16.75658
G1 X152.83 Y150.84 E16.76768
G1 X153.15 Y150.94 E16.77859
G1 X153.44 Y151.09 E16.78960
G1 X153.70 Y151.30 E16.80073
G1 X153.91 Y151.56 E16.81186
G1 X154.06 Y151.85 E16.82282
G1 X154.16 Y152.17 E16.83385
G0 F12000 X154.56 Y152.09
;TYPE:WALL-OUTER
G1 F540 X154.59 Y152.50 E16.84755
G1 X154.56 Y152.91 E16.86125
G1 X154.44 Y153.30 E16.87488
G1 X154.24 Y153.66 E16.88839
G1 X153.98 Y153.98 E16.90219
G1 X153.66 Y154.24 E16.91600
G1 X153.30 Y154.44 E16.92949
G1 X152.91 Y154.55 E16.94312
G1 X152.50 Y154.59 E16.95682
G1 X152.09 Y154.55 E16.97053
G1 X151.70 Y154.44 E16.98415
G1 X151.34 Y154.24 E16.99765
G1 X151.02 Y153.98 E17.01145
G1 X150.76 Y153.66 E17.02525
G1 X150.56 Y153.30 E17.03875
G1 X150.45 Y152.91 E17.05237
G1 X150.41 Y152.50 E17.06608
G1 X150.45 Y152.09 E17.07978
G1 X150.56 Y151.70 E17.09341
G1 X150.76 Y151.34 E17.10690
G1 X151.02 Y151.02 E17.12071
G1 X151.34 Y150.76 E17.13451
G1 X151.70 Y150.56 E17.14800
G1 X152.09 Y150.45 E17.16163
G1 X152.50 Y150.41 E17.17533
G1 X152.91 Y150.45 E17.18904
G1 X153.30 Y150.56 E17.20266
G1 X153.66 Y150.76 E17.21616
G1 X153.98 Y151.02 E17.22996
G1 X154.24 Y151.34 E17.24376
G1 X154.44 Y151.70 E17.25728
G1 X154.56 Y152.09 E17.27090
G0 F12000 X154.04 Y152.35
;TYPE:FILL
G1 F540 X152.35 Y154.04 E17.35039
;LAYER:9
G0 F12000 X152.17 Y154.16 Z2.05
;TYPE:WALL-INNER
G1 F540 X151.85 Y154.06 E17.36131
G1 X151.56 Y153.91 E17.37232
G1 X151.30 Y153.70 E17.38344
G1 X151.09 Y153.44 E17.39457
G1 X150.94 Y153.15 E17.40558
G1 X150.84 Y152.83 E17.41649
G1 X150.81 Y152.50 E17.42759
G1 X150.84 Y152.17 E17.43869
G1 X150.94 Y151.85 E17.44960
G1 X151.09 Y151.56 E17.46061
G1 X151.30 Y151.30 E17.47174
G1 X151.56 Y151.09 E17.48287
G1 X151.85 Y150.94 E17.49388
G1 X152.17 Y150.84 E17.50479
G1 X152.50 Y150.81 E17.51588
G1 X152.83 Y150.84 E17.52698
G1 X153.15 Y150.94 E17.53789
G1 X153.44 Y151.09 E17.54890
G1 X153.70 Y151.30 E17.56003
G1 X153.91 Y151.56 E17.57116
G1 X154.06 Y151.85 E17.58212
G1 X154.16 Y152.17 E17.59315
G1 X154.19 Y152.50 E17.60418
G1 X154.16 Y152.83 E17.61521
G1 X154.06 Y153.15 E17.62623
G1 X153.91 Y153.44 E17.63720
G1 X153.70 Y153.70 E17.64833
G1 X153.44 Y153.91 E17.65945
G1 X153.15 Y154.06 E17.67046
G1 X152.83 Y154.16 E17.68137
G1 X152.50 Y154.19 E17.69247
G1 X152.17 Y154.16 E17.70357
G0 F12000 X152.09 Y154.55
;TYPE:WALL-OUTER
G1 F540 X151.70 Y154.44 E17.71719
G1 X151.34 Y154.24 E17.73069
G1 X151.02 Y153.98 E17.74449
G1 X150.76 Y153.66 E17.75829
G1 X150.56 Y153.30 E17.77179
G1 X150.45 Y152.91 E17.78542
G1 X150.41 Y152.50 E17.79912
G1 X150.45 Y152.09 E17.81283
G1 X150.56 Y151.70 E17.82645
G1 X150.76 Y151.34 E17.83995
G1 X151.02 Y151.02 E17.85375
G1 X151.34 Y150.76 E17.86755
G1 X151.70 Y150.56 E17.88105
G1 X152.09 Y150.45 E17.89467
G1 X152.50 Y150.41 E17.90838
G1 X152.91 Y150.45 E17.92208
G1 X153.30 Y150.56 E17.93571
G1 X153.66 Y150.76 E17.94920
G1 X153.98 Y151.02 E17.96301
G1 X154.24 Y151.34 E17.97681
G1 X154.44 Y151.70 E17.99032
G1 X154.56 Y152.09 E18.00394
G1 X154.59 Y152.50 E18.01765
G1 X154.56 Y152.91 E18.03135
G1 X154.44 Y153.30 E18.04497
G1 X154.24 Y153.66 E18.05848
G1 X153.98 Y153.98 E18.07229
G1 X153.66 Y154.24 E18.08609
G1 X153.30 Y154.44 E18.09959
G1 X152.91 Y154.55 E18.11321
G1 X152.50 Y154.59 E18.12692
G1 X152.09 Y154.55 E18.14062
G0 F12000 X152.35 Y154.04
;TYPE:FILL
G1 F540 X154.04 Y152.35 E18.22011
;LAYER:10
G0 F12000 X154.16 Y152.17 Z2.25
;TYPE:WALL-INNER
G1 F540 X154.19 Y152.50 E18.23114
G1 X154.16 Y152.83 E18.24217
G1 X154.06 Y153.15 E18.25319
G1 X153.91 Y153.44 E18.26416
G1 X153.70 Y153.70 E18.27529
G1 X153.44 Y153.91 E18.28641
G1 X153.15 Y154.06 E18.29743
G1 X152.83 Y154.16 E18.30834
G1 X152.50 Y154.19 E18.31943
G1 X152.17 Y154.16 E18.33053
G1 X151.85 Y154.06 E18.34144
G1 X151.56 Y153.91 E18.35245
G1 X151.30 Y153.70 E18.36358
G1 X151.09 Y153.44 E18.37471
G1 X150.94 Y153.15 E18.38572
G1 X150.84 Y152.83 E18.39663
G1 X150.81 Y152.50 E18.40773
G1 X150.84 Y152.17 E18.41882
G1 X150.94 Y151.85 E18.42973
G1 X151.09 Y151.56 E18.44075
G1 X151.30 Y151.30 E18.45187
G1 X151.56 Y151.09 E18.46300
G1 X151.85 Y150.94 E18.47401
G1 X152.17 Y150.84 E18.48492
G1 X152.50 Y150.81 E18.49602
G1 X152.83 Y150.84 E18.50712
G1 X153.15 Y150.94 E18.51803
G1 X153.44 Y151.09 E18.52904
G1 X153.70 Y151.30 E18.54017
G1 X153.91 Y151.56 E18.55129
G1 X154.06 Y151.85 E18.56226
G1 X154.16 Y152.17 E18.57329
G0 F12000 X154.56 Y152.09
;TYPE:WALL-OUTER
G1 F540 X154.59 Y152.50 E18.58699
G1 X154.56 Y152.91 E18.60069
G1 X154.44 Y153.30 E18.61431
G1 X154.24 Y153.66 E18.62783
G1 X153.98 Y153.98 E18.64163
G1 X153.66 Y154.24 E18.65543
G1 X153.30 Y154.44 E18.66893
G1 X152.91 Y154.55 E18.68255
G1 X152.50 Y154.59 E18.69626
G1 X152.09 Y154.55 E18.70996
G1 X151.70 Y154.44 E18.72359
G1 X151.34 Y154.24 E18.73708
G1 X151.02 Y153.98 E18.75089
G1 X150.76 Y153.66 E18.76469
G1 X150.56 Y153.30 E18.77818
G1 X150.45 Y152.91 E18.79181
G1 X150.41 Y152.50 E18.80551
G1 X150.45 Y152.09 E18.81922
G1 X150.56 Y151.70 E18.83284
G1 X150.76 Y151.34 E18.84634
G1 X151.02 Y151.02 E18.86014
G1 X151.34 Y150.76 E18.87394
G1 X151.70 Y150.56 E18.88744
G1 X152.09 Y150.45 E18.90107
G1 X152.50 Y150.41 E18.91477
G1 X152.91 Y150.45 E18.92847
G1 X153.30 Y150.56 E18.94210
G1 X153.66 Y150.76 E18.95560
G1 X153.98 Y151.02 E18.96940
G1 X154.24 Y151.34 E18.98320
G1 X154.44 Y151.70 E18.99671
G1 X154.56 Y152.09 E19.01034
G0 F12000 X154.04 Y152.35
;TYPE:FILL
G1 F540 X152.35 Y154.04 E19.08983
;LAYER:11
G0 F12000 X152.17 Y154.16 Z2.45
;TYPE:WALL-INNER
G1 F540 X151.85 Y154.06 E19.10074
G1 X151.56 Y153.91 E19.11175
G1 X151.30 Y153.70 E19.12288
G1 X151.09 Y153.44 E19.13401
G1 X150.94 Y153.15 E19.14502
G1 X150.84 Y152.83 E19.15593
G1 X150.81 Y152.50 E19.16703
G1 X150.84 Y152.17 E19.17812
G1 X150.94 Y151.85 E19.18903
G1 X151.09 Y151.56 E19.20005
G1 X151.30 Y151.30 E19.21117
G1 X151.56 Y151.09 E19.22230
G1 X151.85 Y150.94 E19.23331
G1 X152.17 Y150.84 E19.24422
G1 X152.50 Y150.81 E19.25532
G1 X152.83 Y150.84 E19.26642
G1 X153.15 Y150.94 E19.27733
G1 X153.44 Y151.09 E19.28834
G1 X153.70 Y151.30 E19.29947
G1 X153.91 Y151.56 E19.31059
G1 X154.06 Y151.85 E19.32156
G1 X154.16 Y152.17 E19.33259
G1 X154.19 Y152.50 E19.34361
G1 X154.16 Y152.83 E19.35464
G1 X154.06 Y153.15 E19.36567
G1 X153.91 Y153.44 E19.37663
G1 X153.70 Y153.70 E19.38776
G1 X153.44 Y153.91 E19.39889
G1 X153.15 Y154.06 E19.40990
G1 X152.83 Y154.16 E19.42081
G1 X152.50 Y154.19 E19.43191
G1 X152.17 Y154.16 E19.44300
G0 F12000 X152.09 Y154.55
;TYPE:WALL-OUTER
G1 F540 X151.70 Y154.44 E19.45663
G1 X151.34 Y154.24 E19.47013
G1 X151.02 Y153.98 E19.48393
G1 X150.76 Y153.66 E19.49773
G1 X150.56 Y153.30 E19.51123
G1 X150.45 Y152.91 E19.52485
G1 X150.41 Y152.50 E19.53856
G1 X150.45 Y152.09 E19.55226
G1 X150.56 Y151.70 E19.56589
G1 X150.76 Y151.34 E19.57938
G1 X151.02 Y151.02 E19.59318
G1 X151.34 Y150.76 E19.60699
G1 X151.70 Y150.56 E19.62048
G1 X152.09 Y150.45 E19.63411
G1 X152.50 Y150.41 E19.64781
G1 X152.91 Y150.45 E19.66152
G1 X153.30 Y150.56 E19.67514
G1 X153.66 Y150.76 E19.68864
G1 X153.98 Y151.02 E19.70244
G1 X154.24 Y151.34 E19.71624
G1 X154.44 Y151.70 E19.72976
G1 X154.56 Y152.09 E19.74338
G1 X154.59 Y152.50 E19.75708
G1 X154.56 Y152.91 E19.77078
G1 X154.44 Y153.30 E19.78441
G1 X154.24 Y153.66 E19.79792
G1 X153.98 Y153.98 E19.81172
G1 X153.66 Y154.24 E19.82553
G1 X153.30 Y154.44 E19.83902
G1 X152.91 Y154.55 E19.85265
G1 X152.50 Y154.59 E19.86635
G1 X152.09 Y154.55 E19.88006
G0 F12000 X152.35 Y154.04
;TYPE:FILL
G1 F540 X154.04 Y152.35 E19.95955
;LAYER:12
G0 F12000 X154.16 Y152.17 Z2.65
;TYPE:WALL-INNER
G1 F540 X154.19 Y152.50 E19.97058
G1 X154.16 Y152.83 E19.98160
G1 X154.06 Y153.15 E19.99263
G1 X153.91 Y153.44 E20.00359
G1 X153.70 Y153.70 E20.01472
G1 X153.44 Y153.91 E20.02585
G1 X153.15 Y154.06 E20.03686
G1 X152.83 Y154.16 E20.04777
G1 X152.50 Y154.19 E20.05887
G1 X152.17 Y154.16 E20.06997
G1 X151.85 Y154.06 E20.08088
G1 X151.56 Y153.91 E20.09189
G1 X151.30 Y153.70 E20.10302
G1 X151.09 Y153.44 E20.11414
G1 X150.94 Y153.15 E20.12515
G1 X150.84 Y152.83 E20.13607
G1 X150.81 Y152.50 E20.14716
G1 X150.84 Y152.17 E20.15826
G1 X150.94 Y151.85 E20.16917
G1 X151.09 Y151.56 E20.18018
G1 X151.30 Y151.30 E20.19131
G1 X151.56 Y151.09 E20.20244
G1 X151.85 Y150.94 E20.21345
G1 X152.17 Y150.84 E20.22436
G1 X152.50 Y150.81 E20.23546
G1 X152.83 Y150.84 E20.24655
G1 X153.15 Y150.94 E20.25746
G1 X153.44 Y151.09 E20.26847
G1 X153.70 Y151.30 E20.27960
G1 X153.91 Y151.56 E20.29073
G1 X154.06 Y151.85 E20.30170
G1 X154.16 Y152.17 E20.31272
G0 F12000 X154.56 Y152.09
;TYPE:WALL-OUTER
G1 F540 X154.59 Y152.50 E20.32642
G1 X154.56 Y152.91 E20.34013
G1 X154.44 Y153.30 E20.35375
G1 X154.24 Y153.66 E20.36726
G1 X153.98 Y153.98 E20.38106
G1 X153.66 Y154.24 E20.39487
G1 X153.30 Y154.44 E20.40836
G1 X152.91 Y154.55 E20.42199
G1 X152.50 Y154.59 E20.43569
G1 X152.09 Y154.55 E20.44940
G1 X151.70 Y154.44 E20.46302
G1 X151.34 Y154.24 E20.47652
G1 X151.02 Y153.98 E20.49032
G1 X150.76 Y153.66 E20.50412
G1 X150.56 Y153.30 E20.51762
G1 X150.45 Y152.91 E20.53124
G1 X150.41 Y152.50 E20.54495
G1 X150.45 Y152.09 E20.55865
G1 X150.56 Y151.70 E20.57228
G1 X150.76 Y151.34 E20.58578
G1 X151.02 Y151.02 E20.59958
G1 X151.34 Y150.76 E20.61338
G1 X151.70 Y150.56 E20.62688
G1 X152.09 Y150.45 E20.64050
G1 X152.50 Y150.41 E20.65421
G1 X152.91 Y150.45 E20.66791
G1 X153.30 Y150.56 E20.68154
G1 X153.66 Y150.76 E20.69503
G1 X153.98 Y151.02 E20.70883
G1 X154.24 Y151.34 E20.72264
G1 X154.44 Y151.70 E20.73615
G1 X154.56 Y152.09 E20.74977
G0 F12000 X154.04 Y152.35
;TYPE:FILL
G1 F540 X152.35 Y154.04 E20.82927
;LAYER:13
G0 F12000 X152.17 Y154.16 Z2.85
;TYPE:WALL-INNER
G1 F540 X151.85 Y154.06 E20.84018
G1 X151.56 Y153.91 E20.85119
G1 X151.30 Y153.70 E20.86232
G1 X151.09 Y153.44 E20.87344
G1 X150.94 Y153.15 E20.88445
G1 X150.84 Y152.83 E20.89537
G1 X150.81 Y152.50 E20.90646
G1 X150.84 Y152.17 E20.91756
G1 X150.94 Y151.85 E20.92847
G1 X151.09 Y151.56 E20.93948
G1 X151.30 Y151.30 E20.95061
G1 X151.56 Y151.09 E20.96174
G1 X151.85 Y150.94 E20.97275
G1 X152.17 Y150.84 E20.98366
G1 X152.50 Y150.81 E20.99476
G1 X152.83 Y150.84 E21.00585
G1 X153.15 Y150.94 E21.01676
G1 X153.44 Y151.09 E21.02778
G1 X153.70 Y151.30 E21.03890
G1 X153.91 Y151.56 E21.05003
G1 X154.06 Y151.85 E21.06100
G1 X154.16 Y152.17 E21.07202
G1 X154.19 Y152.50 E21.08305
G1 X154.16 Y152.83 E21.09408
G1 X154.06 Y153.15 E21.10510
G1 X153.91 Y153.44 E21.11607
G1 X153.70 Y153.70 E21.12720
G1 X153.44 Y153.91 E21.13832
G1 X153.15 Y154.06 E21.14934
G1 X152.83 Y154.16 E21.16025
G1 X152.50 Y154.19 E21.17134
G1 X152.17 Y154.16 E21.18244
G0 F12000 X152.09 Y154.55
;TYPE:WALL-OUTER
G1 F540 X151.70 Y154.44 E21.19607
G1 X151.34 Y154.24 E21.20956
G1 X151.02 Y153.98 E21.22336
G1 X150.76 Y153.66 E21.23717
G1 X150.56 Y153.30 E21.25066
G1 X150.45 Y152.91 E21.26429
G1 X150.41 Y152.50 E21.27799
G1 X150.45 Y152.09 E21.29170
G1 X150.56 Y151.70 E21.30532
G1 X150.76 Y151.34 E21.31882
G1 X151.02 Y151.02 E21.33262
G1 X151.34 Y150.76 E21.34642
G1 X151.70 Y150.56 E21.35992
G1 X152.09 Y150.45 E21.37354
G1 X152.50 Y150.41 E21.38725
G1 X152.91 Y150.45 E21.40095
G1 X153.30 Y150.56 E21.41458
G1 X153.66 Y150.76 E21.42807
G1 X153.98 Y151.02 E21.44188
G1 X154.24 Y151.34 E21.45568
G1 X154.44 Y151.70 E21.46919
G1 X154.56 Y152.09 E21.48282
G1 X154.59 Y152.50 E21.49652
G1 X154.56 Y152.91 E21.51022
G1 X154.44 Y153.30 E21.52384
G1 X154.24 Y153.66 E21.53736
G1 X153.98 Y153.98 E21.55116
G1 X153.66 Y154.24 E21.56496
G1 X153.30 Y154.44 E21.57846
G1 X152.91 Y154.55 E21.59208
G1 X152.50 Y154.59 E21.60579
G1 X152.09 Y154.55 E21.61949
G0 F12000 X152.35 Y154.04
;TYPE:FILL
G1 F540 X154.04 Y152.35 E21.69898
;LAYER:14
G0 F12000 X154.16 Y152.17 Z3.05
;TYPE:WALL-INNER
G1 F540 X154.19 Y152.50 E21.71001
G1 X154.16 Y152.83 E21.72104
G1 X154.06 Y153.15 E21.73206
G1 X153.91 Y153.44 E21.74303
G1 X153.70 Y153.70 E21.75416
G1 X153.44 Y153.91 E21.76529
G1 X153.15 Y154.06 E21.77630
G1 X152.83 Y154.16 E21.78721
G1 X152.50 Y154.19 E21.79831
G1 X152.17 Y154.16 E21.80940
G1 X151.85 Y154.06 E21.82031
G1 X151.56 Y153.91 E21.83132
G1 X151.30 Y153.70 E21.84245
G1 X151.09 Y153.44 E21.85358
G1 X150.94 Y153.15 E21.86459
G1 X150.84 Y152.83 E21.87550
G1 X150.81 Y152.50 E21.88660
G1 X150.84 Y152.17 E21.89770
G1 X150.94 Y151.85 E21.90861
G1 X151.09 Y151.56 E21.91962
G1 X151.30 Y151.30 E21.93075
G1 X151.56 Y151.09 E21.94187
G1 X151.85 Y150.94 E21.95288
G1 X152.17 Y150.84 E21.96380
G1 X152.50 Y150.81 E21.97489
G1 X152.83 Y150.84 E21.98599
G1 X153.15 Y150.94 E21.99690
G1 X153.44 Y151.09 E22.00791
G1 X153.70 Y151.30 E22.01904
G1 X153.91 Y151.56 E22.03017
G1 X154.06 Y151.85 E22.04113
G1 X154.16 Y152.17 E22.05216
G0 F12000 X154.56 Y152.09
;TYPE:WALL-OUTER
G1 F540 X154.59 Y152.50 E22.06586
G1 X154.56 Y152.91 E22.07956
G1 X154.44 Y153.30 E22.09319
G1 X154.24 Y153.66 E22.10670
G1 X153.98 Y153.98 E22.12050
G1 X153.66 Y154.24 E22.13430
G1 X153.30 Y154.44 E22.14780
G1 X152.91 Y154.55 E22.16142
G1 X152.50 Y154.59 E22.17513
G1 X152.09 Y154.55 E22.18883
G1 X151.70 Y154.44 E22.20246
G1 X151.34 Y154.24 E22.21595
G1 X151.02 Y153.98 E22.22976
G1 X150.76 Y153.66 E22.24356
G1 X150.56 Y153.30 E22.25706
G1 X150.45 Y152.91 E22.27068
G1 X150.41 Y152.50 E22.28439
G1 X150.45 Y152.09 E22.29809
G1 X150.56 Y151.70 E22.31172
G1 X150.76 Y151.34 E22.32521
G1 X151.02 Y151.02 E22.33901
G1 X151.34 Y150.76 E22.35282
G1 X151.70 Y150.56 E22.36631
G1 X152.09 Y150.45 E22.37994
G1 X152.50 Y150.41 E22.39364
G1 X152.91 Y150.45 E22.40735
G1 X153.30 Y150.56 E22.42097
G1 X153.66 Y150.76 E22.43447
G1 X153.98 Y151.02 E22.44827
G1 X154.24 Y151.34 E22.46207
G1 X154.44 Y151.70 E22.47558
G1 X154.56 Y152.09 E22.48921
G0 F12000 X154.04 Y152.35
;TYPE:FILL
G1 F540 X152.35 Y154.04 E22.56870
;LAYER:15
G0 F12000 X152.17 Y154.16 Z3.25
;TYPE:WALL-INNER
G1 F540 X151.85 Y154.06 E22.57961
G1 X151.56 Y153.91 E22.59062
G1 X151.30 Y153.70 E22.60175
G1 X151.09 Y153.44 E22.61288
G1 X150.94 Y153.15 E22.62389
G1 X150.84 Y152.83 E22.63480
G1 X150.81 Y152.50 E22.64590
G1 X150.84 Y152.17 E22.65700
G1 X150.94 Y151.85 E22.66791
G1 X151.09 Y151.56 E22.67892
G1 X151.30 Y151.30 E22.69005
G1 X151.56 Y151.09 E22.70117
G1 X151.85 Y150.94 E22.71218
G1 X152.17 Y150.84 E22.72310
G1 X152.50 Y150.81 E22.73419
G1 X152.83 Y150.84 E22.74529
G1 X153.15 Y150.94 E22.75620
G1 X153.44 Y151.09 E22.76721
G1 X153.70 Y151.30 E22.77834
G1 X153.91 Y151.56 E22.78947
G1 X154.06 Y151.85 E22.80043
G1 X154.16 Y152.17 E22.81146
G1 X154.19 Y152.50 E22.82249
G1 X154.16 Y152.83 E22.83351
G1 X154.06 Y153.15 E22.84454
G1 X153.91 Y153.44 E22.85551
G1 X153.70 Y153.70 E22.86663
G1 X153.44 Y153.91 E22.87776
G1 X153.15 Y154.06 E22.88877
G1 X152.83 Y154.16 E22.89968
G1 X152.50 Y154.19 E22.91078
G1 X152.17 Y154.16 E22.92188
G0 F12000 X152.09 Y154.55
;TYPE:WALL-OUTER
G1 F540 X151.70 Y154.44 E22.93550
G1 X151.34 Y154.24 E22.94900
G1 X151.02 Y153.98 E22.96280
G1 X150.76 Y153.66 E22.97660
G1 X150.56 Y153.30 E22.99010
G1 X150.45 Y152.91 E23.00372
G1 X150.41 Y152.50 E23.01743
G1 X150.45 Y152.09 E23.03113
G1 X150.56 Y151.70 E23.04476
G1 X150.76 Y151.34 E23.05825
G1 X151.02 Y151.02 E23.07206
G1 X151.34 Y150.76 E23.08586
G1 X151.70 Y150.56 E23.09935
G1 X152.09 Y150.45 E23.11298
G1 X152.50 Y150.41 E23.12668
G1 X152.91 Y150.45 E23.14039
G1 X153.30 Y150.56 E23.15401
G1 X153.66 Y150.76 E23.16751
G1 X153.98 Y151.02 E23.18131
G1 X154.24 Y151.34 E23.19512
G1 X154.44 Y151.70 E23.20863
G1 X154.56 Y152.09 E23.22225
G1 X154.59 Y152.50 E23.23595
G1 X154.56 Y152.91 E23.24966
G1 X154.44 Y153.30 E23.26328
G1 X154.24 Y153.66 E23.27679
G1 X153.98 Y153.98 E23.29059
G1 X153.66 Y154.24 E23.30440
G1 X153.30 Y154.44 E23.31789
G1 X152.91 Y154.55 E23.33152
G1 X152.50 Y154.59 E23.34522
G1 X152.09 Y154.55 E23.35893
G0 F12000 X152.35 Y154.04
;TYPE:FILL
G1 F540 X154.04 Y152.35 E23.43842
;LAYER:16
G0 F12000 X154.16 Y152.17 Z3.45
;TYPE:WALL-INNER
G1 F540 X154.19 Y152.50 E23.44945
G1 X154.16 Y152.83 E23.46047
G1 X154.06 Y153.15 E23.47150
G1 X153.91 Y153.44 E23.48247
G1 X153.70 Y153.70 E23.49359
G1 X153.44 Y153.91 E23.50472
G1 X153.15 Y154.06 E23.51573
G1 X152.83 Y154.16 E23.52664
G1 X152.50 Y154.19 E23.53774
G1 X152.17 Y154.16 E23.54884
G1 X151.85 Y154.06 E23.55975
G1 X151.56 Y153.91 E23.57076
G1 X151.30 Y153.70 E23.58189
G1 X151.09 Y153.44 E23.59302
G1 X150.94 Y153.15 E23.60403
G1 X150.84 Y152.83 E23.61494
G1 X150.81 Y152.50 E23.62603
G1 X150.84 Y152.17 E23.63713
G1 X150.94 Y151.85 E23.64804
G1 X151.09 Y151.56 E23.65905
G1 X151.30 Y151.30 E23.67018
G1 X151.56 Y151.09 E23.68131
G1 X151.85 Y150.94 E23.69232
G1 X152.17 Y150.84 E23.70323
G1 X152.50 Y150.81 E23.71433
G1 X152.83 Y150.84 E23.72542
G1 X153.15 Y150.94 E23.73634
G1 X153.44 Y151.09 E23.74735
G1 X153.70 Y151.30 E23.75847
G1 X153.91 Y151.56 E23.76960
G1 X154.06 Y151.85 E23.78057
G1 X154.16 Y152.17 E23.79159
G0 F12000 X154.56 Y152.09
;TYPE:WALL-OUTER
G1 F540 X154.59 Y152.50 E23.80530
G1 X154.56 Y152.91 E23.81900
G1 X154.44 Y153.30 E23.83262
G1 X154.24 Y153.66 E23.84613
G1 X153.98 Y153.98 E23.85994
G1 X153.66 Y154.24 E23.87374
G1 X153.30 Y154.44 E23.88723
G1 X152.91 Y154.55 E23.90086
G1 X152.50 Y154.59 E23.91456
G1 X152.09 Y154.55 E23.92827
G1 X151.70 Y154.44 E23.94189
G1 X151.34 Y154.24 E23.95539
G1 X151.02 Y153.98 E23.96919
G1 X150.76 Y153.66 E23.98300
G1 X150.56 Y153.30 E23.99649
G1 X150.45 Y152.91 E24.01012
G1 X150.41 Y152.50 E24.02382
G1 X150.45 Y152.09 E24.03753
G1 X150.56 Y151.70 E24.05115
G1 X150.76 Y151.34 E24.06465
G1 X151.02 Y151.02 E24.07845
G1 X151.34 Y150.76 E24.09225
G1 X151.70 Y150.56 E24.10575
G1 X152.09 Y150.45 E24.11937
G1 X152.50 Y150.41 E24.13308
G1 X152.91 Y150.45 E24.14678
G1 X153.30 Y150.56 E24.16041
G1 X153.66 Y150.76 E24.17390
G1 X153.98 Y151.02 E24.18771
G1 X154.24 Y151.34 E24.20151
G1 X154.44 Y151.70 E24.21502
G1 X154.56 Y152.09 E24.22865
G0 F12000 X154.04 Y152.35
;TYPE:FILL
G1 F540 X152.35 Y154.04 E24.30814
;LAYER:17
G0 F12000 X152.17 Y154.16 Z3.65
;TYPE:WALL-INNER
G1 F540 X151.85 Y154.06 E24.31905
G1 X151.56 Y153.91 E24.33006
G1 X151.30 Y153.70 E24.34119
G1 X151.09 Y153.44 E24.35232
G1 X150.94 Y153.15 E24.36333
G1 X150.84 Y152.83 E24.37424
G1 X150.81 Y152.50 E24.38533
G1 X150.84 Y152.17 E24.39643
G1 X150.94 Y151.85 E24.40734
G1 X151.09 Y151.56 E24.41835
G1 X151.30 Y151.30 E24.42948
G1 X151.56 Y151.09 E24.44061
G1 X151.85 Y150.94 E24.45162
G1 X152.17 Y150.84 E24.46253
G1 X152.50 Y150.81 E24.47363
G1 X152.83 Y150.84 E24.48472
G1 X153.15 Y150.94 E24.49564
G1 X153.44 Y151.09 E24.50665
G1 X153.70 Y151.30 E24.51777
G1 X153.91 Y151.56 E24.52890
G1 X154.06 Y151.85 E24.53987
G1 X154.16 Y152.17 E24.55089
G1 X154.19 Y152.50 E24.56192
G1 X154.16 Y152.83 E24.57295
G1 X154.06 Y153.15 E24.58397
G1 X153.91 Y153.44 E24.59494
G1 X153.70 Y153.70 E24.60607
G1 X153.44 Y153.91 E24.61720
G1 X153.15 Y154.06 E24.62821
G1 X152.83 Y154.16 E24.63912
G1 X152.50 Y154.19 E24.65022
G1 X152.17 Y154.16 E24.66131
G0 F12000 X152.09 Y154.55
;TYPE:WALL-OUTER
G1 F540 X151.70 Y154.44 E24.67494
G1 X151.34 Y154.24 E24.68843
G1 X151.02 Y153.98 E24.70224
G1 X150.76 Y153.66 E24.71604
G1 X150.56 Y153.30 E24.72953
G1 X150.45 Y152.91 E24.74316
G1 X150.41 Y152.50 E24.75686
G1 X150.45 Y152.09 E24.77057
G1 X150.56 Y151.70 E24.78419
G1 X150.76 Y151.34 E24.79769
G1 X151.02 Y151.02 E24.81149
G1 X151.34 Y150.76 E24.82529
G1 X151.70 Y150.56 E24.83879
G1 X152.09 Y150.45 E24.85242
G1 X152.50 Y150.41 E24.86612
G1 X152.91 Y150.45 E24.87983
G1 X153.30 Y150.56 E24.89345
G1 X153.66 Y150.76 E24.90695
G1 X153.98 Y151.02 E24.92075
G1 X154.24 Y151.34 E24.93455
G1 X154.44 Y151.70 E24.94806
G1 X154.56 Y152.09 E24.96169
G1 X154.59 Y152.50 E24.97539
G1 X154.56 Y152.91 E24.98909
G1 X154.44 Y153.30 E25.00272
G1 X154.24 Y153.66 E25.01623
G1 X153.98 Y153.98 E25.03003
G1 X153.66 Y154.24 E25.04383
G1 X153.30 Y154.44 E25.05733
G1 X152.91 Y154.55 E25.07095
G1 X152.50 Y154.59 E25.08466
G1 X152.09 Y154.55 E25.09836
G0 F12000 X152.35 Y154.04
;TYPE:FILL
G1 F540 X154.04 Y152.35 E25.17786
;LAYER:18
G0 F12000 X154.16 Y152.17 Z3.85
;TYPE:WALL-INNER
G1 F540 X154.19 Y152.50 E25.18888
G1 X154.16 Y152.83 E25.19991
G1 X154.06 Y153.15 E25.21094
G1 X153.91 Y153.44 E25.22190
G1 X153.70 Y153.70 E25.23303
G1 X153.44 Y153.91 E25.24416
G1 X153.15 Y154.06 E25.25517
G1 X152.83 Y154.16 E25.26608
G1 X152.50 Y154.19 E25.27718
G1 X152.17 Y154.16 E25.28827
G1 X151.85 Y154.06 E25.29918
G1 X151.56 Y153.91 E25.31020
G1 X151.30 Y153.70 E25.32132
G1 X151.09 Y153.44 E25.33245
G1 X150.94 Y153.15 E25.34346
G1 X150.84 Y152.83 E25.35437
G1 X150.81 Y152.50 E25.36547
G1 X150.84 Y152.17 E25.37657
G1 X150.94 Y151.85 E25.38748
G1 X151.09 Y151.56 E25.39849
G1 X151.30 Y151.30 E25.40962
G1 X151.56 Y151.09 E25.42074
G1 X151.85 Y150.94 E25.43176
G1 X152.17 Y150.84 E25.44267
G1 X152.50 Y150.81 E25.45376
G1 X152.83 Y150.84 E25.46486
G1 X153.15 Y150.94 E25.47577
G1 X153.44 Y151.09 E25.48678
G1 X153.70 Y151.30 E25.49791
G1 X153.91 Y151.56 E25.50904
G1 X154.06 Y151.85 E25.52000
G1 X154.16 Y152.17 E25.53103
G0 F12000 X154.56 Y152.09
;TYPE:WALL-OUTER
G1 F540 X154.59 Y152.50 E25.54473
G1 X154.56 Y152.91 E25.55843
G1 X154.44 Y153.30 E25.57206
G1 X154.24 Y153.66 E25.58557
G1 X153.98 Y153.98 E25.59937
G1 X153.66 Y154.24 E25.61317
G1 X153.30 Y154.44 E25.62667
G1 X152.91 Y154.55 E25.64030
G1 X152.50 Y154.59 E25.65400
G1 X152.09 Y154.55 E25.66771
G1 X151.70 Y154.44 E25.68133
G1 X151.34 Y154.24 E25.69483
G1 X151.02 Y153.98 E25.70863
G1 X150.76 Y153.66 E25.72243
G1 X150.56 Y153.30 E25.73593
G1 X150.45 Y152.91 E25.74955
G1 X150.41 Y152.50 E25.76326
G1 X150.45 Y152.09 E25.77696
G1 X150.56 Y151.70 E25.79059
G1 X150.76 Y151.34 E25.80408
G1 X151.02 Y151.02 E25.81789
G1 X151.34 Y150.76 E25.83169
G1 X151.70 Y150.56 E25.84518
G1 X152.09 Y150.45 E25.85881
G1 X152.50 Y150.41 E25.87251
G1 X152.91 Y150.45 E25.88622
G1 X153.30 Y150.56 E25.89984
G1 X153.66 Y150.76 E25.91334
G1 X153.98 Y151.02 E25.92714
G1 X154.24 Y151.34 E25.94094
G1 X154.44 Y151.70 E25.95446
G1 X154.56 Y152.09 E25.96808
G0 F12000 X154.04 Y152.35
;TYPE:FILL
G1 F540 X152.35 Y154.04 E26.04757
;LAYER:19
G0 F12000 X152.17 Y154.16 Z4.05
;TYPE:WALL-INNER
G1 F540 X151.85 Y154.06 E26.05848
G1 X151.56 Y153.91 E26.06950
G1 X151.30 Y153.70 E26.08062
G1 X151.09 Y153.44 E26.09175
G1 X150.94 Y153.15 E26.10276
G1 X150.84 Y152.83 E26.11367
G1 X150.81 Y152.50 E26.12477
G1 X150.84 Y152.17 E26.13587
G1 X150.94 Y151.85 E26.14678
G1 X151.09 Y151.56 E26.15779
G1 X151.30 Y151.30 E26.16892
G1 X151.56 Y151.09 E26.18004
G1 X151.85 Y150.94 E26.19106
G1 X152.17 Y150.84 E26.20197
G1 X152.50 Y150.81 E26.21306
G1 X152.83 Y150.84 E26.22416
G1 X153.15 Y150.94 E26.23507
G1 X153.44 Y151.09 E26.24608
G1 X153.70 Y151.30 E26.25721
G1 X153.91 Y151.56 E26.26834
G1 X154.06 Y151.85 E26.27930
G1 X154.16 Y152.17 E26.29033
G1 X154.19 Y152.50 E26.30136
G1 X154.16 Y152.83 E26.31238
G1 X154.06 Y153.15 E26.32341
G1 X153.91 Y153.44 E26.33438
G1 X153.70 Y153.70 E26.34550
G1 X153.44 Y153.91 E26.35663
G1 X153.15 Y154.06 E26.36764
G1 X152.83 Y154.16 E26.37855
G1 X152.50 Y154.19 E26.38965
G1 X152.17 Y154.16 E26.40075
G0 F12000 X152.09 Y154.55
;TYPE:WALL-OUTER
G1 F540 X151.70 Y154.44 E26.41437
G1 X151.34 Y154.24 E26.42787
G1 X151.02 Y153.98 E26.44167
G1 X150.76 Y153.66 E26.45547
G1 X150.56 Y153.30 E26.46897
G1 X150.45 Y152.91 E26.48260
G1 X150.41 Y152.50 E26.49630
G1 X150.45 Y152.09 E26.51000
G1 X150.56 Y151.70 E26.52363
G1 X150.76 Y151.34 E26.53713
G1 X151.02 Y151.02 E26.55093
G1 X151.34 Y150.76 E26.56473
G1 X151.70 Y150.56 E26.57823
G1 X152.09 Y150.45 E26.59185
G1 X152.50 Y150.41 E26.60556
G1 X152.91 Y150.45 E26.61926
G1 X153.30 Y150.56 E26.63289
G1 X153.66 Y150.76 E26.64638
G1 X153.98 Y151.02 E26.66018
G1 X154.24 Y151.34 E26.67399
G1 X154.44 Y151.70 E26.68750
G1 X154.56 Y152.09 E26.70112
G1 X154.59 Y152.50 E26.71483
G1 X154.56 Y152.91 E26.72853
G1 X154.44 Y153.30 E26.74215
G1 X154.24 Y153.66 E26.75566
G1 X153.98 Y153.98 E26.76947
G1 X153.66 Y154.24 E26.78327
G1 X153.30 Y154.44 E26.79676
G1 X152.91 Y154.55 E26.81039
G1 X152.50 Y154.59 E26.82409
G1 X152.09 Y154.55 E26.83780
G0 F12000 X152.35 Y154.04
;TYPE:FILL
G1 F540 X154.04 Y152.35 E26.91729
;LAYER:20
G0 F12000 X154.16 Y152.17 Z4.25
;TYPE:WALL-INNER
G1 F540 X154.19 Y152.50 E26.92832
G1 X154.16 Y152.83 E26.93935
G1 X154.06 Y153.15 E26.95037
G1 X153.91 Y153.44 E26.96134
G1 X153.70 Y153.70 E26.97247
G1 X153.44 Y153.91 E26.98359
G1 X153.15 Y154.06 E26.99460
G1 X152.83 Y154.16 E27.00552
G1 X152.50 Y154.19 E27.01661
G1 X152.17 Y154.16 E27.02771
G1 X151.85 Y154.06 E27.03862
G1 X151.56 Y153.91 E27.04963
G1 X151.30 Y153.70 E27.06076
G1 X151.09 Y153.44 E27.07189
G1 X150.94 Y153.15 E27.08290
G1 X150.84 Y152.83 E27.09381
G1 X150.81 Y152.50 E27.10491
G1 X150.84 Y152.17 E27.11600
G1 X150.94 Y151.85 E27.12691
G1 X151.09 Y151.56 E27.13793
G1 X151.30 Y151.30 E27.14905
G1 X151.56 Y151.09 E27.16018
G1 X151.85 Y150.94 E27.17119
G1 X152.17 Y150.84 E27.18210
G1 X152.50 Y150.81 E27.19320
G1 X152.83 Y150.84 E27.20430
G1 X153.15 Y150.94 E27.21521
G1 X153.44 Y151.09 E27.22622
G1 X153.70 Y151.30 E27.23735
G1 X153.91 Y151.56 E27.24847
G1 X154.06 Y151.85 E27.25944
G1 X154.16 Y152.17 E27.27047
G0 F12000 X154.56 Y152.09
;TYPE:WALL-OUTER
G1 F540 X154.59 Y152.50 E27.28417
G1 X154.56 Y152.91 E27.29787
G1 X154.44 Y153.30 E27.31149
G1 X154.24 Y153.66 E27.32501
G1 X153.98 Y153.98 E27.33881
G1 X153.66 Y154.24 E27.35261
G1 X153.30 Y154.44 E27.36611
G1 X152.91 Y154.55 E27.37973
G1 X152.50 Y154.59 E27.39344
G1 X152.09 Y154.55 E27.40714
G1 X151.70 Y154.44 E27.42077
G1 X151.34 Y154.24 E27.43426
G1 X151.02 Y153.98 E27.44806
G1 X150.76 Y153.66 E27.46187
G1 X150.56 Y153.30 E27.47536
G1 X150.45 Y152.91 E27.48899
G1 X150.41 Y152.50 E27.50269
G1 X150.45 Y152.09 E27.51640
G1 X150.56 Y151.70 E27.53002
G1 X150.76 Y151.34 E27.54352
G1 X151.02 Y151.02 E27.55732
G1 X151.34 Y150.76 E27.57112
G1 X151.70 Y150.56 E27.58462
G1 X152.09 Y150.45 E27.59824
G1 X152.50 Y150.41 E27.61195
G1 X152.91 Y150.45 E27.62565
G1 X153.30 Y150.56 E27.63928
G1 X153.66 Y150.76 E27.65278
G1 X153.98 Y151.02 E27.66658
G1 X154.24 Y151.34 E27.68038
G1 X154.44 Y151.70 E27.69389
G1 X154.56 Y152.09 E27.70752
G0 F12000 X154.04 Y152.35
;TYPE:FILL
G1 F540 X152.35 Y154.04 E27.78701
;LAYER:21
G0 F12000 X152.17 Y154.16 Z4.45
;TYPE:WALL-INNER
G1 F540 X151.85 Y154.06 E27.79792
G1 X151.56 Y153.91 E27.80893
G1 X151.30 Y153.70 E27.82006
G1 X151.09 Y153.44 E27.83119
G1 X150.94 Y153.15 E27.84220
G1 X150.84 Y152.83 E27.85311
G1 X150.81 Y152.50 E27.86421
G1 X150.84 Y152.17 E27.87530
G1 X150.94 Y151.85 E27.88621
G1 X151.09 Y151.56 E27.89723
G1 X151.30 Y151.30 E27.90835
G1 X151.56 Y151.09 E27.91948
G1 X151.85 Y150.94 E27.93049
G1 X152.17 Y150.84 E27.94140
G1 X152.50 Y150.81 E27.95250
G1 X152.83 Y150.84 E27.96360
G1 X153.15 Y150.94 E27.97451
G1 X153.44 Y151.09 E27.98552
G1 X153.70 Y151.30 E27.99665
G1 X153.91 Y151.56 E28.00777
G1 X154.06 Y151.85 E28.01874
G1 X154.16 Y152.17 E28.02977
G1 X154.19 Y152.50 E28.04079
G1 X154.16 Y152.83 E28.05182
G1 X154.06 Y153.15 E28.06285
G1 X153.91 Y153.44 E28.07381
G1 X153.70 Y153.70 E28.08494
G1 X153.44 Y153.91 E28.09607
G1 X153.15 Y154.06 E28.10708
G1 X152.83 Y154.16 E28.11799
G1 X152.50 Y154.19 E28.12909
G1 X152.17 Y154.16 E28.14018
G0 F12000 X152.09 Y154.55
;TYPE:WALL-OUTER
G1 F540 X151.70 Y154.44 E28.15381
G1 X151.34 Y154.24 E28.16731
G1 X151.02 Y153.98 E28.18111
G1 X150.76 Y153.66 E28.19491
G1 X150.56 Y153.30 E28.20841
G1 X150.45 Y152.91 E28.22203
G1 X150.41 Y152.50 E28.23574
G1 X150.45 Y152.09 E28.24944
G1 X150.56 Y151.70 E28.26307
G1 X150.76 Y151.34 E28.27656
G1 X151.02 Y151.02 E28.29036
G1 X151.34 Y150.76 E28.30417
G1 X151.70 Y150.56 E28.31766
G1 X152.09 Y150.45 E28.33129
G1 X152.50 Y150.41 E28.34499
G1 X152.91 Y150.45 E28.35870
G1 X153.30 Y150.56 E28.37232
G1 X153.66 Y150.76 E28.38582
G1 X153.98 Y151.02 E28.39962
G1 X154.24 Y151.34 E28.41342
G1 X154.44 Y151.70 E28.42693
G1 X154.56 Y152.09 E28.44056
G1 X154.59 Y152.50 E28.45426
G1 X154.56 Y152.91 E28.46796
G1 X154.44 Y153.30 E28.48159
G1 X154.24 Y153.66 E28.49510
G1 X153.98 Y153.98 E28.50890
G1 X153.66 Y154.24 E28.52270
G1 X153.30 Y154.44 E28.53620
G1 X152.91 Y154.55 E28.54983
G1 X152.50 Y154.59 E28.56353
G1 X152.09 Y154.55 E28.57724
G0 F12000 X152.35 Y154.04
;TYPE:FILL
G1 F540 X154.04 Y152.35 E28.65673
;LAYER:22
G0 F12000 X154.16 Y152.17 Z4.65
;TYPE:WALL-INNER
G1 F540 X154.19 Y152.50 E28.66775
G1 X154.16 Y152.83 E28.67878
G1 X154.06 Y153.15 E28.68981
G1 X153.91 Y153.44 E28.70077
G1 X153.70 Y153.70 E28.71190
G1 X153.44 Y153.91 E28.72303
G1 X153.15 Y154.06 E28.73404
G1 X152.83 Y154.16 E28.74495
G1 X152.50 Y154.19 E28.75605
G1 X152.17 Y154.16 E28.76715
G1 X151.85 Y154.06 E28.77806
G1 X151.56 Y153.91 E28.78907
G1 X151.30 Y153.70 E28.80020
G1 X151.09 Y153.44 E28.81132
G1 X150.94 Y153.15 E28.82233
G1 X150.84 Y152.83 E28.83325
G1 X150.81 Y152.50 E28.84434
G1 X150.84 Y152.17 E28.85544
G1 X150.94 Y151.85 E28.86635
G1 X151.09 Y151.56 E28.87736
G1 X151.30 Y151.30 E28.88849
G1 X151.56 Y151.09 E28.89962
G1 X151.85 Y150.94 E28.91063
G1 X152.17 Y150.84 E28.92154
G1 X152.50 Y150.81 E28.93264
G1 X152.83 Y150.84 E28.94373
G1 X153.15 Y150.94 E28.95464
G1 X153.44 Y151.09 E28.96565
G1 X153.70 Y151.30 E28.97678
G1 X153.91 Y151.56 E28.98791
G1 X154.06 Y151.85 E28.99888
G1 X154.16 Y152.17 E29.00990
G0 F12000 X154.56 Y152.09
;TYPE:WALL-OUTER
G1 F540 X154.59 Y152.50 E29.02360
G1 X154.56 Y152.91 E29.03730
G1 X154.44 Y153.30 E29.05093
G1 X154.24 Y153.66 E29.06444
G1 X153.98 Y153.98 E29.07824
G1 X153.66 Y154.24 E29.09205
G1 X153.30 Y154.44 E29.10554
G1 X152.91 Y154.55 E29.11917
G1 X152.50 Y154.59 E29.13287
G1 X152.09 Y154.55 E29.14658
G1 X151.70 Y154.44 E29.16020
G1 X151.34 Y154.24 E29.17370
G1 X151.02 Y153.98 E29.18750
G1 X150.76 Y153.66 E29.20130
G1 X150.56 Y153.30 E29.21480
G1 X150.45 Y152.91 E29.22842
G1 X150.41 Y152.50 E29.24213
G1 X150.45 Y152.09 E29.25583
G1 X150.56 Y151.70 E29.26946
G1 X150.76 Y151.34 E29.28295
G1 X151.02 Y151.02 E29.29676
G1 X151.34 Y150.76 E29.31056
G1 X151.70 Y150.56 E29.32406
G1 X152.09 Y150.45 E29.33768
G1 X152.50 Y150.41 E29.35139
G1 X152.91 Y150.45 E29.36509
G1 X153.30 Y150.56 E29.37872
G1 X153.66 Y150.76 E29.39221
G1 X153.98 Y151.02 E29.40601
G1 X154.24 Y151.34 E29.41982
G1 X154.44 Y151.70 E29.43333
G1 X154.56 Y152.09 E29.44695
G0 F12000 X154.04 Y152.35
;TYPE:FILL
G1 F540 X152.35 Y154.04 E29.52645
;LAYER:23
G0 F12000 X152.17 Y154.16 Z4.85
;TYPE:WALL-INNER
G1 F540 X151.85 Y154.06 E29.53736
G1 X151.56 Y153.91 E29.54837
G1 X151.30 Y153.70 E29.55950
G1 X151.09 Y153.44 E29.57062
G1 X150.94 Y153.15 E29.58163
G1 X150.84 Y152.83 E29.59255
G1 X150.81 Y152.50 E29.60364
G1 X150.84 Y152.17 E29.61474
G1 X150.94 Y151.85 E29.62565
G1 X151.09 Y151.56 E29.63666
G1 X151.30 Y151.30 E29.64779
G1 X151.56 Y151.09 E29.65892
G1 X151.85 Y150.94 E29.66993
G1 X152.17 Y150.84 E29.68084
G1 X152.50 Y150.81 E29.69194
G1 X152.83 Y150.84 E29.70303
G1 X153.15 Y150.94 E29.71394
G1 X153.44 Y151.09 E29.72495
G1 X153.70 Y151.30 E29.73608
G1 X153.91 Y151.56 E29.74721
G1 X154.06 Y151.85 E29.75818
G1 X154.16 Y152.17 E29.76920
G1 X154.19 Y152.50 E29.78023
G1 X154.16 Y152.83 E29.79126
G1 X154.06 Y153.15 E29.80228
G1 X153.91 Y153.44 E29.81325
G1 X153.70 Y153.70 E29.82438
G1 X153.44 Y153.91 E29.83550
G1 X153.15 Y154.06 E29.84651
G1 X152.83 Y154.16 E29.85743
G1 X152.50 Y154.19 E29.86852
G1 X152.17 Y154.16 E29.87962
G0 F12000 X152.09 Y154.55
;TYPE:WALL-OUTER
G1 F540 X151.70 Y154.44 E29.89325
G1 X151.34 Y154.24 E29.90674
G1 X151.02 Y153.98 E29.92054
G1 X150.76 Y153.66 E29.93435
G1 X150.56 Y153.30 E29.94784
G1 X150.45 Y152.91 E29.96147
G1 X150.41 Y152.50 E29.97517
G1 X150.45 Y152.09 E29.98888
G1 X150.56 Y151.70 E30.00250
G1 X150.76 Y151.34 E30.01600
G1 X151.02 Y151.02 E30.02980
G1 X151.34 Y150.76 E30.04360
G1 X151.70 Y150.56 E30.05710
G1 X152.09 Y150.45 E30.07072
G1 X152.50 Y150.41 E30.08443
G1 X152.91 Y150.45 E30.09813
G1 X153.30 Y150.56 E30.11176
G1 X153.66 Y150.76 E30.12525
G1 X153.98 Y151.02 E30.13906
G1 X154.24 Y151.34 E30.15286
G1 X154.44 Y151.70 E30.16637
G1 X154.56 Y152.09 E30.18000
G1 X154.59 Y152.50 E30.19370
G1 X154.56 Y152.91 E30.20740
G1 X154.44 Y153.30 E30.22102
G1 X154.24 Y153.66 E30.23454
G1 X153.98 Y153.98 E30.24834
G1 X153.66 Y154.24 E30.26214
G1 X153.30 Y154.44 E30.27564
G1 X152.91 Y154.55 E30.28926
G1 X152.50 Y154.59 E30.30297
G1 X152.09 Y154.55 E30.31667
G0 F12000 X152.35 Y154.04
;TYPE:FILL
G1 F540 X154.04 Y152.35 E30.39616
;LAYER:24
G0 F12000 X154.16 Y152.17 Z5.05
;TYPE:WALL-INNER
G1 F540 X154.19 Y152.50 E30.40719
G1 X154.16 Y152.83 E30.41822
G1 X154.06 Y153.15 E30.42924
G1 X153.91 Y153.44 E30.44021
G1 X153.70 Y153.70 E30.45134
G1 X153.44 Y153.91 E30.46247
G1 X153.15 Y154.06 E30.47348
G1 X152.83 Y154.16 E30.48439
G1 X152.50 Y154.19 E30.49548
G1 X152.17 Y154.16 E30.50658
G1 X151.85 Y154.06 E30.51749
G1 X151.56 Y153.91 E30.52850
G1 X151.30 Y153.70 E30.53963
G1 X151.09 Y153.44 E30.55076
G1 X150.94 Y153.15 E30.56177
G1 X150.84 Y152.83 E30.57268
G1 X150.81 Y152.50 E30.58378
G1 X150.84 Y152.17 E30.59487
G1 X150.94 Y151.85 E30.60579
G1 X151.09 Y151.56 E30.61680
G1 X151.30 Y151.30 E30.62792
G1 X151.56 Y151.09 E30.63905
G1 X151.85 Y150.94 E30.65006
G1 X152.17 Y150.84 E30.66097
G1 X152.50 Y150.81 E30.67207
G1 X152.83 Y150.84 E30.68317
G1 X153.15 Y150.94 E30.69408
G1 X153.44 Y151.09 E30.70509
G1 X153.70 Y151.30 E30.71622
G1 X153.91 Y151.56 E30.72735
G1 X154.06 Y151.85 E30.73831
G1 X154.16 Y152.17 E30.74934
G0 F12000 X154.56 Y152.09
;TYPE:WALL-OUTER
G1 F540 X154.59 Y152.50 E30.76304
G1 X154.56 Y152.91 E30.77674
G1 X154.44 Y153.30 E30.79037
G1 X154.24 Y153.66 E30.80388
G1 X153.98 Y153.98 E30.81768
G1 X153.66 Y154.24 E30.83148
G1 X153.30 Y154.44 E30.84498
G1 X152.91 Y154.55 E30.85860
G1 X152.50 Y154.59 E30.87231
G1 X152.09 Y154.55 E30.88601
G1 X151.70 Y154.44 E30.89964
G1 X151.34 Y154.24 E30.91313
G1 X151.02 Y153.98 E30.92694
G1 X150.76 Y153.66 E30.94074
G1 X150.56 Y153.30 E30.95423
G1 X150.45 Y152.91 E30.96786
G1 X150.41 Y152.50 E30.98156
G1 X150.45 Y152.09 E30.99527
G1 X150.56 Y151.70 E31.00889
G1 X150.76 Y151.34 E31.02239
G1 X151.02 Y151.02 E31.03619
G1 X151.34 Y150.76 E31.05000
G1 X151.70 Y150.56 E31.06349
G1 X152.09 Y150.45 E31.07712
G1 X152.50 Y150.41 E31.09082
G1 X152.91 Y150.45 E31.10453
G1 X153.30 Y150.56 E31.11815
G1 X153.66 Y150.76 E31.13165
G1 X153.98 Y151.02 E31.14545
G1 X154.24 Y151.34 E31.15925
G1 X154.44 Y151.70 E31.17276
G1 X154.56 Y152.09 E31.18639
G0 F12000 X154.04 Y152.35
;TYPE:FILL
G1 F540 X152.35 Y154.04 E31.26588
;LAYER:25
G0 F12000 X152.17 Y154.16 Z5.25
;TYPE:WALL-INNER
G1 F540 X151.85 Y154.06 E31.27679
G1 X151.56 Y153.91 E31.28780
G1 X151.30 Y153.70 E31.29893
G1 X151.09 Y153.44 E31.31006
G1 X150.94 Y153.15 E31.32107
G1 X150.84 Y152.83 E31.33198
G1 X150.81 Y152.50 E31.34308
G1 X150.84 Y152.17 E31.35417
G1 X150.94 Y151.85 E31.36509
G1 X151.09 Y151.56 E31.37610
G1 X151.30 Y151.30 E31.38722
G1 X151.56 Y151.09 E31.39835
G1 X151.85 Y150.94 E31.40936
G1 X152.17 Y150.84 E31.42027
G1 X152.50 Y150.81 E31.43137
G1 X152.83 Y150.84 E31.44247
G1 X153.15 Y150.94 E31.45338
G1 X153.44 Y151.09 E31.46439
G1 X153.70 Y151.30 E31.47552
G1 X153.91 Y151.56 E31.48665
G1 X154.06 Y151.85 E31.49761
G1 X154.16 Y152.17 E31.50864
G1 X154.19 Y152.50 E31.51967
G1 X154.16 Y152.83 E31.53069
G1 X154.06 Y153.15 E31.54172
G1 X153.91 Y153.44 E31.55268
G1 X153.70 Y153.70 E31.56381
G1 X153.44 Y153.91 E31.57494
G1 X153.15 Y154.06 E31.58595
G1 X152.83 Y154.16 E31.59686
G1 X152.50 Y154.19 E31.60796
G1 X152.17 Y154.16 E31.61906
G0 F12000 X152.09 Y154.55
;TYPE:WALL-OUTER
G1 F540 X151.70 Y154.44 E31.63268
G1 X151.34 Y154.24 E31.64618
G1 X151.02 Y153.98 E31.65998
G1 X150.76 Y153.66 E31.67378
G1 X150.56 Y153.30 E31.68728
G1 X150.45 Y152.91 E31.70090
G1 X150.41 Y152.50 E31.71461
G1 X150.45 Y152.09 E31.72831
G1 X150.56 Y151.70 E31.74194
G1 X150.76 Y151.34 E31.75543
G1 X151.02 Y151.02 E31.76924
G1 X151.34 Y150.76 E31.78304
G1 X151.70 Y150.56 E31.79653
G1 X152.09 Y150.45 E31.81016
G1 X152.50 Y150.41 E31.82386
G1 X152.91 Y150.45 E31.83757
G1 X153.30 Y150.56 E31.85119
G1 X153.66 Y150.76 E31.86469
G1 X153.98 Y151.02 E31.87849
G1 X154.24 Y151.34 E31.89229
G1 X154.44 Y151.70 E31.90581
G1 X154.56 Y152.09 E31.91943
G1 X154.59 Y152.50 E31.93313
G1 X154.56 Y152.91 E31.94683
G1 X154.44 Y153.30 E31.96046
G1 X154.24 Y153.66 E31.97397
G1 X153.98 Y153.98 E31.98777
G1 X153.66 Y154.24 E32.00158
G1 X153.30 Y154.44 E32.01507
G1 X152.91 Y154.55 E32.02870
G1 X152.50 Y154.59 E32.04240
G1 X152.09 Y154.55 E32.05611
G0 F12000 X152.35 Y154.04
;TYPE:FILL
G1 F540 X154.04 Y152.35 E32.13560
;LAYER:26
G0 F12000 X154.16 Y152.17 Z5.45
;TYPE:WALL-INNER
G1 F540 X154.19 Y152.50 E32.14663
G1 X154.16 Y152.83 E32.15765
G1 X154.06 Y153.15 E32.16868
G1 X153.91 Y153.44 E32.17965
G1 X153.70 Y153.70 E32.19077
G1 X153.44 Y153.91 E32.20190
G1 X153.15 Y154.06 E32.21291
G1 X152.83 Y154.16 E32.22382
G1 X152.50 Y154.19 E32.23492
G1 X152.17 Y154.16 E32.24602
G1 X151.85 Y154.06 E32.25693
G1 X151.56 Y153.91 E32.26794
G1 X151.30 Y153.70 E32.27907
G1 X151.09 Y153.44 E32.29019
G1 X150.94 Y153.15 E32.30121
G1 X150.84 Y152.83 E32.31212
G1 X150.81 Y152.50 E32.32321
G1 X150.84 Y152.17 E32.33431
G1 X150.94 Y151.85 E32.34522
G1 X151.09 Y151.56 E32.35623
G1 X151.30 Y151.30 E32.36736
G1 X151.56 Y151.09 E32.37849
G1 X151.85 Y150.94 E32.38950
G1 X152.17 Y150.84 E32.40041
G1 X152.50 Y150.81 E32.41151
G1 X152.83 Y150.84 E32.42260
G1 X153.15 Y150.94 E32.43352
G1 X153.44 Y151.09 E32.44453
G1 X153.70 Y151.30 E32.45565
G1 X153.91 Y151.56 E32.46678
G1 X154.06 Y151.85 E32.47775
G1 X154.16 Y152.17 E32.48877
G0 F12000 X154.56 Y152.09
;TYPE:WALL-OUTER
G1 F540 X154.59 Y152.50 E32.50247
G1 X154.56 Y152.91 E32.51618
G1 X154.44 Y153.30 E32.52980
G1 X154.24 Y153.66 E32.54331
G1 X153.98 Y153.98 E32.55712
G1 X153.66 Y154.24 E32.57092
G1 X153.30 Y154.44 E32.58441
G1 X152.91 Y154.55 E32.59804
G1 X152.50 Y154.59 E32.61174
G1 X152.09 Y154.55 E32.62545
G1 X151.70 Y154.44 E32.63907
G1 X151.34 Y154.24 E32.65257
G1 X151.02 Y153.98 E32.66637
G1 X150.76 Y153.66 E32.68017
G1 X150.56 Y153.30 E32.69367
G1 X150.45 Y152.91 E32.70730
G1 X150.41 Y152.50 E32.72100
G1 X150.45 Y152.09 E32.73471
G1 X150.56 Y151.70 E32.74833
G1 X150.76 Y151.34 E32.76183
G1 X151.02 Y151.02 E32.77563
G1 X151.34 Y150.76 E32.78943
G1 X151.70 Y150.56 E32.80293
G1 X152.09 Y150.45 E32.81655
G1 X152.50 Y150.41 E32.83026
G1 X152.91 Y150.45 E32.84396
G1 X153.30 Y150.56 E32.85759
G1 X153.66 Y150.76 E32.87108
G1 X153.98 Y151.02 E32.88489
G1 X154.24 Y151.34 E32.89869
G1 X154.44 Y151.70 E32.91220
G1 X154.56 Y152.09 E32.92582
G0 F12000 X154.04 Y152.35
;TYPE:FILL
G1 F540 X152.35 Y154.04 E33.00532
;LAYER:27
G0 F12000 X152.17 Y154.16 Z5.65
;TYPE:WALL-INNER
G1 F540 X151.85 Y154.06 E33.01623
G1 X151.56 Y153.91 E33.02724
G1 X151.30 Y153.70 E33.03837
G1 X151.09 Y153.44 E33.04949
G1 X150.94 Y153.15 E33.06051
G1 X150.84 Y152.83 E33.07142
G1 X150.81 Y152.50 E33.08251
G1 X150.84 Y152.17 E33.09361
G1 X150.94 Y151.85 E33.10452
G1 X151.09 Y151.56 E33.11553
G1 X151.30 Y151.30 E33.12666
G1 X151.56 Y151.09 E33.13779
G1 X151.85 Y150.94 E33.14880
G1 X152.17 Y150.84 E33.15971
G1 X152.50 Y150.81 E33.17081
G1 X152.83 Y150.84 E33.18190
G1 X153.15 Y150.94 E33.19282
G1 X153.44 Y151.09 E33.20383
G1 X153.70 Y151.30 E33.21495
G1 X153.91 Y151.56 E33.22608
G1 X154.06 Y151.85 E33.23705
G1 X154.16 Y152.17 E33.24807
G1 X154.19 Y152.50 E33.25910
G1 X154.16 Y152.83 E33.27013
G1 X154.06 Y153.15 E33.28115
G1 X153.91 Y153.44 E33.29212
G1 X153.70 Y153.70 E33.30325
G1 X153.44 Y153.91 E33.31438
G1 X153.15 Y154.06 E33.32539
G1 X152.83 Y154.16 E33.33630
G1 X152.50 Y154.19 E33.34739
G1 X152.17 Y154.16 E33.35849
G0 F12000 X152.09 Y154.55
;TYPE:WALL-OUTER
G1 F540 X151.70 Y154.44 E33.37212
G1 X151.34 Y154.24 E33.38561
G1 X151.02 Y153.98 E33.39942
G1 X150.76 Y153.66 E33.41322
G1 X150.56 Y153.30 E33.42671
G1 X150.45 Y152.91 E33.44034
G1 X150.41 Y152.50 E33.45404
G1 X150.45 Y152.09 E33.46775
G1 X150.56 Y151.70 E33.48137
G1 X150.76 Y151.34 E33.49487
G1 X151.02 Y151.02 E33.50867
G1 X151.34 Y150.76 E33.52247
G1 X151.70 Y150.56 E33.53597
G1 X152.09 Y150.45 E33.54960
G1 X152.50 Y150.41 E33.56330
G1 X152.91 Y150.45 E33.57700
G1 X153.30 Y150.56 E33.59063
G1 X153.66 Y150.76 E33.60413
G1 X153.98 Y151.02 E33.61793
G1 X154.24 Y151.34 E33.63173
G1 X154.44 Y151.70 E33.64524
G1 X154.56 Y152.09 E33.65887
G1 X154.59 Y152.50 E33.67257
G1 X154.56 Y152.91 E33.68627
G1 X154.44 Y153.30 E33.69990
G1 X154.24 Y153.66 E33.71341
G1 X153.98 Y153.98 E33.72721
G1 X153.66 Y154.24 E33.74101
G1 X153.30 Y154.44 E33.75451
G1 X152.91 Y154.55 E33.76813
G1 X152.50 Y154.59 E33.78184
G1 X152.09 Y154.55 E33.79554
G0 F12000 X152.35 Y154.04
;TYPE:FILL
G1 F540 X154.04 Y152.35 E33.87504
;LAYER:28
G0 F12000 X154.16 Y152.17 Z5.85
;TYPE:WALL-INNER
G1 F540 X154.19 Y152.50 E33.88606
G1 X154.16 Y152.83 E33.89709
G1 X154.06 Y153.15 E33.90812
G1 X153.91 Y153.44 E33.91908
G1 X153.70 Y153.70 E33.93021
G1 X153.44 Y153.91 E33.94134
G1 X153.15 Y154.06 E33.95235
G1 X152.83 Y154.16 E33.96326
G1 X152.50 Y154.19 E33.97436
G1 X152.17 Y154.16 E33.98545
G1 X151.85 Y154.06 E33.99636
G1 X151.56 Y153.91 E34.00738
G1 X151.30 Y153.70 E34.01850
G1 X151.09 Y153.44 E34.02963
G1 X150.94 Y153.15 E34.04064
G1 X150.84 Y152.83 E34.05155
G1 X150.81 Y152.50 E34.06265
G1 X150.84 Y152.17 E34.07375
G1 X150.94 Y151.85 E34.08466
G1 X151.09 Y151.56 E34.09567
G1 X151.30 Y151.30 E34.10680
G1 X151.56 Y151.09 E34.11792
G1 X151.85 Y150.94 E34.12894
G1 X152.17 Y150.84 E34.13985
G1 X152.50 Y150.81 E34.15094
G1 X152.83 Y150.84 E34.16204
G1 X153.15 Y150.94 E34.17295
G1 X153.44 Y151.09 E34.18396
G1 X153.70 Y151.30 E34.19509
G1 X153.91 Y151.56 E34.20622
G1 X154.06 Y151.85 E34.21718
G1 X154.16 Y152.17 E34.22821
G0 F12000 X154.56 Y152.09
;TYPE:WALL-OUTER
G1 F540 X154.59 Y152.50 E34.24191
G1 X154.56 Y152.91 E34.25561
G1 X154.44 Y153.30 E34.26924
G1 X154.24 Y153.66 E34.28275
G1 X153.98 Y153.98 E34.29655
G1 X153.66 Y154.24 E34.31035
G1 X153.30 Y154.44 E34.32385
G1 X152.91 Y154.55 E34.33748
G1 X152.50 Y154.59 E34.35118
G1 X152.09 Y154.55 E34.36488
G1 X151.70 Y154.44 E34.37851
G1 X151.34 Y154.24 E34.39201
G1 X151.02 Y153.98 E34.40581
G1 X150.76 Y153.66 E34.41961
G1 X150.56 Y153.30 E34.43311
G1 X150.45 Y152.91 E34.44673
G1 X150.41 Y152.50 E34.46044
G1 X150.45 Y152.09 E34.47414
G1 X150.56 Y151.70 E34.48777
G1 X150.76 Y151.34 E34.50126
G1 X151.02 Y151.02 E34.51506
G1 X151.34 Y150.76 E34.52887
G1 X151.70 Y150.56 E34.54236
G1 X152.09 Y150.45 E34.55599
G1 X152.50 Y150.41 E34.56969
G1 X152.91 Y150.45 E34.58340
G1 X153.30 Y150.56 E34.59702
G1 X153.66 Y150.76 E34.61052
G1 X153.98 Y151.02 E34.62432
G1 X154.24 Y151.34 E34.63812
G1 X154.44 Y151.70 E34.65164
G1 X154.56 Y152.09 E34.66526
G0 F12000 X154.04 Y152.35
;TYPE:FILL
G1 F540 X152.35 Y154.04 E34.74475
;LAYER:29
G0 F12000 X152.17 Y154.16 Z6.05
;TYPE:WALL-INNER
G1 F540 X151.85 Y154.06 E34.75566
G1 X151.56 Y153.91 E34.76668
G1 X151.30 Y153.70 E34.77780
G1 X151.09 Y153.44 E34.78893
G1 X150.94 Y153.15 E34.79994
G1 X150.84 Y152.83 E34.81085
G1 X150.81 Y152.50 E34.82195
G1 X150.84 Y152.17 E34.83305
G1 X150.94 Y151.85 E34.84396
G1 X151.09 Y151.56 E34.85497
G1 X151.30 Y151.30 E34.86610
G1 X151.56 Y151.09 E34.87722
G1 X151.85 Y150.94 E34.88824
G1 X152.17 Y150.84 E34.89915
G1 X152.50 Y150.81 E34.91024
G1 X152.83 Y150.84 E34.92134
G1 X153.15 Y150.94 E34.93225
G1 X153.44 Y151.09 E34.94326
G1 X153.70 Y151.30 E34.95439
G1 X153.91 Y151.56 E34.96552
G1 X154.06 Y151.85 E34.97648
G1 X154.16 Y152.17 E34.98751
G1 X154.19 Y152.50 E34.99854
G1 X154.16 Y152.83 E35.00956
G1 X154.06 Y153.15 E35.02059
G1 X153.91 Y153.44 E35.03156
G1 X153.70 Y153.70 E35.04268
G1 X153.44 Y153.91 E35.05381
G1 X153.15 Y154.06 E35.06482
G1 X152.83 Y154.16 E35.07573
G1 X152.50 Y154.19 E35.08683
G1 X152.17 Y154.16 E35.09793
G0 F12000 X152.09 Y154.55
;TYPE:WALL-OUTER
G1 F540 X151.70 Y154.44 E35.11155
G1 X151.34 Y154.24 E35.12505
G1 X151.02 Y153.98 E35.13885
G1 X150.76 Y153.66 E35.15265
G1 X150.56 Y153.30 E35.16615
G1 X150.45 Y152.91 E35.17977
G1 X150.41 Y152.50 E35.19348
G1 X150.45 Y152.09 E35.20718
G1 X150.56 Y151.70 E35.22081
G1 X150.76 Y151.34 E35.23431
G1 X151.02 Y151.02 E35.24811
G1 X151.34 Y150.76 E35.26191
G1 X151.70 Y150.56 E35.27541
G1 X152.09 Y150.45 E35.28903
G1 X152.50 Y150.41 E35.30274
G1 X152.91 Y150.45 E35.31644
G1 X153.30 Y150.56 E35.33007
G1 X153.66 Y150.76 E35.34356
G1 X153.98 Y151.02 E35.35736
G1 X154.24 Y151.34 E35.37117
G1 X154.44 Y151.70 E35.38468
G1 X154.56 Y152.09 E35.39830
G1 X154.59 Y152.50 E35.41201
G1 X154.56 Y152.91 E35.42571
G1 X154.44 Y153.30 E35.43933
G1 X154.24 Y153.66 E35.45284
G1 X153.98 Y153.98 E35.46665
G1 X153.66 Y154.24 E35.48045
G1 X153.30 Y154.44 E35.49394
G1 X152.91 Y154.55 E35.50757
G1 X152.50 Y154.59 E35.52127
G1 X152.09 Y154.55 E35.53498
G0 F12000 X152.35 Y154.04
;TYPE:FILL
G1 F540 X154.04 Y152.35 E35.61447
;LAYER:30
G0 F12000 X154.16 Y152.17 Z6.25
;TYPE:WALL-INNER
G1 F540 X154.19 Y152.50 E35.62550
G1 X154.16 Y152.83 E35.63653
G1 X154.06 Y153.15 E35.64755
G1 X153.91 Y153.44 E35.65852
G1 X153.70 Y153.70 E35.66965
G1 X153.44 Y153.91 E35.68077
G1 X153.15 Y154.06 E35.69178
G1 X152.83 Y154.16 E35.70270
G1 X152.50 Y154.19 E35.71379
G1 X152.17 Y154.16 E35.72489
G1 X151.85 Y154.06 E35.73580
G1 X151.56 Y153.91 E35.74681
G1 X151.30 Y153.70 E35.75794
G1 X151.09 Y153.44 E35.76907
G1 X150.94 Y153.15 E35.78008
G1 X150.84 Y152.83 E35.79099
G1 X150.81 Y152.50 E35.80209
G1 X150.84 Y152.17 E35.81318
G1 X150.94 Y151.85 E35.82409
G1 X151.09 Y151.56 E35.83510
G1 X151.30 Y151.30 E35.84623
G1 X151.56 Y151.09 E35.85736
G1 X151.85 Y150.94 E35.86837
G1 X152.17 Y150.84 E35.87928
G1 X152.50 Y150.81 E35.89038
G1 X152.83 Y150.84 E35.90148
G1 X153.15 Y150.94 E35.91239
G1 X153.44 Y151.09 E35.92340
G1 X153.70 Y151.30 E35.93453
G1 X153.91 Y151.56 E35.94565
G1 X154.06 Y151.85 E35.95662
G1 X154.16 Y152.17 E35.96765
G0 F12000 X154.56 Y152.09
;TYPE:WALL-OUTER
G1 F540 X154.59 Y152.50 E35.98135
G1 X154.56 Y152.91 E35.99505
G1 X154.44 Y153.30 E36.00867
G1 X154.24 Y153.66 E36.02219
G1 X153.98 Y153.98 E36.03599
G1 X153.66 Y154.24 E36.04979
G1 X153.30 Y154.44 E36.06329
G1 X152.91 Y154.55 E36.07691
G1 X152.50 Y154.59 E36.09062
G1 X152.09 Y154.55 E36.10432
G1 X151.70 Y154.44 E36.11795
G1 X151.34 Y154.24 E36.13144
G1 X151.02 Y153.98 E36.14524
G1 X150.76 Y153.66 E36.15905
G1 X150.56 Y153.30 E36.17254
G1 X150.45 Y152.91 E36.18617
G1 X150.41 Y152.50 E36.19987
G1 X150.45 Y152.09 E36.21358
G1 X150.56 Y151.70 E36.22720
G1 X150.76 Y151.34 E36.24070
G1 X151.02 Y151.02 E36.25450
G1 X151.34 Y150.76 E36.26830
G1 X151.70 Y150.56 E36.28180
G1 X152.09 Y150.45 E36.29542
G1 X152.50 Y150.41 E36.30913
G1 X152.91 Y150.45 E36.32283
G1 X153.30 Y150.56 E36.33646
G1 X153.66 Y150.76 E36.34995
G1 X153.98 Y151.02 E36.36376
G1 X154.24 Y151.34 E36.37756
G1 X154.44 Y151.70 E36.39107
G1 X154.56 Y152.09 E36.40470
G0 F12000 X154.04 Y152.35
;TYPE:FILL
G1 F540 X152.35 Y154.04 E36.48419
;LAYER:31
G0 F12000 X152.17 Y154.16 Z6.45
;TYPE:WALL-INNER
G1 F540 X151.85 Y154.06 E36.49510
G1 X151.56 Y153.91 E36.50611
G1 X151.30 Y153.70 E36.51724
G1 X151.09 Y153.44 E36.52837
G1 X150.94 Y153.15 E36.53938
G1 X150.84 Y152.83 E36.55029
G1 X150.81 Y152.50 E36.56139
G1 X150.84 Y152.17 E36.57248
G1 X150.94 Y151.85 E36.58339
G1 X151.09 Y151.56 E36.59440
G1 X151.30 Y151.30 E36.60553
G1 X151.56 Y151.09 E36.61666
G1 X151.85 Y150.94 E36.62767
G1 X152.17 Y150.84 E36.63858
G1 X152.50 Y150.81 E36.64968
G1 X152.83 Y150.84 E36.66078
G1 X153.15 Y150.94 E36.67169
G1 X153.44 Y151.09 E36.68270
G1 X153.70 Y151.30 E36.69383
G1 X153.91 Y151.56 E36.70495
G1 X154.06 Y151.85 E36.71592
G1 X154.16 Y152.17 E36.72695
G1 X154.19 Y152.50 E36.73797
G1 X154.16 Y152.83 E36.74900
G1 X154.06 Y153.15 E36.76003
G1 X153.91 Y153.44 E36.77099
G1 X153.70 Y153.70 E36.78212
G1 X153.44 Y153.91 E36.79325
G1 X153.15 Y154.06 E36.80426
G1 X152.83 Y154.16 E36.81517
G1 X152.50 Y154.19 E36.82627
G1 X152.17 Y154.16 E36.83736
G0 F12000 X152.09 Y154.55
;TYPE:WALL-OUTER
G1 F540 X151.70 Y154.44 E36.85099
G1 X151.34 Y154.24 E36.86448
G1 X151.02 Y153.98 E36.87829
G1 X150.76 Y153.66 E36.89209
G1 X150.56 Y153.30 E36.90559
G1 X150.45 Y152.91 E36.91921
G1 X150.41 Y152.50 E36.93292
G1 X150.45 Y152.09 E36.94662
G1 X150.56 Y151.70 E36.96025
G1 X150.76 Y151.34 E36.97374
G1 X151.02 Y151.02 E36.98754
G1 X151.34 Y150.76 E37.00135
G1 X151.70 Y150.56 E37.01484
G1 X152.09 Y150.45 E37.02847
G1 X152.50 Y150.41 E37.04217
G1 X152.91 Y150.45 E37.05588
G1 X153.30 Y150.56 E37.06950
G1 X153.66 Y150.76 E37.08300
G1 X153.98 Y151.02 E37.09680
G1 X154.24 Y151.34 E37.11060
G1 X154.44 Y151.70 E37.12411
G1 X154.56 Y152.09 E37.13774
G1 X154.59 Y152.50 E37.15144
G1 X154.56 Y152.91 E37.16514
G1 X154.44 Y153.30 E37.17877
G1 X154.24 Y153.66 E37.19228
G1 X153.98 Y153.98 E37.20608
G1 X153.66 Y154.24 E37.21988
G1 X153.30 Y154.44 E37.23338
G1 X152.91 Y154.55 E37.24701
G1 X152.50 Y154.59 E37.26071
G1 X152.09 Y154.55 E37.27441
G0 F12000 X152.35 Y154.04
;TYPE:FILL
G1 F540 X154.04 Y152.35 E37.35391
;LAYER:32
G0 F12000 X154.16 Y152.17 Z6.65
;TYPE:WALL-INNER
G1 F540 X154.19 Y152.50 E37.36493
G1 X154.16 Y152.83 E37.37596
G1 X154.06 Y153.15 E37.38699
G1 X153.91 Y153.44 E37.39795
G1 X153.70 Y153.70 E37.40908
G1 X153.44 Y153.91 E37.42021
G1 X153.15 Y154.06 E37.43122
G1 X152.83 Y154.16 E37.44213
G1 X152.50 Y154.19 E37.45323
G1 X152.17 Y154.16 E37.46432
G1 X151.85 Y154.06 E37.47524
G1 X151.56 Y153.91 E37.48625
G1 X151.30 Y153.70 E37.49737
G1 X151.09 Y153.44 E37.50850
G1 X150.94 Y153.15 E37.51951
G1 X150.84 Y152.83 E37.53042
G1 X150.81 Y152.50 E37.54152
G1 X150.84 Y152.17 E37.55262
G1 X150.94 Y151.85 E37.56353
G1 X151.09 Y151.56 E37.57454
G1 X151.30 Y151.30 E37.58567
G1 X151.56 Y151.09 E37.59680
G1 X151.85 Y150.94 E37.60781
G1 X152.17 Y150.84 E37.61872
G1 X152.50 Y150.81 E37.62981
G1 X152.83 Y150.84 E37.64091
G1 X153.15 Y150.94 E37.65182
G1 X153.44 Y151.09 E37.66283
G1 X153.70 Y151.30 E37.67396
G1 X153.91 Y151.56 E37.68509
G1 X154.06 Y151.85 E37.69606
G1 X154.16 Y152.17 E37.70708
G0 F12000 X154.56 Y152.09
;TYPE:WALL-OUTER
G1 F540 X154.59 Y152.50 E37.72078
G1 X154.56 Y152.91 E37.73448
G1 X154.44 Y153.30 E37.74811
G1 X154.24 Y153.66 E37.76162
G1 X153.98 Y153.98 E37.77542
G1 X153.66 Y154.24 E37.78923
G1 X153.30 Y154.44 E37.80272
G1 X152.91 Y154.55 E37.81635
G1 X152.50 Y154.59 E37.83005
G1 X152.09 Y154.55 E37.84376
G1 X151.70 Y154.44 E37.85738
G1 X151.34 Y154.24 E37.87088
G1 X151.02 Y153.98 E37.88468
G1 X150.76 Y153.66 E37.89848
G1 X150.56 Y153.30 E37.91198
G1 X150.45 Y152.91 E37.92560
G1 X150.41 Y152.50 E37.93931
G1 X150.45 Y152.09 E37.95301
G1 X150.56 Y151.70 E37.96664
G1 X150.76 Y151.34 E37.98013
G1 X151.02 Y151.02 E37.99394
G1 X151.34 Y150.76 E38.00774
G1 X151.70 Y150.56 E38.02123
G1 X152.09 Y150.45 E38.03486
G1 X152.50 Y150.41 E38.04856
G1 X152.91 Y150.45 E38.06227
G1 X153.30 Y150.56 E38.07590
G1 X153.66 Y150.76 E38.08939
G1 X153.98 Y151.02 E38.10319
G1 X154.24 Y151.34 E38.11700
G1 X154.44 Y151.70 E38.13051
G1 X154.56 Y152.09 E38.14413
G0 F12000 X154.04 Y152.35
;TYPE:FILL
G1 F540 X152.35 Y154.04 E38.22362
;LAYER:33
G0 F12000 X152.17 Y154.16 Z6.85
;TYPE:WALL-INNER
G1 F540 X151.85 Y154.06 E38.23454
G1 X151.56 Y153.91 E38.24555
G1 X151.30 Y153.70 E38.25667
G1 X151.09 Y153.44 E38.26780
G1 X150.94 Y153.15 E38.27881
G1 X150.84 Y152.83 E38.28972
G1 X150.81 Y152.50 E38.30082
G1 X150.84 Y152.17 E38.31192
G1 X150.94 Y151.85 E38.32283
G1 X151.09 Y151.56 E38.33384
G1 X151.30 Y151.30 E38.34497
G1 X151.56 Y151.09 E38.35610
G1 X151.85 Y150.94 E38.36711
G1 X152.17 Y150.84 E38.37802
G1 X152.50 Y150.81 E38.38911
G1 X152.83 Y150.84 E38.40021
G1 X153.15 Y150.94 E38.41112
G1 X153.44 Y151.09 E38.42213
G1 X153.70 Y151.30 E38.43326
G1 X153.91 Y151.56 E38.44439
G1 X154.06 Y151.85 E38.45536
G1 X154.16 Y152.17 E38.46638
G1 X154.19 Y152.50 E38.47741
G1 X154.16 Y152.83 E38.48844
G1 X154.06 Y153.15 E38.49946
G1 X153.91 Y153.44 E38.51043
G1 X153.70 Y153.70 E38.52156
G1 X153.44 Y153.91 E38.53268
G1 X153.15 Y154.06 E38.54369
G1 X152.83 Y154.16 E38.55461
G1 X152.50 Y154.19 E38.56570
G1 X152.17 Y154.16 E38.57680
G0 F12000 X152.09 Y154.55
;TYPE:WALL-OUTER
G1 F540 X151.70 Y154.44 E38.59042
G1 X151.34 Y154.24 E38.60392
G1 X151.02 Y153.98 E38.61772
G1 X150.76 Y153.66 E38.63153
G1 X150.56 Y153.30 E38.64502
G1 X150.45 Y152.91 E38.65865
G1 X150.41 Y152.50 E38.67235
G1 X150.45 Y152.09 E38.68606
G1 X150.56 Y151.70 E38.69968
G1 X150.76 Y151.34 E38.71318
G1 X151.02 Y151.02 E38.72698
G1 X151.34 Y150.76 E38.74078
G1 X151.70 Y150.56 E38.75428
G1 X152.09 Y150.45 E38.76790
G1 X152.50 Y150.41 E38.78161
G1 X152.91 Y150.45 E38.79531
G1 X153.30 Y150.56 E38.80894
G1 X153.66 Y150.76 E38.82243
G1 X153.98 Y151.02 E38.83624
G1 X154.24 Y151.34 E38.85004
G1 X154.44 Y151.70 E38.86355
G1 X154.56 Y152.09 E38.87718
G1 X154.59 Y152.50 E38.89088
G1 X154.56 Y152.91 E38.90458
G1 X154.44 Y153.30 E38.91820
G1 X154.24 Y153.66 E38.93172
G1 X153.98 Y153.98 E38.94552
G1 X153.66 Y154.24 E38.95932
G1 X153.30 Y154.44 E38.97282
G1 X152.91 Y154.55 E38.98644
G1 X152.50 Y154.59 E39.00015
G1 X152.09 Y154.55 E39.01385
G0 F12000 X152.35 Y154.04
;TYPE:FILL
G1 F540 X154.04 Y152.35 E39.09334
;LAYER:34
G0 F12000 X154.16 Y152.17 Z7.05
;TYPE:WALL-INNER
G1 F540 X154.19 Y152.50 E39.10437
G1 X154.16 Y152.83 E39.11540
G1 X154.06 Y153.15 E39.12642
G1 X153.91 Y153.44 E39.13739
G1 X153.70 Y153.70 E39.14852
G1 X153.44 Y153.91 E39.15964
G1 X153.15 Y154.06 E39.17066
G1 X152.83 Y154.16 E39.18157
G1 X152.50 Y154.19 E39.19266
G1 X152.17 Y154.16 E39.20376
G1 X151.85 Y154.06 E39.21467
G1 X151.56 Y153.91 E39.22568
G1 X151.30 Y153.70 E39.23681
G1 X151.09 Y153.44 E39.24794
G1 X150.94 Y153.15 E39.25895
G1 X150.84 Y152.83 E39.26986
G1 X150.81 Y152.50 E39.28096
G1 X150.84 Y152.17 E39.29205
G1 X150.94 Y151.85 E39.30297
G1 X151.09 Y151.56 E39.31398
G1 X151.30 Y151.30 E39.32510
G1 X151.56 Y151.09 E39.33623
G1 X151.85 Y150.94 E39.34724
G1 X152.17 Y150.84 E39.35815
G1 X152.50 Y150.81 E39.36925
G1 X152.83 Y150.84 E39.38035
G1 X153.15 Y150.94 E39.39126
G1 X153.44 Y151.09 E39.40227
G1 X153.70 Y151.30 E39.41340
G1 X153.91 Y151.56 E39.42453
G1 X154.06 Y151.85 E39.43549
G1 X154.16 Y152.17 E39.44652
G0 F12000 X154.56 Y152.09
;TYPE:WALL-OUTER
G1 F540 X154.59 Y152.50 E39.46022
G1 X154.56 Y152.91 E39.47392
G1 X154.44 Y153.30 E39.48755
G1 X154.24 Y153.66 E39.50106
G1 X153.98 Y153.98 E39.51486
G1 X153.66 Y154.24 E39.52866
G1 X153.30 Y154.44 E39.54216
G1 X152.91 Y154.55 E39.55578
G1 X152.50 Y154.59 E39.56949
G1 X152.09 Y154.55 E39.58319
G1 X151.70 Y154.44 E39.59682
G1 X151.34 Y154.24 E39.61031
G1 X151.02 Y153.98 E39.62412
G1 X150.76 Y153.66 E39.63792
G1 X150.56 Y153.30 E39.65141
G1 X150.45 Y152.91 E39.66504
G1 X150.41 Y152.50 E39.67874
G1 X150.45 Y152.09 E39.69245
G1 X150.56 Y151.70 E39.70607
G1 X150.76 Y151.34 E39.71957
G1 X151.02 Y151.02 E39.73337
G1 X151.34 Y150.76 E39.74717
G1 X151.70 Y150.56 E39.76067
G1 X152.09 Y150.45 E39.77430
G1 X152.50 Y150.41 E39.78800
G1 X152.91 Y150.45 E39.80171
G1 X153.30 Y150.56 E39.81533
G1 X153.66 Y150.76 E39.82883
G1 X153.98 Y151.02 E39.84263
G1 X154.24 Y151.34 E39.85643
G1 X154.44 Y151.70 E39.86994
G1 X154.56 Y152.09 E39.88357
G0 F12000 X154.04 Y152.35
;TYPE:FILL
G1 F540 X152.35 Y154.04 E39.96306
;LAYER:35
G0 F12000 X152.17 Y154.16 Z7.25
;TYPE:WALL-INNER
G1 F540 X151.85 Y154.06 E39.97397
G1 X151.56 Y153.91 E39.98498
G1 X151.30 Y153.70 E39.99611
G1 X151.09 Y153.44 E40.00724
G1 X150.94 Y153.15 E40.01825
G1 X150.84 Y152.83 E40.02916
G1 X150.81 Y152.50 E40.04026
G1 X150.84 Y152.17 E40.05135
G1 X150.94 Y151.85 E40.06227
G1 X151.09 Y151.56 E40.07328
G1 X151.30 Y151.30 E40.08440
G1 X151.56 Y151.09 E40.09553
G1 X151.85 Y150.94 E40.10654
G1 X152.17 Y150.84 E40.11745
G1 X152.50 Y150.81 E40.12855
G1 X152.83 Y150.84 E40.13965
G1 X153.15 Y150.94 E40.15056
G1 X153.44 Y151.09 E40.16157
G1 X153.70 Y151.30 E40.17270
G1 X153.91 Y151.56 E40.18383
G1 X154.06 Y151.85 E40.19479
G1 X154.16 Y152.17 E40.20582
G1 X154.19 Y152.50 E40.21684
G1 X154.16 Y152.83 E40.22787
G1 X154.06 Y153.15 E40.23890
G1 X153.91 Y153.44 E40.24986
G1 X153.70 Y153.70 E40.26099
G1 X153.44 Y153.91 E40.27212
G1 X153.15 Y154.06 E40.28313
G1 X152.83 Y154.16 E40.29404
G1 X152.50 Y154.19 E40.30514
G1 X152.17 Y154.16 E40.31624
G0 F12000 X152.09 Y154.55
;TYPE:WALL-OUTER
G1 F540 X151.70 Y154.44 E40.32986
G1 X151.34 Y154.24 E40.34336
G1 X151.02 Y153.98 E40.35716
G1 X150.76 Y153.66 E40.37096
G1 X150.56 Y153.30 E40.38446
G1 X150.45 Y152.91 E40.39808
G1 X150.41 Y152.50 E40.41179
G1 X150.45 Y152.09 E40.42549
G1 X150.56 Y151.70 E40.43912
G1 X150.76 Y151.34 E40.45261
G1 X151.02 Y151.02 E40.46642
G1 X151.34 Y150.76 E40.48022
G1 X151.70 Y150.56 E40.49371
G1 X152.09 Y150.45 E40.50734
G1 X152.50 Y150.41 E40.52104
G1 X152.91 Y150.45 E40.53475
G1 X153.30 Y150.56 E40.54837
G1 X153.66 Y150.76 E40.56187
G1 X153.98 Y151.02 E40.57567
G1 X154.24 Y151.34 E40.58947
G1 X154.44 Y151.70 E40.60299
G1 X154.56 Y152.09 E40.61661
G1 X154.59 Y152.50 E40.63031
G1 X154.56 Y152.91 E40.64401
G1 X154.44 Y153.30 E40.65764
G1 X154.24 Y153.66 E40.67115
G1 X153.98 Y153.98 E40.68495
G1 X153.66 Y154.24 E40.69876
G1 X153.30 Y154.44 E40.71225
G1 X152.91 Y154.55 E40.72588
G1 X152.50 Y154.59 E40.73958
G1 X152.09 Y154.55 E40.75329
G0 F12000 X152.35 Y154.04
;TYPE:FILL
G1 F540 X154.04 Y152.35 E40.83278
;LAYER:36
G0 F12000 X154.16 Y152.17 Z7.45
;TYPE:WALL-INNER
G1 F540 X154.19 Y152.50 E40.84381
G1 X154.16 Y152.83 E40.85483
G1 X154.06 Y153.15 E40.86586
G1 X153.91 Y153.44 E40.87683
G1 X153.70 Y153.70 E40.88795
G1 X153.44 Y153.91 E40.89908
G1 X153.15 Y154.06 E40.91009
G1 X152.83 Y154.16 E40.92100
G1 X152.50 Y154.19 E40.93210
G1 X152.17 Y154.16 E40.94320
G1 X151.85 Y154.06 E40.95411
G1 X151.56 Y153.91 E40.96512
G1 X151.30 Y153.70 E40.97625
G1 X151.09 Y153.44 E40.98737
G1 X150.94 Y153.15 E40.99839
G1 X150.84 Y152.83 E41.00930
G1 X150.81 Y152.50 E41.02039
G1 X150.84 Y152.17 E41.03149
G1 X150.94 Y151.85 E41.04240
G1 X151.09 Y151.56 E41.05341
G1 X151.30 Y151.30 E41.06454
G1 X151.56 Y151.09 E41.07567
G1 X151.85 Y150.94 E41.08668
G1 X152.17 Y150.84 E41.09759
G1 X152.50 Y150.81 E41.10869
G1 X152.83 Y150.84 E41.11978
G1 X153.15 Y150.94 E41.13069
G1 X153.44 Y151.09 E41.14171
G1 X153.70 Y151.30 E41.15283
G1 X153.91 Y151.56 E41.16396
G1 X154.06 Y151.85 E41.17493
G1 X154.16 Y152.17 E41.18595
G0 F12000 X154.56 Y152.09
;TYPE:WALL-OUTER
G1 F540 X154.59 Y152.50 E41.19965
G1 X154.56 Y152.91 E41.21336
G1 X154.44 Y153.30 E41.22698
G1 X154.24 Y153.66 E41.24049
G1 X153.98 Y153.98 E41.25430
G1 X153.66 Y154.24 E41.26810
G1 X153.30 Y154.44 E41.28159
G1 X152.91 Y154.55 E41.29522
G1 X152.50 Y154.59 E41.30892
G1 X152.09 Y154.55 E41.32263
G1 X151.70 Y154.44 E41.33625
G1 X151.34 Y154.24 E41.34975
G1 X151.02 Y153.98 E41.36355
G1 X150.76 Y153.66 E41.37735
G1 X150.56 Y153.30 E41.39085
G1 X150.45 Y152.91 E41.40448
G1 X150.41 Y152.50 E41.41818
G1 X150.45 Y152.09 E41.43188
G1 X150.56 Y151.70 E41.44551
G1 X150.76 Y151.34 E41.45901
G1 X151.02 Y151.02 E41.47281
G1 X151.34 Y150.76 E41.48661
G1 X151.70 Y150.56 E41.50011
G1 X152.09 Y150.45 E41.51373
G1 X152.50 Y150.41 E41.52744
G1 X152.91 Y150.45 E41.54114
G1 X153.30 Y150.56 E41.55477
G1 X153.66 Y150.76 E41.56826
G1 X153.98 Y151.02 E41.58206
G1 X154.24 Y151.34 E41.59587
G1 X154.44 Y151.70 E41.60938
G1 X154.56 Y152.09 E41.62300
G0 F12000 X154.04 Y152.35
;TYPE:FILL
G1 F540 X152.35 Y154.04 E41.70250
;LAYER:37
G0 F12000 X152.17 Y154.16 Z7.65
;TYPE:WALL-INNER
G1 F540 X151.85 Y154.06 E41.71341
G1 X151.56 Y153.91 E41.72442
G1 X151.30 Y153.70 E41.73555
G1 X151.09 Y153.44 E41.74667
G1 X150.94 Y153.15 E41.75769
G1 X150.84 Y152.83 E41.76860
G1 X150.81 Y152.50 E41.77969
G1 X150.84 Y152.17 E41.79079
G1 X150.94 Y151.85 E41.80170
G1 X151.09 Y151.56 E41.81271
G1 X151.30 Y151.30 E41.82384
G1 X151.56 Y151.09 E41.83497
G1 X151.85 Y150.94 E41.84598
G1 X152.17 Y150.84 E41.85689
G1 X152.50 Y150.81 E41.86799
G1 X152.83 Y150.84 E41.87908
G1 X153.15 Y150.94 E41.88999
G1 X153.44 Y151.09 E41.90101
G1 X153.70 Y151.30 E41.91213
G1 X153.91 Y151.56 E41.92326
G1 X154.06 Y151.85 E41.93423
G1 X154.16 Y152.17 E41.94525
G1 X154.19 Y152.50 E41.95628
G1 X154.16 Y152.83 E41.96731
G1 X154.06 Y153.15 E41.97833
G1 X153.91 Y153.44 E41.98930
G1 X153.70 Y153.70 E42.00043
G1 X153.44 Y153.91 E42.01156
G1 X153.15 Y154.06 E42.02257
G1 X152.83 Y154.16 E42.03348
G1 X152.50 Y154.19 E42.04457
G1 X152.17 Y154.16 E42.05567
G0 F12000 X152.09 Y154.55
;TYPE:WALL-OUTER
G1 F540 X151.70 Y154.44 E42.06930
G1 X151.34 Y154.24 E42.08279
G1 X151.02 Y153.98 E42.09659
G1 X150.76 Y153.66 E42.11040
G1 X150.56 Y153.30 E42.12389
G1 X150.45 Y152.91 E42.13752
G1 X150.41 Y152.50 E42.15122
G1 X150.45 Y152.09 E42.16493
G1 X150.56 Y151.70 E42.17855
G1 X150.76 Y151.34 E42.19205
G1 X151.02 Y151.02 E42.20585
G1 X151.34 Y150.76 E42.21965
G1 X151.70 Y150.56 E42.23315
G1 X152.09 Y150.45 E42.24677
G1 X152.50 Y150.41 E42.26048
G1 X152.91 Y150.45 E42.27418
G1 X153.30 Y150.56 E42.28781
G1 X153.66 Y150.76 E42.30131
G1 X153.98 Y151.02 E42.31511
G1 X154.24 Y151.34 E42.32891
G1 X154.44 Y151.70 E42.34242
G1 X154.56 Y152.09 E42.35605
G1 X154.59 Y152.50 E42.36975
G1 X154.56 Y152.91 E42.38345
G1 X154.44 Y153.30 E42.39708
G1 X154.24 Y153.66 E42.41059
G1 X153.98 Y153.98 E42.42439
G1 X153.66 Y154.24 E42.43819
G1 X153.30 Y154.44 E42.45169
G1 X152.91 Y154.55 E42.46531
G1 X152.50 Y154.59 E42.47902
G1 X152.09 Y154.55 E42.49272
G0 F12000 X152.35 Y154.04
;TYPE:FILL
G1 F540 X154.04 Y152.35 E42.57221
;LAYER:38
G0 F12000 X154.16 Y152.17 Z7.85
;TYPE:WALL-INNER
G1 F540 X154.19 Y152.50 E42.58324
G1 X154.16 Y152.83 E42.59427
G1 X154.06 Y153.15 E42.60530
G1 X153.91 Y153.44 E42.61626
G1 X153.70 Y153.70 E42.62739
G1 X153.44 Y153.91 E42.63852
G1 X153.15 Y154.06 E42.64953
G1 X152.83 Y154.16 E42.66044
G1 X152.50 Y154.19 E42.67154
G1 X152.17 Y154.16 E42.68263
G1 X151.85 Y154.06 E42.69354
G1 X151.56 Y153.91 E42.70455
G1 X151.30 Y153.70 E42.71568
G1 X151.09 Y153.44 E42.72681
G1 X150.94 Y153.15 E42.73782
G1 X150.84 Y152.83 E42.74873
G1 X150.81 Y152.50 E42.75983
G1 X150.84 Y152.17 E42.77093
G1 X150.94 Y151.85 E42.78184
G1 X151.09 Y151.56 E42.79285
G1 X151.30 Y151.30 E42.80398
G1 X151.56 Y151.09 E42.81510
G1 X151.85 Y150.94 E42.82611
G1 X152.17 Y150.84 E42.83703
G1 X152.50 Y150.81 E42.84812
G1 X152.83 Y150.84 E42.85922
G1 X153.15 Y150.94 E42.87013
G1 X153.44 Y151.09 E42.88114
G1 X153.70 Y151.30 E42.89227
G1 X153.91 Y151.56 E42.90340
G1 X154.06 Y151.85 E42.91436
G1 X154.16 Y152.17 E42.92539
G0 F12000 X154.56 Y152.09
;TYPE:WALL-OUTER
G1 F540 X154.59 Y152.50 E42.93909
G1 X154.56 Y152.91 E42.95279
G1 X154.44 Y153.30 E42.96642
G1 X154.24 Y153.66 E42.97993
G1 X153.98 Y153.98 E42.99373
G1 X153.66 Y154.24 E43.00753
G1 X153.30 Y154.44 E43.02103
G1 X152.91 Y154.55 E43.03465
G1 X152.50 Y154.59 E43.04836
G1 X152.09 Y154.55 E43.06206
G1 X151.70 Y154.44 E43.07569
G1 X151.34 Y154.24 E43.08919
G1 X151.02 Y153.98 E43.10299
G1 X150.76 Y153.66 E43.11679
G1 X150.56 Y153.30 E43.13029
G1 X150.45 Y152.91 E43.14391
G1 X150.41 Y152.50 E43.15762
G1 X150.45 Y152.09 E43.17132
G1 X150.56 Y151.70 E43.18495
G1 X150.76 Y151.34 E43.19844
G1 X151.02 Y151.02 E43.21224
G1 X151.34 Y150.76 E43.22605
G1 X151.70 Y150.56 E43.23954
G1 X152.09 Y150.45 E43.25317
G1 X152.50 Y150.41 E43.26687
G1 X152.91 Y150.45 E43.28058
G1 X153.30 Y150.56 E43.29420
G1 X153.66 Y150.76 E43.30770
G1 X153.98 Y151.02 E43.32150
G1 X154.24 Y151.34 E43.33530
G1 X154.44 Y151.70 E43.34881
G1 X154.56 Y152.09 E43.36244
G0 F12000 X154.04 Y152.35
;TYPE:FILL
G1 F540 X152.35 Y154.04 E43.44193
;LAYER:39
G0 F12000 X152.17 Y154.16 Z8.05
;TYPE:WALL-INNER
G1 F540 X151.85 Y154.06 E43.45284
G1 X151.56 Y153.91 E43.46385
G1 X151.30 Y153.70 E43.47498
G1 X151.09 Y153.44 E43.48611
G1 X150.94 Y153.15 E43.49712
G1 X150.84 Y152.83 E43.50803
G1 X150.81 Y152.50 E43.51913
G1 X150.84 Y152.17 E43.53023
G1 X150.94 Y151.85 E43.54114
G1 X151.09 Y151.56 E43.55215
G1 X151.30 Y151.30 E43.56328
G1 X151.56 Y151.09 E43.57440
G1 X151.85 Y150.94 E43.58541
G1 X152.17 Y150.84 E43.59633
G1 X152.50 Y150.81 E43.60742
G1 X152.83 Y150.84 E43.61852
G1 X153.15 Y150.94 E43.62943
G1 X153.44 Y151.09 E43.64044
G1 X153.70 Y151.30 E43.65157
G1 X153.91 Y151.56 E43.66270
G1 X154.06 Y151.85 E43.67366
G1 X154.16 Y152.17 E43.68469
G1 X154.19 Y152.50 E43.69572
G1 X154.16 Y152.83 E43.70674
G1 X154.06 Y153.15 E43.71777
G1 X153.91 Y153.44 E43.72874
G1 X153.70 Y153.70 E43.73986
G1 X153.44 Y153.91 E43.75099
G1 X153.15 Y154.06 E43.76200
G1 X152.83 Y154.16 E43.77291
G1 X152.50 Y154.19 E43.78401
G1 X152.17 Y154.16 E43.79511
G0 F12000 X152.09 Y154.55
;TYPE:WALL-OUTER
G1 F540 X151.70 Y154.44 E43.80873
G1 X151.34 Y154.24 E43.82223
G1 X151.02 Y153.98 E43.83603
G1 X150.76 Y153.66 E43.84983
G1 X150.56 Y153.30 E43.86333
G1 X150.45 Y152.91 E43.87695
G1 X150.41 Y152.50 E43.89066
G1 X150.45 Y152.09 E43.90436
G1 X150.56 Y151.70 E43.91799
G1 X150.76 Y151.34 E43.93148
G1 X151.02 Y151.02 E43.94529
G1 X151.34 Y150.76 E43.95909
G1 X151.70 Y150.56 E43.97259
G1 X152.09 Y150.45 E43.98621
G1 X152.50 Y150.41 E43.99992
G1 X152.91 Y150.45 E44.01362
G1 X153.30 Y150.56 E44.02725
G1 X153.66 Y150.76 E44.04074
G1 X153.98 Y151.02 E44.05454
G1 X154.24 Y151.34 E44.06835
G1 X154.44 Y151.70 E44.08186
G1 X154.56 Y152.09 E44.09548
G1 X154.59 Y152.50 E44.10918
G1 X154.56 Y152.91 E44.12289
G1 X154.44 Y153.30 E44.13651
G1 X154.24 Y153.66 E44.15002
G1 X153.98 Y153.98 E44.16383
G1 X153.66 Y154.24 E44.17763
G1 X153.30 Y154.44 E44.19112
G1 X152.91 Y154.55 E44.20475
G1 X152.50 Y154.59 E44.21845
G1 X152.09 Y154.55 E44.23216
G0 F12000 X152.35 Y154.04
;TYPE:FILL
G1 F540 X154.04 Y152.35 E44.31165
;LAYER:40
G0 F12000 X154.16 Y152.17 Z8.25
;TYPE:WALL-INNER
G1 F540 X154.19 Y152.50 E44.32268
G1 X154.16 Y152.83 E44.33371
G1 X154.06 Y153.15 E44.34473
G1 X153.91 Y153.44 E44.35570
G1 X153.70 Y153.70 E44.36682
G1 X153.44 Y153.91 E44.37795
G1 X153.15 Y154.06 E44.38896
G1 X152.83 Y154.16 E44.39987
G1 X152.50 Y154.19 E44.41097
G1 X152.17 Y154.16 E44.42207
G1 X151.85 Y154.06 E44.43298
G1 X151.56 Y153.91 E44.44399
G1 X151.30 Y153.70 E44.45512
G1 X151.09 Y153.44 E44.46625
G1 X150.94 Y153.15 E44.47726
G1 X150.84 Y152.83 E44.48817
G1 X150.81 Y152.50 E44.49927
G1 X150.84 Y152.17 E44.51036
G1 X150.94 Y151.85 E44.52127
G1 X151.09 Y151.56 E44.53228
G1 X151.30 Y151.30 E44.54341
G1 X151.56 Y151.09 E44.55454
G1 X151.85 Y150.94 E44.56555
G1 X152.17 Y150.84 E44.57646
G1 X152.50 Y150.81 E44.58756
G1 X152.83 Y150.84 E44.59866
G1 X153.15 Y150.94 E44.60957
G1 X153.44 Y151.09 E44.62058
G1 X153.70 Y151.30 E44.63171
G1 X153.91 Y151.56 E44.64283
G1 X154.06 Y151.85 E44.65380
G1 X154.16 Y152.17 E44.66482
G0 F12000 X154.56 Y152.09
;TYPE:WALL-OUTER
G1 F540 X154.59 Y152.50 E44.67853
G1 X154.56 Y152.91 E44.69223
G1 X154.44 Y153.30 E44.70585
G1 X154.24 Y153.66 E44.71936
G1 X153.98 Y153.98 E44.73317
G1 X153.66 Y154.24 E44.74697
G1 X153.30 Y154.44 E44.76047
G1 X152.91 Y154.55 E44.77409
G1 X152.50 Y154.59 E44.78780
G1 X152.09 Y154.55 E44.80150
G1 X151.70 Y154.44 E44.81513
G1 X151.34 Y154.24 E44.82862
G1 X151.02 Y153.98 E44.84242
G1 X150.76 Y153.66 E44.85623
G1 X150.56 Y153.30 E44.86972
G1 X150.45 Y152.91 E44.88335
G1 X150.41 Y152.50 E44.89705
G1 X150.45 Y152.09 E44.91076
G1 X150.56 Y151.70 E44.92438
G1 X150.76 Y151.34 E44.93788
G1 X151.02 Y151.02 E44.95168
G1 X151.34 Y150.76 E44.96548
G1 X151.70 Y150.56 E44.97898
G1 X152.09 Y150.45 E44.99260
G1 X152.50 Y150.41 E45.00631
G1 X152.91 Y150.45 E45.02001
G1 X153.30 Y150.56 E45.03364
G1 X153.66 Y150.76 E45.04713
G1 X153.98 Y151.02 E45.06094
G1 X154.24 Y151.34 E45.07474
G1 X154.44 Y151.70 E45.08825
G1 X154.56 Y152.09 E45.10188
G0 F12000 X154.04 Y152.35
;TYPE:FILL
G1 F540 X152.35 Y154.04 E45.18137
;LAYER:41
G0 F12000 X152.17 Y154.16 Z8.45
;TYPE:WALL-INNER
G1 F540 X151.85 Y154.06 E45.19228
G1 X151.56 Y153.91 E45.20329
G1 X151.30 Y153.70 E45.21442
G1 X151.09 Y153.44 E45.22555
G1 X150.94 Y153.15 E45.23656
G1 X150.84 Y152.83 E45.24747
G1 X150.81 Y152.50 E45.25857
G1 X150.84 Y152.17 E45.26966
G1 X150.94 Y151.85 E45.28057
G1 X151.09 Y151.56 E45.29158
G1 X151.30 Y151.30 E45.30271
G1 X151.56 Y151.09 E45.31384
G1 X151.85 Y150.94 E45.32485
G1 X152.17 Y150.84 E45.33576
G1 X152.50 Y150.81 E45.34686
G1 X152.83 Y150.84 E45.35796
G1 X153.15 Y150.94 E45.36887
G1 X153.44 Y151.09 E45.37988
G1 X153.70 Y151.30 E45.39101
G1 X153.91 Y151.56 E45.40213
G1 X154.06 Y151.85 E45.41310
G1 X154.16 Y152.17 E45.42412
G1 X154.19 Y152.50 E45.43515
G1 X154.16 Y152.83 E45.44618
G1 X154.06 Y153.15 E45.45721
G1 X153.91 Y153.44 E45.46817
G1 X153.70 Y153.70 E45.47930
G1 X153.44 Y153.91 E45.49043
G1 X153.15 Y154.06 E45.50144
G1 X152.83 Y154.16 E45.51235
G1 X152.50 Y154.19 E45.52345
G1 X152.17 Y154.16 E45.53454
G0 F12000 X152.09 Y154.55
;TYPE:WALL-OUTER
G1 F540 X151.70 Y154.44 E45.54817
G1 X151.34 Y154.24 E45.56166
G1 X151.02 Y153.98 E45.57547
G1 X150.76 Y153.66 E45.58927
G1 X150.56 Y153.30 E45.60276
G1 X150.45 Y152.91 E45.61639
G1 X150.41 Y152.50 E45.63009
G1 X150.45 Y152.09 E45.64380
G1 X150.56 Y151.70 E45.65742
G1 X150.76 Y151.34 E45.67092
G1 X151.02 Y151.02 E45.68472
G1 X151.34 Y150.76 E45.69853
G1 X151.70 Y150.56 E45.71202
G1 X152.09 Y150.45 E45.72565
G1 X152.50 Y150.41 E45.73935
G1 X152.91 Y150.45 E45.75306
G1 X153.30 Y150.56 E45.76668
G1 X153.66 Y150.76 E45.78018
G1 X153.98 Y151.02 E45.79398
G1 X154.24 Y151.34 E45.80778
G1 X154.44 Y151.70 E45.82129
G1 X154.56 Y152.09 E45.83492
G1 X154.59 Y152.50 E45.84862
G1 X154.56 Y152.91 E45.86232
G1 X154.44 Y153.30 E45.87595
G1 X154.24 Y153.66 E45.88946
G1 X153.98 Y153.98 E45.90326
G1 X153.66 Y154.24 E45.91706
G1 X153.30 Y154.44 E45.93056
G1 X152.91 Y154.55 E45.94418
G1 X152.50 Y154.59 E45.95789
G1 X152.09 Y154.55 E45.97159
G0 F12000 X152.35 Y154.04
;TYPE:FILL
G1 F540 X154.04 Y152.35 E46.05109
;LAYER:42
G0 F12000 X154.16 Y152.17 Z8.65
;TYPE:WALL-INNER
G1 F540 X154.19 Y152.50 E46.06211
G1 X154.16 Y152.83 E46.07314
G1 X154.06 Y153.15 E46.08417
G1 X153.91 Y153.44 E46.09513
G1 X153.70 Y153.70 E46.10626
G1 X153.44 Y153.91 E46.11739
G1 X153.15 Y154.06 E46.12840
G1 X152.83 Y154.16 E46.13931
G1 X152.50 Y154.19 E46.15041
G1 X152.17 Y154.16 E46.16150
G1 X151.85 Y154.06 E46.17242
G1 X151.56 Y153.91 E46.18343
G1 X151.30 Y153.70 E46.19455
G1 X151.09 Y153.44 E46.20568
G1 X150.94 Y153.15 E46.21669
G1 X150.84 Y152.83 E46.22760
G1 X150.81 Y152.50 E46.23870
G1 X150.84 Y152.17 E46.24980
G1 X150.94 Y151.85 E46.26071
G1 X151.09 Y151.56 E46.27172
G1 X151.30 Y151.30 E46.28285
G1 X151.56 Y151.09 E46.29398
G1 X151.85 Y150.94 E46.30499
G1 X152.17 Y150.84 E46.31590
G1 X152.50 Y150.81 E46.32699
G1 X152.83 Y150.84 E46.33809
G1 X153.15 Y150.94 E46.34900
G1 X153.44 Y151.09 E46.36001
G1 X153.70 Y151.30 E46.37114
G1 X153.91 Y151.56 E46.38227
G1 X154.06 Y151.85 E46.39323
G1 X154.16 Y152.17 E46.40426
G0 F12000 X154.56 Y152.09
;TYPE:WALL-OUTER
G1 F540 X154.59 Y152.50 E46.41796
G1 X154.56 Y152.91 E46.43166
G1 X154.44 Y153.30 E46.44529
G1 X154.24 Y153.66 E46.45880
G1 X153.98 Y153.98 E46.47260
G1 X153.66 Y154.24 E46.48641
G1 X153.30 Y154.44 E46.49990
G1 X152.91 Y154.55 E46.51353
G1 X152.50 Y154.59 E46.52723
G1 X152.09 Y154.55 E46.54094
G1 X151.70 Y154.44 E46.55456
G1 X151.34 Y154.24 E46.56806
G1 X151.02 Y153.98 E46.58186
G1 X150.76 Y153.66 E46.59566
G1 X150.56 Y153.30 E46.60916
G1 X150.45 Y152.91 E46.62278
G1 X150.41 Y152.50 E46.63649
G1 X150.45 Y152.09 E46.65019
G1 X150.56 Y151.70 E46.66382
G1 X150.76 Y151.34 E46.67731
G1 X151.02 Y151.02 E46.69112
G1 X151.34 Y150.76 E46.70492
G1 X151.70 Y150.56 E46.71841
G1 X152.09 Y150.45 E46.73204
G1 X152.50 Y150.41 E46.74574
G1 X152.91 Y150.45 E46.75945
G1 X153.30 Y150.56 E46.77307
G1 X153.66 Y150.76 E46.78657
G1 X153.98 Y151.02 E46.80037
G1 X154.24 Y151.34 E46.81418
G1 X154.44 Y151.70 E46.82769
G1 X154.56 Y152.09 E46.84131
G0 F12000 X154.04 Y152.35
;TYPE:FILL
G1 F540 X152.35 Y154.04 E46.92080
;LAYER:43
G0 F12000 X152.17 Y154.16 Z8.85
;TYPE:WALL-INNER
G1 F540 X151.85 Y154.06 E46.93172
G1 X151.56 Y153.91 E46.94273
G1 X151.30 Y153.70 E46.95385
G1 X151.09 Y153.44 E46.96498
G1 X150.94 Y153.15 E46.97599
G1 X150.84 Y152.83 E46.98690
G1 X150.81 Y152.50 E46.99800
G1 X150.84 Y152.17 E47.00910
G1 X150.94 Y151.85 E47.02001
G1 X151.09 Y151.56 E47.03102
G1 X151.30 Y151.30 E47.04215
G1 X151.56 Y151.09 E47.05328
G1 X151.85 Y150.94 E47.06429
G1 X152.17 Y150.84 E47.07520
G1 X152.50 Y150.81 E47.08629
G1 X152.83 Y150.84 E47.09739
G1 X153.15 Y150.94 E47.10830
G1 X153.44 Y151.09 E47.11931
G1 X153.70 Y151.30 E47.13044
G1 X153.91 Y151.56 E47.14157
G1 X154.06 Y151.85 E47.15253
G1 X154.16 Y152.17 E47.16356
G1 X154.19 Y152.50 E47.17459
G1 X154.16 Y152.83 E47.18562
G1 X154.06 Y153.15 E47.19664
G1 X153.91 Y153.44 E47.20761
G1 X153.70 Y153.70 E47.21874
G1 X153.44 Y153.91 E47.22986
G1 X153.15 Y154.06 E47.24087
G1 X152.83 Y154.16 E47.25179
G1 X152.50 Y154.19 E47.26288
G1 X152.17 Y154.16 E47.27398
G0 F12000 X152.09 Y154.55
;TYPE:WALL-OUTER
G1 F540 X151.70 Y154.44 E47.28760
G1 X151.34 Y154.24 E47.30110
G1 X151.02 Y153.98 E47.31490
G1 X150.76 Y153.66 E47.32870
G1 X150.56 Y153.30 E47.34220
G1 X150.45 Y152.91 E47.35583
G1 X150.41 Y152.50 E47.36953
G1 X150.45 Y152.09 E47.38324
G1 X150.56 Y151.70 E47.39686
G1 X150.76 Y151.34 E47.41036
G1 X151.02 Y151.02 E47.42416
G1 X151.34 Y150.76 E47.43796
G1 X151.70 Y150.56 E47.45146
G1 X152.09 Y150.45 E47.46508
G1 X152.50 Y150.41 E47.47879
G1 X152.91 Y150.45 E47.49249
G1 X153.30 Y150.56 E47.50612
G1 X153.66 Y150.76 E47.51961
G1 X153.98 Y151.02 E47.53342
G1 X154.24 Y151.34 E47.54722
G1 X154.44 Y151.70 E47.56073
G1 X154.56 Y152.09 E47.57435
G1 X154.59 Y152.50 E47.58806
G1 X154.56 Y152.91 E47.60176
G1 X154.44 Y153.30 E47.61538
G1 X154.24 Y153.66 E47.62889
G1 X153.98 Y153.98 E47.64270
G1 X153.66 Y154.24 E47.65650
G1 X153.30 Y154.44 E47.67000
G1 X152.91 Y154.55 E47.68362
G1 X152.50 Y154.59 E47.69733
G1 X152.09 Y154.55 E47.71103
G0 F12000 X152.35 Y154.04
;TYPE:FILL
G1 F540 X154.04 Y152.35 E47.79052
;LAYER:44
G0 F12000 X154.16 Y152.17 Z9.05
;TYPE:WALL-INNER
G1 F540 X154.19 Y152.50 E47.80155
G1 X154.16 Y152.83 E47.81258
G1 X154.06 Y153.15 E47.82360
G1 X153.91 Y153.44 E47.83457
G1 X153.70 Y153.70 E47.84570
G1 X153.44 Y153.91 E47.85682
G1 X153.15 Y154.06 E47.86784
G1 X152.83 Y154.16 E47.87875
G1 X152.50 Y154.19 E47.88984
G1 X152.17 Y154.16 E47.90094
G1 X151.85 Y154.06 E47.91185
G1 X151.56 Y153.91 E47.92286
G1 X151.30 Y153.70 E47.93399
G1 X151.09 Y153.44 E47.94512
G1 X150.94 Y153.15 E47.95613
G1 X150.84 Y152.83 E47.96704
G1 X150.81 Y152.50 E47.97814
G1 X150.84 Y152.17 E47.98923
G1 X150.94 Y151.85 E48.00014
G1 X151.09 Y151.56 E48.01116
G1 X151.30 Y151.30 E48.02228
G1 X151.56 Y151.09 E48.03341
G1 X151.85 Y150.94 E48.04442
G1 X152.17 Y150.84 E48.05533
G1 X152.50 Y150.81 E48.06643
G1 X152.83 Y150.84 E48.07753
G1 X153.15 Y150.94 E48.08844
G1 X153.44 Y151.09 E48.09945
G1 X153.70 Y151.30 E48.11058
G1 X153.91 Y151.56 E48.12170
G1 X154.06 Y151.85 E48.13267
G1 X154.16 Y152.17 E48.14370
G0 F12000 X154.56 Y152.09
;TYPE:WALL-OUTER
G1 F540 X154.59 Y152.50 E48.15740
G1 X154.56 Y152.91 E48.17110
G1 X154.44 Y153.30 E48.18472
G1 X154.24 Y153.66 E48.19824
G1 X153.98 Y153.98 E48.21204
G1 X153.66 Y154.24 E48.22584
G1 X153.30 Y154.44 E48.23934
G1 X152.91 Y154.55 E48.25296
G1 X152.50 Y154.59 E48.26667
G1 X152.09 Y154.55 E48.28037
G1 X151.70 Y154.44 E48.29400
G1 X151.34 Y154.24 E48.30749
G1 X151.02 Y153.98 E48.32130
G1 X150.76 Y153.66 E48.33510
G1 X150.56 Y153.30 E48.34859
G1 X150.45 Y152.91 E48.36222
G1 X150.41 Y152.50 E48.37592
G1 X150.45 Y152.09 E48.38963
G1 X150.56 Y151.70 E48.40325
G1 X150.76 Y151.34 E48.41675
G1 X151.02 Y151.02 E48.43055
G1 X151.34 Y150.76 E48.44435
G1 X151.70 Y150.56 E48.45785
G1 X152.09 Y150.45 E48.47148
G1 X152.50 Y150.41 E48.48518
G1 X152.91 Y150.45 E48.49888
G1 X153.30 Y150.56 E48.51251
G1 X153.66 Y150.76 E48.52601
G1 X153.98 Y151.02 E48.53981
G1 X154.24 Y151.34 E48.55361
G1 X154.44 Y151.70 E48.56712
G1 X154.56 Y152.09 E48.58075
G0 F12000 X154.04 Y152.35
;TYPE:FILL
G1 F540 X152.35 Y154.04 E48.66024
;LAYER:45
G0 F12000 X152.17 Y154.16 Z9.25
;TYPE:WALL-INNER
G1 F540 X151.85 Y154.06 E48.67115
G1 X151.56 Y153.91 E48.68216
G1 X151.30 Y153.70 E48.69329
G1 X151.09 Y153.44 E48.70442
G1 X150.94 Y153.15 E48.71543
G1 X150.84 Y152.83 E48.72634
G1 X150.81 Y152.50 E48.73744
G1 X150.84 Y152.17 E48.74853
G1 X150.94 Y151.85 E48.75944
G1 X151.09 Y151.56 E48.77046
G1 X151.30 Y151.30 E48.78158
G1 X151.56 Y151.09 E48.79271
G1 X151.85 Y150.94 E48.80372
G1 X152.17 Y150.84 E48.81463
G1 X152.50 Y150.81 E48.82573
G1 X152.83 Y150.84 E48.83683
G1 X153.15 Y150.94 E48.84774
G1 X153.44 Y151.09 E48.85875
G1 X153.70 Y151.30 E48.86988
G1 X153.91 Y151.56 E48.88100
G1 X154.06 Y151.85 E48.89197
G1 X154.16 Y152.17 E48.90300
G1 X154.19 Y152.50 E48.91402
G1 X154.16 Y152.83 E48.92505
G1 X154.06 Y153.15 E48.93608
G1 X153.91 Y153.44 E48.94704
G1 X153.70 Y153.70 E48.95817
G1 X153.44 Y153.91 E48.96930
G1 X153.15 Y154.06 E48.98031
G1 X152.83 Y154.16 E48.99122
G1 X152.50 Y154.19 E49.00232
G1 X152.17 Y154.16 E49.01341
G0 F12000 X152.09 Y154.55
;TYPE:WALL-OUTER
G1 F540 X151.70 Y154.44 E49.02704
G1 X151.34 Y154.24 E49.04054
G1 X151.02 Y153.98 E49.05434
G1 X150.76 Y153.66 E49.06814
G1 X150.56 Y153.30 E49.08164
G1 X150.45 Y152.91 E49.09526
G1 X150.41 Y152.50 E49.10897
G1 X150.45 Y152.09 E49.12267
G1 X150.56 Y151.70 E49.13630
G1 X150.76 Y151.34 E49.14979
G1 X151.02 Y151.02 E49.16359
G1 X151.34 Y150.76 E49.17740
G1 X151.70 Y150.56 E49.19089
G1 X152.09 Y150.45 E49.20452
G1 X152.50 Y150.41 E49.21822
G1 X152.91 Y150.45 E49.23193
G1 X153.30 Y150.56 E49.24555
G1 X153.66 Y150.76 E49.25905
G1 X153.98 Y151.02 E49.27285
G1 X154.24 Y151.34 E49.28665
G1 X154.44 Y151.70 E49.30017
