;-- START GCODE --
;Sliced for Type A Machines Series 1
;Sliced at: Wed 15-04-2015 04:01:11
;Basic settings: Layer height: 0.25 Walls: 0.8 Fill: 12
;Print Speed: 135 Support: 0
;Retraction Speed: 40 Retraction Distance: 1.2
;Print time: #P_TIME#
;Filament used: #F_AMNT#m #F_WGHT#g
;Filament cost: #F_COST#
M106 S255	 ;start with the fan on
G21        ;metric values
G90        ;absolute positioning
M106 S255    ;start with the fan on
G28     ;move to endstops
G29		;allows for auto-levelling
G1 X150 Y5  Z15.0 F12000 ;center and move the platform down 15mm
M109 S220 ;Heat To temp
G92 E0                  ;zero the extruded length
G1 F200 E30              ;extrude 30mm of feed stock
G92 E0                  ;zero the extruded length again
G1 X175 Y25  Z0 F12000 ;remove bugger
G1 X220 F12000 ;remove bugger
G1 X150 Y150  Z15 F12000 ;recenter and begin
G1 F12000

;Layer count: 716
;LAYER:0
M106 S255
G0 F12000 X144.13 Y143.47 Z0.25
;TYPE:SKIRT
G1 F2700 X157.45 Y143.47 E0.55374
G1 X161.53 Y144.13 E0.72554
G1 X161.53 Y157.45 E1.27924
G1 X160.87 Y161.53 E1.45099
G1 X147.55 Y161.53 E2.00469
G1 X143.47 Y160.87 E2.17645
G1 X143.47 Y147.55 E2.73014
G1 X144.13 Y143.47 E2.90190
G0 F12000 X144.47 Y143.87
G1 F2700 X157.42 Y143.87 E3.44017
G1 X161.13 Y144.47 E3.59648
G1 X161.13 Y157.42 E4.13467
G1 X160.53 Y161.13 E4.29092
G1 X147.58 Y161.13 E4.82915
G1 X143.87 Y160.53 E4.98541
G1 X143.87 Y147.58 E5.52364
G1 X144.47 Y143.87 E5.67990
G0 F12000 X144.81 Y144.27
G1 F2700 X157.38 Y144.27 E6.20262
G1 X160.73 Y144.81 E6.34346
G1 X160.73 Y157.38 E6.86619
G1 X160.19 Y160.73 E7.00695
G1 X147.62 Y160.73 E7.52963
G1 X144.27 Y160.19 E7.67043
G1 X144.27 Y147.62 E8.19311
G1 X144.81 Y144.27 E8.33391
G1 F2400 E7.13391
G0 F12000 X148.07 Y148.07
;TYPE:WALL-INNER
G1 F2400 E8.33391
G1 F2700 X156.93 Y148.07 E8.70223
G1 X156.93 Y156.93 E9.07050
G1 X148.07 Y156.93 E9.43877
G1 X148.07 Y148.07 E9.80705
G0 F12000 X147.67 Y147.89
;TYPE:WALL-OUTER
G1 F2700 X147.71 Y147.67 E9.81606
G1 X157.12 Y147.67 E10.20728
G1 X157.33 Y147.71 E10.21630
G1 X157.33 Y157.11 E10.60748
G1 X157.29 Y157.33 E10.61649
G1 X147.89 Y157.33 E11.00768
G1 X147.67 Y157.29 E11.01669
G1 X147.67 Y147.89 E11.40787
G0 F12000 X148.21 Y148.49
;TYPE:FILL
G1 F2700 X156.50 Y156.79 E11.89559
G0 F12000 X156.79 Y156.51
G1 F2700 X148.49 Y148.21 E12.38330
G0 F12000 X149.06 Y148.21
G1 F2700 X156.79 Y155.94 E12.83777
G0 F12000 X156.79 Y155.38
G1 F2700 X149.62 Y148.21 E13.25898
G0 F12000 X150.19 Y148.21
G1 F2700 X156.79 Y154.81 E13.64692
G0 F12000 X156.79 Y154.24
G1 F2700 X150.76 Y148.21 E14.00161
G0 F12000 X151.32 Y148.21
G1 F2700 X156.79 Y153.68 E14.32307
G0 F12000 X156.79 Y153.11
G1 F2700 X151.89 Y148.21 E14.61129
G0 F12000 X152.45 Y148.21
G1 F2700 X156.79 Y152.55 E14.86623
G0 F12000 X156.79 Y151.98
G1 F2700 X153.02 Y148.21 E15.08787
G0 F12000 X153.59 Y148.21
G1 F2700 X156.79 Y151.41 E15.27622
G0 F12000 X156.79 Y150.85
G1 F2700 X154.15 Y148.21 E15.43138
G0 F12000 X154.72 Y148.21
G1 F2700 X156.79 Y150.28 E15.55327
G0 F12000 X156.79 Y149.72
G1 F2700 X155.28 Y148.21 E15.64187
G0 F12000 X155.85 Y148.21
G1 F2700 X156.79 Y149.15 E15.69723
G0 F12000 X156.79 Y148.59
G1 F2700 X156.41 Y148.21 E15.71934
G0 F12000 X148.21 Y149.06
G1 F2700 X155.94 Y156.79 E16.17380
G0 F12000 X155.37 Y156.79
G1 F2700 X148.21 Y149.62 E16.59499
G0 F12000 X148.21 Y150.19
G1 F2700 X154.81 Y156.79 E16.98292
G0 F12000 X154.24 Y156.79
G1 F2700 X148.21 Y150.75 E17.33761
G0 F12000 X148.21 Y151.32
G1 F2700 X153.68 Y156.79 E17.65902
G0 F12000 X153.11 Y156.79
G1 F2700 X148.21 Y151.89 E17.94718
G0 F12000 X148.21 Y152.45
G1 F2700 X152.54 Y156.79 E18.20209
G0 F12000 X151.98 Y156.79
G1 F2700 X148.21 Y153.02 E18.42370
G0 F12000 X148.21 Y153.59
G1 F2700 X151.41 Y156.79 E18.61205
G0 F12000 X150.85 Y156.79
G1 F2700 X148.21 Y154.15 E18.76715
G0 F12000 X148.21 Y154.72
G1 F2700 X150.28 Y156.79 E18.88898
G0 F12000 X149.72 Y156.79
G1 F2700 X148.21 Y155.28 E18.97755
G0 F12000 X148.21 Y155.85
G1 F2700 X149.15 Y156.79 E19.03288
G0 F12000 X148.59 Y156.79
G1 F2700 X148.21 Y156.41 E19.05493
;LAYER:1
G0 F12000 X148.01 Y156.88 Z0.50
;TYPE:WALL-INNER
G1 F3960 X148.01 Y148.66 E19.39680
G1 X148.12 Y148.01 E19.42418
G1 X156.34 Y148.01 E19.76609
G1 X156.99 Y148.12 E19.79347
G1 X156.99 Y156.34 E20.13534
G1 X156.88 Y156.99 E20.16271
G1 X148.66 Y156.99 E20.50459
G1 X148.01 Y156.88 E20.53196
G0 F12000 X147.61 Y157.22
;TYPE:WALL-OUTER
G1 F3960 X147.61 Y148.63 E20.88938
G1 X147.78 Y147.61 E20.93217
G1 X156.37 Y147.61 E21.28964
G1 X157.39 Y147.78 E21.33243
G1 X157.39 Y156.37 E21.68985
G1 X157.22 Y157.39 E21.73265
G1 X148.63 Y157.39 E22.09007
G1 X147.61 Y157.22 E22.13286
G0 F12000 X148.38 Y156.80
;TYPE:FILL
G1 F3960 X156.85 Y148.34 E22.63057
G0 F12000 X156.45 Y148.17
G1 F3960 X148.15 Y156.47 E23.11864
G0 F12000 X148.15 Y155.90
G1 F3960 X155.91 Y148.15 E23.57455
G0 F12000 X155.34 Y148.15
G1 F3960 X148.15 Y155.34 E23.99720
G0 F12000 X148.15 Y154.77
G1 F3960 X154.77 Y148.15 E24.38658
G0 F12000 X154.21 Y148.15
G1 F3960 X148.15 Y154.21 E24.74271
G0 F12000 X148.15 Y153.64
G1 F3960 X153.64 Y148.15 E25.06556
G0 F12000 X153.08 Y148.15
G1 F3960 X148.15 Y153.07 E25.35513
G0 F12000 X148.15 Y152.51
G1 F3960 X152.51 Y148.15 E25.61148
G0 F12000 X151.94 Y148.15
G1 F3960 X148.15 Y151.94 E25.83461
G0 F12000 X148.15 Y151.38
G1 F3960 X151.38 Y148.15 E26.02446
G0 F12000 X150.81 Y148.15
G1 F3960 X148.15 Y150.81 E26.18101
G0 F12000 X148.15 Y150.25
G1 F3960 X150.25 Y148.15 E26.30430
G0 F12000 X149.68 Y148.15
G1 F3960 X148.15 Y149.68 E26.39432
G0 F12000 X148.15 Y149.12
G1 F3960 X149.12 Y148.15 E26.45109
G0 F12000 X148.55 Y148.15
G1 F3960 X148.17 Y148.53 E26.47331
G0 F12000 X148.90 Y156.85
G1 F3960 X156.85 Y148.90 E26.94045
G0 F12000 X156.85 Y149.47
G1 F3960 X149.47 Y156.85 E27.37434
G0 F12000 X150.03 Y156.85
G1 F3960 X156.85 Y150.04 E27.77494
G0 F12000 X156.85 Y150.60
G1 F3960 X150.60 Y156.85 E28.14230
G0 F12000 X151.17 Y156.85
G1 F3960 X156.85 Y151.17 E28.47638
G0 F12000 X156.85 Y151.73
G1 F3960 X151.73 Y156.85 E28.77718
G0 F12000 X152.30 Y156.85
G1 F3960 X156.85 Y152.30 E29.04473
G0 F12000 X156.85 Y152.86
G1 F3960 X152.86 Y156.85 E29.27898
G0 F12000 X153.43 Y156.85
G1 F3960 X156.85 Y153.43 E29.47994
G0 F12000 X156.85 Y154.00
G1 F3960 X154.00 Y156.85 E29.64769
G0 F12000 X154.56 Y156.85
G1 F3960 X156.85 Y154.56 E29.78216
G0 F12000 X156.85 Y155.13
G1 F3960 X155.13 Y156.85 E29.88332
G0 F12000 X155.69 Y156.85
G1 F3960 X156.85 Y155.69 E29.95122
G0 F12000 X156.85 Y156.26
G1 F3960 X156.26 Y156.85 E29.98586
;LAYER:2
G0 F12000 X156.81 Y157.05 Z0.75
;TYPE:WALL-INNER
G1 F5340 X149.40 Y157.05 E30.29393
G1 X147.95 Y156.81 E30.35509
G1 X147.95 Y149.40 E30.66316
G1 X148.19 Y147.95 E30.72432
G1 X155.60 Y147.95 E31.03243
G1 X157.05 Y148.19 E31.09359
G1 X157.05 Y155.60 E31.40166
G1 X156.81 Y157.05 E31.46282
G0 F12000 X157.15 Y157.45
;TYPE:WALL-OUTER
G1 F5340 X149.37 Y157.45 E31.78640
G1 X147.55 Y157.15 E31.86302
G1 X147.55 Y149.37 E32.18660
G1 X147.85 Y147.55 E32.26322
G1 X155.63 Y147.55 E32.58684
G1 X157.45 Y147.85 E32.66346
G1 X157.45 Y155.63 E32.98704
G1 X157.15 Y157.45 E33.06366
G0 F12000 X156.62 Y156.91
;TYPE:FILL
G1 F5340 X148.24 Y148.52 E33.55690
G0 F12000 X148.38 Y148.09
G1 F5340 X156.76 Y156.48 E34.05014
G0 F12000 X156.84 Y155.99
G1 F5340 X148.94 Y148.09 E34.51478
G0 F12000 X149.51 Y148.09
G1 F5340 X156.91 Y155.49 E34.95002
G0 F12000 X156.91 Y154.93
G1 F5340 X150.07 Y148.09 E35.35201
G0 F12000 X150.64 Y148.09
G1 F5340 X156.91 Y154.36 E35.72075
G0 F12000 X156.91 Y153.80
G1 F5340 X151.20 Y148.09 E36.05627
G0 F12000 X151.77 Y148.09
G1 F5340 X156.91 Y153.23 E36.35854
G0 F12000 X156.91 Y152.67
G1 F5340 X152.33 Y148.09 E36.62753
G0 F12000 X152.90 Y148.09
G1 F5340 X156.91 Y152.10 E36.86328
G0 F12000 X156.91 Y151.53
G1 F5340 X153.46 Y148.09 E37.06577
G0 F12000 X154.03 Y148.09
G1 F5340 X156.91 Y150.97 E37.23499
G0 F12000 X156.91 Y150.40
G1 F5340 X154.60 Y148.09 E37.37095
G0 F12000 X155.16 Y148.09
G1 F5340 X156.91 Y149.84 E37.47367
G0 F12000 X156.91 Y149.27
G1 F5340 X155.75 Y148.12 E37.54152
G0 F12000 X156.43 Y148.23
G1 F5340 X156.91 Y148.71 E37.56965
G0 F12000 X156.06 Y156.91
G1 F5340 X148.16 Y149.00 E38.03429
G0 F12000 X148.09 Y149.50
G1 F5340 X155.49 Y156.91 E38.46950
G0 F12000 X154.93 Y156.91
G1 F5340 X148.09 Y150.07 E38.87149
G0 F12000 X148.09 Y150.63
G1 F5340 X154.36 Y156.91 E39.24026
G0 F12000 X153.80 Y156.91
G1 F5340 X148.09 Y151.20 E39.57575
G0 F12000 X148.09 Y151.77
G1 F5340 X153.23 Y156.91 E39.87796
G0 F12000 X152.66 Y156.91
G1 F5340 X148.09 Y152.33 E40.14698
G0 F12000 X148.09 Y152.90
G1 F5340 X152.10 Y156.91 E40.38276
G0 F12000 X151.53 Y156.91
G1 F5340 X148.09 Y153.46 E40.58525
G0 F12000 X148.09 Y154.03
G1 F5340 X150.97 Y156.91 E40.75452
G0 F12000 X150.40 Y156.91
G1 F5340 X148.09 Y154.60 E40.89052
G0 F12000 X148.09 Y155.16
G1 F5340 X149.84 Y156.91 E40.99330
G0 F12000 X149.25 Y156.88
G1 F5340 X148.09 Y155.73 E41.06121
G0 F12000 X148.09 Y156.29
G1 F5340 X148.57 Y156.77 E41.08934
;LAYER:3
G0 F12000 X147.89 Y156.74 Z1.00
;TYPE:WALL-INNER
G1 F5640 X147.89 Y150.15 E41.36365
G1 X148.26 Y147.89 E41.45859
G1 X154.85 Y147.89 E41.73294
G1 X157.11 Y148.26 E41.82788
G1 X157.11 Y154.85 E42.10220
G1 X156.74 Y157.11 E42.19713
G1 X150.15 Y157.11 E42.47145
G1 X147.89 Y156.74 E42.56638
G0 F12000 X147.49 Y157.08
;TYPE:WALL-OUTER
G1 F5640 X147.49 Y150.11 E42.85620
G1 X147.92 Y147.49 E42.96660
G1 X154.89 Y147.49 E43.25646
G1 X157.51 Y147.92 E43.36686
G1 X157.51 Y154.89 E43.65668
G1 X157.08 Y157.51 E43.76708
G1 X150.11 Y157.51 E44.05690
G1 X147.49 Y157.08 E44.16730
G0 F12000 X148.03 Y156.59
;TYPE:FILL
G1 F5640 X156.35 Y148.27 E44.65622
G0 F12000 X155.86 Y148.19
G1 F5640 X148.03 Y156.02 E45.11654
G0 F12000 X148.03 Y155.46
G1 F5640 X155.37 Y148.12 E45.54825
G0 F12000 X154.89 Y148.04
G1 F5640 X148.03 Y154.89 E45.95135
G0 F12000 X148.03 Y154.33
G1 F5640 X154.33 Y148.03 E46.32162
G0 F12000 X153.76 Y148.03
G1 F5640 X148.03 Y153.76 E46.65864
G0 F12000 X148.03 Y153.20
G1 F5640 X153.20 Y148.03 E46.96241
G0 F12000 X152.63 Y148.03
G1 F5640 X148.03 Y152.63 E47.23287
G0 F12000 X148.03 Y152.06
G1 F5640 X152.06 Y148.03 E47.47012
G0 F12000 X151.50 Y148.03
G1 F5640 X148.03 Y151.50 E47.67408
G0 F12000 X148.03 Y150.93
G1 F5640 X150.93 Y148.03 E47.84483
G0 F12000 X150.37 Y148.03
G1 F5640 X148.03 Y150.37 E47.98223
G0 F12000 X148.10 Y149.74
G1 F5640 X149.80 Y148.03 E48.08242
G0 F12000 X149.24 Y148.03
G1 F5640 X148.21 Y149.06 E48.14292
G0 F12000 X148.32 Y148.38
G1 F5640 X148.67 Y148.03 E48.16368
G0 F12000 X156.83 Y148.35
G1 F5640 X148.49 Y156.70 E48.65439
G0 F12000 X148.97 Y156.78
G1 F5640 X156.97 Y148.78 E49.12435
G0 F12000 X156.97 Y149.35
G1 F5640 X149.46 Y156.86 E49.56570
G0 F12000 X149.95 Y156.94
G1 F5640 X156.97 Y149.92 E49.97839
G0 F12000 X156.97 Y150.48
G1 F5640 X150.48 Y156.97 E50.35980
G0 F12000 X151.05 Y156.97
G1 F5640 X156.97 Y151.05 E50.70796
G0 F12000 X156.97 Y151.61
G1 F5640 X151.61 Y156.97 E51.02290
G0 F12000 X152.18 Y156.97
G1 F5640 X156.97 Y152.18 E51.30460
G0 F12000 X156.97 Y152.74
G1 F5640 X152.74 Y156.97 E51.55295
G0 F12000 X153.31 Y156.97
G1 F5640 X156.97 Y153.31 E51.76809
G0 F12000 X156.97 Y153.88
G1 F5640 X153.88 Y156.97 E51.94994
G0 F12000 X154.44 Y156.97
G1 F5640 X156.97 Y154.44 E52.09852
G0 F12000 X156.94 Y155.04
G1 F5640 X155.01 Y156.97 E52.21197
G0 F12000 X155.57 Y156.97
G1 F5640 X156.83 Y155.71 E52.28570
G0 F12000 X156.72 Y156.39
G1 F5640 X156.14 Y156.97 E52.31974
;LAYER:4
G0 F12000 X156.67 Y157.17 Z1.25
;TYPE:WALL-INNER
G1 F5640 X150.89 Y157.17 E52.56025
G1 X147.83 Y156.67 E52.68898
G1 X147.83 Y150.89 E52.92949
G1 X148.33 Y147.83 E53.05821
G1 X154.11 Y147.83 E53.29873
G1 X157.17 Y148.33 E53.42749
G1 X157.17 Y154.11 E53.66800
G1 X156.67 Y157.17 E53.79672
G0 F12000 X157.01 Y157.57
;TYPE:WALL-OUTER
G1 F5640 X150.85 Y157.57 E54.05274
G1 X147.43 Y157.01 E54.19693
G1 X147.43 Y150.85 E54.45295
G1 X147.99 Y147.43 E54.59713
G1 X154.15 Y147.43 E54.85315
G1 X157.57 Y147.99 E54.99738
G1 X157.57 Y154.15 E55.25340
G1 X157.01 Y157.57 E55.39758
G0 F12000 X156.58 Y156.86
;TYPE:FILL
G1 F5640 X148.34 Y148.62 E55.88212
G0 F12000 X148.42 Y148.14
G1 F5640 X156.66 Y156.38 E56.36663
G0 F12000 X156.74 Y155.89
G1 F5640 X148.82 Y147.97 E56.83221
G0 F12000 X149.39 Y147.97
G1 F5640 X156.82 Y155.40 E57.26915
G0 F12000 X156.90 Y154.92
G1 F5640 X149.95 Y147.97 E57.67755
G0 F12000 X150.52 Y147.97
G1 F5640 X156.98 Y154.43 E58.05734
G0 F12000 X157.03 Y153.92
G1 F5640 X151.08 Y147.97 E58.40700
G0 F12000 X151.65 Y147.97
G1 F5640 X157.03 Y153.35 E58.72339
G0 F12000 X157.03 Y152.79
G1 F5640 X152.21 Y147.97 E59.00652
G0 F12000 X152.78 Y147.97
G1 F5640 X157.03 Y152.22 E59.25643
G0 F12000 X157.03 Y151.66
G1 F5640 X153.34 Y147.97 E59.47310
G0 F12000 X153.91 Y147.97
G1 F5640 X157.03 Y151.09 E59.65648
G0 F12000 X157.03 Y150.52
G1 F5640 X154.55 Y148.04 E59.80235
G0 F12000 X155.22 Y148.15
G1 F5640 X157.03 Y149.96 E59.90854
G0 F12000 X157.03 Y149.39
G1 F5640 X155.90 Y148.26 E59.97498
G0 F12000 X156.57 Y148.37
G1 F5640 X157.03 Y148.83 E60.00170
G0 F12000 X156.18 Y157.03
G1 F5640 X148.26 Y149.11 E60.46725
G0 F12000 X148.18 Y149.59
G1 F5640 X155.61 Y157.03 E60.90419
G0 F12000 X155.05 Y157.03
G1 F5640 X148.10 Y150.08 E61.31253
G0 F12000 X148.02 Y150.57
G1 F5640 X154.48 Y157.03 E61.69233
G0 F12000 X153.92 Y157.03
G1 F5640 X147.97 Y151.08 E62.04196
G0 F12000 X147.97 Y151.65
G1 F5640 X153.35 Y157.03 E62.35834
G0 F12000 X152.78 Y157.03
G1 F5640 X147.97 Y152.21 E62.64147
G0 F12000 X147.97 Y152.78
G1 F5640 X152.22 Y157.03 E62.89139
G0 F12000 X151.65 Y157.03
G1 F5640 X147.97 Y153.34 E63.10799
G0 F12000 X147.97 Y153.91
G1 F5640 X151.09 Y157.03 E63.29132
G0 F12000 X150.45 Y156.96
G1 F5640 X147.97 Y154.47 E63.43719
G0 F12000 X147.97 Y155.04
G1 F5640 X149.78 Y156.85 E63.54326
G0 F12000 X149.10 Y156.74
G1 F5640 X147.97 Y155.61 E63.60958
G0 F12000 X147.97 Y156.17
G1 F5640 X148.42 Y156.63 E63.63622
;LAYER:5
G0 F12000 X147.77 Y156.60 Z1.50
;TYPE:WALL-INNER
G1 F2400 X147.77 Y151.63 E63.84293
G1 X148.40 Y147.77 E64.00547
G1 X153.37 Y147.77 E64.21222
G1 X157.23 Y148.40 E64.37477
G1 X157.23 Y153.37 E64.58148
G1 X156.60 Y157.23 E64.74402
G1 X151.63 Y157.23 E64.95073
G1 X147.77 Y156.60 E65.11328
G0 F12000 X147.37 Y156.94
;TYPE:WALL-OUTER
G1 F2400 X147.37 Y151.60 E65.33549
G1 X148.06 Y147.37 E65.51350
G1 X153.40 Y147.37 E65.73576
G1 X157.63 Y148.06 E65.91376
G1 X157.63 Y153.40 E66.13598
G1 X156.94 Y157.63 E66.31398
G1 X151.60 Y157.63 E66.53620
G1 X147.37 Y156.94 E66.71421
G0 F12000 X148.11 Y156.51
;TYPE:FILL
G1 F2400 X148.44 Y156.46 E66.72553
G1 X148.93 Y156.54 E66.73681
G1 X149.42 Y156.62 E66.74807
G1 X149.76 Y156.56 E66.76240
G0 F12000 X149.62 Y156.76
G1 F2400 X157.09 Y149.29 E67.20149
G0 F12000 X157.09 Y149.23
G1 F2400 X156.98 Y149.62 E67.21434
G1 X156.98 Y150.19 E67.22714
G1 X156.98 Y150.75 E67.23997
G1 X156.98 Y151.32 E67.25285
G1 X156.98 Y151.88 E67.26565
G1 X156.87 Y152.28 E67.28261
G0 F12000 X157.09 Y152.38
G1 F2400 X152.62 Y147.91 E67.54513
G0 F12000 X152.75 Y147.91
G1 F2400 X152.36 Y148.02 E67.55815
G1 X151.79 Y148.02 E67.57115
G1 X151.23 Y148.02 E67.58410
G1 X150.66 Y148.02 E67.59710
G1 X150.09 Y148.02 E67.61004
G1 X149.53 Y148.02 E67.62304
G1 X149.13 Y148.13 E67.64002
G0 F12000 X149.04 Y147.91
G1 F2400 X148.41 Y148.54 E67.67706
G0 F12000 X148.62 Y148.65
G1 F2400 X148.43 Y149.12 E67.69258
G1 X148.32 Y149.79 E67.70815
G1 X148.21 Y150.47 E67.72367
G1 X148.10 Y151.15 E67.73925
G1 X148.02 Y151.79 E67.75477
G1 X148.02 Y152.36 E67.76767
G1 X147.91 Y152.75 E67.78468
G0 F12000 X147.91 Y152.62
G1 F2400 X152.38 Y157.09 E68.04723
G0 F12000 X152.28 Y156.87
G1 F2400 X151.88 Y156.98 E68.06025
G1 X151.37 Y156.93 E68.07203
G1 X150.88 Y156.85 E68.08331
G1 X150.39 Y156.77 E68.09457
G1 X150.05 Y156.83 E68.10891
G0 F12000 X148.13 Y155.92
G1 F2400 X147.91 Y155.86 E68.12187
G1 X148.02 Y155.19 E68.13475
G1 X148.02 Y154.62 E68.14761
G1 X148.02 Y154.05 E68.16050
G1 X148.02 Y153.49 E68.17336
G1 X148.13 Y153.10 E68.19033
G0 F12000 X148.46 Y148.24
G1 F2400 X148.79 Y147.91 E68.20961
G0 F12000 X153.10 Y148.13
G1 F2400 X153.47 Y148.04 E68.22263
G1 X153.96 Y148.12 E68.23386
G1 X154.44 Y148.20 E68.24509
G1 X154.93 Y148.28 E68.25635
G1 X155.42 Y148.35 E68.26758
G1 X155.90 Y148.43 E68.27887
G1 X156.39 Y148.51 E68.29018
G1 X156.91 Y148.56 E68.30144
G1 X156.87 Y148.88 E68.31497
G0 F12000 X157.09 Y152.62
G1 F2400 X156.98 Y153.02 E68.32780
G1 X156.93 Y153.62 E68.34131
G1 X156.82 Y154.30 E68.35683
G1 X156.72 Y154.98 E68.37232
G1 X156.60 Y155.65 E68.38784
G1 X156.50 Y156.33 E68.40334
G1 X156.27 Y156.83 E68.41888
G1 X155.84 Y156.98 E68.43184
G1 X155.28 Y156.98 E68.44476
G1 X154.71 Y156.98 E68.45770
G1 X154.15 Y156.98 E68.47065
G1 X153.58 Y156.98 E68.48356
G1 X153.02 Y156.98 E68.49657
G1 X152.62 Y157.09 E68.51358
;LAYER:6
G0 F12000 X152.37 Y157.29 Z1.75
;TYPE:WALL-INNER
G1 F2400 X147.71 Y156.53 E68.70991
G1 X147.71 Y152.37 E68.88282
G1 X148.47 Y147.71 E69.07915
G1 X152.63 Y147.71 E69.25210
G1 X157.29 Y148.47 E69.44843
G1 X157.29 Y152.63 E69.62134
G1 X156.53 Y157.29 E69.81767
G1 X152.37 Y157.29 E69.99058
G0 F12000 X152.34 Y157.69
;TYPE:WALL-OUTER
G1 F2400 X147.31 Y156.87 E70.20237
G1 X147.31 Y152.34 E70.39079
G1 X148.13 Y147.31 E70.60258
G1 X152.66 Y147.31 E70.79104
G1 X157.69 Y148.13 E71.00282
G1 X157.69 Y152.66 E71.19124
G1 X156.87 Y157.69 E71.40303
G1 X152.34 Y157.69 E71.59145
G0 F12000 X152.33 Y157.14
;TYPE:FILL
G1 F2400 X151.86 Y156.95 E71.60702
G1 X151.19 Y156.84 E71.62261
G1 X150.51 Y156.73 E71.63818
G1 X150.04 Y156.54 E71.65927
G0 F12000 X149.67 Y156.71
G1 F2400 X157.15 Y149.23 E72.09877
G0 F12000 X156.93 Y149.29
G1 F2400 X157.04 Y149.68 E72.11166
G1 X157.04 Y150.25 E72.12458
G1 X157.04 Y150.82 E72.13755
G1 X157.04 Y151.38 E72.15047
G1 X157.04 Y151.95 E72.16341
G1 X157.15 Y152.34 E72.18043
G0 F12000 X157.15 Y152.44
G1 F2400 X152.56 Y147.85 E72.45004
G0 F12000 X152.66 Y147.86
G1 F2400 X153.14 Y148.04 E72.46564
G1 X153.81 Y148.16 E72.48123
G1 X154.49 Y148.26 E72.49680
G1 X155.16 Y148.37 E72.51231
G1 X155.84 Y148.48 E72.52795
G1 X156.51 Y148.59 E72.54354
G1 X157.15 Y148.95 E72.57369
G0 F12000 X156.92 Y152.67
G1 F2400 X156.97 Y153.01 E72.58501
G1 X156.89 Y153.50 E72.59624
G1 X156.81 Y153.99 E72.60753
G1 X156.74 Y154.47 E72.61878
G1 X156.66 Y154.96 E72.63007
G1 X156.58 Y155.45 E72.64133
G1 X156.50 Y155.93 E72.65261
G1 X156.42 Y156.42 E72.66392
G1 X156.39 Y156.95 E72.67520
G1 X155.91 Y157.04 E72.68804
G1 X155.34 Y157.04 E72.70093
G1 X154.78 Y157.04 E72.71373
G1 X154.21 Y157.04 E72.72661
G1 X153.64 Y157.04 E72.73950
G1 X153.08 Y157.04 E72.75242
G1 X152.69 Y156.93 E72.76938
G0 F12000 X152.44 Y157.15
G1 F2400 X147.85 Y152.56 E73.03896
G0 F12000 X147.85 Y152.66
G1 F2400 X147.96 Y153.05 E73.05197
G1 X147.96 Y153.62 E73.06489
G1 X147.96 Y154.18 E73.07784
G1 X147.96 Y154.75 E73.09084
G1 X147.96 Y155.31 E73.10378
G1 X147.96 Y155.88 E73.11678
G1 X148.48 Y156.40 E73.14187
G1 X149.16 Y156.51 E73.15746
G1 X149.63 Y156.70 E73.17855
G0 F12000 X148.08 Y152.32
G1 F2400 X148.03 Y151.99 E73.18976
G1 X148.10 Y151.50 E73.20099
G1 X148.18 Y151.01 E73.21222
G1 X148.26 Y150.53 E73.22343
G1 X148.34 Y150.04 E73.23466
G1 X148.42 Y149.55 E73.24587
G1 X148.50 Y149.06 E73.25710
G1 X148.44 Y148.73 E73.27140
G0 F12000 X148.49 Y148.47
G1 F2400 X149.10 Y147.85 E73.30767
G0 F12000 X149.27 Y147.85
G1 F2400 X149.66 Y147.96 E73.32052
G1 X150.22 Y147.96 E73.33332
G1 X150.79 Y147.96 E73.34615
G1 X151.35 Y147.96 E73.35903
G1 X151.92 Y147.96 E73.37183
G1 X152.31 Y148.07 E73.38880
G0 F12000 X148.92 Y148.07
G1 F2400 X148.61 Y148.04 E73.40158
G1 X148.72 Y148.43 E73.41824
;LAYER:7
G0 F12000 X148.54 Y147.65 Z2.00
;TYPE:WALL-INNER
G1 F2400 X151.88 Y147.65 E73.55740
G1 X157.35 Y148.54 E73.78754
G1 X157.35 Y151.88 E73.92670
G1 X156.46 Y157.35 E74.15680
G1 X153.12 Y157.35 E74.29595
G1 X147.65 Y156.46 E74.52606
G1 X147.65 Y153.12 E74.66521
G1 X148.54 Y147.65 E74.89532
G0 F12000 X148.20 Y147.25
;TYPE:WALL-OUTER
G1 F2400 X151.92 Y147.25 E75.04998
G1 X157.75 Y148.20 E75.29559
G1 X157.75 Y151.92 E75.45024
G1 X156.80 Y157.75 E75.69581
G1 X153.08 Y157.75 E75.85047
G1 X147.25 Y156.80 E76.09604
G1 X147.25 Y153.08 E76.25070
G1 X148.20 Y147.25 E76.49626
G0 F12000 X148.91 Y147.79
;TYPE:FILL
G1 F2400 X148.61 Y148.09 E76.51408
G0 F12000 X148.56 Y148.40
G1 F2400 X149.16 Y147.79 E76.54965
G0 F12000 X149.26 Y148.01
G1 F2400 X149.65 Y147.90 E76.56256
G1 X150.21 Y147.90 E76.57550
G1 X150.78 Y147.90 E76.58844
G1 X151.35 Y147.90 E76.60139
G1 X151.91 Y147.91 E76.61437
G1 X152.25 Y147.85 E76.62870
G0 F12000 X152.63 Y147.91
G1 F2400 X157.12 Y152.41 E76.89308
G0 F12000 X157.09 Y152.63
G1 F2400 X156.91 Y153.08 E76.90698
G1 X156.80 Y153.76 E76.92083
G1 X156.69 Y154.43 E76.93479
G1 X156.58 Y155.11 E76.94871
G1 X156.47 Y155.78 E76.96265
G1 X156.36 Y156.46 E76.97658
G1 X156.15 Y156.95 E76.99056
G1 X155.72 Y157.10 E77.00351
G1 X155.16 Y157.10 E77.01645
G1 X154.59 Y157.10 E77.02937
G1 X154.03 Y157.10 E77.04238
G1 X153.46 Y157.10 E77.05532
G1 X152.92 Y157.07 E77.06788
G1 X152.59 Y157.12 E77.08166
G0 F12000 X152.37 Y157.09
G1 F2400 X147.88 Y152.59 E77.34609
G0 F12000 X148.08 Y152.59
G1 F2400 X147.92 Y153.02 E77.36005
G1 X147.90 Y153.61 E77.37294
G1 X147.90 Y154.17 E77.38586
G1 X147.90 Y154.74 E77.39878
G1 X147.90 Y155.31 E77.41172
G1 X147.90 Y155.87 E77.42460
G1 X148.00 Y156.34 E77.43753
G1 X148.54 Y156.36 E77.44764
G1 X149.03 Y156.44 E77.45772
G1 X149.51 Y156.52 E77.46783
G1 X149.84 Y156.47 E77.48164
G0 F12000 X149.72 Y156.66
G1 F2400 X157.21 Y149.17 E77.92159
G0 F12000 X157.21 Y149.11
G1 F2400 X157.10 Y149.50 E77.93441
G1 X157.10 Y150.07 E77.94723
G1 X157.10 Y150.63 E77.96004
G1 X157.10 Y151.20 E77.97286
G1 X157.09 Y151.77 E77.98568
G1 X156.96 Y152.19 E78.00386
G0 F12000 X156.94 Y148.81
G1 F2400 X156.87 Y148.60 E78.01402
G1 X156.30 Y148.61 E78.02406
G1 X155.81 Y148.53 E78.03417
G1 X155.32 Y148.45 E78.04425
G1 X154.84 Y148.37 E78.05435
G1 X154.35 Y148.29 E78.06446
G1 X153.86 Y148.21 E78.07456
G1 X153.38 Y148.13 E78.08464
G1 X152.89 Y148.05 E78.09474
G1 X152.56 Y148.10 E78.10856
G0 F12000 X148.74 Y148.53
G1 F2400 X148.56 Y148.99 E78.12250
G1 X148.45 Y149.66 E78.13645
G1 X148.34 Y150.34 E78.15038
G1 X148.23 Y151.01 E78.16434
G1 X148.12 Y151.69 E78.17827
G1 X147.95 Y152.15 E78.19860
G0 F12000 X150.33 Y156.55
G1 F2400 X150.40 Y156.77 E78.20875
G1 X150.97 Y156.76 E78.21874
G1 X151.46 Y156.84 E78.22885
G1 X151.94 Y156.92 E78.23888
G1 X152.28 Y156.87 E78.25273
;LAYER:8
G0 F12000 X153.86 Y157.41 Z2.25
;TYPE:WALL-INNER
G1 F1920 X147.59 Y156.39 E78.51661
G1 X147.59 Y153.86 E78.62201
G1 X148.61 Y147.59 E78.88589
G1 X151.14 Y147.59 E78.99128
G1 X157.41 Y148.61 E79.25521
G1 X157.41 Y151.14 E79.36060
G1 X156.39 Y157.41 E79.62449
G1 X153.86 Y157.41 E79.72988
G0 F12000 X153.82 Y157.81
;TYPE:WALL-OUTER
G1 F1920 X147.19 Y156.73 E80.00918
G1 X147.19 Y153.82 E80.13013
G1 X148.27 Y147.19 E80.40943
G1 X151.18 Y147.19 E80.53037
G1 X157.81 Y148.27 E80.80972
G1 X157.81 Y151.18 E80.93062
G1 X156.73 Y157.81 E81.20996
G1 X153.82 Y157.81 E81.33091
G0 F12000 X153.85 Y157.51
G0 X152.30 Y157.01
;TYPE:FILL
G1 F1920 X147.93 Y152.64 E81.58799
G0 F12000 X148.63 Y148.32
G1 F1920 X149.22 Y147.73 E81.62286
G0 F12000 X152.70 Y147.98
G1 F1920 X157.07 Y152.36 E81.87997
G0 F12000 X157.27 Y149.11
G1 F1920 X149.78 Y156.60 E82.32045
;LAYER:9
G0 F12000 X147.53 Y156.32 Z2.50
;TYPE:WALL-INNER
G1 F1920 X147.53 Y154.60 E82.39204
G1 X148.68 Y147.53 E82.68971
G1 X150.40 Y147.53 E82.76130
G1 X157.47 Y148.68 E83.05901
G1 X157.47 Y150.40 E83.13060
G1 X156.32 Y157.47 E83.42827
G1 X154.60 Y157.47 E83.49987
G1 X147.53 Y156.32 E83.79754
G0 F12000 X147.13 Y156.66
;TYPE:WALL-OUTER
G1 F1920 X147.13 Y154.56 E83.88468
G1 X148.34 Y147.13 E84.19777
G1 X150.44 Y147.13 E84.28491
G1 X157.87 Y148.34 E84.59804
G1 X157.87 Y150.43 E84.68514
G1 X156.66 Y157.87 E84.99827
G1 X154.56 Y157.87 E85.08541
G1 X147.13 Y156.66 E85.39850
G0 F12000 X147.36 Y156.40
G0 X149.83 Y156.55
;TYPE:FILL
G1 F1920 X157.33 Y149.05 E85.83941
G0 F12000 X157.02 Y152.31
G1 F1920 X152.77 Y148.06 E86.08921
G0 F12000 X149.28 Y147.67
G1 F1920 X148.70 Y148.25 E86.12340
G0 F12000 X147.98 Y152.69
G1 F1920 X152.23 Y156.94 E86.37316
;LAYER:10
G0 F12000 X155.34 Y157.53 Z2.75
;TYPE:WALL-INNER
G1 F1920 X147.47 Y156.25 E86.70465
G1 X147.47 Y155.34 E86.74244
G1 X148.75 Y147.47 E87.07392
G1 X149.66 Y147.47 E87.11175
G1 X157.53 Y148.75 E87.44320
G1 X157.53 Y149.66 E87.48099
G1 X156.25 Y157.53 E87.81247
G1 X155.34 Y157.53 E87.85026
G0 F12000 X155.31 Y157.93
;TYPE:WALL-OUTER
G1 F1920 X147.07 Y156.59 E88.19716
G1 X147.07 Y155.31 E88.25051
G1 X148.41 Y147.07 E88.59741
G1 X149.69 Y147.07 E88.65079
G1 X157.93 Y148.41 E88.99765
G1 X157.93 Y149.69 E89.05099
G1 X156.59 Y157.93 E89.39789
G1 X155.31 Y157.93 E89.45124
G0 F12000 X155.34 Y157.63
G0 X152.16 Y156.87
;TYPE:FILL
G1 F1920 X148.03 Y152.75 E89.69362
G0 F12000 X149.88 Y156.50
G1 F1920 X157.39 Y149.00 E90.13492
G0 F12000 X156.97 Y152.25
G1 F1920 X152.84 Y148.13 E90.37733
G0 F12000 X149.34 Y147.61
G1 F1920 X148.78 Y148.18 E90.41079
;LAYER:11
G0 F12000 X148.82 Y147.41 Z3.00
;TYPE:WALL-INNER
G1 F1920 X148.92 Y147.41 E90.41482
G1 X157.59 Y148.82 E90.78009
G1 X157.59 Y148.92 E90.78412
G1 X156.18 Y157.59 E91.14939
G1 X156.08 Y157.59 E91.15342
G1 X147.41 Y156.18 E91.51869
G1 X147.41 Y156.08 E91.52272
G1 X148.82 Y147.41 E91.88799
G0 F12000 X148.95 Y147.01
;TYPE:WALL-OUTER
G1 F1920 X157.99 Y148.48 E92.26868
G1 X157.99 Y148.95 E92.28822
G1 X156.52 Y157.99 E92.66891
G1 X156.05 Y157.99 E92.68845
G1 X147.01 Y156.52 E93.06913
G1 X147.01 Y156.05 E93.08867
G1 X148.48 Y147.01 E93.46936
G1 X148.95 Y147.01 E93.48890
G0 F12000 X149.33 Y147.62
;TYPE:FILL
G1 F1920 X148.85 Y148.11 E93.51754
G0 F12000 X152.92 Y148.20
G1 F1920 X156.91 Y152.20 E93.75260
G0 F12000 X157.44 Y148.94
G1 F1920 X149.93 Y156.45 E94.19410
G0 F12000 X152.08 Y156.80
G1 F1920 X148.09 Y152.80 E94.42917
;LAYER:12
G0 F12000 X147.44 Y156.15 Z3.25
;TYPE:WALL-INNER
G1 F1920 X148.85 Y147.44 E94.79600
G1 X157.56 Y148.85 E95.16282
G1 X156.15 Y157.56 E95.52965
G1 X147.44 Y156.15 E95.89648
G0 F12000 X146.98 Y156.48
;TYPE:WALL-OUTER
G1 F1920 X148.52 Y146.98 E96.29657
G1 X158.02 Y148.52 E96.69667
G1 X156.48 Y158.02 E97.09677
G1 X146.98 Y156.48 E97.49687
G0 F12000 X147.31 Y156.32
G0 X149.97 Y156.42
;TYPE:FILL
G1 F1920 X157.40 Y148.98 E97.93387
G0 F12000 X156.88 Y152.17
G1 F1920 X152.96 Y148.25 E98.16444
G0 F12000 X149.30 Y147.65
G1 F1920 X148.89 Y148.06 E98.18861
G0 F12000 X148.12 Y152.83
G1 F1920 X152.04 Y156.75 E98.41921
;LAYER:13
G0 F12000 X156.13 Y157.62 Z3.50
;TYPE:WALL-INNER
G1 F1920 X147.77 Y156.26 E98.77128
G1 X147.38 Y156.13 E98.78851
G1 X148.74 Y147.77 E99.14058
G1 X148.87 Y147.38 E99.15780
G1 X157.23 Y148.74 E99.50988
G1 X157.62 Y148.87 E99.52710
G1 X156.26 Y157.23 E99.87918
G1 X156.13 Y157.62 E99.89640
G0 F12000 X156.40 Y158.07
;TYPE:WALL-OUTER
G1 F1920 X147.68 Y156.65 E100.26382
G1 X146.93 Y156.40 E100.29669
G1 X148.35 Y147.68 E100.66410
G1 X148.60 Y146.93 E100.69697
G1 X157.32 Y148.35 E101.06438
G1 X158.07 Y148.60 E101.09725
G1 X156.65 Y157.32 E101.46466
G1 X156.40 Y158.07 E101.49753
G0 F12000 X156.28 Y157.75
G0 X152.11 Y156.82
;TYPE:FILL
G1 F1920 X148.06 Y152.78 E101.73539
G0 F12000 X149.91 Y156.47
G1 F1920 X157.43 Y148.95 E102.17733
G0 F12000 X156.93 Y152.22
G1 F1920 X152.89 Y148.17 E102.41519
G0 F12000 X149.35 Y147.60
G1 F1920 X148.82 Y148.13 E102.44668
;LAYER:14
G0 F12000 X148.56 Y148.50 Z3.75
;TYPE:WALL-INNER
G1 F1920 X148.95 Y147.33 E102.49770
G1 X156.50 Y148.56 E102.81596
G1 X157.67 Y148.95 E102.86698
G1 X156.44 Y156.50 E103.18524
G1 X156.05 Y157.67 E103.23627
G1 X148.50 Y156.44 E103.55452
G1 X147.33 Y156.05 E103.60555
G1 X148.56 Y148.50 E103.92380
G0 F12000 X148.17 Y148.40
;TYPE:WALL-OUTER
G1 F1920 X148.68 Y146.88 E103.99046
G1 X156.60 Y148.17 E104.32410
G1 X158.12 Y148.68 E104.39075
G1 X156.83 Y156.60 E104.72439
G1 X156.32 Y158.12 E104.79104
G1 X148.40 Y156.83 E105.12468
G1 X146.88 Y156.32 E105.19134
G1 X148.17 Y148.40 E105.52497
G0 F12000 X148.83 Y148.12
;TYPE:FILL
G1 F1920 X149.41 Y147.55 E105.55890
G0 F12000 X152.82 Y148.10
G1 F1920 X156.99 Y152.27 E105.80408
G0 F12000 X157.38 Y149.00
G1 F1920 X149.86 Y156.52 E106.24622
G0 F12000 X152.18 Y156.90
G1 F1920 X148.01 Y152.73 E106.49137
;LAYER:15
G0 F12000 X147.28 Y155.97 Z4.00
;TYPE:WALL-INNER
G1 F1920 X148.38 Y149.22 E106.77585
G1 X149.03 Y147.28 E106.86062
G1 X155.78 Y148.38 E107.14509
G1 X157.72 Y149.03 E107.22986
G1 X156.62 Y155.78 E107.51434
G1 X155.97 Y157.72 E107.59911
G1 X149.22 Y156.62 E107.88358
G1 X147.28 Y155.97 E107.96835
G0 F12000 X146.84 Y156.25
;TYPE:WALL-OUTER
G1 F1920 X147.99 Y149.13 E108.26821
G1 X148.75 Y146.84 E108.36861
G1 X155.87 Y147.99 E108.66846
G1 X158.16 Y148.75 E108.76887
G1 X157.01 Y155.87 E109.06872
G1 X156.25 Y158.16 E109.16912
G1 X149.13 Y157.01 E109.46897
G1 X146.84 Y156.25 E109.56938
G0 F12000 X147.16 Y156.12
G0 X149.81 Y156.57
;TYPE:FILL
G1 F1920 X157.33 Y149.05 E110.01182
G0 F12000 X157.04 Y152.32
G1 F1920 X152.74 Y148.03 E110.26426
G0 F12000 X149.46 Y147.50
G1 F1920 X148.93 Y148.03 E110.29560
G0 F12000 X147.96 Y152.67
G1 F1920 X152.25 Y156.97 E110.54804
;LAYER:16
G0 F12000 X149.94 Y156.80 Z4.25
;TYPE:WALL-INNER
G1 F2340 X147.24 Y155.89 E110.66656
G1 X148.20 Y149.94 E110.91730
G1 X149.11 Y147.24 E111.03582
G1 X155.06 Y148.20 E111.28655
G1 X157.76 Y149.11 E111.40508
G1 X156.80 Y155.06 E111.65581
G1 X155.89 Y157.76 E111.77433
G1 X149.94 Y156.80 E112.02507
G0 F12000 X149.85 Y157.19
;TYPE:WALL-OUTER
G1 F2340 X146.79 Y156.16 E112.15923
G1 X147.81 Y149.85 E112.42531
G1 X148.84 Y146.79 E112.55947
G1 X155.15 Y147.81 E112.82554
G1 X158.21 Y148.84 E112.95971
G1 X157.19 Y155.15 E113.22578
G1 X156.16 Y158.21 E113.35995
G1 X149.85 Y157.19 E113.62602
G0 F12000 X149.79 Y156.59
;TYPE:FILL
G1 F2340 X157.29 Y149.09 E114.06705
G0 F12000 X157.30 Y149.10
G1 F2340 X157.49 Y149.56 E114.08329
G1 X157.41 Y150.05 E114.08948
G1 X157.33 Y150.54 E114.09574
G1 X157.25 Y151.02 E114.10198
G1 X157.17 Y151.51 E114.10824
G1 X157.09 Y152.00 E114.11448
G1 X157.10 Y152.29 E114.12689
G0 F12000 X157.09 Y152.38
G1 F2340 X152.67 Y147.96 E114.38671
G0 F12000 X152.78 Y147.97
G1 F2340 X153.19 Y148.10 E114.39541
G1 X153.87 Y148.21 E114.40408
G1 X154.55 Y148.32 E114.41277
G1 X155.35 Y148.56 E114.42984
G1 X156.20 Y148.85 E114.45009
G1 X156.80 Y149.16 E114.47824
G0 F12000 X156.92 Y152.67
G1 F2340 X156.93 Y152.97 E114.48456
G1 X156.85 Y153.46 E114.49086
G1 X156.77 Y153.94 E114.49717
G1 X156.68 Y154.42 E114.50342
G1 X156.57 Y154.87 E114.51137
G1 X156.45 Y155.31 E114.52155
G1 X156.30 Y155.74 E114.53168
G1 X156.16 Y156.16 E114.54190
G1 X156.02 Y156.59 E114.55211
G1 X155.88 Y157.01 E114.56234
G1 X155.74 Y157.44 E114.57261
G1 X155.18 Y157.44 E114.58116
G1 X154.50 Y157.33 E114.58985
G1 X153.83 Y157.22 E114.59852
G1 X153.15 Y157.11 E114.60712
G1 X152.74 Y156.99 E114.62507
G0 F12000 X152.33 Y157.04
G1 F2340 X147.91 Y152.62 E114.88486
G0 F12000 X147.90 Y152.70
G1 F2340 X147.91 Y153.00 E114.89116
G1 X147.83 Y153.49 E114.89742
G1 X147.75 Y153.97 E114.90373
G1 X147.67 Y154.46 E114.91002
G1 X147.59 Y154.95 E114.91633
G1 X147.51 Y155.43 E114.92257
G1 X147.95 Y155.87 E114.93869
G1 X148.80 Y156.15 E114.95907
G1 X149.65 Y156.43 E114.97935
G1 X150.45 Y156.67 E114.99641
G1 X151.13 Y156.78 E115.00509
G1 X151.80 Y156.89 E115.01377
G1 X152.22 Y157.02 E115.03172
G0 F12000 X148.08 Y152.32
G1 F2340 X148.07 Y152.03 E115.03803
G1 X148.15 Y151.54 E115.04433
G1 X148.22 Y151.05 E115.05064
G1 X148.32 Y150.58 E115.05694
G1 X148.43 Y150.13 E115.06492
G1 X148.55 Y149.68 E115.07510
G1 X148.69 Y149.26 E115.08527
G1 X148.84 Y148.84 E115.09550
G1 X148.98 Y148.41 E115.10574
G1 X148.99 Y148.02 E115.11588
G1 X149.46 Y147.44 E115.14470
G1 X149.41 Y147.72 E115.15327
G1 X149.10 Y147.69 E115.16634
G0 F12000 X150.08 Y147.54
G1 F2340 X150.49 Y147.66 E115.17496
G1 X151.17 Y147.78 E115.18364
G1 X151.84 Y147.88 E115.19231
G1 X152.26 Y148.01 E115.21026
;LAYER:17
G0 F12000 X154.34 Y148.03 Z4.50
;TYPE:WALL-INNER
G1 F2460 X157.81 Y149.19 E115.36257
G1 X156.97 Y154.34 E115.57953
G1 X155.81 Y157.81 E115.73184
G1 X150.66 Y156.97 E115.94880
G1 X147.19 Y155.81 E116.10111
G1 X148.03 Y150.66 E116.31806
G1 X149.19 Y147.19 E116.47037
G1 X154.34 Y148.03 E116.68733
G0 F12000 X154.43 Y147.63
;TYPE:WALL-OUTER
G1 F2460 X158.26 Y148.91 E116.85529
G1 X157.37 Y154.43 E117.08758
G1 X156.09 Y158.26 E117.25553
G1 X150.57 Y157.37 E117.48783
G1 X146.74 Y156.09 E117.65578
G1 X147.63 Y150.57 E117.88808
G1 X148.91 Y146.74 E118.05603
G1 X154.43 Y147.63 E118.28833
G0 F12000 X154.21 Y148.15
;TYPE:FILL
G1 F2460 X153.87 Y148.20 E118.29964
G1 X153.38 Y148.12 E118.31102
G1 X152.90 Y148.04 E118.32233
G1 X152.56 Y148.10 E118.33667
G0 F12000 X152.60 Y147.88
G1 F2460 X157.14 Y152.43 E118.60378
G0 F12000 X157.11 Y152.60
G1 F2460 X156.93 Y153.07 E118.61930
G1 X156.82 Y153.74 E118.63489
G1 X156.66 Y154.46 E118.65051
G1 X156.39 Y155.31 E118.67082
G1 X156.10 Y156.15 E118.69120
G1 X155.82 Y157.00 E118.71157
G1 X155.34 Y157.48 E118.73276
G1 X154.86 Y157.40 E118.74397
G1 X154.37 Y157.32 E118.75525
G1 X153.88 Y157.24 E118.76648
G1 X153.40 Y157.16 E118.77774
G1 X152.91 Y157.09 E118.78902
G1 X152.57 Y157.14 E118.80331
G0 F12000 X152.40 Y157.11
G1 F2460 X147.86 Y152.57 E119.07037
G0 F12000 X148.08 Y152.58
G1 F2460 X147.89 Y153.05 E119.08589
G1 X147.78 Y153.73 E119.10138
G1 X147.67 Y154.41 E119.11690
G1 X147.56 Y155.08 E119.13235
G1 X147.52 Y155.69 E119.14775
G1 X147.96 Y155.81 E119.15797
G1 X148.39 Y155.95 E119.16823
G1 X148.81 Y156.09 E119.17846
G1 X149.24 Y156.23 E119.18870
G1 X149.66 Y156.37 E119.19891
G1 X149.96 Y156.36 E119.21132
G0 F12000 X149.83 Y156.55
G1 F2460 X157.24 Y149.14 E119.64685
G0 F12000 X157.19 Y149.12
G1 F2460 X156.89 Y149.14 E119.65709
G1 X156.47 Y149.00 E119.66732
G1 X156.04 Y148.86 E119.67756
G1 X155.62 Y148.72 E119.68778
G1 X155.20 Y148.58 E119.69800
G1 X154.77 Y148.43 E119.70818
G1 X154.47 Y148.45 E119.72063
G0 F12000 X152.27 Y147.83
G1 F2460 X151.93 Y147.89 E119.73195
G1 X151.44 Y147.81 E119.74323
G1 X150.95 Y147.73 E119.75446
G1 X150.47 Y147.65 E119.76569
G1 X149.98 Y147.57 E119.77690
G1 X149.60 Y147.51 E119.78812
G1 X149.21 Y147.90 E119.81439
G1 X148.99 Y148.56 E119.83468
G1 X148.71 Y149.41 E119.85495
G1 X148.42 Y150.26 E119.87523
G1 X148.22 Y151.03 E119.89362
G1 X148.11 Y151.70 E119.90914
G1 X147.92 Y152.17 E119.93017
G0 F12000 X149.24 Y147.46
G1 F2460 X149.34 Y147.36 E119.93628
G0 F12000 X157.40 Y149.49
G1 F2460 X157.58 Y149.58 E119.94906
G1 X157.37 Y150.37 E119.96456
G1 X157.26 Y151.04 E119.98008
G1 X157.15 Y151.72 E119.99565
G1 X156.96 Y152.19 E120.01672
G0 F12000 X152.28 Y156.87
G1 F2460 X151.94 Y156.93 E120.02804
G1 X151.45 Y156.85 E120.03932
G1 X150.96 Y156.77 E120.05063
G1 X150.51 Y156.66 E120.06129
G1 X150.21 Y156.67 E120.07374
;LAYER:18
G0 F12000 X151.39 Y157.15 Z4.75
;TYPE:WALL-INNER
G1 F2400 X147.14 Y155.74 E120.25986
G1 X147.85 Y151.39 E120.44299
G1 X149.26 Y147.14 E120.62910
G1 X153.61 Y147.85 E120.81224
G1 X157.86 Y149.26 E120.99835
G1 X157.15 Y153.61 E121.18149
G1 X155.74 Y157.86 E121.36760
G1 X151.39 Y157.15 E121.55074
G0 F12000 X151.29 Y157.54
;TYPE:WALL-OUTER
G1 F2400 X146.69 Y156.01 E121.75248
G1 X147.46 Y151.29 E121.95100
G1 X148.99 Y146.69 E122.15274
G1 X153.71 Y147.46 E122.35125
G1 X158.31 Y148.99 E122.55300
G1 X157.54 Y153.71 E122.75151
G1 X156.01 Y158.31 E122.95326
G1 X151.29 Y157.54 E123.15177
G0 F12000 X151.68 Y157.06
;TYPE:FILL
G1 F2400 X151.15 Y156.81 E123.16816
G1 X150.30 Y156.53 E123.18854
G1 X149.71 Y156.21 E123.21667
G0 F12000 X149.88 Y156.50
G1 F2400 X157.19 Y149.19 E123.64659
G0 F12000 X156.99 Y149.35
G1 F2400 X156.39 Y149.04 E123.66698
G1 X155.54 Y148.75 E123.68726
G1 X154.69 Y148.47 E123.70763
G1 X153.84 Y148.19 E123.72803
G1 X153.11 Y148.02 E123.74445
G1 X152.64 Y147.83 E123.76552
G0 F12000 X152.53 Y147.81
G1 F2400 X157.19 Y152.48 E124.04001
G0 F12000 X157.21 Y152.40
G1 F2400 X157.15 Y152.06 E124.05129
G1 X157.23 Y151.57 E124.06250
G1 X157.31 Y151.09 E124.07373
G1 X157.39 Y150.60 E124.08494
G1 X157.47 Y150.11 E124.09617
G1 X157.55 Y149.63 E124.10738
G1 X157.49 Y149.29 E124.12156
G0 F12000 X156.94 Y152.69
G1 F2400 X156.99 Y153.03 E124.13278
G1 X156.90 Y153.51 E124.14398
G1 X156.78 Y153.95 E124.15421
G1 X156.63 Y154.37 E124.16443
G1 X156.49 Y154.79 E124.17465
G1 X156.35 Y155.22 E124.18491
G1 X156.21 Y155.64 E124.19520
G1 X156.07 Y156.07 E124.20542
G1 X155.93 Y156.49 E124.21569
G1 X155.78 Y156.92 E124.22589
G1 X155.64 Y157.33 E124.23610
G1 X155.36 Y157.62 E124.24710
G1 X154.59 Y157.42 E124.26258
G1 X153.92 Y157.31 E124.27808
G1 X153.24 Y157.20 E124.29360
G1 X152.77 Y157.01 E124.31459
G0 F12000 X152.47 Y157.19
G1 F2400 X147.81 Y152.52 E124.58908
G0 F12000 X147.79 Y152.60
G1 F2400 X147.85 Y152.94 E124.60030
G1 X147.77 Y153.43 E124.61153
G1 X147.69 Y153.91 E124.62273
G1 X147.61 Y154.40 E124.63396
G1 X147.53 Y154.88 E124.64519
G1 X147.45 Y155.37 E124.65640
G1 X147.76 Y155.68 E124.66750
G1 X148.60 Y155.96 E124.68787
G1 X149.20 Y156.27 E124.71597
G0 F12000 X152.09 Y156.90
G1 F2400 X152.36 Y157.17 E124.73155
G0 F12000 X148.06 Y152.31
G1 F2400 X148.00 Y151.97 E124.74284
G1 X148.09 Y151.49 E124.75399
G1 X148.22 Y151.05 E124.76421
G1 X148.36 Y150.63 E124.77443
G1 X148.51 Y150.20 E124.78466
G1 X148.65 Y149.78 E124.79494
G1 X148.79 Y149.35 E124.80517
G1 X148.93 Y148.93 E124.81539
G1 X149.07 Y148.51 E124.82560
G1 X149.21 Y148.08 E124.83580
G1 X149.20 Y147.76 E124.84605
G1 X149.57 Y147.44 E124.86992
G1 X149.64 Y147.37 E124.88095
G1 X150.41 Y147.58 E124.89643
G1 X151.08 Y147.69 E124.91185
G1 X151.76 Y147.80 E124.92735
G1 X152.23 Y147.99 E124.94843
;LAYER:19
G0 F12000 X152.89 Y147.67 Z5.00
;TYPE:WALL-INNER
G1 F2400 X157.91 Y149.34 E125.16833
G1 X157.33 Y152.89 E125.31772
G1 X155.66 Y157.91 E125.53762
G1 X152.11 Y157.33 E125.68702
G1 X147.09 Y155.66 E125.90692
G1 X147.67 Y152.11 E126.05631
G1 X149.34 Y147.09 E126.27621
G1 X152.89 Y147.67 E126.42560
G0 F12000 X152.98 Y147.28
;TYPE:WALL-OUTER
G1 F2400 X158.36 Y149.07 E126.66115
G1 X157.72 Y152.98 E126.82588
G1 X155.93 Y158.36 E127.06142
G1 X152.02 Y157.72 E127.22615
G1 X146.64 Y155.93 E127.46170
G1 X147.28 Y152.02 E127.62643
G1 X149.07 Y146.64 E127.86197
G1 X152.98 Y147.28 E128.02670
G0 F12000 X152.86 Y147.81
;TYPE:FILL
G1 F2400 X152.66 Y148.00 E128.03793
G0 F12000 X152.45 Y147.74
G1 F2400 X157.25 Y152.53 E128.31986
G0 F12000 X157.26 Y152.45
G1 F2400 X157.04 Y152.96 E128.33540
G1 X156.76 Y153.79 E128.35564
G1 X156.48 Y154.64 E128.37592
G1 X156.20 Y155.49 E128.39629
G1 X155.91 Y156.34 E128.41666
G1 X155.63 Y157.19 E128.43703
G1 X155.24 Y157.59 E128.45339
G1 X154.75 Y157.51 E128.46462
G1 X154.26 Y157.43 E128.47588
G1 X153.78 Y157.35 E128.48711
G1 X153.29 Y157.27 E128.49836
G1 X152.80 Y157.19 E128.50965
G1 X152.46 Y157.25 E128.52398
G0 F12000 X152.55 Y157.26
G1 F2400 X147.75 Y152.47 E128.80585
G0 F12000 X147.78 Y152.32
G1 F2400 X148.04 Y151.77 E128.82349
G1 X148.33 Y150.92 E128.84366
G1 X148.61 Y150.07 E128.86384
G1 X148.90 Y149.22 E128.88415
G1 X149.18 Y148.37 E128.90452
G1 X149.40 Y147.71 E128.92488
G1 X149.71 Y147.40 E128.94623
G1 X150.08 Y147.47 E128.95749
G1 X150.57 Y147.54 E128.96877
G1 X151.06 Y147.62 E128.98003
G1 X151.54 Y147.70 E128.99132
G1 X152.03 Y147.78 E129.00260
G1 X152.37 Y147.72 E129.01688
G0 F12000 X153.11 Y148.12
G1 F2400 X153.41 Y148.10 E129.02706
G1 X153.83 Y148.25 E129.03728
G1 X154.25 Y148.39 E129.04753
G1 X154.68 Y148.53 E129.05774
G1 X155.10 Y148.67 E129.06797
G1 X155.53 Y148.81 E129.07819
G1 X155.95 Y148.95 E129.08841
G1 X156.37 Y149.09 E129.09864
G1 X156.80 Y149.24 E129.10890
G1 X157.10 Y149.22 E129.12139
G0 F12000 X157.15 Y149.24
G1 F2400 X149.93 Y156.46 E129.54581
G0 F12000 X149.88 Y156.44
G1 F2400 X150.18 Y156.42 E129.55605
G1 X150.60 Y156.56 E129.56623
G1 X151.03 Y156.71 E129.57649
G1 X151.45 Y156.85 E129.58672
G1 X151.88 Y156.99 E129.59695
G1 X152.17 Y156.97 E129.60940
G0 F12000 X149.63 Y156.12
G1 F2400 X149.33 Y156.14 E129.61964
G1 X148.91 Y156.00 E129.62987
G1 X148.48 Y155.86 E129.64015
G1 X148.06 Y155.72 E129.65042
G1 X147.63 Y155.57 E129.66064
G1 X147.34 Y155.31 E129.67087
G1 X147.53 Y154.55 E129.68632
G1 X147.63 Y153.88 E129.70174
G1 X147.74 Y153.20 E129.71717
G1 X147.93 Y152.73 E129.73818
G0 F12000 X157.10 Y152.04
G1 F2400 X157.29 Y151.57 E129.75372
G1 X157.40 Y150.90 E129.76929
G1 X157.51 Y150.22 E129.78478
G1 X157.52 Y149.64 E129.80028
G1 X157.52 Y149.36 E129.81201
;LAYER:20
G0 F12000 X157.96 Y149.42 Z5.25
;TYPE:WALL-INNER
G1 F1920 X157.51 Y152.17 E129.92766
G1 X155.58 Y157.96 E130.18131
G1 X152.83 Y157.51 E130.29697
G1 X147.04 Y155.58 E130.55062
G1 X147.49 Y152.83 E130.66627
G1 X149.42 Y147.04 E130.91992
G1 X152.17 Y147.49 E131.03558
G1 X157.96 Y149.42 E131.28922
G0 F12000 X158.41 Y149.15
;TYPE:WALL-OUTER
G1 F1920 X157.90 Y152.26 E131.42022
G1 X155.85 Y158.41 E131.68951
G1 X152.74 Y157.90 E131.82050
G1 X146.59 Y155.85 E132.08980
G1 X147.10 Y152.74 E132.22079
G1 X149.15 Y146.59 E132.49009
G1 X152.26 Y147.10 E132.62108
G1 X158.41 Y149.15 E132.89037
G0 F12000 X157.10 Y149.28
;TYPE:FILL
G1 F1920 X149.97 Y156.41 E133.30924
G0 F12000 X152.55 Y157.27
G1 F1920 X147.76 Y152.47 E133.59119
G0 F12000 X149.40 Y147.56
G1 F1920 X149.72 Y147.24 E133.61007
G0 F12000 X152.44 Y147.73
G1 F1920 X157.24 Y152.53 E133.89205
;LAYER:21
G0 F12000 X157.69 Y151.44 Z5.50
;TYPE:WALL-INNER
G1 F1920 X155.50 Y158.00 E134.17950
G1 X153.56 Y157.69 E134.26134
G1 X147.00 Y155.50 E134.54879
G1 X147.31 Y153.56 E134.63063
G1 X149.50 Y147.00 E134.91808
G1 X151.44 Y147.31 E134.99991
G1 X158.00 Y149.50 E135.28736
G1 X157.69 Y151.44 E135.36920
G0 F12000 X158.08 Y151.54
;TYPE:WALL-OUTER
G1 F1920 X155.77 Y158.45 E135.67228
G1 X153.46 Y158.08 E135.76949
G1 X146.55 Y155.77 E136.07258
G1 X146.92 Y153.46 E136.16979
G1 X149.23 Y146.55 E136.47287
G1 X151.54 Y146.92 E136.57009
G1 X158.45 Y149.23 E136.87317
G1 X158.08 Y151.54 E136.97038
G0 F12000 X157.19 Y152.48
;TYPE:FILL
G1 F1920 X152.54 Y147.83 E137.24399
G0 F12000 X149.77 Y147.18
G1 F1920 X149.49 Y147.46 E137.26040
G0 F12000 X147.81 Y152.52
G1 F1920 X152.46 Y157.17 E137.53398
G0 F12000 X150.02 Y156.36
G1 F1920 X157.05 Y149.33 E137.94719
;LAYER:22
G0 F12000 X158.05 Y149.58 Z5.75
;TYPE:WALL-INNER
G1 F1920 X157.87 Y150.72 E137.99525
G1 X155.42 Y158.05 E138.31649
G1 X154.28 Y157.87 E138.36455
G1 X146.95 Y155.42 E138.68579
G1 X147.13 Y154.28 E138.73384
G1 X149.58 Y146.95 E139.05508
G1 X150.72 Y147.13 E139.10314
G1 X158.05 Y149.58 E139.42438
G0 F12000 X158.50 Y149.31
;TYPE:WALL-OUTER
G1 F1920 X158.26 Y150.82 E139.48785
G1 X155.69 Y158.50 E139.82464
G1 X154.18 Y158.26 E139.88811
G1 X146.50 Y155.69 E140.22490
G1 X146.74 Y154.18 E140.28837
G1 X149.31 Y146.50 E140.62517
G1 X150.82 Y146.74 E140.68864
G1 X158.50 Y149.31 E141.02543
G0 F12000 X157.00 Y149.38
;TYPE:FILL
G1 F1920 X150.07 Y156.31 E141.43315
G0 F12000 X152.36 Y157.08
G1 F1920 X147.85 Y152.57 E141.69841
G0 F12000 X149.59 Y147.37
G1 F1920 X149.82 Y147.13 E141.71234
G0 F12000 X152.63 Y147.92
G1 F1920 X157.15 Y152.43 E141.97757
;LAYER:23
G0 F12000 X158.04 Y150.00 Z6.00
;TYPE:WALL-INNER
G1 F1920 X155.34 Y158.10 E142.33261
G1 X155.00 Y158.04 E142.34685
G1 X146.90 Y155.34 E142.70189
G1 X146.96 Y155.00 E142.71613
G1 X149.66 Y146.90 E143.07117
G1 X150.00 Y146.96 E143.08541
G1 X158.10 Y149.66 E143.44045
G1 X158.04 Y150.00 E143.45468
G0 F12000 X158.43 Y150.09
;TYPE:WALL-OUTER
G1 F1920 X155.61 Y158.55 E143.82528
G1 X154.91 Y158.43 E143.85493
G1 X146.45 Y155.61 E144.22552
G1 X146.57 Y154.91 E144.25517
G1 X149.39 Y146.45 E144.62577
G1 X150.09 Y146.57 E144.65542
G1 X158.55 Y149.39 E145.02601
G1 X158.43 Y150.09 E145.05566
G0 F12000 X158.14 Y150.03
G0 X156.96 Y149.43
;TYPE:FILL
G1 F1920 X150.12 Y156.26 E145.45777
G0 F12000 X152.27 Y156.98
G1 F1920 X147.90 Y152.61 E145.71465
G0 F12000 X149.68 Y147.27
G1 F1920 X149.88 Y147.08 E145.72606
G0 F12000 X152.73 Y148.01
G1 F1920 X157.10 Y152.38 E145.98297
;LAYER:24
G0 F12000 X158.08 Y149.72 Z6.25
;TYPE:WALL-INNER
G1 F1920 X155.28 Y158.08 E146.34940
G1 X146.92 Y155.28 E146.71584
G1 X149.72 Y146.92 E147.08228
G1 X158.08 Y149.72 E147.44872
G0 F12000 X158.58 Y149.46
;TYPE:WALL-OUTER
G1 F1920 X155.54 Y158.58 E147.84842
G1 X146.42 Y155.54 E148.24813
G1 X149.46 Y146.42 E148.64783
G1 X158.58 Y149.46 E149.04753
G0 F12000 X158.23 Y149.57
G0 X156.91 Y149.47
;TYPE:FILL
G1 F1920 X150.16 Y156.22 E149.44417
G0 F12000 X152.18 Y156.89
G1 F1920 X147.95 Y152.66 E149.69288
G0 F12000 X149.78 Y147.18
G1 F1920 X149.84 Y147.11 E149.69664
G0 F12000 X152.82 Y148.11
G1 F1920 X157.05 Y152.34 E149.94535
;LAYER:25
G0 F12000 X158.13 Y149.71 Z6.50
;TYPE:WALL-INNER
G1 F1920 X155.37 Y157.98 E150.30783
G1 X155.29 Y158.13 E150.31464
G1 X147.02 Y155.37 E150.67712
G1 X146.87 Y155.29 E150.68392
G1 X149.63 Y147.02 E151.04641
G1 X149.71 Y146.87 E151.05321
G1 X157.98 Y149.63 E151.41570
G1 X158.13 Y149.71 E151.42250
G0 F12000 X158.14 Y149.27
;TYPE:WALL-OUTER
G1 F1920 X158.61 Y149.51 E151.44469
G1 X155.73 Y158.14 E151.82271
G1 X155.49 Y158.61 E151.84490
G1 X146.86 Y155.73 E152.22292
G1 X146.39 Y155.49 E152.24511
G1 X149.27 Y146.86 E152.62313
G1 X149.51 Y146.39 E152.64531
G1 X158.14 Y149.27 E153.02334
G0 F12000 X156.94 Y149.44
;TYPE:FILL
G1 F1920 X150.13 Y156.25 E153.42418
G0 F12000 X152.25 Y156.96
G1 F1920 X147.91 Y152.62 E153.67924
G0 F12000 X149.71 Y147.25
G1 F1920 X149.88 Y147.08 E153.68935
G0 F12000 X152.75 Y148.04
G1 F1920 X157.09 Y152.38 E153.94438
;LAYER:26
G0 F12000 X158.16 Y149.80 Z6.75
;TYPE:WALL-INNER
G1 F1920 X155.66 Y157.30 E154.27319
G1 X155.20 Y158.16 E154.31366
G1 X147.70 Y155.66 E154.64247
G1 X146.84 Y155.20 E154.68293
G1 X149.34 Y147.70 E155.01175
G1 X149.80 Y146.84 E155.05221
G1 X157.30 Y149.34 E155.38102
G1 X158.16 Y149.80 E155.42149
G0 F12000 X158.65 Y149.60
;TYPE:WALL-OUTER
G1 F1920 X156.03 Y157.46 E155.76582
G1 X155.40 Y158.65 E155.82174
G1 X147.54 Y156.03 E156.16606
G1 X146.35 Y155.40 E156.22198
G1 X148.97 Y147.54 E156.56631
G1 X149.60 Y146.35 E156.62223
G1 X157.46 Y148.97 E156.96655
G1 X158.65 Y149.60 E157.02247
G0 F12000 X158.31 Y149.68
G0 X156.99 Y149.39
;TYPE:FILL
G1 F1920 X150.08 Y156.30 E157.42887
G0 F12000 X152.34 Y157.06
G1 F1920 X147.86 Y152.58 E157.69222
G0 F12000 X149.78 Y147.18
G1 F1920 X149.92 Y147.03 E157.70086
G0 F12000 X152.66 Y147.94
G1 F1920 X157.13 Y152.42 E157.96415
;LAYER:27
G0 F12000 X158.19 Y149.88 Z7.00
;TYPE:WALL-INNER
G1 F1920 X155.95 Y156.61 E158.25912
G1 X155.12 Y158.19 E158.33340
G1 X148.39 Y155.95 E158.62837
G1 X146.81 Y155.12 E158.70264
G1 X149.05 Y148.39 E158.99761
G1 X149.88 Y146.81 E159.07189
G1 X156.61 Y149.05 E159.36686
G1 X158.19 Y149.88 E159.44114
G0 F12000 X158.68 Y149.69
;TYPE:WALL-OUTER
G1 F1920 X156.32 Y156.77 E159.75166
G1 X155.31 Y158.68 E159.84135
G1 X148.23 Y156.32 E160.15188
G1 X146.32 Y155.31 E160.24157
G1 X148.68 Y148.23 E160.55209
G1 X149.69 Y146.32 E160.64178
G1 X156.77 Y148.68 E160.95231
G1 X158.68 Y149.69 E161.04200
G0 F12000 X158.34 Y149.76
G0 X156.98 Y149.40
;TYPE:FILL
G1 F1920 X150.03 Y156.35 E161.45043
G0 F12000 X152.44 Y157.15
G1 F1920 X147.82 Y152.53 E161.72206
G0 F12000 X152.56 Y147.85
G1 F1920 X157.18 Y152.47 E161.99373
;LAYER:28
G0 F12000 X158.23 Y149.97 Z7.25
;TYPE:WALL-INNER
G1 F1920 X156.24 Y155.93 E162.25492
G1 X155.03 Y158.23 E162.36300
G1 X149.07 Y156.24 E162.62418
G1 X146.77 Y155.03 E162.73226
G1 X148.76 Y149.07 E162.99345
G1 X149.97 Y146.77 E163.10153
G1 X155.93 Y148.76 E163.36271
G1 X158.23 Y149.97 E163.47080
G0 F12000 X158.72 Y149.77
;TYPE:WALL-OUTER
G1 F1920 X156.61 Y156.09 E163.74752
G1 X155.23 Y158.72 E163.87098
G1 X148.91 Y156.61 E164.14771
G1 X146.28 Y155.23 E164.27117
G1 X148.39 Y148.91 E164.54789
G1 X149.77 Y146.28 E164.67136
G1 X156.09 Y148.39 E164.94808
G1 X158.72 Y149.77 E165.07154
G0 F12000 X158.38 Y149.85
G0 X156.94 Y149.45
;TYPE:FILL
G1 F1920 X149.99 Y156.40 E165.48015
G0 F12000 X152.53 Y157.25
G1 F1920 X147.77 Y152.48 E165.76016
G0 F12000 X152.47 Y147.75
G1 F1920 X157.23 Y152.52 E166.04021
;LAYER:29
G0 F12000 X158.26 Y150.05 Z7.50
;TYPE:WALL-INNER
G1 F2400 X156.53 Y155.24 E166.26751
G1 X154.95 Y158.26 E166.40950
G1 X149.76 Y156.53 E166.63689
G1 X146.74 Y154.95 E166.77878
G1 X148.47 Y149.76 E167.00618
G1 X150.05 Y146.74 E167.14807
G1 X155.24 Y148.47 E167.37546
G1 X158.26 Y150.05 E167.51735
G0 F12000 X158.75 Y149.86
;TYPE:WALL-OUTER
G1 F2400 X156.90 Y155.40 E167.76029
G1 X155.14 Y158.75 E167.91756
G1 X149.60 Y156.90 E168.16050
G1 X146.25 Y155.14 E168.31777
G1 X148.10 Y149.60 E168.56070
G1 X149.86 Y146.25 E168.71797
G1 X155.40 Y148.10 E168.96091
G1 X158.75 Y149.86 E169.11818
G0 F12000 X157.96 Y150.05
;TYPE:FILL
G1 F2400 X157.69 Y150.04 E169.12780
G1 X157.32 Y149.84 E169.13733
G1 X157.06 Y149.83 E169.14849
G0 F12000 X156.89 Y149.49
G1 F2400 X149.94 Y156.44 E169.55730
G0 F12000 X149.89 Y156.43
G1 F2400 X150.18 Y156.42 E169.56690
G1 X150.61 Y156.56 E169.57648
G1 X151.03 Y156.70 E169.58605
G1 X151.46 Y156.84 E169.59566
G1 X151.88 Y156.98 E169.60524
G1 X152.30 Y157.12 E169.61481
G1 X152.60 Y157.11 E169.62704
G0 F12000 X152.63 Y157.34
G1 F2400 X147.72 Y152.44 E169.91553
G0 F12000 X147.75 Y152.34
G1 F2400 X148.06 Y151.75 E169.93460
G1 X148.34 Y150.91 E169.95357
G1 X148.63 Y150.05 E169.97265
G1 X149.18 Y148.93 E170.00335
G1 X149.81 Y147.74 E170.03391
G1 X150.43 Y147.12 E170.06000
G1 X150.86 Y147.26 E170.06960
G1 X151.28 Y147.40 E170.07911
G1 X151.70 Y147.54 E170.08872
G1 X152.00 Y147.53 E170.10099
G0 F12000 X152.37 Y147.66
G1 F2400 X157.28 Y152.56 E170.38953
G0 F12000 X157.34 Y152.37
G1 F2400 X157.04 Y152.96 E170.40857
G1 X156.75 Y153.81 E170.42755
G1 X156.47 Y154.66 E170.44652
G1 X156.03 Y155.66 E170.47072
G1 X155.40 Y156.86 E170.50134
G1 X154.77 Y157.77 E170.53193
G1 X154.42 Y157.83 E170.54153
G1 X154.00 Y157.69 E170.55112
G1 X153.58 Y157.55 E170.56063
G1 X153.15 Y157.41 E170.57024
G1 X152.86 Y157.42 E170.58247
G0 F12000 X149.67 Y156.08
G1 F2400 X149.41 Y156.06 E170.59207
G1 X149.03 Y155.87 E170.60165
G1 X148.66 Y155.67 E170.61124
G1 X148.29 Y155.48 E170.62082
G1 X147.92 Y155.28 E170.63044
G1 X147.55 Y155.09 E170.63996
G1 X147.10 Y154.98 E170.64952
G1 X147.21 Y154.30 E170.66784
G1 X147.49 Y153.45 E170.68684
G1 X147.79 Y152.87 E170.71429
G0 F12000 X152.26 Y147.84
G1 F2400 X152.55 Y147.83 E170.72383
G1 X152.98 Y147.97 E170.73344
G1 X153.40 Y148.11 E170.74297
G1 X153.82 Y148.25 E170.75254
G1 X154.25 Y148.39 E170.76220
G1 X154.67 Y148.53 E170.77173
G1 X155.08 Y148.69 E170.78131
G1 X155.47 Y148.87 E170.79090
G1 X155.84 Y149.06 E170.80049
G1 X156.21 Y149.26 E170.81007
G1 X156.58 Y149.45 E170.81969
G1 X156.85 Y149.47 E170.83085
G0 F12000 X157.91 Y150.67
G1 F2400 X157.60 Y151.26 E170.84979
G1 X157.30 Y151.85 E170.87727
;LAYER:30
G0 F12000 X158.30 Y150.14 Z7.75
;TYPE:WALL-INNER
G1 F2400 X156.82 Y154.56 E171.07087
G1 X154.86 Y158.30 E171.24647
G1 X150.44 Y156.82 E171.44007
G1 X146.70 Y154.86 E171.61567
G1 X148.18 Y150.44 E171.80927
G1 X150.14 Y146.70 E171.98487
G1 X154.56 Y148.18 E172.17847
G1 X158.30 Y150.14 E172.35407
G0 F12000 X158.78 Y149.94
;TYPE:WALL-OUTER
G1 F2400 X157.19 Y154.72 E172.56322
G1 X155.06 Y158.78 E172.75424
G1 X150.28 Y157.19 E172.96339
G1 X146.22 Y155.06 E173.15442
G1 X147.81 Y150.28 E173.36356
G1 X149.94 Y146.22 E173.55459
G1 X154.72 Y147.81 E173.76373
G1 X158.78 Y149.94 E173.95476
G0 F12000 X158.06 Y150.42
;TYPE:FILL
G1 F2400 X157.20 Y149.85 E173.98523
G1 X156.34 Y149.27 E174.02800
G0 F12000 X156.85 Y149.54
G1 F2400 X149.97 Y156.41 E174.43243
G0 F12000 X149.84 Y156.35
G1 F2400 X148.99 Y155.78 E174.46290
G1 X147.80 Y155.15 E174.49324
G1 X147.10 Y154.45 E174.52371
G1 X147.24 Y154.03 E174.53384
G1 X147.38 Y153.61 E174.54396
G1 X147.53 Y153.18 E174.55412
G1 X147.67 Y152.76 E174.56427
G1 X147.65 Y152.46 E174.57671
G0 F12000 X147.68 Y152.39
G1 F2400 X152.72 Y157.43 E174.87337
G0 F12000 X152.58 Y157.39
G1 F2400 X151.98 Y157.07 E174.89363
G1 X151.13 Y156.79 E174.91382
G1 X150.51 Y156.46 E174.94299
G0 F12000 X153.08 Y157.32
G1 F2400 X153.68 Y157.64 E174.96322
G1 X154.49 Y157.88 E174.98350
G1 X154.96 Y157.79 E174.99304
G1 X155.08 Y157.34 E175.00253
G1 X155.27 Y156.97 E175.01207
G1 X155.47 Y156.60 E175.02165
G1 X155.66 Y156.23 E175.03115
G1 X155.86 Y155.86 E175.04077
G1 X156.05 Y155.49 E175.05031
G1 X156.25 Y155.12 E175.05985
G1 X156.44 Y154.74 E175.06947
G1 X156.62 Y154.36 E175.07901
G1 X156.76 Y153.94 E175.08915
G1 X156.91 Y153.51 E175.09926
G1 X157.05 Y153.09 E175.10941
G1 X157.03 Y152.79 E175.12186
G0 F12000 X157.32 Y152.61
G1 F2400 X152.28 Y147.56 E175.41854
G0 F12000 X152.42 Y147.61
G1 F2400 X153.02 Y147.93 E175.43878
G1 X153.87 Y148.21 E175.45894
G1 X154.82 Y148.60 E175.48032
G1 X155.67 Y149.17 E175.52309
G0 F12000 X157.74 Y150.67
G1 F2400 X157.76 Y150.97 E175.53323
G1 X157.61 Y151.39 E175.54339
G1 X157.47 Y151.82 E175.55356
G1 X157.33 Y152.24 E175.56369
G1 X157.35 Y152.54 E175.57614
G0 F12000 X151.92 Y147.67
G1 F2400 X151.32 Y147.36 E175.59640
G1 X150.51 Y147.11 E175.61667
G1 X150.03 Y147.21 E175.62617
G1 X149.92 Y147.66 E175.63567
G1 X149.72 Y148.03 E175.64524
G1 X149.53 Y148.40 E175.65486
G1 X149.34 Y148.77 E175.66437
G1 X149.14 Y149.14 E175.67394
G1 X148.95 Y149.51 E175.68348
G1 X148.75 Y149.88 E175.69298
G1 X148.56 Y150.25 E175.70255
G1 X148.38 Y150.64 E175.71211
G1 X148.23 Y151.06 E175.72229
G1 X148.09 Y151.49 E175.73246
G1 X147.95 Y151.91 E175.74259
G1 X147.97 Y152.21 E175.75504
;LAYER:31
G0 F12000 X147.88 Y151.13 Z8.00
;TYPE:WALL-INNER
G1 F2400 X150.22 Y146.67 E175.96444
G1 X153.87 Y147.88 E176.12428
G1 X158.33 Y150.22 E176.33368
G1 X157.12 Y153.87 E176.49353
G1 X154.78 Y158.33 E176.70292
G1 X151.13 Y157.12 E176.86277
G1 X146.67 Y154.78 E177.07216
G1 X147.88 Y151.13 E177.23201
G0 F12000 X147.52 Y150.97
;TYPE:WALL-OUTER
G1 F2400 X150.03 Y146.18 E177.45682
G1 X154.03 Y147.52 E177.63222
G1 X158.82 Y150.03 E177.85703
G1 X157.48 Y154.03 E178.03243
G1 X154.97 Y158.82 E178.25724
G1 X150.97 Y157.48 E178.43264
G1 X146.18 Y154.97 E178.65745
G1 X147.52 Y150.97 E178.83285
G0 F12000 X148.19 Y151.33
;TYPE:FILL
G1 F2400 X147.88 Y151.93 E178.85327
G1 X147.56 Y152.53 E178.88137
G0 F12000 X147.63 Y152.34
G1 F2400 X152.82 Y157.53 E179.18643
G0 F12000 X152.76 Y157.51
G1 F2400 X153.06 Y157.50 E179.19667
G1 X153.49 Y157.64 E179.20687
G1 X153.91 Y157.78 E179.21711
G1 X154.21 Y157.76 E179.22955
G0 F12000 X154.46 Y158.08
G1 F2400 X155.06 Y157.48 E179.26501
G0 F12000 X155.17 Y156.81
G1 F2400 X155.74 Y155.95 E179.29545
G1 X156.36 Y154.76 E179.32589
G1 X156.92 Y153.64 E179.35652
G1 X157.25 Y153.03 E179.38531
G0 F12000 X157.37 Y152.66
G1 F2400 X152.18 Y147.47 E179.69038
G0 F12000 X152.09 Y147.44
G1 F2400 X151.79 Y147.45 E179.70062
G1 X151.37 Y147.31 E179.71084
G1 X150.94 Y147.17 E179.72106
G1 X150.52 Y147.03 E179.73129
G1 X150.09 Y147.46 E179.74608
G1 X149.47 Y148.65 E179.77652
G1 X148.84 Y149.84 E179.80709
G1 X148.27 Y150.69 E179.84995
G0 F12000 X147.63 Y153.03
G1 F2400 X147.31 Y153.63 E179.87025
G1 X147.08 Y154.43 E179.89043
G1 X147.19 Y154.89 E179.89993
G1 X147.64 Y155.00 E179.90943
G1 X148.01 Y155.20 E179.91892
G1 X148.38 Y155.39 E179.92850
G1 X148.75 Y155.59 E179.93800
G1 X149.12 Y155.78 E179.94758
G1 X149.49 Y155.97 E179.95712
G1 X149.87 Y156.17 E179.96666
G1 X150.13 Y156.19 E179.97778
G0 F12000 X150.01 Y156.37
G1 F2400 X156.80 Y149.58 E180.37703
G0 F12000 X156.76 Y149.56
G1 F2400 X156.49 Y149.54 E180.38656
G1 X156.12 Y149.35 E180.39610
G1 X155.75 Y149.15 E180.40560
G1 X155.38 Y148.96 E180.41521
G1 X155.01 Y148.76 E180.42475
G1 X154.64 Y148.57 E180.43425
G1 X154.27 Y148.37 E180.44387
G1 X153.89 Y148.18 E180.45344
G1 X153.49 Y148.02 E180.46376
G1 X153.06 Y147.88 E180.47405
G1 X152.64 Y147.74 E180.48429
G1 X152.34 Y147.75 E180.49678
G0 F12000 X156.97 Y149.91
G1 F2400 X157.24 Y149.93 E180.50632
G1 X157.60 Y150.13 E180.51584
G1 X157.98 Y150.31 E180.52535
G1 X157.78 Y151.08 E180.54560
G1 X157.50 Y151.93 E180.56588
G1 X157.18 Y152.53 E180.59403
G0 F12000 X152.51 Y157.20
G1 F2400 X152.22 Y157.21 E180.60431
G1 X151.79 Y157.07 E180.61453
G1 X151.37 Y156.93 E180.62483
G1 X150.98 Y156.75 E180.63441
G1 X150.61 Y156.56 E180.64397
G1 X150.34 Y156.54 E180.65509
;LAYER:32
G0 F12000 X151.81 Y157.41 Z8.25
;TYPE:WALL-INNER
G1 F2400 X146.63 Y154.69 E180.89829
G1 X147.59 Y151.81 E181.02435
G1 X150.31 Y146.63 E181.26756
G1 X153.19 Y147.59 E181.39361
G1 X158.37 Y150.31 E181.63682
G1 X157.41 Y153.19 E181.76287
G1 X154.69 Y158.37 E182.00608
G1 X151.81 Y157.41 E182.13213
G0 F12000 X151.65 Y157.78
;TYPE:WALL-OUTER
G1 F2400 X146.15 Y154.88 E182.39072
G1 X147.22 Y151.65 E182.53232
G1 X150.12 Y146.15 E182.79090
G1 X153.35 Y147.22 E182.93250
G1 X158.85 Y150.12 E183.19108
G1 X157.78 Y153.35 E183.33268
G1 X154.88 Y158.85 E183.59126
G1 X151.65 Y157.78 E183.73286
G0 F12000 X151.92 Y157.29
;TYPE:FILL
G1 F2400 X151.57 Y156.95 E183.75329
G0 F12000 X150.75 Y156.69
G1 F2400 X150.39 Y156.33 E183.77434
G0 F12000 X150.06 Y156.33
G1 F2400 X156.76 Y149.62 E184.16836
G0 F12000 X156.63 Y149.56
G1 F2400 X156.98 Y149.91 E184.18929
G0 F12000 X157.82 Y150.18
G1 F2400 X157.99 Y150.64 E184.20881
G1 X157.85 Y151.06 E184.21908
G1 X157.71 Y151.49 E184.22931
G1 X157.57 Y151.91 E184.23953
G1 X157.43 Y152.34 E184.24979
G1 X157.44 Y152.63 E184.26224
G0 F12000 X157.42 Y152.71
G1 F2400 X152.09 Y147.37 E184.57571
G0 F12000 X152.23 Y147.42
G1 F2400 X152.83 Y147.74 E184.59605
G1 X153.43 Y148.05 E184.62415
G0 F12000 X154.25 Y148.31
G1 F2400 X154.60 Y148.66 E184.64514
G0 F12000 X155.44 Y148.93
G1 F2400 X155.79 Y149.29 E184.66610
G0 F12000 X157.13 Y152.88
G1 F2400 X157.14 Y153.18 E184.67635
G1 X156.96 Y153.57 E184.68404
G1 X156.77 Y153.94 E184.69062
G1 X156.57 Y154.31 E184.69720
G1 X156.38 Y154.68 E184.70381
G1 X156.18 Y155.05 E184.71034
G1 X155.99 Y155.42 E184.71688
G1 X155.79 Y155.79 E184.72349
G1 X155.60 Y156.16 E184.73003
G1 X155.41 Y156.54 E184.73664
G1 X155.21 Y156.91 E184.74318
G1 X155.02 Y157.28 E184.74972
G1 X154.82 Y157.65 E184.75624
G1 X154.62 Y158.02 E184.76280
G1 X153.87 Y157.83 E184.78310
G1 X153.27 Y157.51 E184.81116
G0 F12000 X152.91 Y157.62
G1 F2400 X147.58 Y152.29 E185.12467
G0 F12000 X147.56 Y152.36
G1 F2400 X147.57 Y152.66 E185.13490
G1 X147.43 Y153.09 E185.14513
G1 X147.29 Y153.51 E185.15539
G1 X147.15 Y153.94 E185.16562
G1 X147.00 Y154.36 E185.17584
G1 X147.18 Y154.81 E185.19612
G0 F12000 X148.01 Y155.09
G1 F2400 X148.37 Y155.44 E185.21699
G0 F12000 X149.21 Y155.71
G1 F2400 X149.56 Y156.07 E185.23789
G0 F12000 X152.42 Y157.23
G1 F2400 X152.77 Y157.58 E185.25833
G0 F12000 X147.87 Y152.11
G1 F2400 X147.85 Y151.81 E185.26857
G1 X148.04 Y151.43 E185.27626
G1 X148.23 Y151.06 E185.28287
G1 X148.43 Y150.69 E185.28941
G1 X148.62 Y150.32 E185.29602
G1 X148.81 Y149.94 E185.30262
G1 X149.01 Y149.57 E185.30914
G1 X149.20 Y149.20 E185.31571
G1 X149.40 Y148.83 E185.32230
G1 X149.59 Y148.46 E185.32891
G1 X149.79 Y148.09 E185.33541
G1 X149.98 Y147.72 E185.34198
G1 X150.18 Y147.35 E185.34847
G1 X150.38 Y146.98 E185.35497
G1 X151.13 Y147.17 E185.37533
G1 X151.73 Y147.49 E185.40347
;LAYER:33
G0 F12000 X152.50 Y147.30 Z8.50
;TYPE:WALL-INNER
G1 F1920 X158.40 Y150.40 E185.68045
G1 X157.70 Y152.50 E185.77276
G1 X154.60 Y158.40 E186.04973
G1 X152.50 Y157.70 E186.14204
G1 X146.60 Y154.60 E186.41902
G1 X147.30 Y152.50 E186.51132
G1 X150.40 Y146.60 E186.78830
G1 X152.50 Y147.30 E186.88061
G0 F12000 X152.66 Y146.93
;TYPE:WALL-OUTER
G1 F1920 X158.89 Y150.20 E187.17297
G1 X158.07 Y152.66 E187.28081
G1 X154.80 Y158.89 E187.57317
G1 X152.34 Y158.07 E187.68102
G1 X146.11 Y154.80 E187.97337
G1 X146.93 Y152.34 E188.08122
G1 X150.20 Y146.11 E188.37358
G1 X152.66 Y146.93 E188.48143
G0 F12000 X151.99 Y147.28
;TYPE:FILL
G1 F1920 X157.43 Y152.72 E188.80107
G0 F12000 X156.71 Y149.67
G1 F1920 X150.10 Y156.28 E189.18992
G0 F12000 X153.01 Y157.72
G1 F1920 X147.57 Y152.28 E189.50959
;LAYER:34
G0 F12000 X147.01 Y153.18 Z8.75
;TYPE:WALL-INNER
G1 F1920 X150.48 Y146.56 E189.82032
G1 X151.82 Y147.01 E189.87884
G1 X158.44 Y150.48 E190.18957
G1 X157.99 Y151.82 E190.24809
G1 X154.52 Y158.44 E190.55882
G1 X153.18 Y157.99 E190.61734
G1 X146.56 Y154.52 E190.92807
G1 X147.01 Y153.18 E190.98659
G0 F12000 X146.64 Y153.02
;TYPE:WALL-OUTER
G1 F1920 X150.29 Y146.08 E191.31270
G1 X151.98 Y146.64 E191.38676
G1 X158.92 Y150.29 E191.71287
G1 X158.36 Y151.98 E191.78692
G1 X154.71 Y158.92 E192.11303
G1 X153.02 Y158.36 E192.18709
G1 X146.08 Y154.71 E192.51320
G1 X146.64 Y153.02 E192.58726
G0 F12000 X147.61 Y152.33
;TYPE:FILL
G1 F1920 X153.05 Y157.76 E192.90664
G0 F12000 X150.14 Y156.24
G1 F1920 X156.67 Y149.71 E193.29017
G0 F12000 X157.38 Y152.67
G1 F1920 X151.95 Y147.24 E193.60955
;LAYER:35
G0 F12000 X151.13 Y146.72 Z9.00
;TYPE:WALL-INNER
G1 F1920 X158.47 Y150.57 E193.95409
G1 X158.28 Y151.13 E193.97882
G1 X154.43 Y158.47 E194.32336
G1 X153.87 Y158.28 E194.34809
G1 X146.53 Y154.43 E194.69263
G1 X146.72 Y153.87 E194.71736
G1 X150.57 Y146.53 E195.06189
G1 X151.13 Y146.72 E195.08662
G0 F12000 X151.29 Y146.35
;TYPE:WALL-OUTER
G1 F1920 X158.96 Y150.37 E195.44654
G1 X158.65 Y151.29 E195.48681
G1 X154.63 Y158.96 E195.84673
G1 X153.71 Y158.65 E195.88700
G1 X146.04 Y154.63 E196.24692
G1 X146.35 Y153.71 E196.28719
G1 X150.37 Y146.04 E196.64711
G1 X151.29 Y146.35 E196.68738
G0 F12000 X152.09 Y147.38
;TYPE:FILL
G1 F1920 X157.34 Y152.63 E196.99574
G0 F12000 X156.62 Y149.76
G1 F1920 X150.19 Y156.19 E197.37406
G0 F12000 X152.90 Y157.62
G1 F1920 X147.66 Y152.37 E197.68236
;LAYER:36
G0 F12000 X146.53 Y154.36 Z9.25
;TYPE:WALL-INNER
G1 F1920 X150.64 Y146.53 E198.05033
G1 X158.47 Y150.64 E198.41830
G1 X154.36 Y158.47 E198.78627
G1 X146.53 Y154.36 E199.15424
G0 F12000 X146.06 Y154.39
;TYPE:WALL-OUTER
G1 F1920 X150.46 Y146.01 E199.54795
G1 X150.61 Y146.06 E199.55447
G1 X158.99 Y150.46 E199.94818
G1 X158.94 Y150.61 E199.95470
G1 X154.54 Y158.99 E200.34841
G1 X154.39 Y158.94 E200.35493
G1 X146.01 Y154.54 E200.74864
G1 X146.06 Y154.39 E200.75516
G0 F12000 X146.35 Y154.48
G0 X147.70 Y152.42
;TYPE:FILL
G1 F1920 X152.76 Y157.48 E201.05273
G0 F12000 X150.23 Y156.15
G1 F1920 X156.58 Y149.80 E201.42599
G0 F12000 X157.29 Y152.58
G1 F1920 X152.24 Y147.52 E201.72353
;LAYER:37
G0 F12000 X150.63 Y146.51 Z9.50
;TYPE:WALL-INNER
G1 F1920 X158.49 Y150.63 E202.09219
G1 X154.37 Y158.49 E202.46085
G1 X146.51 Y154.37 E202.82950
G1 X150.63 Y146.51 E203.19816
G0 F12000 X150.34 Y146.22
;TYPE:WALL-OUTER
G1 F1920 X150.51 Y146.00 E203.21004
G1 X158.78 Y150.34 E203.59833
G1 X159.00 Y150.51 E203.61021
G1 X154.66 Y158.78 E203.99850
G1 X154.49 Y159.00 E204.01038
G1 X146.22 Y154.66 E204.39867
G1 X146.00 Y154.49 E204.41055
G1 X150.34 Y146.22 E204.79884
G0 F12000 X150.59 Y146.38
G0 X152.22 Y147.50
;TYPE:FILL
G1 F1920 X157.30 Y152.59 E205.09788
G0 F12000 X156.59 Y149.79
G1 F1920 X150.23 Y156.16 E205.47182
G0 F12000 X152.78 Y157.50
G1 F1920 X147.70 Y152.41 E205.77089
;LAYER:38
G0 F12000 X146.49 Y154.29 Z9.75
;TYPE:WALL-INNER
G1 F1920 X150.28 Y147.07 E206.10994
G1 X150.71 Y146.49 E206.14014
G1 X157.93 Y150.28 E206.47920
G1 X158.51 Y150.71 E206.50940
G1 X154.72 Y157.93 E206.84845
G1 X154.29 Y158.51 E206.87865
G1 X147.07 Y154.72 E207.21770
G1 X146.49 Y154.29 E207.24790
G0 F12000 X145.97 Y154.40
;TYPE:WALL-OUTER
G1 F1920 X149.94 Y146.85 E207.60245
G1 X150.60 Y145.97 E207.64811
G1 X158.15 Y149.94 E208.00266
G1 X159.03 Y150.60 E208.04832
G1 X155.06 Y158.15 E208.40287
G1 X154.40 Y159.03 E208.44853
G1 X146.85 Y155.06 E208.80308
G1 X145.97 Y154.40 E208.84874
G0 F12000 X146.32 Y154.38
G0 X147.65 Y152.37
;TYPE:FILL
G1 F1920 X152.93 Y157.64 E209.15898
G0 F12000 X150.18 Y156.20
G1 F1920 X156.63 Y149.75 E209.53822
G0 F12000 X157.35 Y152.63
G1 F1920 X152.07 Y147.36 E209.84842
;LAYER:39
G0 F12000 X150.80 Y146.47 Z10.00
;TYPE:WALL-INNER
G1 F1920 X157.30 Y149.88 E210.15371
G1 X158.53 Y150.80 E210.21767
G1 X155.12 Y157.30 E210.52295
G1 X154.20 Y158.53 E210.58691
G1 X147.70 Y155.12 E210.89219
G1 X146.47 Y154.20 E210.95615
G1 X149.88 Y147.70 E211.26143
G1 X150.80 Y146.47 E211.32539
G0 F12000 X150.69 Y145.95
;TYPE:WALL-OUTER
G1 F1920 X157.52 Y149.54 E211.64616
G1 X159.05 Y150.69 E211.72558
G1 X155.46 Y157.52 E212.04636
G1 X154.31 Y159.05 E212.12578
G1 X147.48 Y155.46 E212.44655
G1 X145.95 Y154.31 E212.52598
G1 X149.54 Y147.48 E212.84675
G1 X150.69 Y145.95 E212.92617
G0 F12000 X150.71 Y146.30
G0 X151.93 Y147.22
;TYPE:FILL
G1 F1920 X157.39 Y152.68 E213.24741
G0 F12000 X156.68 Y149.71
G1 F1920 X150.14 Y156.25 E213.63191
G0 F12000 X153.07 Y157.78
G1 F1920 X147.61 Y152.32 E213.95308
;LAYER:40
G0 F12000 X146.45 Y154.11 Z10.25
;TYPE:WALL-INNER
G1 F1980 X149.48 Y148.33 E214.22455
G1 X150.89 Y146.45 E214.32230
G1 X156.67 Y149.48 E214.59378
G1 X158.55 Y150.89 E214.69153
G1 X155.52 Y156.67 E214.96300
G1 X154.11 Y158.55 E215.06075
G1 X148.33 Y155.52 E215.33222
G1 X146.45 Y154.11 E215.42998
G0 F12000 X145.93 Y154.22
;TYPE:WALL-OUTER
G1 F1980 X149.14 Y148.11 E215.71694
G1 X150.78 Y145.93 E215.83016
G1 X156.89 Y149.14 E216.11712
G1 X159.07 Y150.78 E216.23034
G1 X155.86 Y156.89 E216.51730
G1 X154.22 Y159.07 E216.63052
G1 X148.11 Y155.86 E216.91748
G1 X145.93 Y154.22 E217.03070
G0 F12000 X146.28 Y154.20
G0 X147.56 Y152.28
;TYPE:FILL
G1 F1980 X153.21 Y157.93 E217.36284
G0 F12000 X150.09 Y156.29
G1 F1980 X156.70 Y149.68 E217.75160
G0 F12000 X157.44 Y152.72
G1 F1980 X151.79 Y147.07 E218.08374
;LAYER:41
G0 F12000 X150.98 Y146.43 Z10.50
;TYPE:WALL-INNER
G1 F2400 X156.04 Y149.08 E218.32142
G1 X158.57 Y150.98 E218.45299
G1 X155.92 Y156.04 E218.69067
G1 X154.02 Y158.57 E218.82224
G1 X148.96 Y155.92 E219.05992
G1 X146.43 Y154.02 E219.19149
G1 X149.08 Y148.96 E219.42918
G1 X150.98 Y146.43 E219.56075
G0 F12000 X150.87 Y145.91
;TYPE:WALL-OUTER
G1 F2400 X156.26 Y148.74 E219.81392
G1 X159.09 Y150.87 E219.96095
G1 X156.26 Y156.26 E220.21413
G1 X154.13 Y159.09 E220.36116
G1 X148.74 Y156.26 E220.61434
G1 X145.91 Y154.13 E220.76137
G1 X148.74 Y148.74 E221.01455
G1 X150.87 Y145.91 E221.16158
G0 F12000 X151.16 Y146.67
;TYPE:FILL
G1 F2400 X150.40 Y147.43 E221.20621
G0 F12000 X151.40 Y147.00
G1 F2400 X151.53 Y146.87 E221.21373
G0 F12000 X151.64 Y146.93
G1 F2400 X157.48 Y152.77 E221.55696
G0 F12000 X157.44 Y152.83
G1 F2400 X157.04 Y153.23 E221.58050
G0 F12000 X156.82 Y154.02
G1 F2400 X156.42 Y154.43 E221.60405
G0 F12000 X156.19 Y155.21
G1 F2400 X155.78 Y155.63 E221.62836
G0 F12000 X155.17 Y156.80
G1 F2400 X154.07 Y157.90 E221.69310
G0 F12000 X153.84 Y158.13
G1 F2400 X153.59 Y158.10 E221.70057
G1 X153.34 Y158.06 E221.71098
G0 F12000 X153.36 Y158.07
G1 F2400 X147.52 Y152.23 E222.05423
G0 F12000 X147.54 Y152.56
G1 F2400 X147.14 Y152.96 E222.07784
G0 F12000 X146.92 Y153.75
G1 F2400 X146.81 Y154.13 E222.09338
G1 X147.29 Y154.22 E222.10260
G1 X147.46 Y154.62 E222.11182
G1 X147.94 Y154.70 E222.12105
G1 X148.10 Y155.10 E222.13022
G1 X148.58 Y155.19 E222.13944
G1 X148.75 Y155.59 E222.14858
G1 X149.23 Y155.67 E222.15778
G1 X149.45 Y156.02 E222.16520
G1 X149.88 Y156.15 E222.17260
G1 X150.13 Y156.19 E222.18305
G0 F12000 X150.05 Y156.33
G1 F2400 X156.66 Y149.72 E222.57190
G0 F12000 X156.62 Y149.69
G1 F2400 X156.31 Y149.73 E222.58111
G1 X156.14 Y149.33 E222.59033
G1 X155.65 Y149.25 E222.59950
G1 X155.42 Y148.91 E222.60687
G1 X154.99 Y148.78 E222.61423
G1 X154.62 Y148.59 E222.62167
G1 X154.25 Y148.39 E222.62903
G1 X153.88 Y148.20 E222.63639
G1 X153.51 Y148.00 E222.64383
G1 X153.13 Y147.81 E222.65120
G1 X152.76 Y147.61 E222.65856
G1 X152.39 Y147.42 E222.66600
G1 X152.02 Y147.22 E222.67336
G1 X151.77 Y147.19 E222.68377
G0 F12000 X149.79 Y148.61
G1 F2400 X149.01 Y149.38 E222.72940
G0 F12000 X148.79 Y150.18
G1 F2400 X148.39 Y150.57 E222.75285
G0 F12000 X148.16 Y151.37
G1 F2400 X147.76 Y151.77 E222.77643
G0 F12000 X150.50 Y156.38
G1 F2400 X150.56 Y156.60 E222.78384
G1 X151.00 Y156.74 E222.79124
G1 X151.37 Y156.93 E222.79864
G1 X151.74 Y157.12 E222.80601
G1 X152.11 Y157.32 E222.81341
G1 X152.48 Y157.51 E222.82077
G1 X152.85 Y157.71 E222.82824
G1 X153.10 Y157.74 E222.83864
G0 F12000 X157.67 Y152.04
G1 F2400 X158.07 Y151.35 E222.86216
G1 X158.08 Y150.78 E222.87137
G1 X157.60 Y150.70 E222.88059
G1 X157.43 Y150.30 E222.88988
G1 X156.95 Y150.21 E222.89910
G1 X156.95 Y149.94 E222.91066
;LAYER:42
G0 F12000 X155.41 Y148.68 Z10.75
;TYPE:WALL-INNER
G1 F2460 X158.59 Y151.07 E223.07613
G1 X156.32 Y155.41 E223.27983
G1 X153.93 Y158.59 E223.44530
G1 X149.59 Y156.32 E223.64901
G1 X146.41 Y153.93 E223.81448
G1 X148.68 Y149.59 E224.01818
G1 X151.07 Y146.41 E224.18365
G1 X155.41 Y148.68 E224.38736
G0 F12000 X155.63 Y148.34
;TYPE:WALL-OUTER
G1 F2460 X159.11 Y150.96 E224.56815
G1 X156.66 Y155.63 E224.78756
G1 X154.04 Y159.11 E224.96835
G1 X149.37 Y156.66 E225.18775
G1 X145.89 Y154.04 E225.36855
G1 X148.34 Y149.37 E225.58795
G1 X150.96 Y145.89 E225.76874
G1 X155.63 Y148.34 E225.98814
G0 F12000 X155.27 Y148.77
;TYPE:FILL
G1 F2460 X156.32 Y149.81 E226.04979
G0 F12000 X156.62 Y149.76
G1 F2460 X150.00 Y156.38 E226.43873
G0 F12000 X149.73 Y156.23
G1 F2460 X148.68 Y155.18 E226.50038
G0 F12000 X147.50 Y154.57
G1 F2460 X146.66 Y153.73 E226.54976
G0 F12000 X147.02 Y153.53
G1 F2460 X147.04 Y153.26 E226.55936
G1 X147.23 Y152.89 E226.56898
G1 X147.43 Y152.52 E226.57856
G1 X147.44 Y152.25 E226.58972
G0 F12000 X147.47 Y152.19
G1 F2460 X153.50 Y158.21 E226.94382
G0 F12000 X153.30 Y158.11
G1 F2460 X152.44 Y157.53 E226.97463
G1 X151.25 Y156.91 E227.00536
G1 X150.39 Y156.33 E227.04824
G0 F12000 X153.85 Y158.09
G1 F2460 X154.13 Y158.09 E227.05746
G1 X154.22 Y157.61 E227.06669
G1 X154.61 Y157.44 E227.07589
G1 X154.70 Y156.96 E227.08512
G1 X155.10 Y156.80 E227.09435
G1 X155.19 Y156.32 E227.10357
G1 X155.59 Y156.15 E227.11277
G1 X155.67 Y155.67 E227.12196
G1 X156.07 Y155.51 E227.13126
G1 X156.21 Y155.08 E227.14080
G1 X156.40 Y154.71 E227.15048
G1 X156.60 Y154.34 E227.16006
G1 X156.79 Y153.97 E227.16967
G1 X156.99 Y153.59 E227.17935
G1 X157.18 Y153.22 E227.18893
G1 X157.20 Y152.96 E227.20005
G0 F12000 X157.52 Y152.81
G1 F2460 X151.50 Y146.79 E227.55415
G0 F12000 X151.70 Y146.89
G1 F2460 X152.56 Y147.47 E227.58495
G1 X153.75 Y148.09 E227.61568
G1 X154.60 Y148.66 E227.65857
G0 F12000 X157.50 Y150.42
G1 F2460 X158.34 Y151.26 E227.70798
G0 F12000 X157.98 Y151.47
G1 F2460 X157.96 Y151.74 E227.71754
G1 X157.77 Y152.11 E227.72712
G1 X157.57 Y152.48 E227.73672
G1 X157.56 Y152.75 E227.74788
G0 F12000 X150.66 Y147.55
G1 F2460 X150.38 Y147.56 E227.75710
G1 X150.30 Y148.03 E227.76632
G1 X149.90 Y148.20 E227.77554
G1 X149.81 Y148.68 E227.78478
G1 X149.41 Y148.85 E227.79405
G1 X149.33 Y149.33 E227.80329
G1 X148.93 Y149.49 E227.81257
G1 X148.79 Y149.92 E227.82215
G1 X148.59 Y150.29 E227.83177
G1 X148.40 Y150.66 E227.84136
G1 X148.20 Y151.03 E227.85094
G1 X148.01 Y151.40 E227.86060
G1 X147.81 Y151.78 E227.87019
G1 X147.80 Y152.04 E227.88135
G0 F12000 X150.91 Y147.23
G1 F2460 X150.87 Y146.91 E227.89055
G1 X151.15 Y146.90 E227.90211
;LAYER:43
G0 F12000 X151.16 Y146.38 Z11.00
;TYPE:WALL-INNER
G1 F2460 X154.79 Y148.29 E228.07227
G1 X158.62 Y151.16 E228.27134
G1 X156.71 Y154.79 E228.44149
G1 X153.84 Y158.62 E228.64056
G1 X150.21 Y156.71 E228.81071
G1 X146.38 Y153.84 E229.00978
G1 X148.29 Y150.21 E229.17994
G1 X151.16 Y146.38 E229.37900
G0 F12000 X151.05 Y145.87
;TYPE:WALL-OUTER
G1 F2460 X155.00 Y147.95 E229.56465
G1 X159.13 Y151.05 E229.77917
G1 X157.05 Y155.00 E229.96482
G1 X153.95 Y159.13 E230.17935
G1 X150.00 Y157.05 E230.36500
G1 X145.87 Y153.95 E230.57953
G1 X147.95 Y150.00 E230.76518
G1 X151.05 Y145.87 E230.97971
G0 F12000 X151.25 Y146.59
;TYPE:FILL
G1 F2460 X151.00 Y146.83 E230.99405
G0 F12000 X151.36 Y146.65
G1 F2460 X157.57 Y152.85 E231.35903
G0 F12000 X157.73 Y152.55
G1 F2460 X157.16 Y153.40 E231.38952
G1 X156.58 Y154.26 E231.43236
G0 F12000 X156.28 Y155.13
G1 F2460 X155.17 Y156.24 E231.49724
G0 F12000 X154.57 Y157.41
G1 F2460 X153.63 Y158.35 E231.55257
G0 F12000 X153.64 Y158.35
G1 F2460 X147.43 Y152.14 E231.91757
G0 F12000 X147.48 Y152.05
G1 F2460 X148.00 Y151.53 E231.94820
G0 F12000 X148.10 Y150.86
G1 F2460 X148.69 Y150.28 E231.98251
G0 F12000 X149.29 Y149.10
G1 F2460 X150.40 Y148.00 E232.04748
G0 F12000 X151.46 Y146.94
G1 F2460 X151.72 Y146.96 E232.05701
G1 X152.09 Y147.15 E232.06663
G1 X152.46 Y147.35 E232.07620
G1 X152.83 Y147.54 E232.08571
G1 X153.21 Y147.74 E232.09533
G1 X153.58 Y147.93 E232.10487
G1 X153.95 Y148.13 E232.11436
G1 X154.32 Y148.32 E232.12398
G1 X154.75 Y148.45 E232.13353
G1 X154.93 Y148.84 E232.14275
G1 X155.41 Y148.93 E232.15200
G1 X155.57 Y149.33 E232.16122
G1 X156.05 Y149.41 E232.17044
G1 X156.22 Y149.81 E232.17967
G1 X156.54 Y149.78 E232.19305
G0 F12000 X156.58 Y149.81
G1 F2460 X150.00 Y156.38 E232.57958
G0 F12000 X149.97 Y156.35
G1 F2460 X149.96 Y156.07 E232.58880
G1 X149.48 Y155.99 E232.59807
G1 X149.31 Y155.59 E232.60728
G1 X148.84 Y155.50 E232.61650
G1 X148.67 Y155.10 E232.62573
G1 X148.19 Y155.02 E232.63495
G1 X148.02 Y154.62 E232.64419
G1 X147.54 Y154.53 E232.65343
G1 X147.38 Y154.13 E232.66265
G1 X146.90 Y154.05 E232.67189
G1 X146.87 Y153.50 E232.68113
G1 X147.38 Y152.72 E232.71981
G0 F12000 X150.45 Y156.43
G1 F2460 X150.47 Y156.69 E232.72931
G1 X150.93 Y156.81 E232.73885
G1 X151.30 Y157.00 E232.74835
G1 X151.67 Y157.19 E232.75788
G1 X152.04 Y157.39 E232.76737
G1 X152.41 Y157.58 E232.77687
G1 X152.78 Y157.78 E232.78640
G1 X153.15 Y157.97 E232.79590
G1 X153.42 Y157.99 E232.80702
G0 F12000 X157.83 Y151.88
G1 F2460 X158.17 Y151.25 E232.83745
G1 X157.99 Y150.87 E232.84671
G1 X157.51 Y150.78 E232.85593
G1 X157.35 Y150.38 E232.86516
G1 X156.87 Y150.30 E232.87440
G1 X156.86 Y150.02 E232.88600
;LAYER:44
G0 F12000 X158.63 Y151.25 Z11.25
;TYPE:WALL-INNER
G1 F2460 X157.11 Y154.16 E233.02238
G1 X153.75 Y158.63 E233.25521
G1 X150.84 Y157.11 E233.39159
G1 X146.37 Y153.75 E233.62441
G1 X147.89 Y150.84 E233.76080
G1 X151.25 Y146.37 E233.99362
G1 X154.16 Y147.89 E234.13001
G1 X158.63 Y151.25 E234.36283
G0 F12000 X159.15 Y151.14
;TYPE:WALL-OUTER
G1 F2460 X157.45 Y154.37 E234.51471
G1 X153.86 Y159.15 E234.76299
G1 X150.63 Y157.45 E234.91487
G1 X145.85 Y153.86 E235.16316
G1 X147.55 Y150.63 E235.31504
G1 X151.14 Y145.85 E235.56332
G1 X154.37 Y147.55 E235.71520
G1 X159.15 Y151.14 E235.96349
G0 F12000 X158.42 Y151.35
;TYPE:FILL
G1 F2460 X158.08 Y151.29 E235.98304
G1 X158.05 Y151.83 E235.99262
G1 X157.86 Y152.20 E236.00219
G1 X157.66 Y152.57 E236.01173
G1 X157.65 Y152.84 E236.02285
G0 F12000 X157.61 Y152.90
G1 F2460 X151.28 Y146.56 E236.39536
G0 F12000 X151.42 Y146.61
G1 F2460 X152.27 Y147.18 E236.42579
G1 X153.13 Y147.75 E236.46861
G0 F12000 X153.80 Y147.86
G1 F2460 X154.47 Y148.53 E236.50848
G0 F12000 X155.81 Y149.31
G1 F2460 X156.75 Y150.25 E236.56357
G0 F12000 X156.53 Y149.85
G1 F2460 X150.04 Y156.34 E236.94510
G0 F12000 X150.52 Y156.46
G1 F2460 X151.20 Y157.14 E236.98493
G0 F12000 X151.87 Y157.25
G1 F2460 X152.73 Y157.82 E237.01540
G1 X153.58 Y158.39 E237.05814
G0 F12000 X153.72 Y158.44
G1 F2460 X147.38 Y152.10 E237.43067
G0 F12000 X147.35 Y152.16
G1 F2460 X147.34 Y152.43 E237.44023
G1 X147.14 Y152.80 E237.44977
G1 X146.95 Y153.17 E237.45939
G1 X146.75 Y153.54 E237.46893
G1 X146.91 Y153.98 E237.48819
G0 F12000 X148.25 Y154.75
G1 F2460 X149.19 Y155.69 E237.54329
G0 F12000 X147.71 Y151.95
G1 F2460 X147.73 Y151.69 E237.55290
G1 X147.92 Y151.31 E237.56244
G1 X148.05 Y150.88 E237.57200
G1 X148.42 Y150.68 E237.57988
G1 X148.53 Y150.22 E237.58774
G1 X148.90 Y150.03 E237.59559
G1 X149.01 Y149.58 E237.60340
G1 X149.39 Y149.39 E237.61127
G1 X149.50 Y148.93 E237.61907
G1 X149.87 Y148.74 E237.62683
G1 X149.98 Y148.28 E237.63463
G1 X150.36 Y148.10 E237.64250
G1 X150.47 Y147.64 E237.65030
G1 X150.84 Y147.45 E237.65809
G1 X150.95 Y146.99 E237.66591
G1 X151.21 Y146.97 E237.67657
G0 F12000 X157.29 Y153.04
G1 F2460 X157.27 Y153.31 E237.68614
G1 X157.08 Y153.68 E237.69568
G1 X156.95 Y154.12 E237.70524
G1 X156.58 Y154.32 E237.71314
G1 X156.47 Y154.77 E237.72100
G1 X156.09 Y154.96 E237.72887
G1 X155.99 Y155.42 E237.73669
G1 X155.61 Y155.61 E237.74452
G1 X155.50 Y156.07 E237.75233
G1 X155.12 Y156.26 E237.76015
G1 X155.01 Y156.71 E237.76795
G1 X154.64 Y156.90 E237.77582
G1 X154.53 Y157.36 E237.78368
G1 X154.15 Y157.55 E237.79148
G1 X154.04 Y158.00 E237.79928
G1 X153.79 Y158.03 E237.80991
;LAYER:45
G0 F12000 X153.66 Y158.66 Z11.50
;TYPE:WALL-INNER
G1 F1980 X151.47 Y157.51 E237.91258
G1 X146.34 Y153.66 E238.17916
G1 X147.49 Y151.47 E238.28183
G1 X151.34 Y146.34 E238.54841
G1 X153.53 Y147.49 E238.65108
G1 X158.66 Y151.34 E238.91766
G1 X157.51 Y153.53 E239.02033
G1 X153.66 Y158.66 E239.28691
G0 F12000 X153.77 Y159.17
;TYPE:WALL-OUTER
G1 F1980 X151.25 Y157.85 E239.40507
G1 X145.83 Y153.77 E239.68712
G1 X147.15 Y151.25 E239.80528
G1 X151.23 Y145.83 E240.08733
G1 X153.75 Y147.15 E240.20549
G1 X159.17 Y151.23 E240.48754
G1 X157.85 Y153.75 E240.60570
G1 X153.77 Y159.17 E240.88774
G0 F12000 X153.68 Y158.39
;TYPE:FILL
G1 F1980 X147.34 Y152.05 E241.26045
G0 F12000 X150.09 Y156.29
G1 F1980 X156.49 Y149.89 E241.63695
G0 F12000 X157.66 Y152.94
G1 F1980 X151.32 Y146.61 E242.00963
;LAYER:46
G0 F12000 X151.43 Y146.32 Z11.75
;TYPE:WALL-INNER
G1 F1980 X152.90 Y147.09 E242.07853
G1 X158.68 Y151.43 E242.37887
G1 X157.91 Y152.90 E242.44777
G1 X153.57 Y158.68 E242.74811
G1 X152.10 Y157.91 E242.81701
G1 X146.32 Y153.57 E243.11735
G1 X147.09 Y152.10 E243.18625
G1 X151.43 Y146.32 E243.48659
G0 F12000 X151.32 Y145.81
;TYPE:WALL-OUTER
G1 F1980 X153.12 Y146.75 E243.57098
G1 X159.19 Y151.32 E243.88678
G1 X158.25 Y153.12 E243.97117
G1 X153.68 Y159.19 E244.28698
G1 X151.88 Y158.25 E244.37137
G1 X145.81 Y153.68 E244.68717
G1 X146.75 Y151.88 E244.77156
G1 X151.32 Y145.81 E245.08737
G0 F12000 X151.36 Y146.65
;TYPE:FILL
G1 F1980 X157.68 Y152.97 E245.45890
G0 F12000 X156.45 Y149.93
G1 F1980 X150.13 Y156.25 E245.83040
G0 F12000 X153.64 Y158.35
G1 F1980 X147.32 Y152.03 E246.20194
;LAYER:47
G0 F12000 X146.69 Y152.73 Z12.00
;TYPE:WALL-INNER
G1 F1980 X151.53 Y146.31 E246.53612
G1 X152.27 Y146.69 E246.57108
G1 X158.69 Y151.53 E246.90526
G1 X158.31 Y152.27 E246.94022
G1 X153.47 Y158.69 E247.27440
G1 X152.73 Y158.31 E247.30936
G1 X146.31 Y153.47 E247.64355
G1 X146.69 Y152.73 E247.67851
G0 F12000 X146.36 Y152.51
;TYPE:WALL-OUTER
G1 F1980 X151.41 Y145.79 E248.02810
G1 X152.49 Y146.36 E248.07868
G1 X159.21 Y151.41 E248.42827
G1 X158.64 Y152.49 E248.47885
G1 X153.59 Y159.21 E248.82844
G1 X152.51 Y158.64 E248.87902
G1 X145.79 Y153.59 E249.22861
G1 X146.36 Y152.51 E249.27919
G0 F12000 X147.36 Y152.07
;TYPE:FILL
G1 F1980 X153.59 Y158.31 E249.64555
G0 F12000 X150.17 Y156.21
G1 F1980 X156.40 Y149.98 E250.01188
G0 F12000 X157.64 Y152.92
G1 F1980 X151.41 Y146.69 E250.37824
;LAYER:48
G0 F12000 X151.62 Y146.28 Z12.25
;TYPE:WALL-INNER
G1 F1980 X151.64 Y146.30 E250.37937
G1 X158.72 Y151.62 E250.74747
G1 X158.70 Y151.64 E250.74860
G1 X153.38 Y158.72 E251.11670
G1 X153.36 Y158.70 E251.11784
G1 X146.28 Y153.38 E251.48594
G1 X146.30 Y153.36 E251.48707
G1 X151.62 Y146.28 E251.85517
G0 F12000 X151.86 Y145.96
;TYPE:WALL-OUTER
G1 F1980 X159.23 Y151.50 E252.23858
G1 X159.04 Y151.86 E252.25538
G1 X153.50 Y159.23 E252.63879
G1 X153.14 Y159.04 E252.65558
G1 X145.77 Y153.50 E253.03900
G1 X145.96 Y153.14 E253.05579
G1 X151.50 Y145.77 E253.43920
G1 X151.86 Y145.96 E253.45600
G0 F12000 X151.45 Y146.74
;TYPE:FILL
G1 F1980 X157.59 Y152.88 E253.81739
G0 F12000 X156.36 Y150.02
G1 F1980 X150.22 Y156.16 E254.17875
G0 F12000 X153.55 Y158.26
G1 F1980 X147.40 Y152.12 E254.54011
;LAYER:49
G0 F12000 X146.32 Y153.38 Z12.50
;TYPE:WALL-INNER
G1 F1980 X151.62 Y146.32 E254.90729
G1 X158.68 Y151.62 E255.27448
G1 X153.38 Y158.68 E255.64166
G1 X146.32 Y153.38 E256.00884
G0 F12000 X145.79 Y153.48
;TYPE:WALL-OUTER
G1 F1980 X145.76 Y153.45 E256.01037
G1 X151.52 Y145.79 E256.40903
G1 X151.55 Y145.76 E256.41056
G1 X159.21 Y151.52 E256.80922
G1 X159.24 Y151.55 E256.81075
G1 X153.48 Y159.21 E257.20940
G1 X153.45 Y159.24 E257.21093
G1 X145.79 Y153.48 E257.60959
G0 F12000 X146.10 Y153.34
G0 X147.42 Y152.14
;TYPE:FILL
G1 F1980 X153.53 Y158.25 E257.96874
G0 F12000 X150.24 Y156.15
G1 F1980 X156.34 Y150.04 E258.32787
G0 F12000 X157.57 Y152.86
G1 F1980 X151.47 Y146.75 E258.68700
;LAYER:50
G0 F12000 X151.33 Y146.61 Z12.75
;TYPE:WALL-INNER
G1 F1980 X151.67 Y146.28 E258.70682
G1 X158.39 Y151.33 E259.05618
G1 X158.72 Y151.67 E259.07600
G1 X153.67 Y158.39 E259.42537
G1 X153.33 Y158.72 E259.44518
G1 X146.61 Y153.67 E259.79455
G1 X146.28 Y153.33 E259.81437
G1 X151.33 Y146.61 E260.16373
G0 F12000 X151.03 Y146.34
;TYPE:WALL-OUTER
G1 F1980 X151.64 Y145.75 E260.19899
G1 X158.66 Y151.03 E260.56393
G1 X159.25 Y151.64 E260.59919
G1 X153.97 Y158.66 E260.96414
G1 X153.36 Y159.25 E260.99939
G1 X146.34 Y153.97 E261.36434
G1 X145.75 Y153.36 E261.39959
G1 X151.03 Y146.34 E261.76454
G0 F12000 X151.43 Y146.71
;TYPE:FILL
G1 F1980 X157.62 Y152.90 E262.12866
G0 F12000 X156.38 Y150.00
G1 F1980 X150.19 Y156.19 E262.49276
G0 F12000 X153.57 Y158.29
G1 F1980 X147.38 Y152.09 E262.85688
;LAYER:51
G0 F12000 X146.27 Y153.24 Z13.00
;TYPE:WALL-INNER
G1 F1980 X150.83 Y147.17 E263.17249
G1 X151.76 Y146.27 E263.22609
G1 X157.83 Y150.83 E263.54170
G1 X158.73 Y151.76 E263.59530
G1 X154.17 Y157.83 E263.91091
G1 X153.24 Y158.73 E263.96451
G1 X147.17 Y154.17 E264.28012
G1 X146.27 Y153.24 E264.33372
G0 F12000 X145.75 Y153.27
;TYPE:WALL-OUTER
G1 F1980 X150.53 Y146.90 E264.66488
G1 X151.73 Y145.75 E264.73389
G1 X158.10 Y150.53 E265.06506
G1 X159.25 Y151.73 E265.13407
G1 X154.47 Y158.10 E265.46523
G1 X153.27 Y159.25 E265.53424
G1 X146.90 Y154.47 E265.86541
G1 X145.75 Y153.27 E265.93442
G0 F12000 X146.10 Y153.31
G0 X147.34 Y152.05
;TYPE:FILL
G1 F1980 X153.53 Y158.25 E266.29866
G0 F12000 X150.15 Y156.23
G1 F1980 X156.43 Y149.95 E266.66781
G0 F12000 X157.66 Y152.95
G1 F1980 X151.47 Y146.75 E267.03205
;LAYER:52
G0 F12000 X151.86 Y146.27 Z13.25
;TYPE:WALL-INNER
G1 F1980 X157.28 Y150.34 E267.31384
G1 X158.73 Y151.86 E267.40123
G1 X154.66 Y157.28 E267.68302
G1 X153.14 Y158.73 E267.77041
G1 X147.72 Y154.66 E268.05220
G1 X146.27 Y153.14 E268.13958
G1 X150.34 Y147.72 E268.42137
G1 X151.86 Y146.27 E268.50876
G0 F12000 X151.82 Y145.74
;TYPE:WALL-OUTER
G1 F1980 X157.54 Y150.04 E268.80613
G1 X159.26 Y151.82 E268.90896
G1 X154.96 Y157.54 E269.20633
G1 X153.18 Y159.26 E269.30915
G1 X147.46 Y154.96 E269.60652
G1 X145.74 Y153.18 E269.70935
G1 X150.04 Y147.46 E270.00672
G1 X151.82 Y145.74 E270.10955
G0 F12000 X151.51 Y146.80
;TYPE:FILL
G1 F1980 X157.70 Y152.99 E270.47373
G0 F12000 X156.47 Y149.91
G1 F1980 X150.11 Y156.27 E270.84791
G0 F12000 X153.49 Y158.20
G1 F1980 X147.29 Y152.01 E271.21212
;LAYER:53
G0 F12000 X146.26 Y153.05 Z13.50
;TYPE:WALL-INNER
G1 F2400 X149.85 Y148.28 E271.46015
G1 X151.95 Y146.26 E271.58126
G1 X156.72 Y149.85 E271.82929
G1 X158.74 Y151.95 E271.95041
G1 X155.15 Y156.72 E272.19844
G1 X153.05 Y158.74 E272.31955
G1 X148.28 Y155.15 E272.56758
G1 X146.26 Y153.05 E272.68870
G0 F12000 X145.74 Y153.08
;TYPE:WALL-OUTER
G1 F2400 X149.55 Y148.01 E272.95231
G1 X151.92 Y145.74 E273.08886
G1 X156.99 Y149.55 E273.35247
G1 X159.26 Y151.92 E273.48902
G1 X155.45 Y156.99 E273.75264
G1 X153.08 Y159.26 E273.88919
G1 X148.01 Y155.45 E274.15280
G1 X145.74 Y153.08 E274.28935
G0 F12000 X146.47 Y153.06
;TYPE:FILL
G1 F2400 X146.94 Y152.87 E274.31916
G1 X146.88 Y153.49 E274.32822
G1 X147.32 Y153.63 E274.33724
G1 X147.44 Y154.07 E274.34633
G1 X147.87 Y154.21 E274.35540
G1 X147.99 Y154.65 E274.36443
G1 X148.42 Y154.78 E274.37346
G1 X148.57 Y155.20 E274.38222
G1 X149.00 Y155.34 E274.38824
G1 X149.22 Y155.68 E274.39377
G1 X149.64 Y155.83 E274.39930
G1 X149.87 Y156.17 E274.40488
G1 X150.12 Y156.19 E274.41562
G0 F12000 X150.06 Y156.32
G1 F2400 X156.51 Y149.87 E274.79474
G0 F12000 X156.48 Y149.84
G1 F2400 X156.48 Y150.12 E274.80257
G1 X156.91 Y150.25 E274.81163
G1 X157.03 Y150.70 E274.82065
G1 X157.47 Y150.83 E274.82966
G1 X157.59 Y151.27 E274.83867
G1 X158.02 Y151.41 E274.84774
G1 X158.14 Y151.85 E274.85678
G1 X158.44 Y151.84 E274.86897
G0 F12000 X157.75 Y153.03
G1 F2400 X151.55 Y146.84 E275.23321
G0 F12000 X151.81 Y146.59
G1 F2400 X149.73 Y148.66 E275.35544
G0 F12000 X148.69 Y150.28
G1 F2400 X148.02 Y150.94 E275.39440
G0 F12000 X147.25 Y151.97
G1 F2400 X153.45 Y158.16 E275.75864
G0 F12000 X152.94 Y158.47
G1 F2400 X155.84 Y155.57 E275.92930
G0 F12000 X156.88 Y153.96
G1 F2400 X157.55 Y153.30 E275.96825
G0 F12000 X156.06 Y149.69
G1 F2400 X155.99 Y149.48 E275.97373
G1 X155.57 Y149.33 E275.97925
G1 X155.35 Y148.99 E275.98480
G1 X154.93 Y148.84 E275.99037
G1 X154.70 Y148.51 E275.99588
G1 X154.28 Y148.36 E276.00141
G1 X154.05 Y148.02 E276.00695
G1 X153.64 Y147.87 E276.01253
G1 X153.41 Y147.53 E276.01808
G1 X152.99 Y147.39 E276.02361
G1 X152.76 Y147.05 E276.02913
G1 X152.34 Y146.90 E276.03469
G1 X152.28 Y146.69 E276.04408
G0 F12000 X150.45 Y156.44
G1 F2400 X150.51 Y156.65 E276.04960
G1 X150.93 Y156.80 E276.05513
G1 X151.16 Y157.14 E276.06072
G1 X151.58 Y157.29 E276.06625
G1 X151.81 Y157.62 E276.07181
G1 X152.22 Y157.77 E276.07733
G1 X152.45 Y158.11 E276.08287
G1 X152.71 Y158.14 E276.09361
;LAYER:54
G0 F12000 X152.96 Y158.74 Z13.75
;TYPE:WALL-INNER
G1 F2460 X148.84 Y155.65 E276.30785
G1 X146.26 Y152.96 E276.46278
G1 X149.35 Y148.84 E276.67701
G1 X152.04 Y146.26 E276.83194
G1 X156.16 Y149.35 E277.04618
G1 X158.74 Y152.04 E277.20111
G1 X155.65 Y156.16 E277.41535
G1 X152.96 Y158.74 E277.57028
G0 F12000 X152.99 Y159.27
;TYPE:WALL-OUTER
G1 F2460 X148.57 Y155.95 E277.80010
G1 X145.73 Y152.99 E277.97046
G1 X149.05 Y148.57 E278.20028
G1 X152.01 Y145.73 E278.37065
G1 X156.43 Y149.05 E278.60047
G1 X159.27 Y152.01 E278.77084
G1 X155.95 Y156.43 E279.00066
G1 X152.99 Y159.27 E279.17102
G0 F12000 X153.07 Y158.44
;TYPE:FILL
G1 F2460 X153.00 Y158.09 E279.18682
G1 X153.36 Y158.16 E279.20192
G0 F12000 X153.40 Y158.12
G1 F2460 X147.21 Y151.92 E279.56617
G0 F12000 X147.17 Y151.98
G1 F2460 X147.45 Y151.97 E279.57539
G1 X147.53 Y151.49 E279.58461
G1 X147.93 Y151.33 E279.59384
G1 X148.02 Y150.85 E279.60306
G1 X148.42 Y150.68 E279.61229
G1 X148.50 Y150.20 E279.62151
G1 X148.90 Y150.03 E279.63080
G1 X148.99 Y149.55 E279.64003
G1 X149.39 Y149.39 E279.64924
G1 X149.49 Y148.92 E279.65845
G1 X149.92 Y148.79 E279.66748
G1 X150.06 Y148.36 E279.67655
G1 X150.50 Y148.24 E279.68558
G1 X150.63 Y147.80 E279.69460
G1 X151.07 Y147.68 E279.70364
G1 X151.21 Y147.25 E279.71271
G1 X151.51 Y147.27 E279.72516
G0 F12000 X151.59 Y146.88
G1 F2460 X157.79 Y153.07 E280.08940
G0 F12000 X157.83 Y153.02
G1 F2460 X157.55 Y153.03 E280.09865
G1 X157.47 Y153.51 E280.10785
G1 X157.06 Y153.67 E280.11707
G1 X156.98 Y154.15 E280.12626
G1 X156.58 Y154.32 E280.13552
G1 X156.49 Y154.80 E280.14474
G1 X156.09 Y154.96 E280.15397
G1 X156.01 Y155.44 E280.16319
G1 X155.61 Y155.61 E280.17242
G1 X155.51 Y156.08 E280.18165
G1 X155.08 Y156.21 E280.19074
G1 X154.94 Y156.64 E280.19983
G1 X154.50 Y156.76 E280.20891
G1 X154.37 Y157.19 E280.21792
G1 X153.92 Y157.32 E280.22695
G1 X153.79 Y157.75 E280.23596
G1 X153.49 Y157.73 E280.24840
G0 F12000 X151.62 Y157.56
G1 F2460 X150.52 Y156.46 E280.31317
G0 F12000 X150.02 Y156.36
G1 F2460 X156.49 Y149.90 E280.69325
G0 F12000 X155.65 Y149.15
G1 F2460 X158.56 Y152.05 E280.86420
G0 F12000 X158.31 Y152.38
G1 F2460 X158.04 Y152.38 E280.87343
G1 X158.07 Y152.70 E280.88682
G0 F12000 X154.48 Y148.54
G1 F2460 X153.38 Y147.44 E280.95161
G0 F12000 X152.20 Y146.83
G1 F2460 X151.79 Y146.69 E280.96741
G1 X151.80 Y146.99 E280.97964
G0 F12000 X146.93 Y152.30
G1 F2460 X146.96 Y152.62 E280.98889
G1 X146.68 Y152.62 E281.00044
G0 F12000 X146.44 Y152.94
G1 F2460 X149.35 Y155.85 E281.17142
;LAYER:55
G0 F12000 X149.40 Y156.14 Z14.00
;TYPE:WALL-INNER
G1 F2460 X146.25 Y152.87 E281.36014
G1 X148.86 Y149.40 E281.54062
G1 X152.13 Y146.25 E281.72933
G1 X155.60 Y148.86 E281.90981
G1 X158.75 Y152.13 E282.09853
G1 X156.14 Y155.60 E282.27900
G1 X152.87 Y158.75 E282.46772
G1 X149.40 Y156.14 E282.64820
G0 F12000 X149.13 Y156.44
;TYPE:WALL-OUTER
G1 F2460 X145.73 Y152.90 E282.85235
G1 X148.56 Y149.13 E283.04841
G1 X152.10 Y145.73 E283.25256
G1 X155.87 Y148.56 E283.44862
G1 X159.27 Y152.10 E283.65277
G1 X156.44 Y155.87 E283.84883
G1 X152.90 Y159.27 E284.05299
G1 X149.13 Y156.44 E284.24905
G0 F12000 X149.62 Y156.13
;TYPE:FILL
G1 F2460 X149.63 Y155.84 E284.25831
G1 X149.19 Y155.72 E284.26732
G1 X149.06 Y155.28 E284.27635
G1 X148.63 Y155.14 E284.28536
G1 X148.51 Y154.70 E284.29439
G1 X148.08 Y154.56 E284.30342
G1 X147.95 Y154.12 E284.31246
G1 X147.52 Y153.99 E284.32153
G1 X147.40 Y153.54 E284.33062
G1 X146.97 Y153.41 E284.33969
G1 X146.90 Y152.91 E284.34873
G1 X146.55 Y152.98 E284.36344
G0 F12000 X147.17 Y151.88
G1 F2460 X153.36 Y158.08 E284.72775
G0 F12000 X152.68 Y158.16
G1 F2460 X152.37 Y158.19 E284.73696
G1 X152.20 Y157.79 E284.74618
G1 X151.72 Y157.71 E284.75537
G1 X151.55 Y157.31 E284.76464
G1 X151.07 Y157.22 E284.77386
G1 X150.91 Y156.82 E284.78309
G1 X150.43 Y156.74 E284.79233
G1 X150.26 Y156.34 E284.80159
G1 X149.94 Y156.38 E284.81494
G0 F12000 X149.98 Y156.40
G1 F2460 X156.44 Y149.94 E285.19506
G0 F12000 X156.41 Y149.91
G1 F2460 X156.40 Y150.20 E285.20408
G1 X156.83 Y150.34 E285.21310
G1 X156.95 Y150.78 E285.22217
G1 X157.38 Y150.91 E285.23119
G1 X157.50 Y151.36 E285.24029
G1 X157.94 Y151.49 E285.24936
G1 X158.06 Y151.94 E285.25845
G1 X158.35 Y151.92 E285.27068
G0 F12000 X158.15 Y152.69
G1 F2460 X157.05 Y153.80 E285.33574
G0 F12000 X157.83 Y153.12
G1 F2460 X151.64 Y146.92 E285.70007
G0 F12000 X152.21 Y146.76
G1 F2460 X152.52 Y146.72 E285.70928
G1 X152.69 Y147.12 E285.71848
G1 X153.17 Y147.21 E285.72772
G1 X153.34 Y147.61 E285.73701
G1 X153.82 Y147.69 E285.74619
G1 X153.98 Y148.09 E285.75541
G1 X154.46 Y148.18 E285.76465
G1 X154.63 Y148.58 E285.77394
G1 X155.11 Y148.66 E285.78318
G1 X155.27 Y149.07 E285.79246
G1 X155.72 Y149.18 E285.80148
G1 X155.84 Y149.63 E285.81050
G1 X156.13 Y149.62 E285.82264
G0 F12000 X156.44 Y154.96
G1 F2460 X152.85 Y158.56 E286.03402
G0 F12000 X147.42 Y151.55
G1 F2460 X148.53 Y150.44 E286.09931
;LAYER:56
G0 F12000 X148.37 Y149.95 Z14.25
;TYPE:WALL-INNER
G1 F2400 X152.22 Y146.25 E286.32178
G1 X155.05 Y148.37 E286.46852
G1 X158.75 Y152.22 E286.69099
G1 X156.63 Y155.05 E286.83774
G1 X152.78 Y158.75 E287.06021
G1 X149.95 Y156.63 E287.20695
G1 X146.25 Y152.78 E287.42942
G1 X148.37 Y149.95 E287.57617
G0 F12000 X148.07 Y149.69
;TYPE:WALL-OUTER
G1 F2400 X152.19 Y145.72 E287.81405
G1 X155.31 Y148.07 E287.97635
G1 X159.28 Y152.19 E288.21422
G1 X156.93 Y155.31 E288.37653
G1 X152.81 Y159.28 E288.61440
G1 X149.69 Y156.93 E288.77671
G1 X145.72 Y152.81 E289.01458
G1 X148.07 Y149.69 E289.17688
G0 F12000 X148.55 Y149.97
;TYPE:FILL
G1 F2400 X148.85 Y149.99 E289.18607
G1 X148.99 Y149.55 E289.19530
G1 X149.43 Y149.43 E289.20441
G1 X149.56 Y149.00 E289.21365
G1 X150.01 Y148.88 E289.22276
G1 X150.14 Y148.44 E289.23188
G1 X150.58 Y148.32 E289.24098
G1 X150.72 Y147.89 E289.25004
G1 X151.16 Y147.76 E289.25914
G1 X151.29 Y147.33 E289.26821
G1 X151.59 Y147.35 E289.28070
G0 F12000 X151.68 Y146.97
G1 F2400 X157.88 Y153.16 E289.64503
G0 F12000 X157.92 Y153.11
G1 F2400 X157.64 Y153.11 E289.65426
G1 X157.55 Y153.59 E289.66348
G1 X157.15 Y153.76 E289.67271
G1 X157.07 Y154.24 E289.68193
G1 X156.67 Y154.40 E289.69116
G1 X156.57 Y154.88 E289.70038
G1 X156.15 Y155.01 E289.70949
G1 X156.01 Y155.45 E289.71864
G1 X155.57 Y155.57 E289.72773
G1 X155.44 Y156.00 E289.73686
G1 X154.99 Y156.12 E289.74595
G1 X154.86 Y156.56 E289.75502
G1 X154.41 Y156.68 E289.76410
G1 X154.28 Y157.11 E289.77317
G1 X153.84 Y157.23 E289.78220
G1 X153.70 Y157.66 E289.79127
G1 X153.41 Y157.65 E289.80368
G0 F12000 X153.32 Y158.03
G1 F2400 X147.12 Y151.84 E290.16804
G0 F12000 X147.08 Y151.89
G1 F2400 X147.36 Y151.89 E290.17726
G1 X147.45 Y151.41 E290.18648
G1 X147.85 Y151.24 E290.19576
G1 X147.93 Y150.76 E290.20503
G1 X148.33 Y150.59 E290.21426
G1 X148.30 Y150.28 E290.22756
G0 F12000 X146.84 Y152.21
G1 F2400 X146.88 Y152.53 E290.23687
G1 X146.60 Y152.54 E290.24847
G0 F12000 X149.95 Y156.43
G1 F2400 X156.40 Y149.98 E290.62767
G0 F12000 X158.24 Y152.30
G1 F2400 X158.28 Y152.62 E290.63691
G1 X158.00 Y152.63 E290.64851
G0 F12000 X153.88 Y147.94
G1 F2400 X152.77 Y146.83 E290.71345
G0 F12000 X152.17 Y146.79
G1 F2400 X151.87 Y146.78 E290.72248
G1 X151.88 Y147.07 E290.73471
G0 F12000 X151.12 Y157.06
G1 F2400 X152.23 Y158.17 E290.79971
G0 F12000 X152.83 Y158.20
G1 F2400 X153.13 Y158.22 E290.80880
G1 X153.12 Y157.93 E290.82099
;LAYER:57
G0 F12000 X152.68 Y158.76 Z14.50
;TYPE:WALL-INNER
G1 F1980 X150.51 Y157.13 E290.93391
G1 X146.24 Y152.68 E291.19017
G1 X147.87 Y150.51 E291.30310
G1 X152.32 Y146.24 E291.55935
G1 X154.49 Y147.87 E291.67228
G1 X158.76 Y152.32 E291.92853
G1 X157.13 Y154.49 E292.04146
G1 X152.68 Y158.76 E292.29772
G0 F12000 X152.72 Y159.28
;TYPE:WALL-OUTER
G1 F1980 X150.24 Y157.43 E292.42623
G1 X145.72 Y152.72 E292.69792
G1 X147.57 Y150.24 E292.82643
G1 X152.28 Y145.72 E293.09812
G1 X154.76 Y147.57 E293.22663
G1 X159.28 Y152.28 E293.49832
G1 X157.43 Y154.76 E293.62683
G1 X152.72 Y159.28 E293.89852
G0 F12000 X153.28 Y157.99
;TYPE:FILL
G1 F1980 X147.08 Y151.79 E294.26285
G0 F12000 X150.00 Y156.39
G1 F1980 X156.36 Y150.02 E294.63706
G0 F12000 X157.92 Y153.20
G1 F1980 X151.72 Y147.01 E295.00136
;LAYER:58
G0 F12000 X152.41 Y146.24 Z14.75
;TYPE:WALL-INNER
G1 F1980 X153.93 Y147.38 E295.08050
G1 X158.76 Y152.41 E295.37057
G1 X157.62 Y153.93 E295.44970
G1 X152.59 Y158.76 E295.73977
G1 X151.07 Y157.62 E295.81891
G1 X146.24 Y152.59 E296.10898
G1 X147.38 Y151.07 E296.18811
G1 X152.41 Y146.24 E296.47818
G0 F12000 X152.38 Y145.71
;TYPE:WALL-OUTER
G1 F1980 X154.20 Y147.08 E296.57287
G1 X159.29 Y152.38 E296.87835
G1 X157.92 Y154.20 E296.97304
G1 X152.62 Y159.29 E297.27852
G1 X150.80 Y157.92 E297.37321
G1 X145.71 Y152.62 E297.67869
G1 X147.08 Y150.80 E297.77338
G1 X152.38 Y145.71 E298.07886
G0 F12000 X151.76 Y147.05
;TYPE:FILL
G1 F1980 X157.96 Y153.25 E298.44328
G0 F12000 X156.32 Y150.06
G1 F1980 X150.04 Y156.34 E298.81249
G0 F12000 X153.24 Y157.95
G1 F1980 X147.04 Y151.75 E299.17694
;LAYER:59
G0 F12000 X146.88 Y151.62 Z15.00
;TYPE:WALL-INNER
G1 F1980 X152.50 Y146.23 E299.50077
G1 X153.38 Y146.88 E299.54617
G1 X158.77 Y152.50 E299.86999
G1 X158.12 Y153.38 E299.91539
G1 X152.50 Y158.77 E300.23922
G1 X151.62 Y158.12 E300.28462
G1 X146.23 Y152.50 E300.60845
G1 X146.88 Y151.62 E300.65385
G0 F12000 X146.59 Y151.36
;TYPE:WALL-OUTER
G1 F1980 X152.47 Y145.71 E300.99308
G1 X153.64 Y146.59 E301.05404
G1 X159.29 Y152.47 E301.39327
G1 X158.41 Y153.64 E301.45423
G1 X152.53 Y159.29 E301.79346
G1 X151.36 Y158.41 E301.85442
G1 X145.71 Y152.53 E302.19365
G1 X146.59 Y151.36 E302.25461
G0 F12000 X147.00 Y151.71
;TYPE:FILL
G1 F1980 X153.19 Y157.91 E302.61888
G0 F12000 X150.08 Y156.30
G1 F1980 X156.27 Y150.11 E302.98312
G0 F12000 X158.00 Y153.29
G1 F1980 X151.81 Y147.09 E303.34740
;LAYER:60
G0 F12000 X152.59 Y146.22 Z15.25
;TYPE:WALL-INNER
G1 F1980 X152.82 Y146.39 E303.35904
G1 X158.78 Y152.59 E303.71665
G1 X158.61 Y152.82 E303.72829
G1 X152.41 Y158.78 E304.08590
G1 X152.18 Y158.61 E304.09754
G1 X146.22 Y152.41 E304.45515
G1 X146.39 Y152.18 E304.46679
G1 X152.59 Y146.22 E304.82441
G0 F12000 X153.09 Y146.09
;TYPE:WALL-OUTER
G1 F1980 X159.30 Y152.56 E305.19742
G1 X158.91 Y153.09 E305.22462
G1 X152.44 Y159.30 E305.59764
G1 X151.91 Y158.91 E305.62484
G1 X145.70 Y152.44 E305.99786
G1 X146.09 Y151.91 E306.02506
G1 X152.56 Y145.70 E306.39808
G1 X153.09 Y146.09 E306.42527
G0 F12000 X152.89 Y146.32
G0 X151.85 Y147.13
;TYPE:FILL
G1 F1980 X157.96 Y153.25 E306.78461
G0 F12000 X156.23 Y150.15
G1 F1980 X150.12 Y156.26 E307.14385
G0 F12000 X153.15 Y157.87
G1 F1980 X147.04 Y151.75 E307.50319
;LAYER:61
G0 F12000 X146.28 Y152.38 Z15.50
;TYPE:WALL-INNER
G1 F1920 X152.62 Y146.28 E307.86897
G1 X158.72 Y152.62 E308.23475
G1 X152.38 Y158.72 E308.60053
G1 X146.28 Y152.38 E308.96631
G0 F12000 X145.72 Y152.37
;TYPE:WALL-OUTER
G1 F1920 X152.63 Y145.72 E309.36532
G1 X159.28 Y152.63 E309.76433
G1 X152.37 Y159.28 E310.16333
G1 X145.72 Y152.37 E310.56234
G0 F12000 X147.09 Y151.80
;TYPE:FILL
G1 F1920 X153.11 Y157.82 E310.91653
G0 F12000 X150.17 Y156.22
G1 F1920 X156.19 Y150.19 E311.27066
G0 F12000 X157.91 Y153.20
G1 F1920 X151.89 Y147.18 E311.62479
;LAYER:62
G0 F12000 X152.47 Y146.35 Z15.75
;TYPE:WALL-INNER
G1 F1980 X152.65 Y146.22 E311.63397
G1 X158.65 Y152.47 E311.99402
G1 X158.78 Y152.65 E312.00320
G1 X152.53 Y158.65 E312.36325
G1 X152.35 Y158.78 E312.37243
G1 X146.35 Y152.53 E312.73248
G1 X146.22 Y152.35 E312.74166
G1 X152.47 Y146.35 E313.10171
G0 F12000 X152.22 Y146.04
;TYPE:WALL-OUTER
G1 F1980 X152.70 Y145.70 E313.12642
G1 X158.96 Y152.22 E313.50199
G1 X159.30 Y152.70 E313.52670
G1 X152.78 Y158.96 E313.90227
G1 X152.30 Y159.30 E313.92698
G1 X146.04 Y152.78 E314.30256
G1 X145.70 Y152.30 E314.32726
G1 X152.22 Y146.04 E314.70284
G0 F12000 X151.85 Y147.14
;TYPE:FILL
G1 F1980 X157.96 Y153.24 E315.06185
G0 F12000 X156.23 Y150.15
G1 F1980 X150.12 Y156.26 E315.42077
G0 F12000 X153.15 Y157.86
G1 F1980 X147.04 Y151.76 E315.77975
;LAYER:63
G0 F12000 X146.23 Y152.26 Z16.00
;TYPE:WALL-INNER
G1 F1980 X151.89 Y146.82 E316.10593
G1 X152.74 Y146.23 E316.14899
G1 X158.18 Y151.89 E316.47517
G1 X158.77 Y152.74 E316.51823
G1 X153.11 Y158.18 E316.84441
G1 X152.26 Y158.77 E316.88747
G1 X146.82 Y153.11 E317.21365
G1 X146.23 Y152.26 E317.25671
G0 F12000 X145.71 Y152.20
;TYPE:WALL-OUTER
G1 F1980 X151.63 Y146.51 E317.59821
G1 X152.80 Y145.71 E317.65691
G1 X158.49 Y151.63 E317.99841
G1 X159.29 Y152.80 E318.05711
G1 X153.37 Y158.49 E318.39860
G1 X152.20 Y159.29 E318.45730
G1 X146.51 Y153.37 E318.79880
G1 X145.71 Y152.20 E318.85750
G0 F12000 X147.00 Y151.71
;TYPE:FILL
G1 F1980 X153.19 Y157.90 E319.22142
G0 F12000 X150.08 Y156.30
G1 F1980 X156.27 Y150.11 E319.58534
G0 F12000 X158.00 Y153.28
G1 F1980 X151.81 Y147.09 E319.94926
;LAYER:64
G0 F12000 X151.31 Y147.29 Z16.25
;TYPE:WALL-INNER
G1 F1980 X152.84 Y146.24 E320.02612
G1 X157.71 Y151.31 E320.31852
G1 X158.76 Y152.84 E320.39538
G1 X153.69 Y157.71 E320.68777
G1 X152.16 Y158.76 E320.76464
G1 X147.29 Y153.69 E321.05703
G1 X146.24 Y152.16 E321.13389
G1 X151.31 Y147.29 E321.42629
G0 F12000 X151.06 Y146.98
;TYPE:WALL-OUTER
G1 F1980 X152.89 Y145.72 E321.51879
G1 X158.02 Y151.06 E321.82650
G1 X159.28 Y152.89 E321.91900
G1 X153.94 Y158.02 E322.22672
G1 X152.11 Y159.28 E322.31922
G1 X146.98 Y153.94 E322.62693
G1 X145.72 Y152.11 E322.71943
G1 X151.06 Y146.98 E323.02714
G0 F12000 X151.82 Y147.11
;TYPE:FILL
G1 F1980 X158.04 Y153.33 E323.39268
G0 F12000 X156.31 Y150.07
G1 F1980 X150.04 Y156.34 E323.76162
G0 F12000 X153.17 Y157.89
G1 F1980 X146.96 Y151.67 E324.12713
;LAYER:65
G0 F12000 X146.25 Y152.07 Z16.50
;TYPE:WALL-INNER
G1 F1980 X150.74 Y147.76 E324.38577
G1 X152.93 Y146.25 E324.49640
G1 X157.24 Y150.74 E324.75504
G1 X158.75 Y152.93 E324.86567
G1 X154.26 Y157.24 E325.12431
G1 X152.07 Y158.75 E325.23494
G1 X147.76 Y154.26 E325.49358
G1 X146.25 Y152.07 E325.60421
G0 F12000 X145.73 Y152.02
;TYPE:WALL-OUTER
G1 F1980 X150.48 Y147.46 E325.87817
G1 X152.98 Y145.73 E326.00444
G1 X157.54 Y150.48 E326.27839
G1 X159.27 Y152.98 E326.40466
G1 X154.52 Y157.54 E326.67862
G1 X152.02 Y159.27 E326.80489
G1 X147.46 Y154.52 E327.07884
G1 X145.73 Y152.02 E327.20511
G0 F12000 X146.91 Y151.63
;TYPE:FILL
G1 F1980 X153.13 Y157.84 E327.57059
G0 F12000 X150.00 Y156.38
G1 F1980 X156.36 Y150.03 E327.94448
G0 F12000 X158.08 Y153.37
G1 F1980 X151.87 Y147.15 E328.30992
;LAYER:66
G0 F12000 X153.02 Y146.26 Z16.75
;TYPE:WALL-INNER
G1 F2460 X156.76 Y150.16 E328.53478
G1 X158.74 Y153.02 E328.67921
G1 X154.84 Y156.76 E328.90406
G1 X151.98 Y158.74 E329.04849
G1 X148.24 Y154.84 E329.27335
G1 X146.26 Y151.98 E329.41778
G1 X150.16 Y148.24 E329.64263
G1 X153.02 Y146.26 E329.78707
G0 F12000 X153.07 Y145.74
;TYPE:WALL-OUTER
G1 F2460 X157.07 Y149.90 E330.02724
G1 X159.26 Y153.07 E330.18731
G1 X155.10 Y157.07 E330.42748
G1 X151.93 Y159.26 E330.58755
G1 X147.93 Y155.10 E330.82772
G1 X145.74 Y151.93 E330.98779
G1 X149.90 Y147.93 E331.22797
G1 X153.07 Y145.74 E331.38804
G0 F12000 X152.97 Y146.47
;TYPE:FILL
G1 F2460 X154.24 Y147.74 E331.46277
G0 F12000 X152.79 Y146.85
G1 F2460 X152.47 Y146.81 E331.47200
G1 X152.29 Y147.20 E331.48114
G1 X151.97 Y147.16 E331.49471
G0 F12000 X151.91 Y147.20
G1 F2460 X158.13 Y153.41 E331.86019
G0 F12000 X158.17 Y153.37
G1 F2460 X157.87 Y153.35 E331.86931
G1 X157.74 Y153.78 E331.87838
G1 X157.30 Y153.90 E331.88746
G1 X157.16 Y154.34 E331.89653
G1 X156.72 Y154.46 E331.90560
G1 X156.59 Y154.89 E331.91468
G1 X156.14 Y155.01 E331.92376
G1 X156.01 Y155.44 E331.93276
G1 X155.57 Y155.57 E331.94178
G1 X155.43 Y156.00 E331.95080
G1 X154.99 Y156.12 E331.95981
G1 X154.85 Y156.55 E331.96871
G1 X154.38 Y156.64 E331.97794
G1 X154.20 Y157.03 E331.98715
G1 X153.71 Y157.11 E331.99635
G1 X153.53 Y157.49 E332.00562
G1 X153.21 Y157.45 E332.01920
G0 F12000 X153.09 Y157.80
G1 F2460 X146.87 Y151.59 E332.38465
G0 F12000 X146.82 Y151.63
G1 F2460 X147.12 Y151.65 E332.39371
G1 X147.26 Y151.22 E332.40278
G1 X147.70 Y151.09 E332.41181
G1 X147.83 Y150.66 E332.42084
G1 X148.28 Y150.54 E332.42987
G1 X148.41 Y150.11 E332.43888
G1 X148.85 Y149.99 E332.44791
G1 X148.99 Y149.55 E332.45691
G1 X149.43 Y149.43 E332.46593
G1 X149.56 Y149.00 E332.47493
G1 X150.01 Y148.88 E332.48385
G1 X150.15 Y148.45 E332.49275
G1 X150.62 Y148.35 E332.50189
G1 X150.79 Y147.97 E332.51105
G1 X151.29 Y147.89 E332.52024
G1 X151.46 Y147.50 E332.52947
G1 X151.79 Y147.55 E332.54305
G0 F12000 X156.40 Y149.98
G1 F2460 X149.96 Y156.43 E332.92191
G0 F12000 X150.76 Y157.26
G1 F2460 X152.03 Y158.53 E332.99667
G0 F12000 X152.36 Y158.30
G1 F2460 X152.37 Y158.03 E333.00589
G1 X152.87 Y157.96 E333.01509
G1 X152.88 Y157.68 E333.02641
