;-- START GCODE --
;Sliced for Type A Machines Series 1
;Sliced at: Sun 02-08-2015 16:30:08
;Basic settings: Layer height: 0.3 Walls: 0.8 Fill: 8
;Print Speed: 80 Support: 0
;Retraction Speed: 40 Retraction Distance: 1.2
;Print time: #P_TIME#
;Filament used: #F_AMNT#m #F_WGHT#g
;Filament cost: #F_COST#
M106 S255	 ;start with the fan on
G21        ;metric values
G90        ;absolute positioning
M106 S255    ;start with the fan on
G28     ;move to endstops
G29		;allows for auto-levelling
G1 X150 Y5  Z15.0 F12000 ;center and move the platform down 15mm
M109 S220 ;Heat To temp
G92 E0                  ;zero the extruded length
G1 F200 E30              ;extrude 30mm of feed stock
G92 E0                  ;zero the extruded length again
G1 X175 Y25  Z0 F12000 ;remove bugger
G1 X220 F12000 ;remove bugger
G1 X150 Y150  Z15 F12000 ;recenter and begin
G1 F12000

;Layer count: 79
;LAYER:0
M106 S255
G0 F12000 X128.37 Y128.47 Z0.30
;TYPE:SKIRT
G1 F2700 X176.67 Y128.47 E2.40970
G1 X176.67 Y176.67 E4.81440
G1 X128.37 Y176.67 E7.22410
G1 X128.37 Y128.47 E9.62881
G0 F12000 X128.77 Y128.87
G1 F2700 X176.27 Y128.87 E11.99859
G1 X176.27 Y176.27 E14.36339
G1 X128.77 Y176.27 E16.73317
G1 X128.77 Y128.87 E19.09797
G0 F12000 X129.17 Y129.27
G1 F2700 X175.87 Y129.27 E21.42784
G1 X175.87 Y175.87 E23.75273
G1 X129.17 Y175.87 E26.08260
G1 X129.17 Y129.27 E28.40748
G0 F12000 X129.57 Y129.67
G1 F2700 X175.47 Y129.67 E30.69744
G1 X175.47 Y175.47 E32.98241
G1 X129.57 Y175.47 E35.27237
G1 X129.57 Y129.67 E37.55734
G0 F12000 X129.97 Y130.07
G1 F2700 X175.07 Y130.07 E39.80739
G1 X175.07 Y175.07 E42.05245
G1 X129.97 Y175.07 E44.30250
G1 X129.97 Y130.07 E46.54756
G0 F12000 X130.37 Y130.47
G1 F2700 X174.67 Y130.47 E48.75769
G1 X174.67 Y174.67 E50.96284
G1 X130.37 Y174.67 E53.17298
G1 X130.37 Y130.47 E55.37812
G0 F12000 X130.77 Y130.87
G1 F2700 X174.27 Y130.87 E57.54835
G1 X174.27 Y174.27 E59.71358
G1 X130.77 Y174.27 E61.88381
G1 X130.77 Y130.87 E64.04904
G0 F12000 X131.17 Y131.27
G1 F2700 X173.87 Y131.27 E66.17935
G1 X173.87 Y173.87 E68.30468
G1 X131.17 Y173.87 E70.43499
G1 X131.17 Y131.27 E72.56031
G0 F12000 X131.57 Y131.67
G1 F2700 X173.47 Y131.67 E74.65071
G1 X173.47 Y173.47 E76.73612
G1 X131.57 Y173.47 E78.82652
G1 X131.57 Y131.67 E80.91193
G0 F12000 X131.97 Y132.07
G1 F2700 X173.07 Y132.07 E82.96242
G1 X173.07 Y173.07 E85.00792
G1 X131.97 Y173.07 E87.05840
G1 X131.97 Y132.07 E89.10390
G0 F12000 X132.37 Y132.47
G1 F2700 X172.67 Y132.47 E91.11448
G1 X172.67 Y172.67 E93.12006
G1 X132.37 Y172.67 E95.13064
G1 X132.37 Y132.47 E97.13622
G0 F12000 X132.77 Y132.87
G1 F2700 X172.27 Y132.87 E99.10689
G1 X172.27 Y172.27 E101.07256
G1 X132.77 Y172.27 E103.04322
G1 X132.77 Y132.87 E105.00890
G0 F12000 X133.17 Y133.27
G1 F2700 X171.87 Y133.27 E106.93965
G1 X171.87 Y171.87 E108.86541
G1 X133.17 Y171.87 E110.79616
G1 X133.17 Y133.27 E112.72192
G0 F12000 X133.57 Y133.67
G1 F2700 X171.47 Y133.67 E114.61276
G1 X171.47 Y171.47 E116.49861
G1 X133.57 Y171.47 E118.38945
G1 X133.57 Y133.67 E120.27530
G0 F12000 X133.97 Y134.07
G1 F2700 X171.07 Y134.07 E122.12623
G1 X171.07 Y171.07 E123.97216
G1 X133.97 Y171.07 E125.82309
G1 X133.97 Y134.07 E127.66903
G0 F12000 X134.37 Y134.47
G1 F2700 X170.67 Y134.47 E129.48004
G1 X170.67 Y170.67 E131.28607
G1 X134.37 Y170.67 E133.09708
G1 X134.37 Y134.47 E134.90311
G0 F12000 X134.77 Y134.87
G1 F2700 X170.27 Y134.87 E136.67421
G1 X170.27 Y170.27 E138.44032
G1 X134.77 Y170.27 E140.21143
G1 X134.77 Y134.87 E141.97754
G0 F12000 X135.17 Y135.27
G1 F2700 X169.87 Y135.27 E143.70873
G1 X169.87 Y169.87 E145.43493
G1 X135.17 Y169.87 E147.16612
G1 X135.17 Y135.27 E148.89232
G0 F12000 X135.57 Y135.67
G1 F2700 X169.47 Y135.67 E150.58360
G1 X169.47 Y169.47 E152.26989
G1 X135.57 Y169.47 E153.96117
G1 X135.57 Y135.67 E155.64745
G0 F12000 X135.97 Y136.07
G1 F2700 X169.07 Y136.07 E157.29882
G1 X169.07 Y169.07 E158.94520
G1 X135.97 Y169.07 E160.59656
G1 X135.97 Y136.07 E162.24294
G1 F2400 E161.04294
G0 F12000 X141.36 Y141.06
;TYPE:WALL-INNER
G1 F2400 E162.24294
G1 F2700 X142.05 Y140.55 E162.28569
G1 X142.83 Y140.21 E162.32837
G1 X143.67 Y140.03 E162.37127
G1 X144.53 Y140.03 E162.41388
G1 X145.37 Y140.21 E162.45668
G1 X146.15 Y140.55 E162.49936
G1 X146.84 Y141.06 E162.54196
G1 X147.41 Y141.69 E162.58488
G1 X147.84 Y142.43 E162.62744
G1 X148.11 Y143.25 E162.67029
G1 X148.20 Y144.10 E162.71303
G1 X148.11 Y144.95 E162.75562
G1 X147.85 Y145.74 E162.79694
G1 X147.41 Y146.51 E162.84130
G1 X146.84 Y147.15 E162.88415
G1 X146.15 Y147.65 E162.92654
G1 X145.36 Y148.00 E162.96944
G1 X144.56 Y148.17 E163.01038
G1 X143.67 Y148.17 E163.05479
G1 X142.87 Y148.00 E163.09583
G1 X142.05 Y147.65 E163.14020
G1 X141.36 Y147.14 E163.18309
G1 X140.81 Y146.53 E163.22386
G1 X140.36 Y145.77 E163.26826
G1 X140.09 Y144.95 E163.31105
G1 X140.00 Y144.10 E163.35369
G1 X140.09 Y143.25 E163.39647
G1 X140.36 Y142.43 E163.43933
G1 X140.79 Y141.69 E163.48204
G1 X141.36 Y141.06 E163.52465
G0 F12000 X141.09 Y140.76
;TYPE:WALL-OUTER
G1 F2700 X141.85 Y140.20 E163.57165
G1 X142.71 Y139.82 E163.61844
G1 X143.63 Y139.63 E163.66557
G1 X144.57 Y139.63 E163.71227
G1 X145.49 Y139.82 E163.75931
G1 X146.35 Y140.20 E163.80610
G1 X147.11 Y140.76 E163.85310
G1 X147.74 Y141.46 E163.90012
G1 X148.21 Y142.27 E163.94693
G1 X148.50 Y143.16 E163.99382
G1 X148.60 Y144.10 E164.04082
G1 X148.50 Y145.02 E164.08692
G1 X148.50 Y145.04 E164.08772
G1 X148.22 Y145.90 E164.13286
G1 X147.74 Y146.74 E164.18153
G1 X147.12 Y147.43 E164.22781
G1 X147.11 Y147.44 E164.22841
G1 X146.36 Y147.99 E164.27473
G1 X145.50 Y148.37 E164.32168
G1 X144.60 Y148.57 E164.36750
G1 X143.64 Y148.57 E164.41545
G1 X142.74 Y148.39 E164.46137
G1 X141.86 Y148.00 E164.50927
G1 X141.10 Y147.45 E164.55614
G1 X140.48 Y146.77 E164.60206
G1 X140.00 Y145.94 E164.64997
G1 X139.70 Y145.05 E164.69683
G1 X139.60 Y144.11 E164.74374
G1 X139.60 Y144.10 E164.74445
G1 X139.70 Y143.16 E164.79131
G1 X139.99 Y142.27 E164.83825
G1 X140.46 Y141.46 E164.88505
G1 X141.09 Y140.76 E164.93204
G0 F12000 X141.45 Y141.16
;TYPE:FILL
G1 F2700 X147.02 Y146.74 E165.32503
G0 F12000 X147.29 Y146.44
G1 F2700 X141.78 Y140.93 E165.71386
G0 F12000 X142.10 Y140.69
G1 F2700 X147.49 Y146.08 E166.09426
G0 F12000 X147.70 Y145.72
G1 F2700 X142.49 Y140.51 E166.46186
G0 F12000 X142.88 Y140.34
G1 F2700 X147.85 Y145.30 E166.81199
G0 F12000 X147.97 Y144.86
G1 F2700 X143.35 Y140.24 E167.13831
G0 F12000 X143.84 Y140.17
G1 F2700 X148.03 Y144.35 E167.43365
G0 F12000 X148.02 Y143.78
G1 F2700 X144.41 Y140.17 E167.68860
G0 F12000 X145.10 Y140.29
G1 F2700 X147.91 Y143.10 E167.88707
G0 F12000 X147.51 Y142.13
G1 F2700 X146.03 Y140.65 E167.99164
G0 F12000 X141.18 Y141.46
G1 F2700 X146.75 Y147.03 E168.38463
G0 F12000 X146.42 Y147.27
G1 F2700 X140.91 Y141.76 E168.77353
G0 F12000 X140.70 Y142.12
G1 F2700 X146.10 Y147.51 E169.15411
G0 F12000 X145.71 Y147.69
G1 F2700 X140.50 Y142.47 E169.52202
G0 F12000 X140.35 Y142.90
G1 F2700 X145.32 Y147.86 E169.87219
G0 F12000 X144.85 Y147.96
G1 F2700 X140.22 Y143.34 E170.19847
G0 F12000 X140.17 Y143.85
G1 F2700 X144.35 Y148.03 E170.49325
G0 F12000 X143.79 Y148.03
G1 F2700 X140.18 Y144.42 E170.74806
G0 F12000 X140.29 Y145.09
G1 F2700 X143.10 Y147.91 E170.94664
G0 F12000 X142.17 Y147.55
G1 F2700 X140.70 Y146.07 E171.05057
G1 F2400 E169.85057
G0 F12000 X156.80 Y144.10
;TYPE:WALL-INNER
G1 F2400 E171.05057
G1 F2700 X156.89 Y143.25 E171.09330
G1 X157.16 Y142.43 E171.13616
G1 X157.59 Y141.69 E171.17872
G1 X158.16 Y141.06 E171.22164
G1 X158.85 Y140.55 E171.26424
G1 X159.63 Y140.21 E171.30692
G1 X160.47 Y140.03 E171.34972
G1 X161.33 Y140.03 E171.39233
G1 X162.17 Y140.21 E171.43522
G1 X162.95 Y140.55 E171.47791
G1 X163.64 Y141.06 E171.52066
G1 X164.21 Y141.69 E171.56326
G1 X164.64 Y142.43 E171.60598
G1 X164.91 Y143.25 E171.64883
G1 X165.00 Y144.10 E171.69157
G1 X164.91 Y144.95 E171.73416
G1 X164.65 Y145.74 E171.77548
G1 X164.21 Y146.51 E171.82001
G1 X163.64 Y147.15 E171.86248
G1 X162.95 Y147.65 E171.90505
G1 X162.16 Y148.00 E171.94795
G1 X161.36 Y148.17 E171.98899
G1 X160.47 Y148.17 E172.03340
G1 X159.67 Y148.00 E172.07430
G1 X158.85 Y147.65 E172.11871
G1 X158.16 Y147.14 E172.16142
G1 X157.61 Y146.53 E172.20258
G1 X157.16 Y145.77 E172.24680
G1 X156.89 Y144.95 E172.28958
G1 X156.80 Y144.10 E172.33227
G0 F12000 X156.40 Y144.11
;TYPE:WALL-OUTER
G1 F2700 X156.40 Y144.10 E172.33298
G1 X156.50 Y143.16 E172.37988
G1 X156.79 Y142.27 E172.42677
G1 X157.26 Y141.46 E172.47358
G1 X157.89 Y140.76 E172.52060
G1 X158.65 Y140.20 E172.56760
G1 X159.51 Y139.82 E172.61439
G1 X160.43 Y139.63 E172.66143
G1 X161.37 Y139.63 E172.70812
G1 X162.29 Y139.82 E172.75526
G1 X163.15 Y140.20 E172.80205
G1 X163.91 Y140.76 E172.84905
G1 X164.54 Y141.46 E172.89603
G1 X165.01 Y142.27 E172.94284
G1 X165.30 Y143.16 E172.98978
G1 X165.40 Y144.10 E173.03674
G1 X165.30 Y145.02 E173.08284
G1 X165.30 Y145.04 E173.08364
G1 X165.02 Y145.90 E173.12878
G1 X164.54 Y146.74 E173.17745
G1 X163.92 Y147.43 E173.22370
G1 X163.91 Y147.44 E173.22430
G1 X163.16 Y147.99 E173.27062
G1 X162.30 Y148.37 E173.31757
G1 X161.40 Y148.57 E173.36349
G1 X160.44 Y148.57 E173.41143
G1 X159.54 Y148.39 E173.45726
G1 X158.66 Y148.00 E173.50516
G1 X157.90 Y147.45 E173.55203
G1 X157.28 Y146.77 E173.59798
G1 X156.79 Y145.94 E173.64589
G1 X156.50 Y145.05 E173.69275
G1 X156.40 Y144.11 E173.73966
G0 F12000 X156.96 Y144.23
;TYPE:FILL
G1 F2700 X160.76 Y148.03 E174.00806
G0 F12000 X161.32 Y148.03
G1 F2700 X156.99 Y143.69 E174.31384
G0 F12000 X157.06 Y143.20
G1 F2700 X161.79 Y147.93 E174.64789
G0 F12000 X162.24 Y147.81
G1 F2700 X157.19 Y142.77 E175.00356
G0 F12000 X157.36 Y142.37
G1 F2700 X162.63 Y147.64 E175.37542
G0 F12000 X163.00 Y147.44
G1 F2700 X157.56 Y142.01 E175.75868
G0 F12000 X157.79 Y141.67
G1 F2700 X163.32 Y147.20 E176.14892
G0 F12000 X163.63 Y146.94
G1 F2700 X158.06 Y141.37 E176.54198
G0 F12000 X158.35 Y141.09
G1 F2700 X163.90 Y146.65 E176.93374
G0 F12000 X164.15 Y146.33
G1 F2700 X158.67 Y140.85 E177.32010
G0 F12000 X159.02 Y140.63
G1 F2700 X164.36 Y145.97 E177.69680
G0 F12000 X164.55 Y145.60
G1 F2700 X159.41 Y140.46 E178.05949
G0 F12000 X159.82 Y140.31
G1 F2700 X164.69 Y145.17 E178.40260
G0 F12000 X164.79 Y144.71
G1 F2700 X160.29 Y140.21 E178.72010
G0 F12000 X160.81 Y140.17
G1 F2700 X164.84 Y144.20 E179.00447
G0 F12000 X164.80 Y143.59
G1 F2700 X161.40 Y140.19 E179.24447
G0 F12000 X162.12 Y140.34
G1 F2700 X164.63 Y142.85 E179.42177
G0 F12000 X163.91 Y141.57
G1 F2700 X163.40 Y141.05 E179.45811
G0 F12000 X157.02 Y144.86
G1 F2700 X160.12 Y147.96 E179.67655
G0 F12000 X159.28 Y147.68
G1 F2700 X157.27 Y145.68 E179.81808
G1 F2400 E178.61808
G0 F12000 X159.63 Y157.00
;TYPE:WALL-INNER
G1 F2400 E179.81808
G1 F2700 X160.47 Y156.83 E179.86087
G1 X161.33 Y156.83 E179.90353
G1 X162.17 Y157.00 E179.94632
G1 X162.95 Y157.35 E179.98904
G1 X163.64 Y157.85 E180.03175
G1 X164.21 Y158.49 E180.07443
G1 X164.64 Y159.23 E180.11715
G1 X164.91 Y160.05 E180.15995
G1 X165.00 Y160.90 E180.20264
G1 X164.91 Y161.75 E180.24528
G1 X164.65 Y162.54 E180.28665
G1 X164.21 Y163.31 E180.33118
G1 X163.64 Y163.95 E180.37378
G1 X162.95 Y164.45 E180.41617
G1 X162.16 Y164.79 E180.45906
G1 X161.36 Y164.97 E180.50017
G1 X160.47 Y164.97 E180.54442
G1 X159.67 Y164.80 E180.58548
G1 X158.85 Y164.45 E180.62985
G1 X158.16 Y163.94 E180.67260
G1 X157.61 Y163.33 E180.71368
G1 X157.16 Y162.57 E180.75794
G1 X156.89 Y161.75 E180.80073
G1 X156.80 Y160.90 E180.84347
G1 X156.89 Y160.05 E180.88616
G1 X157.16 Y159.23 E180.92896
G1 X157.59 Y158.49 E180.97168
G1 X158.16 Y157.85 E181.01435
G1 X158.85 Y157.35 E181.05710
G1 X159.63 Y157.00 E181.09979
G0 F12000 X159.51 Y156.62
;TYPE:WALL-OUTER
G1 F2700 X160.43 Y156.43 E181.14681
G1 X161.37 Y156.43 E181.19356
G1 X162.29 Y156.62 E181.24059
G1 X163.15 Y157.00 E181.28742
G1 X163.91 Y157.56 E181.33443
G1 X164.54 Y158.26 E181.38145
G1 X165.01 Y159.07 E181.42821
G1 X165.30 Y159.96 E181.47515
G1 X165.40 Y160.90 E181.52206
G1 X165.30 Y161.82 E181.56821
G1 X165.30 Y161.84 E181.56901
G1 X165.02 Y162.70 E181.61415
G1 X164.54 Y163.54 E181.66287
G1 X163.92 Y164.23 E181.70908
G1 X163.91 Y164.24 E181.70968
G1 X163.16 Y164.79 E181.75600
G1 X162.30 Y165.17 E181.80294
G1 X162.29 Y165.18 E181.80355
G1 X161.40 Y165.37 E181.84894
G1 X160.44 Y165.37 E181.89683
G1 X159.54 Y165.18 E181.94273
G1 X158.66 Y164.80 E181.99056
G1 X157.90 Y164.25 E182.03743
G1 X157.28 Y163.57 E182.08335
G1 X156.79 Y162.74 E182.13130
G1 X156.50 Y161.85 E182.17816
G1 X156.40 Y160.91 E182.22512
G1 X156.40 Y160.90 E182.22583
G1 X156.50 Y159.96 E182.27268
G1 X156.79 Y159.07 E182.31957
G1 X157.26 Y158.26 E182.36633
G1 X157.89 Y157.56 E182.41339
G1 X158.65 Y157.00 E182.46039
G1 X159.51 Y156.62 E182.50718
G0 F12000 X159.68 Y157.14
;TYPE:FILL
G1 F2700 X164.65 Y162.10 E182.85735
G0 F12000 X164.50 Y162.52
G1 F2700 X159.29 Y157.31 E183.22498
G0 F12000 X158.90 Y157.49
G1 F2700 X164.29 Y162.88 E183.60541
G0 F12000 X164.09 Y163.24
G1 F2700 X158.57 Y157.72 E183.99442
G0 F12000 X158.25 Y157.96
G1 F2700 X163.82 Y163.54 E184.38755
G0 F12000 X163.55 Y163.83
G1 F2700 X157.98 Y158.26 E184.78062
G0 F12000 X157.71 Y158.56
G1 F2700 X163.22 Y164.07 E185.16952
G0 F12000 X162.90 Y164.31
G1 F2700 X157.50 Y158.91 E185.55017
G0 F12000 X157.29 Y159.27
G1 F2700 X162.51 Y164.49 E185.91804
G0 F12000 X162.11 Y164.66
G1 F2700 X157.15 Y159.70 E186.26817
G0 F12000 X157.02 Y160.13
G1 F2700 X161.65 Y164.76 E186.59449
G0 F12000 X161.15 Y164.83
G1 F2700 X156.97 Y160.65 E186.88941
G0 F12000 X156.98 Y161.22
G1 F2700 X160.59 Y164.83 E187.14426
G0 F12000 X159.90 Y164.71
G1 F2700 X157.09 Y161.89 E187.34277
G0 F12000 X157.50 Y162.87
G1 F2700 X158.97 Y164.34 E187.44669
G0 F12000 X164.77 Y161.66
G1 F2700 X160.15 Y157.04 E187.77301
G0 F12000 X160.64 Y156.97
G1 F2700 X164.83 Y161.15 E188.06829
G0 F12000 X164.82 Y160.58
G1 F2700 X161.21 Y156.97 E188.32310
G0 F12000 X161.90 Y157.09
G1 F2700 X164.71 Y159.90 E188.52150
G0 F12000 X164.31 Y158.93
G1 F2700 X162.82 Y157.45 E188.62606
G1 F2400 E187.42606
G0 F12000 X148.11 Y160.05
;TYPE:WALL-INNER
G1 F2400 E188.62606
G1 F2700 X148.20 Y160.90 E188.66875
G1 X148.11 Y161.75 E188.71139
G1 X147.85 Y162.54 E188.75276
G1 X147.41 Y163.31 E188.79711
G1 X146.84 Y163.94 E188.83975
G1 X146.15 Y164.45 E188.88232
G1 X145.36 Y164.79 E188.92521
G1 X144.56 Y164.97 E188.96622
G1 X143.67 Y164.97 E189.01052
G1 X142.87 Y164.80 E189.05164
G1 X142.05 Y164.45 E189.09599
G1 X141.36 Y163.94 E189.13888
G1 X140.81 Y163.33 E189.17961
G1 X140.36 Y162.57 E189.22405
G1 X140.09 Y161.75 E189.26684
G1 X140.00 Y160.90 E189.30953
G1 X140.09 Y160.05 E189.35227
G1 X140.36 Y159.23 E189.39507
G1 X140.79 Y158.49 E189.43779
G1 X141.36 Y157.85 E189.48046
G1 X142.05 Y157.35 E189.52317
G1 X142.83 Y157.00 E189.56590
G1 X143.67 Y156.83 E189.60869
G1 X144.53 Y156.83 E189.65135
G1 X145.37 Y157.00 E189.69414
G1 X146.15 Y157.35 E189.73682
G1 X146.84 Y157.85 E189.77957
G1 X147.41 Y158.49 E189.82224
G1 X147.84 Y159.23 E189.86496
G1 X148.11 Y160.05 E189.90777
G0 F12000 X148.50 Y159.96
;TYPE:WALL-OUTER
G1 F2700 X148.60 Y160.90 E189.95472
G1 X148.50 Y161.82 E190.00087
G1 X148.50 Y161.84 E190.00167
G1 X148.22 Y162.70 E190.04681
G1 X147.74 Y163.54 E190.09552
G1 X147.12 Y164.23 E190.14177
G1 X147.11 Y164.24 E190.14237
G1 X146.36 Y164.79 E190.18869
G1 X145.50 Y165.17 E190.23563
G1 X145.49 Y165.18 E190.23623
G1 X144.60 Y165.37 E190.28153
G1 X143.64 Y165.37 E190.32943
G1 X142.74 Y165.18 E190.37541
G1 X141.86 Y164.80 E190.42325
G1 X141.10 Y164.25 E190.47012
G1 X140.48 Y163.57 E190.51601
G1 X140.00 Y162.74 E190.56396
G1 X139.70 Y161.85 E190.61081
G1 X139.60 Y160.91 E190.65778
G1 X139.60 Y160.90 E190.65849
G1 X139.70 Y159.96 E190.70530
G1 X139.99 Y159.07 E190.75223
G1 X140.46 Y158.26 E190.79900
G1 X141.09 Y157.56 E190.84602
G1 X141.85 Y157.00 E190.89302
G1 X142.71 Y156.62 E190.93986
G1 X143.63 Y156.43 E190.98688
G1 X144.57 Y156.43 E191.03363
G1 X145.49 Y156.62 E191.08066
G1 X146.35 Y157.00 E191.12745
G1 X147.11 Y157.56 E191.17445
G1 X147.74 Y158.26 E191.22151
G1 X148.21 Y159.07 E191.26827
G1 X148.50 Y159.96 E191.31516
G0 F12000 X147.98 Y160.14
;TYPE:FILL
G1 F2700 X144.88 Y157.04 E191.53349
G0 F12000 X144.24 Y156.97
G1 F2700 X148.04 Y160.77 E191.80203
G0 F12000 X148.01 Y161.31
G1 F2700 X143.67 Y156.97 E192.10817
G0 F12000 X143.21 Y157.07
G1 F2700 X147.94 Y161.80 E192.44228
G0 F12000 X147.81 Y162.23
G1 F2700 X142.76 Y157.19 E192.79802
G0 F12000 X142.37 Y157.36
G1 F2700 X147.64 Y162.63 E193.16964
G0 F12000 X147.43 Y162.99
G1 F2700 X142.00 Y157.56 E193.55275
G0 F12000 X141.68 Y157.80
G1 F2700 X147.21 Y163.33 E193.94300
G0 F12000 X146.94 Y163.62
G1 F2700 X141.37 Y158.05 E194.33610
G0 F12000 X141.10 Y158.35
G1 F2700 X146.65 Y163.91 E194.72785
G0 F12000 X146.32 Y164.14
G1 F2700 X140.85 Y158.66 E195.11443
G0 F12000 X140.64 Y159.02
G1 F2700 X145.98 Y164.37 E195.49137
G0 F12000 X145.59 Y164.54
G1 F2700 X140.45 Y159.40 E195.85402
G0 F12000 X140.31 Y159.83
G1 F2700 X145.17 Y164.69 E196.19714
G0 F12000 X144.71 Y164.79
G1 F2700 X140.21 Y160.29 E196.51456
G0 F12000 X140.15 Y160.80
G1 F2700 X144.18 Y164.83 E196.79862
G0 F12000 X143.60 Y164.81
G1 F2700 X140.20 Y161.41 E197.03865
G0 F12000 X140.37 Y162.15
G1 F2700 X142.87 Y164.65 E197.21525
G0 F12000 X141.60 Y163.94
G1 F2700 X141.09 Y163.43 E197.25102
G0 F12000 X145.72 Y157.31
G1 F2700 X147.72 Y159.32 E197.39280
G0 F12000 X149.04 Y158.70
;TYPE:SUPPORT
G1 F2700 X148.47 Y157.72 E197.44920
G1 X147.71 Y156.88 E197.50555
G1 X146.80 Y156.22 E197.56172
G1 X145.77 Y155.76 E197.61820
G1 X144.66 Y155.53 E197.67457
G1 X143.54 Y155.53 E197.73084
G1 X142.43 Y155.76 E197.78704
G1 X141.40 Y156.22 E197.84377
G1 X140.49 Y156.88 E197.89987
G1 X139.73 Y157.72 E197.95632
G1 X139.16 Y158.70 E198.01254
G1 X138.81 Y159.78 E198.06921
G1 X138.70 Y160.90 E198.12530
G1 X138.71 Y161.01 E198.13113
G1 X138.81 Y162.02 E198.18159
G1 X139.20 Y163.16 E198.24178
G1 X139.21 Y163.18 E198.24298
G1 X139.75 Y164.10 E198.29626
G1 X140.49 Y164.92 E198.35098
G1 X141.40 Y165.58 E198.40695
G1 X141.49 Y165.62 E198.41200
G1 X142.47 Y166.05 E198.46528
G1 X143.54 Y166.27 E198.51985
G1 X143.64 Y166.27 E198.52509
G1 X144.70 Y166.26 E198.57788
G1 X145.78 Y166.04 E198.63271
G1 X146.80 Y165.58 E198.68862
G1 X146.88 Y165.52 E198.69377
G1 X146.88 Y165.52 E198.69382
G1 X147.72 Y164.91 E198.74546
G1 X147.79 Y164.83 E198.75086
G1 X148.47 Y164.08 E198.80148
G1 X148.53 Y163.98 E198.80698
G1 X149.05 Y163.06 E198.85971
G1 X149.38 Y162.03 E198.91408
G1 X149.40 Y161.93 E198.91896
G1 X149.40 Y161.93 E198.91901
G1 X149.50 Y160.90 E198.97072
G1 X149.39 Y159.78 E199.02695
G1 X149.04 Y158.70 E199.08343
G0 F12000 X149.12 Y158.64
G0 X155.61 Y159.77
G1 F2700 X155.50 Y160.91 E199.14031
G1 X155.51 Y161.00 E199.14488
G1 X155.61 Y162.02 E199.19635
G1 X156.00 Y163.16 E199.25633
G1 X156.01 Y163.18 E199.25747
G1 X156.01 Y163.18 E199.25752
G1 X156.56 Y164.11 E199.31104
G1 X157.29 Y164.92 E199.36558
G1 X158.20 Y165.58 E199.42156
G1 X158.29 Y165.62 E199.42656
G1 X159.26 Y166.05 E199.47978
G1 X160.34 Y166.27 E199.53441
G1 X160.44 Y166.27 E199.53960
G1 X161.50 Y166.26 E199.59248
G1 X162.57 Y166.04 E199.64726
G1 X163.60 Y165.58 E199.70323
G1 X163.68 Y165.52 E199.70838
G1 X163.68 Y165.52 E199.70843
G1 X164.52 Y164.91 E199.76011
G1 X164.59 Y164.83 E199.76566
G1 X165.27 Y164.08 E199.81607
G1 X165.32 Y163.98 E199.82156
G1 X165.85 Y163.06 E199.87430
G1 X166.18 Y162.03 E199.92867
G1 X166.20 Y161.91 E199.93450
G1 X166.31 Y160.90 E199.98522
G1 X166.19 Y159.78 E200.04136
G1 X165.84 Y158.70 E200.09804
G1 X165.27 Y157.72 E200.15426
G1 X164.51 Y156.88 E200.21071
G1 X163.60 Y156.22 E200.26681
G1 X162.57 Y155.76 E200.32354
G1 X161.46 Y155.53 E200.37973
G1 X160.34 Y155.53 E200.43601
G1 X159.23 Y155.76 E200.49237
G1 X158.20 Y156.22 E200.54886
G1 X157.29 Y156.88 E200.60503
G1 X156.53 Y157.72 E200.66137
G1 X155.96 Y158.70 E200.71802
G1 X155.61 Y159.77 E200.77409
G1 F2400 E199.57409
G0 F12000 X159.27 Y149.25
G1 F2400 E200.77409
G1 F2700 X160.33 Y149.47 E200.82845
G1 X160.44 Y149.47 E200.83374
G1 X161.50 Y149.47 E200.88667
G1 X162.57 Y149.24 E200.94123
G1 X162.66 Y149.20 E200.94637
G1 X163.60 Y148.78 E200.99747
G1 X163.68 Y148.72 E201.00251
G1 X163.68 Y148.72 E201.00256
G1 X164.52 Y148.11 E201.05431
G1 X164.59 Y148.04 E201.05919
G1 X165.27 Y147.28 E201.11027
G1 X165.85 Y146.26 E201.16844
G1 X166.18 Y145.23 E201.22280
G1 X166.20 Y145.11 E201.22862
G1 X166.31 Y144.10 E201.27930
G1 X166.19 Y142.98 E201.33549
G1 X165.84 Y141.90 E201.39213
G1 X165.27 Y140.92 E201.44855
G1 X164.51 Y140.08 E201.50482
G1 X163.60 Y139.42 E201.56103
G1 X162.57 Y138.96 E201.61752
G1 X161.46 Y138.73 E201.67394
G1 X160.33 Y138.73 E201.73036
G1 X159.23 Y138.96 E201.78643
G1 X158.20 Y139.42 E201.84303
G1 X157.28 Y140.09 E201.89942
G1 X156.53 Y140.92 E201.95541
G1 X155.96 Y141.90 E202.01215
G1 X155.61 Y142.97 E202.06833
G1 X155.50 Y144.11 E202.12521
G1 X155.51 Y144.20 E202.12978
G1 X155.61 Y145.22 E202.18119
G1 X156.00 Y146.36 E202.24118
G1 X156.01 Y146.38 E202.24232
G1 X156.55 Y147.30 E202.29553
G1 X157.29 Y148.12 E202.35039
G1 X158.20 Y148.78 E202.40637
G1 X158.29 Y148.82 E202.41141
G1 X159.27 Y149.25 E202.46476
G0 F12000 X149.15 Y146.28
G0 X149.05 Y146.26
G1 F2700 X149.38 Y145.23 E202.51907
G1 X149.40 Y145.13 E202.52395
G1 X149.40 Y145.13 E202.52400
G1 X149.50 Y144.10 E202.57566
G1 X149.39 Y142.98 E202.63194
G1 X149.04 Y141.90 E202.68842
G1 X148.47 Y140.92 E202.74498
G1 X147.72 Y140.09 E202.80097
G1 X146.80 Y139.42 E202.85736
G1 X145.77 Y138.96 E202.91396
G1 X144.67 Y138.73 E202.97003
G1 X143.54 Y138.73 E203.02645
G1 X142.43 Y138.96 E203.08287
G1 X141.40 Y139.42 E203.13936
G1 X140.49 Y140.08 E203.19557
G1 X139.73 Y140.92 E203.25185
G1 X139.16 Y141.90 E203.30833
G1 X138.81 Y142.98 E203.36489
G1 X138.70 Y144.10 E203.42108
G1 X138.71 Y144.22 E203.42686
G1 X138.81 Y145.22 E203.47727
G1 X139.20 Y146.36 E203.53746
G1 X139.21 Y146.38 E203.53860
G1 X139.21 Y146.38 E203.53865
G1 X139.76 Y147.31 E203.59224
G1 X140.48 Y148.12 E203.64636
G1 X140.57 Y148.18 E203.65197
G1 X141.40 Y148.78 E203.70261
G1 X141.49 Y148.82 E203.70775
G1 X142.47 Y149.25 E203.76115
G1 X143.54 Y149.47 E203.81555
G1 X143.64 Y149.47 E203.82079
G1 X144.70 Y149.47 E203.87372
G1 X145.77 Y149.24 E203.92823
G1 X145.86 Y149.20 E203.93326
G1 X146.80 Y148.78 E203.98443
G1 X146.88 Y148.72 E203.98947
G1 X146.88 Y148.72 E203.98952
G1 X147.72 Y148.11 E204.04120
G1 X147.79 Y148.03 E204.04675
G1 X148.47 Y147.27 E204.09737
G1 X148.53 Y147.18 E204.10271
G1 X149.05 Y146.26 E204.15547
G0 F12000 X149.15 Y146.28
G0 X149.70 Y144.10
G0 X149.22 Y141.82
G0 X147.85 Y139.94
G0 X145.83 Y138.77
G0 X143.52 Y138.53
G0 X141.30 Y139.25
G0 X136.17 Y136.27
G1 F2700 X168.87 Y136.27 E205.78688
G1 X168.87 Y168.87 E207.41330
G1 X136.17 Y168.87 E209.04471
G1 X136.17 Y136.27 E210.67113
G0 F12000 X136.27 Y142.85
G0 X136.11 Y142.85
G1 F2700 X138.92 Y142.85 E210.81128
G0 F12000 X138.77 Y142.80
G0 X139.57 Y140.81
G0 X141.30 Y139.25
G0 X142.82 Y138.78
G0 X142.85 Y138.94
G1 F2700 X142.85 Y136.21 E210.94718
G0 F12000 X142.85 Y136.37
G0 X147.85 Y139.94
G0 X149.22 Y141.82
G0 X149.43 Y142.80
G0 X149.28 Y142.85
G1 F2700 X155.72 Y142.85 E211.26822
G0 F12000 X155.56 Y142.80
G0 X154.28 Y136.37
G0 X154.28 Y136.21
G1 F2700 X154.28 Y168.93 E212.90063
G0 F12000 X154.28 Y168.77
G0 X158.57 Y165.85
G0 X158.63 Y165.71
G1 F2700 X146.37 Y165.71 E213.51253
G0 F12000 X146.43 Y165.85
G0 X144.72 Y166.46
G0 X142.82 Y166.22
G0 X142.85 Y166.07
G1 F2700 X142.85 Y168.93 E213.65542
G0 F12000 X142.85 Y168.77
G0 X141.77 Y165.85
G0 X141.84 Y165.71
G1 F2700 X136.11 Y165.71 E213.94109
G0 F12000 X136.27 Y165.71
G0 X136.27 Y154.28
G0 X136.11 Y154.28
G1 F2700 X168.93 Y154.28 E215.57848
G0 F12000 X168.77 Y154.28
G0 X165.84 Y158.51
G0 X165.71 Y158.59
G1 F2700 X165.71 Y146.39 E216.18709
G0 F12000 X165.84 Y146.47
G0 X166.50 Y144.10
G0 X166.23 Y142.80
G0 X166.08 Y142.85
G1 F2700 X168.93 Y142.85 E216.32933
G0 F12000 X168.77 Y142.85
G0 X165.84 Y141.72
G0 X165.71 Y141.80
G1 F2700 X165.71 Y136.21 E216.60797
G0 F12000 X165.71 Y136.37
G0 X158.10 Y139.25
G0 X156.37 Y140.80
G0 X146.90 Y148.95
G0 X144.72 Y149.66
G0 X142.82 Y149.42
G0 X142.85 Y149.27
G1 F2700 X142.85 Y155.73 E216.93051
G0 F12000 X142.82 Y155.58
G0 X144.68 Y155.33
G0 X146.90 Y156.05
G0 X148.63 Y157.60
G0 X158.21 Y165.80
G0 X160.44 Y166.47
G0 X162.63 Y166.23
G0 X163.23 Y165.85
G0 X163.17 Y165.71
G1 F2700 X168.93 Y165.71 E217.21793
G0 F12000 X168.77 Y165.71
G0 X165.84 Y163.27
G0 X165.71 Y163.19
G1 F2700 X165.71 Y168.93 E217.50415
;LAYER:1
G1 F2400 E216.30415
G0 F12000 X162.95 Y164.45 Z0.60
;TYPE:WALL-INNER
G1 F2400 E217.50415
G1 F3180 X162.20 Y164.78 E217.54491
G1 X162.16 Y164.80 E217.54694
G1 X161.36 Y164.97 E217.58774
G1 X160.47 Y164.97 E217.63220
G1 X159.67 Y164.80 E217.67295
G1 X159.63 Y164.79 E217.67500
G1 X158.89 Y164.47 E217.71554
G1 X158.85 Y164.45 E217.71764
G1 X158.19 Y163.97 E217.75849
G1 X158.16 Y163.94 E217.76039
G1 X157.61 Y163.34 E217.80115
G1 X157.59 Y163.31 E217.80306
G1 X157.18 Y162.60 E217.84394
G1 X157.16 Y162.57 E217.84584
G1 X156.90 Y161.79 E217.88674
G1 X156.81 Y160.94 E217.92936
G1 X156.80 Y160.90 E217.93142
G1 X156.89 Y160.05 E217.97400
G1 X157.16 Y159.23 E218.01681
G1 X157.59 Y158.49 E218.05952
G1 X158.16 Y157.85 E218.10220
G1 X158.85 Y157.35 E218.14495
G1 X159.63 Y157.00 E218.18763
G1 X160.47 Y156.83 E218.23042
G1 X161.33 Y156.83 E218.27308
G1 X162.17 Y157.00 E218.31587
G1 X162.95 Y157.35 E218.35860
G1 X163.64 Y157.85 E218.40131
G1 X164.21 Y158.49 E218.44398
G1 X164.64 Y159.23 E218.48670
G1 X164.91 Y160.05 E218.52950
G1 X165.00 Y160.90 E218.57219
G1 X164.91 Y161.71 E218.61287
G1 X164.91 Y161.75 E218.61503
G1 X164.66 Y162.53 E218.65561
G1 X164.64 Y162.57 E218.65766
G1 X164.23 Y163.27 E218.69851
G1 X164.21 Y163.31 E218.70063
G1 X163.67 Y163.91 E218.74122
G1 X163.64 Y163.95 E218.74327
G1 X162.98 Y164.42 E218.78384
G1 X162.95 Y164.45 E218.78592
G0 F12000 X163.15 Y164.80
;TYPE:WALL-OUTER
G1 F3180 X162.36 Y165.14 E218.82876
G1 X162.29 Y165.18 E218.83266
G1 X161.45 Y165.36 E218.87572
G1 X161.37 Y165.37 E218.87970
G1 X160.43 Y165.37 E218.92655
G1 X159.59 Y165.19 E218.96945
G1 X159.51 Y165.18 E218.97337
G1 X158.72 Y164.83 E219.01643
G1 X158.65 Y164.80 E219.02025
G1 X157.89 Y164.24 E219.06739
G1 X157.26 Y163.54 E219.11441
G1 X156.83 Y162.80 E219.15715
G1 X156.79 Y162.73 E219.16133
G1 X156.52 Y161.91 E219.20416
G1 X156.50 Y161.83 E219.20820
G1 X156.40 Y160.90 E219.25511
G1 X156.50 Y159.96 E219.30206
G1 X156.79 Y159.07 E219.34895
G1 X157.26 Y158.26 E219.39571
G1 X157.89 Y157.56 E219.44277
G1 X158.65 Y157.00 E219.48977
G1 X159.51 Y156.62 E219.53656
G1 X160.43 Y156.43 E219.58359
G1 X161.37 Y156.43 E219.63033
G1 X162.29 Y156.62 E219.67736
G1 X163.15 Y157.00 E219.72420
G1 X163.91 Y157.56 E219.77120
G1 X164.54 Y158.26 E219.81822
G1 X165.01 Y159.07 E219.86498
G1 X165.30 Y159.96 E219.91192
G1 X165.40 Y160.90 E219.95883
G1 X165.30 Y161.84 E220.00589
G1 X165.04 Y162.65 E220.04861
G1 X165.01 Y162.73 E220.05278
G1 X164.58 Y163.47 E220.09563
G1 X164.54 Y163.54 E220.09965
G1 X163.91 Y164.24 E220.14653
G1 X163.15 Y164.80 E220.19353
G0 F12000 X163.05 Y164.20
;TYPE:FILL
G1 F3180 X164.20 Y163.05 E220.27509
G0 F12000 X164.68 Y162.00
G1 F3180 X162.00 Y164.69 E220.46429
G0 F12000 X161.29 Y164.82
G1 F3180 X164.81 Y161.31 E220.71261
G0 F12000 X164.84 Y160.72
G1 F3180 X160.72 Y164.83 E221.00294
G0 F12000 X160.21 Y164.77
G1 F3180 X164.78 Y160.20 E221.32538
G0 F12000 X164.66 Y159.76
G1 F3180 X159.74 Y164.68 E221.67255
G0 F12000 X159.34 Y164.51
G1 F3180 X164.52 Y159.33 E222.03824
G0 F12000 X164.32 Y158.97
G1 F3180 X158.95 Y164.34 E222.41740
G0 F12000 X158.62 Y164.10
G1 F3180 X164.12 Y158.61 E222.80535
G0 F12000 X163.85 Y158.30
G1 F3180 X158.29 Y163.87 E223.19792
G0 F12000 X158.02 Y163.57
G1 F3180 X163.59 Y158.01 E223.59081
G0 F12000 X163.27 Y157.76
G1 F3180 X157.75 Y163.28 E223.98021
G0 F12000 X157.53 Y162.93
G1 F3180 X162.94 Y157.52 E224.36202
G0 F12000 X162.56 Y157.33
G1 F3180 X157.32 Y162.57 E224.73169
G0 F12000 X157.17 Y162.16
G1 F3180 X162.17 Y157.16 E225.08433
G0 F12000 X161.71 Y157.05
G1 F3180 X157.04 Y161.72 E225.41407
G0 F12000 X156.98 Y161.22
G1 F3180 X161.23 Y156.97 E225.71400
G0 F12000 X160.67 Y156.97
G1 F3180 X156.97 Y160.66 E225.97484
G0 F12000 X157.05 Y160.02
G1 F3180 X160.00 Y157.07 E226.18277
G0 F12000 X159.11 Y157.39
G1 F3180 X157.39 Y159.11 E226.30455
G1 F2400 E225.10455
G0 F12000 X148.11 Y160.05
;TYPE:WALL-INNER
G1 F2400 E226.30455
G1 F3180 X148.20 Y160.90 E226.34724
G1 X148.11 Y161.71 E226.38792
G1 X148.11 Y161.75 E226.39008
G1 X147.86 Y162.53 E226.43066
G1 X147.84 Y162.57 E226.43271
G1 X147.43 Y163.27 E226.47355
G1 X147.41 Y163.31 E226.47552
G1 X146.87 Y163.91 E226.51625
G1 X146.18 Y164.42 E226.55887
G1 X146.15 Y164.45 E226.56094
G1 X145.40 Y164.78 E226.60171
G1 X145.36 Y164.80 E226.60374
G1 X144.56 Y164.97 E226.64444
G1 X143.67 Y164.97 E226.68890
G1 X142.87 Y164.80 E226.72975
G1 X142.83 Y164.79 E226.73179
G1 X142.09 Y164.47 E226.77233
G1 X142.05 Y164.45 E226.77443
G1 X141.39 Y163.97 E226.81529
G1 X141.36 Y163.94 E226.81732
G1 X140.81 Y163.34 E226.85788
G1 X140.38 Y162.60 E226.90067
G1 X140.36 Y162.57 E226.90257
G1 X140.10 Y161.79 E226.94346
G1 X140.09 Y161.75 E226.94529
G1 X140.01 Y160.94 E226.98618
G1 X140.00 Y160.90 E226.98813
G1 X140.09 Y160.05 E227.03077
G1 X140.36 Y159.23 E227.07358
G1 X140.79 Y158.49 E227.11629
G1 X141.36 Y157.85 E227.15897
G1 X142.05 Y157.35 E227.20168
G1 X142.83 Y157.00 E227.24441
G1 X143.67 Y156.83 E227.28720
G1 X144.53 Y156.83 E227.32985
G1 X145.37 Y157.00 E227.37264
G1 X146.15 Y157.35 E227.41532
G1 X146.84 Y157.85 E227.45807
G1 X147.41 Y158.49 E227.50075
G1 X147.84 Y159.23 E227.54347
G1 X148.11 Y160.05 E227.58627
G0 F12000 X148.50 Y159.96
;TYPE:WALL-OUTER
G1 F3180 X148.60 Y160.90 E227.63322
G1 X148.50 Y161.84 E227.68027
G1 X148.24 Y162.65 E227.72300
G1 X148.21 Y162.73 E227.72717
G1 X147.78 Y163.47 E227.77002
G1 X147.74 Y163.54 E227.77404
G1 X147.11 Y164.24 E227.82095
G1 X146.35 Y164.80 E227.86795
G1 X145.56 Y165.14 E227.91079
G1 X145.49 Y165.18 E227.91470
G1 X144.65 Y165.36 E227.95766
G1 X144.57 Y165.37 E227.96164
G1 X143.63 Y165.37 E228.00849
G1 X142.79 Y165.19 E228.05148
G1 X142.71 Y165.18 E228.05540
G1 X141.92 Y164.83 E228.09847
G1 X141.85 Y164.80 E228.10229
G1 X141.09 Y164.24 E228.14943
G1 X140.46 Y163.54 E228.19641
G1 X140.03 Y162.80 E228.23915
G1 X139.99 Y162.73 E228.24333
G1 X139.72 Y161.91 E228.28617
G1 X139.70 Y161.83 E228.29021
G1 X139.60 Y160.90 E228.33711
G1 X139.70 Y159.96 E228.38402
G1 X139.99 Y159.07 E228.43096
G1 X140.46 Y158.26 E228.47772
G1 X141.09 Y157.56 E228.52474
G1 X141.85 Y157.00 E228.57175
G1 X142.71 Y156.62 E228.61858
G1 X143.63 Y156.43 E228.66561
G1 X144.57 Y156.43 E228.71236
G1 X145.49 Y156.62 E228.75938
G1 X146.35 Y157.00 E228.80617
G1 X147.11 Y157.56 E228.85318
G1 X147.74 Y158.26 E228.90023
G1 X148.21 Y159.07 E228.94699
G1 X148.50 Y159.96 E228.99388
G0 F12000 X147.96 Y160.05
;TYPE:FILL
G1 F3180 X143.27 Y164.75 E229.32493
G0 F12000 X142.81 Y164.63
G1 F3180 X147.82 Y159.63 E229.67827
G0 F12000 X147.67 Y159.21
G1 F3180 X142.42 Y164.46 E230.04844
G0 F12000 X142.05 Y164.27
G1 F3180 X147.46 Y158.85 E230.43050
G0 F12000 X147.24 Y158.51
G1 F3180 X141.72 Y164.03 E230.82011
G0 F12000 X141.40 Y163.78
G1 F3180 X146.97 Y158.21 E231.21306
G0 F12000 X146.70 Y157.92
G1 F3180 X141.13 Y163.49 E231.60553
G0 F12000 X140.88 Y163.18
G1 F3180 X146.37 Y157.69 E231.99288
G0 F12000 X146.03 Y157.45
G1 F3180 X140.67 Y162.82 E232.37148
G0 F12000 X140.47 Y162.46
G1 F3180 X145.64 Y157.28 E232.73667
G0 F12000 X145.24 Y157.12
G1 F3180 X140.33 Y162.03 E233.08303
G0 F12000 X140.22 Y161.58
G1 F3180 X144.77 Y157.02 E233.40448
G0 F12000 X144.26 Y156.96
G1 F3180 X140.16 Y161.06 E233.69376
G0 F12000 X140.19 Y160.47
G1 F3180 X143.70 Y156.96 E233.94116
G0 F12000 X142.98 Y157.12
G1 F3180 X140.33 Y159.76 E234.12792
G0 F12000 X140.82 Y158.71
G1 F3180 X141.88 Y157.65 E234.20281
G0 F12000 X148.02 Y160.56
G1 F3180 X143.75 Y164.83 E234.50430
G0 F12000 X144.32 Y164.83
G1 F3180 X148.03 Y161.11 E234.76630
G0 F12000 X147.96 Y161.75
G1 F3180 X144.98 Y164.73 E234.97659
G0 F12000 X145.85 Y164.42
G1 F3180 X147.64 Y162.64 E235.10254
G1 F2400 E233.90254
G0 F12000 X144.53 Y148.17
;TYPE:WALL-INNER
G1 F2400 E235.10254
G1 F3180 X143.67 Y148.17 E235.14509
G1 X142.87 Y148.00 E235.18589
G1 X142.83 Y148.00 E235.18788
G1 X142.09 Y147.67 E235.22842
G1 X142.05 Y147.65 E235.23052
G1 X141.39 Y147.17 E235.27137
G1 X141.36 Y147.14 E235.27341
G1 X140.81 Y146.54 E235.31400
G1 X140.36 Y145.77 E235.35869
G1 X140.10 Y144.99 E235.39954
G1 X140.09 Y144.95 E235.40137
G1 X140.01 Y144.14 E235.44225
G1 X140.00 Y144.10 E235.44411
G1 X140.09 Y143.25 E235.48685
G1 X140.36 Y142.43 E235.52970
G1 X140.79 Y141.69 E235.57242
G1 X141.36 Y141.06 E235.61502
G1 X142.05 Y140.55 E235.65777
G1 X142.83 Y140.21 E235.70045
G1 X143.67 Y140.03 E235.74335
G1 X144.53 Y140.03 E235.78596
G1 X145.37 Y140.21 E235.82876
G1 X146.15 Y140.55 E235.87144
G1 X146.84 Y141.06 E235.91404
G1 X147.41 Y141.69 E235.95696
G1 X147.84 Y142.43 E235.99952
G1 X148.11 Y143.25 E236.04237
G1 X148.20 Y144.10 E236.08511
G1 X148.11 Y144.91 E236.12589
G1 X148.11 Y144.95 E236.12765
G1 X147.86 Y145.73 E236.16849
G1 X147.84 Y145.77 E236.17055
G1 X147.41 Y146.51 E236.21318
G1 X146.87 Y147.12 E236.25409
G1 X146.18 Y147.62 E236.29670
G1 X146.15 Y147.65 E236.29878
G1 X145.40 Y147.98 E236.33954
G1 X145.36 Y148.00 E236.34157
G1 X144.56 Y148.16 E236.38226
G1 X144.53 Y148.17 E236.38430
G0 F12000 X144.65 Y148.56
;TYPE:WALL-OUTER
G1 F3180 X144.57 Y148.57 E236.38835
G1 X143.63 Y148.57 E236.43519
G1 X142.79 Y148.40 E236.47818
G1 X142.71 Y148.38 E236.48205
G1 X141.92 Y148.03 E236.52512
G1 X141.85 Y148.00 E236.52893
G1 X141.09 Y147.44 E236.57608
G1 X140.46 Y146.74 E236.62310
G1 X139.99 Y145.93 E236.66993
G1 X139.72 Y145.11 E236.71281
G1 X139.70 Y145.03 E236.71685
G1 X139.60 Y144.10 E236.76371
G1 X139.70 Y143.16 E236.81067
G1 X139.99 Y142.27 E236.85761
G1 X140.46 Y141.46 E236.90441
G1 X141.09 Y140.76 E236.95140
G1 X141.85 Y140.20 E236.99840
G1 X142.71 Y139.82 E237.04519
G1 X143.63 Y139.63 E237.09232
G1 X144.57 Y139.63 E237.13902
G1 X145.49 Y139.82 E237.18606
G1 X146.35 Y140.20 E237.23285
G1 X147.11 Y140.76 E237.27985
G1 X147.74 Y141.46 E237.32687
G1 X148.21 Y142.27 E237.37368
G1 X148.50 Y143.16 E237.42057
G1 X148.60 Y144.10 E237.46757
G1 X148.50 Y145.04 E237.51457
G1 X148.24 Y145.85 E237.55730
G1 X148.21 Y145.93 E237.56146
G1 X147.74 Y146.74 E237.60818
G1 X147.11 Y147.44 E237.65524
G1 X146.35 Y148.00 E237.70224
G1 X145.56 Y148.34 E237.74508
G1 X145.49 Y148.38 E237.74903
G1 X144.65 Y148.56 E237.79192
G0 F12000 X144.76 Y147.98
;TYPE:FILL
G1 F3180 X147.99 Y144.75 E238.01946
G0 F12000 X148.05 Y144.12
G1 F3180 X144.14 Y148.03 E238.29529
G0 F12000 X143.60 Y148.01
G1 F3180 X148.00 Y143.61 E238.60623
G0 F12000 X147.92 Y143.12
G1 F3180 X143.13 Y147.91 E238.94419
G0 F12000 X142.70 Y147.78
G1 F3180 X147.78 Y142.70 E239.30286
G0 F12000 X147.61 Y142.31
G1 F3180 X142.30 Y147.61 E239.67702
G0 F12000 X141.95 Y147.40
G1 F3180 X147.40 Y141.95 E240.06161
G0 F12000 X147.16 Y141.62
G1 F3180 X141.62 Y147.16 E240.45238
G0 F12000 X141.32 Y146.89
G1 F3180 X146.89 Y141.32 E240.84520
G0 F12000 X146.60 Y141.05
G1 F3180 X141.06 Y146.59 E241.23629
G0 F12000 X140.82 Y146.27
G1 F3180 X146.27 Y140.81 E241.62110
G0 F12000 X145.92 Y140.60
G1 F3180 X140.61 Y145.91 E241.99578
G0 F12000 X140.43 Y145.53
G1 F3180 X145.53 Y140.43 E242.35548
G0 F12000 X145.10 Y140.29
G1 F3180 X140.29 Y145.10 E242.69467
G0 F12000 X140.20 Y144.62
G1 F3180 X144.63 Y140.19 E243.00723
G0 F12000 X144.09 Y140.17
G1 F3180 X140.15 Y144.11 E243.28550
G0 F12000 X140.21 Y143.48
G1 F3180 X143.48 Y140.21 E243.51625
G0 F12000 X142.71 Y140.41
G1 F3180 X140.41 Y142.71 E243.67850
G0 F12000 X145.54 Y147.76
G1 F3180 X147.77 Y145.54 E243.83545
G1 F2400 E242.63545
G0 F12000 X156.89 Y144.95
;TYPE:WALL-INNER
G1 F2400 E243.83545
G1 F3180 X156.81 Y144.14 E243.87628
G1 X156.80 Y144.10 E243.87818
G1 X156.89 Y143.25 E243.92087
G1 X157.16 Y142.43 E243.96372
G1 X157.59 Y141.69 E244.00628
G1 X158.16 Y141.06 E244.04920
G1 X158.85 Y140.55 E244.09180
G1 X159.63 Y140.21 E244.13448
G1 X160.47 Y140.03 E244.17728
G1 X161.33 Y140.03 E244.21989
G1 X162.17 Y140.21 E244.26279
G1 X162.95 Y140.55 E244.30547
G1 X163.64 Y141.06 E244.34822
G1 X164.21 Y141.69 E244.39082
G1 X164.64 Y142.43 E244.43354
G1 X164.91 Y143.25 E244.47639
G1 X165.00 Y144.10 E244.51913
G1 X164.91 Y144.91 E244.55986
G1 X164.91 Y144.95 E244.56166
G1 X164.66 Y145.73 E244.60251
G1 X164.64 Y145.77 E244.60456
G1 X164.21 Y146.51 E244.64735
G1 X163.67 Y147.12 E244.68811
G1 X163.64 Y147.15 E244.69016
G1 X162.98 Y147.62 E244.73074
G1 X162.95 Y147.65 E244.73282
G1 X162.20 Y147.98 E244.77358
G1 X162.16 Y148.00 E244.77561
G1 X161.36 Y148.16 E244.81634
G1 X161.32 Y148.17 E244.81839
G1 X160.47 Y148.17 E244.86095
G1 X159.67 Y148.00 E244.90169
G1 X159.63 Y148.00 E244.90369
G1 X158.89 Y147.67 E244.94423
G1 X158.85 Y147.65 E244.94633
G1 X158.19 Y147.17 E244.98718
G1 X158.16 Y147.15 E244.98904
G1 X157.61 Y146.54 E245.02987
G1 X157.59 Y146.51 E245.03178
G1 X157.16 Y145.77 E245.07456
G1 X156.90 Y144.99 E245.11541
G1 X156.89 Y144.95 E245.11729
G0 F12000 X156.52 Y145.11
;TYPE:WALL-OUTER
G1 F3180 X156.50 Y145.03 E245.12133
G1 X156.40 Y144.10 E245.16818
G1 X156.50 Y143.16 E245.21518
G1 X156.79 Y142.27 E245.26207
G1 X157.26 Y141.46 E245.30888
G1 X157.89 Y140.76 E245.35590
G1 X158.65 Y140.20 E245.40290
G1 X159.51 Y139.82 E245.44969
G1 X160.43 Y139.63 E245.49673
G1 X161.37 Y139.63 E245.54342
G1 X162.29 Y139.82 E245.59056
G1 X163.15 Y140.20 E245.63735
G1 X163.91 Y140.76 E245.68435
G1 X164.54 Y141.46 E245.73134
G1 X165.01 Y142.27 E245.77814
G1 X165.30 Y143.16 E245.82508
G1 X165.40 Y144.10 E245.87204
G1 X165.30 Y145.04 E245.91905
G1 X165.04 Y145.85 E245.96177
G1 X165.01 Y145.93 E245.96594
G1 X164.54 Y146.74 E246.01266
G1 X163.91 Y147.44 E246.05968
G1 X163.15 Y148.00 E246.10668
G1 X162.36 Y148.34 E246.14952
G1 X162.29 Y148.38 E246.15347
G1 X161.45 Y148.56 E246.19646
G1 X161.37 Y148.57 E246.20050
G1 X160.43 Y148.57 E246.24735
G1 X159.59 Y148.40 E246.29023
G1 X159.51 Y148.38 E246.29411
G1 X158.72 Y148.03 E246.33717
G1 X158.65 Y148.00 E246.34099
G1 X157.89 Y147.44 E246.38813
G1 X157.26 Y146.74 E246.43519
G1 X156.79 Y145.93 E246.48202
G1 X156.52 Y145.11 E246.52490
G0 F12000 X157.01 Y144.78
;TYPE:FILL
G1 F3180 X161.57 Y140.22 E246.84639
G0 F12000 X162.04 Y140.32
G1 F3180 X157.13 Y145.23 E247.19267
G0 F12000 X157.27 Y145.66
G1 F3180 X162.44 Y140.48 E247.55780
G0 F12000 X162.83 Y140.66
G1 F3180 X157.47 Y146.02 E247.93654
G0 F12000 X157.67 Y146.38
G1 F3180 X163.17 Y140.89 E248.32431
G0 F12000 X163.50 Y141.12
G1 F3180 X157.94 Y146.69 E248.71674
G0 F12000 X158.20 Y146.98
G1 F3180 X163.77 Y141.41 E249.10970
G0 F12000 X164.04 Y141.71
G1 F3180 X158.52 Y147.23 E249.49927
G0 F12000 X158.85 Y147.47
G1 F3180 X164.26 Y142.06 E249.88133
G0 F12000 X164.47 Y142.41
G1 F3180 X159.22 Y147.66 E250.25153
G0 F12000 X159.62 Y147.83
G1 F3180 X164.62 Y142.83 E250.60480
G0 F12000 X164.76 Y143.25
G1 F3180 X160.07 Y147.94 E250.93578
G0 F12000 X160.55 Y148.03
G1 F3180 X164.82 Y143.76 E251.23716
G0 F12000 X164.83 Y144.31
G1 F3180 X161.11 Y148.03 E251.49962
G0 F12000 X161.78 Y147.94
G1 F3180 X164.76 Y144.96 E251.70988
G0 F12000 X164.44 Y145.84
G1 F3180 X162.65 Y147.63 E251.83607
G0 F12000 X156.96 Y144.27
G1 F3180 X161.06 Y140.17 E252.12534
G0 F12000 X160.50 Y140.17
G1 F3180 X156.99 Y143.67 E252.37278
G0 F12000 X157.13 Y142.97
G1 F3180 X159.78 Y140.32 E252.55961
G0 F12000 X158.68 Y140.85
G1 F3180 X157.62 Y141.91 E252.63419
G0 F12000 X156.53 Y140.92
;TYPE:SUPPORT
G1 F3180 X155.96 Y141.90 E252.69074
G1 X155.61 Y142.98 E252.74722
G1 X155.50 Y144.10 E252.80371
G1 X155.51 Y144.27 E252.81204
G1 X155.61 Y145.22 E252.85984
G1 X155.67 Y145.39 E252.86841
G1 X155.96 Y146.30 E252.91632
G1 X156.53 Y147.28 E252.97261
G1 X156.64 Y147.41 E252.98127
G1 X157.29 Y148.12 E253.02913
G1 X157.42 Y148.22 E253.03761
G1 X158.20 Y148.78 E253.08525
G1 X158.35 Y148.85 E253.09380
G1 X159.23 Y149.24 E253.14148
G1 X159.41 Y149.28 E253.15064
G1 X160.33 Y149.47 E253.19801
G1 X161.47 Y149.47 E253.25449
G1 X161.63 Y149.44 E253.26287
G1 X162.57 Y149.24 E253.31101
G1 X163.60 Y148.78 E253.36713
G1 X163.74 Y148.68 E253.37571
G1 X164.52 Y148.11 E253.42367
G1 X164.63 Y147.99 E253.43229
G1 X165.27 Y147.28 E253.47977
G1 X165.84 Y146.30 E253.53614
G1 X165.89 Y146.13 E253.54486
G1 X165.89 Y146.13 E253.54491
G1 X166.19 Y145.22 E253.59275
G1 X166.20 Y145.05 E253.60138
G1 X166.31 Y144.10 E253.64899
G1 X166.19 Y142.98 E253.70518
G1 X165.84 Y141.90 E253.76182
G1 X165.27 Y140.92 E253.81824
G1 X164.51 Y140.08 E253.87452
G1 X163.60 Y139.42 E253.93073
G1 X162.57 Y138.96 E253.98721
G1 X161.46 Y138.73 E254.04363
G1 X160.33 Y138.73 E254.10006
G1 X159.23 Y138.96 E254.15613
G1 X158.20 Y139.42 E254.21273
G1 X157.28 Y140.09 E254.26912
G1 X156.53 Y140.92 E254.32511
G0 F12000 X149.48 Y142.94
G0 X149.39 Y142.98
G1 F3180 X149.04 Y141.90 E254.38186
G1 X148.47 Y140.92 E254.43841
G1 X147.72 Y140.09 E254.49441
G1 X146.80 Y139.42 E254.55080
G1 X145.77 Y138.96 E254.60740
G1 X144.67 Y138.73 E254.66347
G1 X143.54 Y138.73 E254.71989
G1 X142.43 Y138.96 E254.77631
G1 X141.40 Y139.42 E254.83280
G1 X140.49 Y140.08 E254.88901
G1 X139.73 Y140.92 E254.94528
G1 X139.16 Y141.90 E255.00177
G1 X138.81 Y142.98 E255.05828
G1 X138.70 Y144.09 E255.11407
G1 X138.82 Y145.23 E255.17101
G1 X138.87 Y145.39 E255.17936
G1 X139.16 Y146.30 E255.22727
G1 X139.73 Y147.28 E255.28365
G1 X139.85 Y147.41 E255.29233
G1 X140.48 Y148.12 E255.33978
G1 X140.63 Y148.22 E255.34886
G1 X141.40 Y148.78 E255.39626
G1 X141.55 Y148.85 E255.40474
G1 X142.43 Y149.24 E255.45243
G1 X142.60 Y149.28 E255.46158
G1 X143.54 Y149.47 E255.50910
G1 X144.67 Y149.47 E255.56558
G1 X144.83 Y149.44 E255.57396
G1 X145.77 Y149.24 E255.62190
G1 X145.93 Y149.17 E255.63059
G1 X146.80 Y148.78 E255.67809
G1 X146.94 Y148.68 E255.68664
G1 X147.72 Y148.11 E255.73456
G1 X148.47 Y147.28 E255.79058
G1 X149.04 Y146.30 E255.84709
G1 X149.09 Y146.13 E255.85582
G1 X149.09 Y146.13 E255.85587
G1 X149.39 Y145.22 E255.90370
G1 X149.41 Y145.05 E255.91238
G1 X149.50 Y144.10 E255.95994
G1 X149.39 Y142.98 E256.01602
G0 F12000 X149.48 Y142.94
G0 X149.58 Y145.26
G0 X148.63 Y147.40
G0 X145.78 Y155.66
G0 X145.77 Y155.76
G1 F3180 X144.66 Y155.53 E256.07238
G1 X143.54 Y155.53 E256.12866
G1 X142.43 Y155.76 E256.18485
G1 X141.40 Y156.22 E256.24158
G1 X140.49 Y156.88 E256.29768
G1 X139.73 Y157.72 E256.35414
G1 X139.16 Y158.70 E256.41036
G1 X138.81 Y159.78 E256.46698
G1 X138.70 Y160.90 E256.52307
G1 X138.72 Y161.07 E256.53181
G1 X138.81 Y162.02 E256.57941
G1 X138.87 Y162.18 E256.58802
G1 X139.16 Y163.10 E256.63592
G1 X139.25 Y163.25 E256.64469
G1 X139.73 Y164.08 E256.69232
G1 X139.84 Y164.21 E256.70098
G1 X140.49 Y164.92 E256.74878
G1 X140.62 Y165.02 E256.75725
G1 X141.40 Y165.58 E256.80489
G1 X141.55 Y165.65 E256.81344
G1 X142.43 Y166.04 E256.86113
G1 X142.60 Y166.08 E256.87028
G1 X143.54 Y166.27 E256.91781
G1 X144.67 Y166.27 E256.97429
G1 X144.84 Y166.24 E256.98281
G1 X145.77 Y166.04 E257.03067
G1 X145.93 Y165.97 E257.03931
G1 X146.80 Y165.58 E257.08682
G1 X146.94 Y165.48 E257.09536
G1 X147.72 Y164.91 E257.14321
G1 X147.83 Y164.78 E257.15187
G1 X148.47 Y164.08 E257.19938
G1 X148.49 Y164.04 E257.20141
G1 X149.04 Y163.10 E257.25589
G1 X149.09 Y162.93 E257.26455
G1 X149.09 Y162.93 E257.26460
G1 X149.39 Y162.02 E257.31248
G1 X149.41 Y161.85 E257.32111
G1 X149.50 Y160.90 E257.36872
G1 X149.39 Y159.78 E257.42480
G1 X149.04 Y158.70 E257.48150
G1 X148.47 Y157.72 E257.53790
G1 X147.71 Y156.88 E257.59425
G1 X146.80 Y156.22 E257.65042
G1 X145.77 Y155.76 E257.70690
G0 F12000 X145.78 Y155.66
G0 X155.96 Y158.70
G1 F3180 X155.61 Y159.78 E257.76361
G1 X155.50 Y160.90 E257.81968
G1 X155.51 Y161.07 E257.82826
G1 X155.61 Y162.02 E257.87592
G1 X155.67 Y162.18 E257.88453
G1 X155.96 Y163.10 E257.93243
G1 X156.05 Y163.25 E257.94119
G1 X156.53 Y164.08 E257.98887
G1 X156.64 Y164.21 E257.99746
G1 X157.28 Y164.92 E258.04525
G1 X157.42 Y165.02 E258.05379
G1 X158.20 Y165.58 E258.10143
G1 X158.35 Y165.65 E258.10998
G1 X159.23 Y166.04 E258.15767
G1 X159.41 Y166.08 E258.16682
G1 X160.34 Y166.27 E258.21431
G1 X161.47 Y166.27 E258.27078
G1 X161.63 Y166.24 E258.27916
G1 X162.57 Y166.04 E258.32722
G1 X162.73 Y165.97 E258.33586
G1 X163.60 Y165.58 E258.38336
G1 X163.74 Y165.48 E258.39191
G1 X164.52 Y164.91 E258.43987
G1 X165.27 Y164.08 E258.49579
G1 X165.84 Y163.10 E258.55234
G1 X165.89 Y162.93 E258.56106
G1 X165.89 Y162.93 E258.56111
G1 X166.19 Y162.02 E258.60895
G1 X166.20 Y161.85 E258.61763
G1 X166.31 Y160.90 E258.66519
G1 X166.19 Y159.78 E258.72139
G1 X165.84 Y158.70 E258.77806
G1 X165.27 Y157.72 E258.83428
G1 X164.51 Y156.88 E258.89073
G1 X163.60 Y156.22 E258.94684
G1 X162.57 Y155.76 E259.00356
G1 X161.46 Y155.53 E259.05976
G1 X160.34 Y155.53 E259.11604
G1 X159.23 Y155.76 E259.17240
G1 X158.20 Y156.22 E259.22888
G1 X157.29 Y156.88 E259.28506
G1 X156.53 Y157.72 E259.34140
G1 X155.96 Y158.70 E259.39780
G1 F2400 E258.19780
G0 F12000 X168.87 Y168.87
G1 F2400 E259.39780
G1 F3180 X136.17 Y168.87 E261.02921
G1 X136.17 Y136.27 E262.65563
G1 X168.87 Y136.27 E264.28704
G1 X168.87 Y168.87 E265.91346
G0 F12000 X168.77 Y168.86
G0 X165.71 Y168.77
G0 X165.71 Y168.93
G1 F3180 X165.71 Y163.20 E266.19923
G0 F12000 X165.84 Y163.28
G0 X164.65 Y165.06
G0 X163.23 Y165.85
G0 X163.17 Y165.71
G1 F3180 X168.93 Y165.71 E266.48675
G0 F12000 X168.77 Y165.71
G0 X165.84 Y158.51
G0 X165.71 Y158.59
G1 F3180 X165.71 Y146.40 E267.09496
G0 F12000 X165.84 Y146.48
G0 X166.50 Y144.10
G0 X166.23 Y142.80
G0 X166.08 Y142.85
G1 F3180 X168.93 Y142.85 E267.23720
G0 F12000 X168.77 Y142.85
G0 X165.84 Y141.72
G0 X165.71 Y141.80
G1 F3180 X165.71 Y136.21 E267.51583
G0 F12000 X165.71 Y136.37
G0 X154.28 Y136.37
G0 X154.28 Y136.21
G1 F3180 X154.28 Y168.93 E269.14824
G0 F12000 X154.28 Y168.77
G0 X158.57 Y165.85
G0 X158.63 Y165.71
G1 F3180 X146.37 Y165.71 E269.76014
G0 F12000 X146.43 Y165.85
G0 X144.69 Y166.47
G0 X142.82 Y166.22
G0 X142.85 Y166.06
G1 F3180 X142.85 Y168.93 E269.90313
G0 F12000 X142.85 Y168.77
G0 X141.77 Y165.85
G0 X141.83 Y165.71
G1 F3180 X136.11 Y165.71 E270.18860
G0 F12000 X136.27 Y165.71
G0 X136.27 Y154.28
G0 X136.11 Y154.28
G1 F3180 X168.93 Y154.28 E271.82600
G0 F12000 X168.77 Y154.28
G0 X157.15 Y148.27
G0 X155.78 Y146.38
G0 X155.30 Y144.10
G0 X155.57 Y142.80
G0 X155.72 Y142.85
G1 F3180 X149.28 Y142.85 E272.14714
G0 F12000 X149.43 Y142.80
G0 X148.63 Y140.80
G0 X146.90 Y139.25
G0 X144.69 Y138.53
G0 X142.82 Y138.78
G0 X142.85 Y138.94
G1 F3180 X142.85 Y136.21 E272.28304
G0 F12000 X142.85 Y136.37
G0 X138.98 Y141.82
G0 X138.77 Y142.80
G0 X138.92 Y142.85
G1 F3180 X136.11 Y142.85 E272.42313
G0 F12000 X136.27 Y142.85
G0 X140.51 Y148.38
G0 X142.82 Y149.42
G0 X142.85 Y149.27
G1 F3180 X142.85 Y155.73 E272.74577
;LAYER:2
G0 F12000 X142.83 Y157.00 Z0.90
;TYPE:WALL-INNER
G1 F3720 X143.67 Y156.83 E272.78856
G1 X144.53 Y156.83 E272.83122
G1 X145.37 Y157.00 E272.87401
G1 X146.15 Y157.35 E272.91669
G1 X146.84 Y157.85 E272.95944
G1 X147.41 Y158.49 E273.00212
G1 X147.84 Y159.23 E273.04483
G1 X148.11 Y160.05 E273.08764
G1 X148.20 Y160.90 E273.13033
G1 X148.12 Y161.64 E273.16765
G1 X148.11 Y161.75 E273.17317
G1 X147.88 Y162.46 E273.21039
G1 X147.84 Y162.56 E273.21573
G1 X147.41 Y163.31 E273.25848
G1 X146.91 Y163.86 E273.29585
G1 X146.84 Y163.94 E273.30136
G1 X146.24 Y164.38 E273.33862
G1 X146.15 Y164.45 E273.34404
G1 X145.37 Y164.79 E273.38668
G1 X144.63 Y164.95 E273.42417
G1 X144.53 Y164.97 E273.42948
G1 X143.67 Y164.97 E273.47209
G1 X142.94 Y164.82 E273.50957
G1 X142.84 Y164.80 E273.51483
G1 X142.05 Y164.45 E273.55762
G1 X141.45 Y164.01 E273.59504
G1 X141.36 Y163.94 E273.60051
G1 X140.86 Y163.39 E273.63771
G1 X140.78 Y163.31 E273.64319
G1 X140.36 Y162.57 E273.68579
G1 X140.13 Y161.85 E273.72322
G1 X140.09 Y161.75 E273.72858
G1 X140.00 Y160.90 E273.77132
G1 X140.09 Y160.05 E273.81401
G1 X140.36 Y159.23 E273.85681
G1 X140.79 Y158.49 E273.89953
G1 X141.36 Y157.85 E273.94220
G1 X142.05 Y157.35 E273.98491
G1 X142.83 Y157.00 E274.02764
G0 F12000 X142.71 Y156.62
;TYPE:WALL-OUTER
G1 F3720 X143.63 Y156.43 E274.07467
G1 X144.57 Y156.43 E274.12142
G1 X145.49 Y156.62 E274.16844
G1 X146.35 Y157.00 E274.21523
G1 X147.11 Y157.56 E274.26224
G1 X147.74 Y158.26 E274.30929
G1 X148.21 Y159.07 E274.35605
G1 X148.50 Y159.96 E274.40294
G1 X148.60 Y160.90 E274.44990
G1 X148.50 Y161.84 E274.49695
G1 X148.21 Y162.73 E274.54373
G1 X147.74 Y163.54 E274.59060
G1 X147.11 Y164.24 E274.63762
G1 X146.35 Y164.80 E274.68462
G1 X145.49 Y165.18 E274.73141
G1 X144.57 Y165.37 E274.77845
G1 X143.63 Y165.37 E274.82515
G1 X142.71 Y165.18 E274.87228
G1 X141.85 Y164.80 E274.91907
G1 X141.09 Y164.24 E274.96608
G1 X140.46 Y163.54 E275.01306
G1 X139.99 Y162.73 E275.05994
G1 X139.70 Y161.84 E275.10672
G1 X139.60 Y160.90 E275.15377
G1 X139.70 Y159.96 E275.20068
G1 X139.99 Y159.07 E275.24762
G1 X140.46 Y158.26 E275.29438
G1 X141.09 Y157.56 E275.34140
G1 X141.85 Y157.00 E275.38841
G1 X142.71 Y156.62 E275.43524
G0 F12000 X142.76 Y157.19
;TYPE:FILL
G1 F3720 X147.81 Y162.23 E275.79105
G0 F12000 X147.64 Y162.63
G1 F3720 X142.37 Y157.36 E276.16299
G0 F12000 X142.00 Y157.56
G1 F3720 X147.44 Y162.99 E276.54631
G0 F12000 X147.21 Y163.33
G1 F3720 X141.68 Y157.80 E276.93655
G0 F12000 X141.37 Y158.05
G1 F3720 X146.94 Y163.62 E277.32965
G0 F12000 X146.65 Y163.91
G1 F3720 X141.10 Y158.35 E277.72141
G0 F12000 X140.85 Y158.66
G1 F3720 X146.32 Y164.14 E278.10799
G0 F12000 X145.98 Y164.37
G1 F3720 X140.64 Y159.02 E278.48493
G0 F12000 X140.45 Y159.40
G1 F3720 X145.59 Y164.54 E278.84762
G0 F12000 X145.17 Y164.69
G1 F3720 X140.31 Y159.83 E279.19073
G0 F12000 X140.21 Y160.29
G1 F3720 X144.71 Y164.79 E279.50830
G0 F12000 X144.19 Y164.83
G1 F3720 X140.15 Y160.80 E279.79274
G0 F12000 X140.20 Y161.41
G1 F3720 X143.60 Y164.81 E280.03277
G0 F12000 X142.88 Y164.66
G1 F3720 X140.37 Y162.15 E280.21008
G0 F12000 X141.09 Y163.43
G1 F3720 X141.60 Y163.95 E280.24648
G0 F12000 X147.94 Y161.80
G1 F3720 X143.21 Y157.07 E280.58064
G0 F12000 X143.67 Y156.97
G1 F3720 X148.01 Y161.31 E280.88678
G0 F12000 X148.04 Y160.77
G1 F3720 X144.24 Y156.97 E281.15531
G0 F12000 X144.88 Y157.04
G1 F3720 X147.98 Y160.14 E281.37364
G0 F12000 X147.72 Y159.32
G1 F3720 X145.72 Y157.31 E281.51542
G1 F2400 E280.31542
G0 F12000 X144.53 Y148.17
;TYPE:WALL-INNER
G1 F2400 E281.51542
G1 F3720 X143.67 Y148.17 E281.55813
G1 X142.94 Y148.02 E281.59556
G1 X142.84 Y148.00 E281.60076
G1 X142.05 Y147.65 E281.64356
G1 X141.45 Y147.21 E281.68098
G1 X141.36 Y147.15 E281.68627
G1 X140.86 Y146.59 E281.72368
G1 X140.78 Y146.51 E281.72915
G1 X140.36 Y145.77 E281.77176
G1 X140.13 Y145.05 E281.80914
G1 X140.09 Y144.95 E281.81450
G1 X140.00 Y144.10 E281.85719
G1 X140.09 Y143.25 E281.89993
G1 X140.36 Y142.43 E281.94278
G1 X140.79 Y141.69 E281.98549
G1 X141.36 Y141.06 E282.02810
G1 X142.05 Y140.55 E282.07085
G1 X142.83 Y140.21 E282.11353
G1 X143.67 Y140.03 E282.15643
G1 X144.53 Y140.03 E282.19904
G1 X145.37 Y140.21 E282.24184
G1 X146.15 Y140.55 E282.28452
G1 X146.84 Y141.06 E282.32712
G1 X147.41 Y141.69 E282.37004
G1 X147.84 Y142.43 E282.41260
G1 X148.11 Y143.25 E282.45545
G1 X148.20 Y144.10 E282.49819
G1 X148.12 Y144.84 E282.53546
G1 X148.11 Y144.95 E282.54098
G1 X147.88 Y145.66 E282.57820
G1 X147.84 Y145.77 E282.58355
G1 X147.41 Y146.51 E282.62640
G1 X146.91 Y147.06 E282.66367
G1 X146.84 Y147.15 E282.66918
G1 X146.24 Y147.59 E282.70643
G1 X146.15 Y147.65 E282.71186
G1 X145.37 Y148.00 E282.75450
G1 X144.63 Y148.15 E282.79198
G1 X144.53 Y148.17 E282.79729
G0 F12000 X144.57 Y148.57
;TYPE:WALL-OUTER
G1 F3720 X143.63 Y148.57 E282.84419
G1 X142.85 Y148.41 E282.88381
G1 X142.71 Y148.38 E282.89105
G1 X141.85 Y148.00 E282.93806
G1 X141.09 Y147.44 E282.98506
G1 X140.46 Y146.74 E283.03208
G1 X139.99 Y145.93 E283.07892
G1 X139.70 Y145.04 E283.12570
G1 X139.60 Y144.10 E283.17270
G1 X139.70 Y143.16 E283.21966
G1 X139.99 Y142.27 E283.26660
G1 X140.46 Y141.46 E283.31341
G1 X141.09 Y140.76 E283.36039
G1 X141.85 Y140.20 E283.40739
G1 X142.71 Y139.82 E283.45418
G1 X143.63 Y139.63 E283.50132
G1 X144.57 Y139.63 E283.54801
G1 X145.49 Y139.82 E283.59505
G1 X146.35 Y140.20 E283.64184
G1 X147.11 Y140.76 E283.68884
G1 X147.74 Y141.46 E283.73586
G1 X148.21 Y142.27 E283.78267
G1 X148.50 Y143.16 E283.82956
G1 X148.60 Y144.10 E283.87656
G1 X148.50 Y145.04 E283.92356
G1 X148.21 Y145.93 E283.97034
G1 X147.74 Y146.74 E284.01718
G1 X147.11 Y147.44 E284.06423
G1 X146.35 Y148.00 E284.11123
G1 X145.49 Y148.38 E284.15802
G1 X144.72 Y148.54 E284.19754
G1 X144.57 Y148.57 E284.20490
G0 F12000 X144.36 Y148.03
;TYPE:FILL
G1 F3720 X140.17 Y143.85 E284.50018
G0 F12000 X140.22 Y143.34
G1 F3720 X144.85 Y147.96 E284.82653
G0 F12000 X145.32 Y147.86
G1 F3720 X140.35 Y142.90 E285.17666
G0 F12000 X140.50 Y142.47
G1 F3720 X145.71 Y147.69 E285.54457
G0 F12000 X146.10 Y147.51
G1 F3720 X140.70 Y142.12 E285.92515
G0 F12000 X140.91 Y141.76
G1 F3720 X146.42 Y147.27 E286.31405
G0 F12000 X146.75 Y147.03
G1 F3720 X141.18 Y141.46 E286.70712
G0 F12000 X141.45 Y141.16
G1 F3720 X147.02 Y146.74 E287.10018
G0 F12000 X147.29 Y146.44
G1 F3720 X141.78 Y140.93 E287.48912
G0 F12000 X142.10 Y140.69
G1 F3720 X147.50 Y146.08 E287.86980
G0 F12000 X147.71 Y145.73
G1 F3720 X142.49 Y140.51 E288.23781
G0 F12000 X142.88 Y140.34
G1 F3720 X147.85 Y145.30 E288.58798
G0 F12000 X147.97 Y144.86
G1 F3720 X143.35 Y140.24 E288.91430
G0 F12000 X143.84 Y140.17
G1 F3720 X148.03 Y144.35 E289.20964
G0 F12000 X148.02 Y143.78
G1 F3720 X144.41 Y140.17 E289.46460
G0 F12000 X145.10 Y140.29
G1 F3720 X147.91 Y143.10 E289.66307
G0 F12000 X147.51 Y142.13
G1 F3720 X146.03 Y140.65 E289.76763
G0 F12000 X140.18 Y144.42
G1 F3720 X143.79 Y148.03 E290.02251
G0 F12000 X143.10 Y147.91
G1 F3720 X140.29 Y145.09 E290.22099
G0 F12000 X140.69 Y146.06
G1 F3720 X142.18 Y147.55 E290.32569
G1 F2400 E289.12569
G0 F12000 X156.89 Y144.95
;TYPE:WALL-INNER
G1 F2400 E290.32569
G1 F3720 X156.81 Y144.21 E290.36306
G1 X156.80 Y144.10 E290.36842
G1 X156.89 Y143.25 E290.41111
G1 X157.16 Y142.43 E290.45396
G1 X157.59 Y141.69 E290.49652
G1 X158.16 Y141.06 E290.53944
G1 X158.85 Y140.55 E290.58204
G1 X159.63 Y140.21 E290.62472
G1 X160.47 Y140.03 E290.66752
G1 X161.33 Y140.03 E290.71013
G1 X162.17 Y140.21 E290.75303
G1 X162.95 Y140.55 E290.79571
G1 X163.64 Y141.06 E290.83846
G1 X164.21 Y141.69 E290.88106
G1 X164.64 Y142.43 E290.92378
G1 X164.91 Y143.25 E290.96663
G1 X165.00 Y144.10 E291.00937
G1 X164.91 Y144.95 E291.05216
G1 X164.68 Y145.66 E291.08938
G1 X164.64 Y145.77 E291.09473
G1 X164.21 Y146.51 E291.13743
G1 X163.71 Y147.06 E291.17481
G1 X163.64 Y147.15 E291.18032
G1 X163.04 Y147.59 E291.21757
G1 X162.95 Y147.65 E291.22300
G1 X162.17 Y148.00 E291.26564
G1 X161.43 Y148.15 E291.30321
G1 X161.33 Y148.17 E291.30852
G1 X160.47 Y148.17 E291.35118
G1 X159.74 Y148.02 E291.38856
G1 X159.64 Y148.00 E291.39376
G1 X158.85 Y147.65 E291.43656
G1 X158.25 Y147.21 E291.47398
G1 X158.16 Y147.14 E291.47945
G1 X157.66 Y146.59 E291.51672
G1 X157.58 Y146.51 E291.52219
G1 X157.16 Y145.77 E291.56480
G1 X156.93 Y145.05 E291.60218
G1 X156.89 Y144.95 E291.60754
G0 F12000 X156.50 Y145.04
;TYPE:WALL-OUTER
G1 F3720 X156.40 Y144.10 E291.65454
G1 X156.50 Y143.16 E291.70155
G1 X156.79 Y142.27 E291.74843
G1 X157.26 Y141.46 E291.79524
G1 X157.89 Y140.76 E291.84226
G1 X158.65 Y140.20 E291.88926
G1 X159.51 Y139.82 E291.93605
G1 X160.43 Y139.63 E291.98309
G1 X161.37 Y139.63 E292.02979
G1 X162.29 Y139.82 E292.07692
G1 X163.15 Y140.20 E292.12371
G1 X163.91 Y140.76 E292.17071
G1 X164.54 Y141.46 E292.21770
G1 X165.01 Y142.27 E292.26451
G1 X165.30 Y143.16 E292.31144
G1 X165.40 Y144.10 E292.35840
G1 X165.30 Y145.04 E292.40541
G1 X165.01 Y145.93 E292.45219
G1 X164.54 Y146.74 E292.49902
G1 X163.91 Y147.44 E292.54604
G1 X163.15 Y148.00 E292.59304
G1 X162.29 Y148.38 E292.63983
G1 X161.51 Y148.54 E292.67945
G1 X161.37 Y148.57 E292.68681
G1 X160.43 Y148.57 E292.73371
G1 X159.66 Y148.41 E292.77323
G1 X159.51 Y148.38 E292.78047
G1 X158.65 Y148.00 E292.82748
G1 X157.89 Y147.44 E292.87449
G1 X157.26 Y146.74 E292.92154
G1 X156.79 Y145.93 E292.96837
G1 X156.50 Y145.04 E293.01515
G0 F12000 X157.02 Y144.86
;TYPE:FILL
G1 F3720 X160.12 Y147.96 E293.23352
G0 F12000 X160.76 Y148.03
G1 F3720 X156.96 Y144.23 E293.50199
G0 F12000 X156.99 Y143.69
G1 F3720 X161.32 Y148.03 E293.80813
G0 F12000 X161.79 Y147.93
G1 F3720 X157.05 Y143.19 E294.14224
G0 F12000 X157.19 Y142.77
G1 F3720 X162.24 Y147.81 E294.49798
G0 F12000 X162.63 Y147.64
G1 F3720 X157.36 Y142.37 E294.86988
G0 F12000 X157.56 Y142.01
G1 F3720 X163.00 Y147.44 E295.25317
G0 F12000 X163.32 Y147.20
G1 F3720 X157.79 Y141.67 E295.64341
G0 F12000 X158.06 Y141.37
G1 F3720 X163.63 Y146.94 E296.03648
G0 F12000 X163.90 Y146.65
G1 F3720 X158.35 Y141.09 E296.42824
G0 F12000 X158.67 Y140.85
G1 F3720 X164.15 Y146.33 E296.81470
G0 F12000 X164.36 Y145.97
G1 F3720 X159.02 Y140.63 E297.19165
G0 F12000 X159.41 Y140.46
G1 F3720 X164.55 Y145.60 E297.55444
G0 F12000 X164.69 Y145.17
G1 F3720 X159.82 Y140.31 E297.89762
G0 F12000 X160.29 Y140.21
G1 F3720 X164.79 Y144.71 E298.21512
G0 F12000 X164.84 Y144.20
G1 F3720 X160.81 Y140.17 E298.49953
G0 F12000 X161.40 Y140.19
G1 F3720 X164.80 Y143.59 E298.73956
G0 F12000 X164.63 Y142.85
G1 F3720 X162.12 Y140.34 E298.91687
G0 F12000 X163.40 Y141.05
G1 F3720 X163.91 Y141.57 E298.95320
G0 F12000 X159.28 Y147.69
G1 F3720 X157.27 Y145.68 E299.09509
G1 F2400 E297.89509
G0 F12000 X159.63 Y157.00
;TYPE:WALL-INNER
G1 F2400 E299.09509
G1 F3720 X160.47 Y156.83 E299.13788
G1 X161.33 Y156.83 E299.18053
G1 X162.17 Y157.00 E299.22332
G1 X162.95 Y157.35 E299.26605
G1 X163.64 Y157.85 E299.30876
G1 X164.21 Y158.49 E299.35144
G1 X164.64 Y159.23 E299.39416
G1 X164.91 Y160.05 E299.43696
G1 X165.00 Y160.90 E299.47965
G1 X164.91 Y161.75 E299.52249
G1 X164.68 Y162.46 E299.55971
G1 X164.64 Y162.56 E299.56506
G1 X164.21 Y163.31 E299.60795
G1 X163.71 Y163.86 E299.64515
G1 X163.64 Y163.94 E299.65066
G1 X163.04 Y164.38 E299.68791
G1 X162.95 Y164.45 E299.69334
G1 X162.17 Y164.79 E299.73598
G1 X161.43 Y164.95 E299.77356
G1 X161.33 Y164.97 E299.77888
G1 X160.47 Y164.97 E299.82148
G1 X159.74 Y164.82 E299.85887
G1 X159.64 Y164.80 E299.86413
G1 X158.85 Y164.45 E299.90692
G1 X158.25 Y164.01 E299.94434
G1 X158.16 Y163.94 E299.94970
G1 X157.66 Y163.39 E299.98707
G1 X157.59 Y163.31 E299.99244
G1 X157.16 Y162.57 E300.03512
G1 X156.93 Y161.85 E300.07254
G1 X156.89 Y161.75 E300.07790
G1 X156.81 Y161.00 E300.11532
G1 X156.80 Y160.90 E300.12069
G1 X156.89 Y160.05 E300.16332
G1 X157.16 Y159.23 E300.20612
G1 X157.59 Y158.49 E300.24884
G1 X158.16 Y157.85 E300.29152
G1 X158.85 Y157.35 E300.33427
G1 X159.63 Y157.00 E300.37695
G0 F12000 X159.51 Y156.62
;TYPE:WALL-OUTER
G1 F3720 X160.43 Y156.43 E300.42398
G1 X161.37 Y156.43 E300.47072
G1 X162.29 Y156.62 E300.51775
G1 X163.15 Y157.00 E300.56459
G1 X163.91 Y157.56 E300.61159
G1 X164.54 Y158.26 E300.65861
G1 X165.01 Y159.07 E300.70537
G1 X165.30 Y159.96 E300.75231
G1 X165.40 Y160.90 E300.79922
G1 X165.30 Y161.84 E300.84628
G1 X165.01 Y162.73 E300.89306
G1 X164.54 Y163.54 E300.93993
G1 X163.91 Y164.24 E300.98692
G1 X163.15 Y164.80 E301.03392
G1 X162.29 Y165.18 E301.08071
G1 X161.37 Y165.37 E301.12784
G1 X160.43 Y165.37 E301.17454
G1 X159.51 Y165.18 E301.22158
G1 X158.65 Y164.80 E301.26837
G1 X157.89 Y164.24 E301.31537
G1 X157.26 Y163.54 E301.36239
G1 X156.79 Y162.73 E301.40926
G1 X156.50 Y161.84 E301.45604
G1 X156.40 Y160.90 E301.50309
G1 X156.50 Y159.96 E301.55005
G1 X156.79 Y159.07 E301.59694
G1 X157.26 Y158.26 E301.64370
G1 X157.89 Y157.56 E301.69076
G1 X158.65 Y157.00 E301.73776
G1 X159.51 Y156.62 E301.78455
G0 F12000 X159.68 Y157.14
;TYPE:FILL
G1 F3720 X164.65 Y162.10 E302.13475
G0 F12000 X164.50 Y162.53
G1 F3720 X159.29 Y157.31 E302.50273
G0 F12000 X158.90 Y157.49
G1 F3720 X164.30 Y162.88 E302.88338
G0 F12000 X164.09 Y163.24
G1 F3720 X158.57 Y157.72 E303.27239
G0 F12000 X158.25 Y157.96
G1 F3720 X163.82 Y163.54 E303.66548
G0 F12000 X163.55 Y163.83
G1 F3720 X157.98 Y158.26 E304.05855
G0 F12000 X157.71 Y158.56
G1 F3720 X163.22 Y164.07 E304.44745
G0 F12000 X162.90 Y164.31
G1 F3720 X157.50 Y158.91 E304.82803
G0 F12000 X157.29 Y159.27
G1 F3720 X162.51 Y164.49 E305.19590
G0 F12000 X162.12 Y164.66
G1 F3720 X157.15 Y159.70 E305.54610
G0 F12000 X157.02 Y160.13
G1 F3720 X161.65 Y164.76 E305.87249
G0 F12000 X161.16 Y164.83
G1 F3720 X156.97 Y160.65 E306.16791
G0 F12000 X156.98 Y161.22
G1 F3720 X160.59 Y164.83 E306.42286
G0 F12000 X159.90 Y164.71
G1 F3720 X157.09 Y161.89 E306.62137
G0 F12000 X157.49 Y162.86
G1 F3720 X158.97 Y164.35 E306.72593
G0 F12000 X164.77 Y161.66
G1 F3720 X160.15 Y157.04 E307.05225
G0 F12000 X160.64 Y156.97
G1 F3720 X164.83 Y161.15 E307.34752
G0 F12000 X164.82 Y160.58
G1 F3720 X161.21 Y156.97 E307.60241
G0 F12000 X161.90 Y157.09
G1 F3720 X164.71 Y159.90 E307.80081
G0 F12000 X164.31 Y158.93
G1 F3720 X162.82 Y157.45 E307.90537
G0 F12000 X163.60 Y156.22
;TYPE:SUPPORT
G1 F3720 X162.57 Y155.76 E307.96210
G1 X161.46 Y155.53 E308.01829
G1 X160.34 Y155.53 E308.07457
G1 X159.23 Y155.76 E308.13093
G1 X158.20 Y156.22 E308.18742
G1 X157.29 Y156.88 E308.24359
G1 X156.53 Y157.72 E308.29993
G1 X155.96 Y158.70 E308.35633
G1 X155.61 Y159.78 E308.41304
G1 X155.50 Y160.90 E308.46912
G1 X155.52 Y161.14 E308.48106
G1 X155.61 Y162.02 E308.52551
G1 X155.98 Y163.13 E308.58380
G1 X156.53 Y164.08 E308.63839
G1 X156.69 Y164.26 E308.65043
G1 X157.28 Y164.91 E308.69442
G1 X157.48 Y165.06 E308.70663
G1 X158.20 Y165.58 E308.75084
G1 X159.23 Y166.04 E308.80739
G1 X160.33 Y166.27 E308.86351
G1 X161.47 Y166.27 E308.92008
G1 X161.70 Y166.22 E308.93197
G1 X162.57 Y166.04 E308.97639
G1 X163.60 Y165.58 E309.03263
G1 X164.51 Y164.92 E309.08906
G1 X164.68 Y164.74 E309.10104
G1 X165.27 Y164.07 E309.14555
G1 X165.84 Y163.10 E309.20171
G1 X165.91 Y162.86 E309.21422
G1 X166.19 Y162.02 E309.25830
G1 X166.31 Y160.90 E309.31459
G1 X166.19 Y159.78 E309.37074
G1 X165.84 Y158.70 E309.42741
G1 X165.27 Y157.72 E309.48363
G1 X164.51 Y156.88 E309.54008
G1 X163.60 Y156.22 E309.59618
G0 F12000 X163.64 Y156.13
G0 X162.62 Y149.33
G0 X162.57 Y149.24
G1 F3720 X163.60 Y148.78 E309.65242
G1 X164.51 Y148.12 E309.70885
G1 X164.68 Y147.93 E309.72118
G1 X165.27 Y147.28 E309.76530
G1 X165.39 Y147.07 E309.77715
G1 X165.84 Y146.30 E309.82157
G1 X165.91 Y146.06 E309.83395
G1 X166.19 Y145.22 E309.87815
G1 X166.31 Y144.10 E309.93434
G1 X166.19 Y142.98 E309.99053
G1 X165.84 Y141.90 E310.04717
G1 X165.27 Y140.92 E310.10359
G1 X164.51 Y140.08 E310.15986
G1 X163.60 Y139.42 E310.21607
G1 X162.57 Y138.96 E310.27256
G1 X161.46 Y138.73 E310.32898
G1 X160.33 Y138.73 E310.38541
G1 X159.23 Y138.96 E310.44147
G1 X158.20 Y139.42 E310.49807
G1 X157.28 Y140.09 E310.55446
G1 X156.53 Y140.92 E310.61046
G1 X155.96 Y141.90 E310.66701
G1 X155.61 Y142.98 E310.72371
G1 X155.50 Y144.10 E310.77984
G1 X155.52 Y144.34 E310.79174
G1 X155.61 Y145.22 E310.83618
G1 X155.98 Y146.33 E310.89453
G1 X156.08 Y146.51 E310.90454
G1 X156.53 Y147.28 E310.94894
G1 X157.28 Y148.12 E311.00525
G1 X157.48 Y148.26 E311.01729
G1 X158.20 Y148.78 E311.06149
G1 X159.23 Y149.24 E311.11798
G1 X159.47 Y149.29 E311.12998
G1 X160.34 Y149.47 E311.17429
G1 X161.46 Y149.47 E311.23057
G1 X161.70 Y149.42 E311.24257
G1 X162.57 Y149.24 E311.28702
G0 F12000 X162.62 Y149.33
G0 X160.31 Y149.67
G0 X158.10 Y148.95
G0 X149.49 Y145.22
G0 X149.39 Y145.22
G1 F3720 X149.41 Y144.98 E311.29926
G1 X149.50 Y144.10 E311.34341
G1 X149.39 Y142.98 E311.39944
G1 X149.04 Y141.90 E311.45619
G1 X148.47 Y140.92 E311.51274
G1 X147.72 Y140.09 E311.56874
G1 X146.80 Y139.42 E311.62513
G1 X145.77 Y138.96 E311.68173
G1 X144.67 Y138.73 E311.73779
G1 X143.54 Y138.73 E311.79422
G1 X142.43 Y138.96 E311.85064
G1 X141.40 Y139.42 E311.90713
G1 X140.49 Y140.08 E311.96334
G1 X139.73 Y140.92 E312.01961
G1 X139.16 Y141.90 E312.07603
G1 X138.81 Y142.98 E312.13267
G1 X138.69 Y144.10 E312.18886
G1 X138.81 Y145.22 E312.24516
G1 X138.89 Y145.45 E312.25721
G1 X139.16 Y146.30 E312.30158
G1 X139.28 Y146.51 E312.31360
G1 X139.73 Y147.28 E312.35800
G1 X140.49 Y148.12 E312.41432
G1 X140.68 Y148.26 E312.42632
G1 X141.40 Y148.78 E312.47053
G1 X142.43 Y149.24 E312.52686
G1 X142.67 Y149.29 E312.53932
G1 X143.54 Y149.47 E312.58343
G1 X144.66 Y149.47 E312.63970
G1 X144.90 Y149.42 E312.65170
G1 X145.77 Y149.24 E312.69605
G1 X146.80 Y148.78 E312.75229
G1 X147.72 Y148.12 E312.80872
G1 X147.88 Y147.94 E312.82070
G1 X148.47 Y147.27 E312.86528
G1 X148.59 Y147.07 E312.87711
G1 X149.04 Y146.30 E312.92143
G1 X149.12 Y146.06 E312.93384
G1 X149.39 Y145.22 E312.97787
G0 F12000 X149.49 Y145.22
G0 X145.78 Y155.66
G0 X145.77 Y155.76
G1 F3720 X144.66 Y155.53 E313.03423
G1 X143.54 Y155.53 E313.09051
G1 X142.43 Y155.76 E313.14670
G1 X141.40 Y156.22 E313.20343
G1 X140.49 Y156.88 E313.25953
G1 X139.73 Y157.72 E313.31599
G1 X139.16 Y158.70 E313.37221
G1 X138.81 Y159.78 E313.42888
G1 X138.69 Y160.90 E313.48503
G1 X138.81 Y162.02 E313.54137
G1 X138.89 Y162.25 E313.55342
G1 X139.16 Y163.10 E313.59768
G1 X139.73 Y164.08 E313.65435
G1 X139.89 Y164.26 E313.66625
G1 X140.48 Y164.91 E313.71048
G1 X140.68 Y165.06 E313.72255
G1 X141.40 Y165.58 E313.76676
G1 X142.43 Y166.04 E313.82325
G1 X142.66 Y166.09 E313.83519
G1 X143.54 Y166.27 E313.87967
G1 X144.67 Y166.27 E313.93604
G1 X144.72 Y166.26 E313.93880
G1 X145.77 Y166.04 E313.99211
G1 X146.80 Y165.58 E314.04866
G1 X147.72 Y164.92 E314.10496
G1 X147.88 Y164.73 E314.11728
G1 X148.47 Y164.08 E314.16137
G1 X149.03 Y163.10 E314.21741
G1 X149.12 Y162.86 E314.23013
G1 X149.12 Y162.86 E314.23018
G1 X149.39 Y162.02 E314.27415
G1 X149.41 Y161.78 E314.28639
G1 X149.50 Y160.90 E314.33059
G1 X149.39 Y159.78 E314.38662
G1 X149.04 Y158.70 E314.44333
G1 X148.47 Y157.72 E314.49972
G1 X147.71 Y156.88 E314.55607
G1 X146.80 Y156.22 E314.61224
G1 X145.77 Y155.76 E314.66873
G0 F12000 X145.78 Y155.66
G0 X143.52 Y155.33
G0 X141.29 Y156.05
G0 X139.57 Y157.61
G0 X138.62 Y159.74
G0 X138.70 Y162.31
G0 X136.17 Y168.87
G1 F3720 X136.17 Y136.27 E316.29515
G1 X168.87 Y136.27 E317.92656
G1 X168.87 Y168.87 E319.55298
G1 X136.17 Y168.87 E321.18439
G0 F12000 X136.27 Y165.71
G0 X136.11 Y165.71
G1 F3720 X141.83 Y165.71 E321.46976
G0 F12000 X142.85 Y166.07
G1 F3720 X142.85 Y168.93 E321.61269
G0 F12000 X142.85 Y168.77
G0 X146.43 Y165.85
G0 X146.37 Y165.71
G1 F3720 X158.63 Y165.71 E322.22445
G0 F12000 X158.56 Y165.85
G0 X160.31 Y166.47
G0 X162.63 Y166.23
G0 X163.24 Y165.85
G0 X163.17 Y165.71
G1 F3720 X168.93 Y165.71 E322.51177
G0 F12000 X168.77 Y165.71
G0 X165.84 Y163.29
G0 X165.71 Y163.21
G1 F3720 X165.71 Y168.93 E322.79744
G0 F12000 X165.71 Y168.77
G0 X166.50 Y160.90
G0 X165.84 Y158.51
G0 X165.71 Y158.59
G1 F3720 X165.71 Y146.41 E323.40550
G0 F12000 X165.84 Y146.49
G0 X166.50 Y144.10
G0 X166.23 Y142.80
G0 X166.08 Y142.85
G1 F3720 X168.93 Y142.85 E323.54774
G0 F12000 X168.77 Y142.85
G0 X165.84 Y141.72
G0 X165.71 Y141.80
G1 F3720 X165.71 Y136.21 E323.82637
G0 F12000 X165.71 Y136.37
G0 X154.28 Y136.37
G0 X154.28 Y136.21
G1 F3720 X154.28 Y168.93 E325.45878
G0 F12000 X154.28 Y168.77
G0 X148.63 Y157.60
G0 X146.90 Y156.05
G0 X144.68 Y155.33
G0 X142.82 Y155.58
G0 X142.85 Y155.73
G1 F3720 X142.85 Y149.27 E325.78137
G0 F12000 X142.82 Y149.42
G0 X140.56 Y148.42
G0 X138.98 Y146.38
G0 X138.50 Y144.10
G0 X138.77 Y142.80
G0 X138.92 Y142.85
G1 F3720 X136.11 Y142.85 E325.92146
G0 F12000 X136.27 Y142.85
G0 X141.30 Y139.25
G0 X142.82 Y138.78
G0 X142.85 Y138.94
G1 F3720 X142.85 Y136.21 E326.05736
G0 F12000 X142.85 Y136.37
G0 X147.85 Y139.94
G0 X149.22 Y141.82
G0 X149.43 Y142.80
G0 X149.28 Y142.85
G1 F3720 X155.72 Y142.85 E326.37846
G0 F12000 X155.57 Y142.80
G0 X155.42 Y145.27
G0 X156.37 Y147.39
G0 X158.10 Y148.95
G0 X160.31 Y149.67
G0 X168.77 Y154.28
G0 X168.93 Y154.28
G1 F3720 X136.11 Y154.28 E328.01585
;LAYER:3
G1 F2400 E326.81585
G0 F12000 X140.79 Y158.49 Z1.20
;TYPE:WALL-INNER
G1 F2400 E328.01585
G1 F4260 X141.36 Y157.85 E328.05853
G1 X142.05 Y157.35 E328.10124
G1 X142.83 Y157.00 E328.14397
G1 X143.67 Y156.83 E328.18676
G1 X144.53 Y156.83 E328.22941
G1 X145.37 Y157.00 E328.27220
G1 X146.15 Y157.35 E328.31488
G1 X146.84 Y157.85 E328.35763
G1 X147.41 Y158.49 E328.40031
G1 X147.84 Y159.23 E328.44303
G1 X148.11 Y160.05 E328.48583
G1 X148.20 Y160.90 E328.52852
G1 X148.13 Y161.58 E328.56253
G1 X148.11 Y161.75 E328.57136
G1 X147.90 Y162.40 E328.60522
G1 X147.84 Y162.56 E328.61393
G1 X147.41 Y163.31 E328.65667
G1 X146.84 Y163.94 E328.69959
G1 X146.29 Y164.34 E328.73352
G1 X146.15 Y164.45 E328.74238
G1 X145.53 Y164.72 E328.77622
G1 X145.37 Y164.79 E328.78495
G1 X144.70 Y164.94 E328.81898
G1 X144.53 Y164.97 E328.82775
G1 X143.67 Y164.97 E328.87026
G1 X143.01 Y164.83 E328.90428
G1 X142.83 Y164.79 E328.91331
G1 X142.21 Y164.52 E328.94704
G1 X142.05 Y164.45 E328.95591
G1 X141.50 Y164.05 E328.98979
G1 X141.36 Y163.94 E328.99869
G1 X140.90 Y163.44 E329.03253
G1 X140.79 Y163.31 E329.04122
G1 X140.36 Y162.57 E329.08396
G1 X140.15 Y161.92 E329.11803
G1 X140.09 Y161.75 E329.12675
G1 X140.00 Y160.90 E329.16949
G1 X140.09 Y160.05 E329.21218
G1 X140.36 Y159.23 E329.25498
G1 X140.79 Y158.49 E329.29770
G0 F12000 X140.46 Y158.26
;TYPE:WALL-OUTER
G1 F4260 X141.09 Y157.56 E329.34472
G1 X141.85 Y157.00 E329.39172
G1 X142.71 Y156.62 E329.43856
G1 X143.63 Y156.43 E329.48558
G1 X144.57 Y156.43 E329.53233
G1 X145.49 Y156.62 E329.57936
G1 X146.35 Y157.00 E329.62615
G1 X147.11 Y157.56 E329.67315
G1 X147.74 Y158.26 E329.72020
G1 X148.21 Y159.07 E329.76697
G1 X148.50 Y159.96 E329.81386
G1 X148.60 Y160.90 E329.86081
G1 X148.50 Y161.84 E329.90786
G1 X148.21 Y162.73 E329.95464
G1 X147.74 Y163.54 E330.00152
G1 X147.11 Y164.24 E330.04854
G1 X146.35 Y164.80 E330.09554
G1 X145.49 Y165.18 E330.14233
G1 X144.57 Y165.37 E330.18936
G1 X143.63 Y165.37 E330.23606
G1 X142.71 Y165.18 E330.28320
G1 X141.85 Y164.80 E330.32999
G1 X141.09 Y164.24 E330.37699
G1 X140.46 Y163.54 E330.42397
G1 X139.99 Y162.73 E330.47085
G1 X139.70 Y161.84 E330.51763
G1 X139.60 Y160.90 E330.56469
G1 X139.70 Y159.96 E330.61159
G1 X139.99 Y159.07 E330.65853
G1 X140.46 Y158.26 E330.70530
G0 F12000 X140.70 Y158.43
G0 X140.20 Y161.41
;TYPE:FILL
G1 F4260 X143.60 Y164.81 E330.94532
G0 F12000 X140.87 Y163.18
G1 F4260 X146.37 Y157.69 E331.33310
G1 F2400 E330.13310
G0 F12000 X144.53 Y148.17
;TYPE:WALL-INNER
G1 F2400 E331.33310
G1 F4260 X143.67 Y148.17 E331.37575
G1 X143.01 Y148.03 E331.40967
G1 X142.83 Y148.00 E331.41870
G1 X142.21 Y147.72 E331.45243
G1 X142.05 Y147.65 E331.46129
G1 X141.50 Y147.25 E331.49518
G1 X141.36 Y147.14 E331.50407
G1 X140.79 Y146.51 E331.54661
G1 X140.44 Y145.92 E331.58070
G1 X140.36 Y145.77 E331.58943
G1 X140.15 Y145.12 E331.62340
G1 X140.09 Y144.95 E331.63213
G1 X140.00 Y144.10 E331.67482
G1 X140.09 Y143.25 E331.71755
G1 X140.36 Y142.43 E331.76040
G1 X140.79 Y141.69 E331.80312
G1 X141.36 Y141.06 E331.84573
G1 X142.05 Y140.55 E331.88848
G1 X142.83 Y140.21 E331.93116
G1 X143.67 Y140.03 E331.97406
G1 X144.53 Y140.03 E332.01666
G1 X145.37 Y140.21 E332.05946
G1 X146.15 Y140.55 E332.10215
G1 X146.84 Y141.06 E332.14475
G1 X147.41 Y141.69 E332.18767
G1 X147.84 Y142.43 E332.23023
G1 X148.11 Y143.25 E332.27308
G1 X148.20 Y144.10 E332.31582
G1 X148.13 Y144.78 E332.34978
G1 X148.11 Y144.95 E332.35861
G1 X147.90 Y145.60 E332.39247
G1 X147.84 Y145.77 E332.40118
G1 X147.50 Y146.36 E332.43523
G1 X147.41 Y146.51 E332.44394
G1 X146.84 Y147.15 E332.48683
G1 X146.29 Y147.55 E332.52076
G1 X146.15 Y147.65 E332.52962
G1 X145.53 Y147.93 E332.56346
G1 X145.37 Y148.00 E332.57219
G1 X144.70 Y148.14 E332.60616
G1 X144.53 Y148.17 E332.61493
G0 F12000 X144.57 Y148.57
;TYPE:WALL-OUTER
G1 F4260 X143.63 Y148.57 E332.66173
G1 X142.71 Y148.38 E332.70876
G1 X141.85 Y148.00 E332.75559
G1 X141.09 Y147.44 E332.80260
G1 X140.46 Y146.74 E332.84962
G1 X139.99 Y145.93 E332.89645
G1 X139.70 Y145.04 E332.94323
G1 X139.60 Y144.10 E332.99024
G1 X139.70 Y143.16 E333.03719
G1 X139.99 Y142.27 E333.08413
G1 X140.46 Y141.46 E333.13094
G1 X141.09 Y140.76 E333.17792
G1 X141.85 Y140.20 E333.22493
G1 X142.71 Y139.82 E333.27172
G1 X143.63 Y139.63 E333.31885
G1 X144.57 Y139.63 E333.36555
G1 X145.49 Y139.82 E333.41259
G1 X146.35 Y140.20 E333.45938
G1 X147.11 Y140.76 E333.50638
G1 X147.74 Y141.46 E333.55340
G1 X148.21 Y142.27 E333.60020
G1 X148.50 Y143.16 E333.64709
G1 X148.60 Y144.10 E333.69409
G1 X148.50 Y145.04 E333.74110
G1 X148.21 Y145.93 E333.78788
G1 X147.74 Y146.74 E333.83471
G1 X147.11 Y147.44 E333.88176
G1 X146.35 Y148.00 E333.92877
G1 X145.49 Y148.38 E333.97560
G1 X144.57 Y148.57 E334.02253
G0 F12000 X144.54 Y148.27
G0 X142.31 Y147.61
;TYPE:FILL
G1 F4260 X147.61 Y142.31 E334.39662
G1 F2400 E333.19662
G0 F12000 X156.89 Y143.25
;TYPE:WALL-INNER
G1 F2400 E334.39662
G1 F4260 X157.16 Y142.43 E334.43947
G1 X157.59 Y141.69 E334.48203
G1 X158.16 Y141.06 E334.52495
G1 X158.85 Y140.55 E334.56755
G1 X159.63 Y140.21 E334.61023
G1 X160.47 Y140.03 E334.65303
G1 X161.33 Y140.03 E334.69564
G1 X162.17 Y140.21 E334.73854
G1 X162.95 Y140.55 E334.78122
G1 X163.64 Y141.06 E334.82397
G1 X164.21 Y141.69 E334.86657
G1 X164.64 Y142.43 E334.90929
G1 X164.91 Y143.25 E334.95214
G1 X165.00 Y144.10 E334.99488
G1 X164.91 Y144.95 E335.03767
G1 X164.70 Y145.60 E335.07153
G1 X164.64 Y145.77 E335.08024
G1 X164.30 Y146.36 E335.11429
G1 X164.21 Y146.51 E335.12319
G1 X163.64 Y147.15 E335.16572
G1 X163.09 Y147.55 E335.19980
G1 X162.94 Y147.65 E335.20867
G1 X162.32 Y147.93 E335.24250
G1 X162.16 Y148.00 E335.25124
G1 X161.50 Y148.14 E335.28525
G1 X161.32 Y148.17 E335.29408
G1 X160.47 Y148.17 E335.33668
G1 X159.81 Y148.03 E335.37060
G1 X159.63 Y148.00 E335.37953
G1 X159.01 Y147.72 E335.41330
G1 X158.85 Y147.65 E335.42217
G1 X158.30 Y147.25 E335.45606
G1 X158.16 Y147.15 E335.46481
G1 X157.58 Y146.51 E335.50769
G1 X157.24 Y145.92 E335.54161
G1 X157.16 Y145.77 E335.55034
G1 X156.95 Y145.12 E335.58431
G1 X156.89 Y144.95 E335.59304
G1 X156.82 Y144.27 E335.62704
G1 X156.80 Y144.10 E335.63577
G1 X156.89 Y143.25 E335.67845
G0 F12000 X156.50 Y143.16
;TYPE:WALL-OUTER
G1 F4260 X156.79 Y142.27 E335.72534
G1 X157.26 Y141.46 E335.77215
G1 X157.89 Y140.76 E335.81917
G1 X158.65 Y140.20 E335.86617
G1 X159.51 Y139.82 E335.91296
G1 X160.43 Y139.63 E335.96000
G1 X161.37 Y139.63 E336.00669
G1 X162.29 Y139.82 E336.05383
G1 X163.15 Y140.20 E336.10062
G1 X163.91 Y140.76 E336.14762
G1 X164.54 Y141.46 E336.19461
G1 X165.01 Y142.27 E336.24141
G1 X165.30 Y143.16 E336.28835
G1 X165.40 Y144.10 E336.33531
G1 X165.30 Y145.04 E336.38232
G1 X165.01 Y145.93 E336.42910
G1 X164.54 Y146.74 E336.47593
G1 X163.91 Y147.44 E336.52295
G1 X163.15 Y148.00 E336.56995
G1 X162.29 Y148.38 E336.61679
G1 X161.37 Y148.57 E336.66381
G1 X160.43 Y148.57 E336.71061
G1 X159.51 Y148.38 E336.75754
G1 X158.65 Y148.00 E336.80438
G1 X157.89 Y147.44 E336.85138
G1 X157.26 Y146.74 E336.89843
G1 X156.79 Y145.93 E336.94527
G1 X156.50 Y145.04 E336.99205
G1 X156.40 Y144.10 E337.03905
G1 X156.50 Y143.16 E337.08605
G0 F12000 X156.79 Y143.23
G0 X157.67 Y146.38
;TYPE:FILL
G1 F4260 X163.17 Y140.89 E337.47382
G0 F12000 X161.40 Y140.19
G1 F4260 X164.80 Y143.59 E337.71385
G1 F2400 E336.51385
G0 F12000 X162.17 Y157.00
;TYPE:WALL-INNER
G1 F2400 E337.71385
G1 F4260 X162.95 Y157.35 E337.75658
G1 X163.64 Y157.85 E337.79929
G1 X164.21 Y158.49 E337.84197
G1 X164.64 Y159.23 E337.88468
G1 X164.91 Y160.05 E337.92749
G1 X165.00 Y160.90 E337.97017
G1 X164.91 Y161.75 E338.01302
G1 X164.70 Y162.40 E338.04687
G1 X164.64 Y162.56 E338.05558
G1 X164.21 Y163.31 E338.09848
G1 X163.76 Y163.81 E338.13236
G1 X163.64 Y163.94 E338.14101
G1 X163.09 Y164.34 E338.17516
G1 X162.94 Y164.45 E338.18403
G1 X162.32 Y164.72 E338.21786
G1 X162.16 Y164.79 E338.22660
G1 X161.50 Y164.94 E338.26062
G1 X161.32 Y164.97 E338.26945
G1 X160.47 Y164.97 E338.31200
G1 X159.81 Y164.83 E338.34598
G1 X159.63 Y164.79 E338.35491
G1 X159.01 Y164.52 E338.38868
G1 X158.85 Y164.45 E338.39755
G1 X158.30 Y164.05 E338.43144
G1 X158.16 Y163.94 E338.44019
G1 X157.59 Y163.31 E338.48300
G1 X157.16 Y162.57 E338.52563
G1 X156.95 Y161.92 E338.55970
G1 X156.89 Y161.75 E338.56842
G1 X156.82 Y161.07 E338.60248
G1 X156.80 Y160.90 E338.61121
G1 X156.89 Y160.05 E338.65384
G1 X157.16 Y159.23 E338.69664
G1 X157.59 Y158.49 E338.73936
G1 X158.16 Y157.85 E338.78203
G1 X158.85 Y157.35 E338.82479
G1 X159.63 Y157.00 E338.86747
G1 X160.47 Y156.83 E338.91026
G1 X161.33 Y156.83 E338.95291
G1 X162.17 Y157.00 E338.99570
G0 F12000 X162.29 Y156.62
;TYPE:WALL-OUTER
G1 F4260 X163.15 Y157.00 E339.04254
G1 X163.91 Y157.56 E339.08954
G1 X164.54 Y158.26 E339.13656
G1 X165.01 Y159.07 E339.18333
G1 X165.30 Y159.96 E339.23026
G1 X165.40 Y160.90 E339.27717
G1 X165.30 Y161.84 E339.32423
G1 X165.01 Y162.73 E339.37101
G1 X164.54 Y163.54 E339.41788
G1 X163.91 Y164.24 E339.46487
G1 X163.15 Y164.80 E339.51187
G1 X162.29 Y165.18 E339.55866
G1 X161.37 Y165.37 E339.60580
G1 X160.43 Y165.37 E339.65249
G1 X159.51 Y165.18 E339.69953
G1 X158.65 Y164.80 E339.74632
G1 X157.89 Y164.24 E339.79332
G1 X157.26 Y163.54 E339.84034
G1 X156.79 Y162.73 E339.88722
G1 X156.50 Y161.84 E339.93400
G1 X156.40 Y160.90 E339.98105
G1 X156.50 Y159.96 E340.02800
G1 X156.79 Y159.07 E340.07489
G1 X157.26 Y158.26 E340.12165
G1 X157.89 Y157.56 E340.16871
G1 X158.65 Y157.00 E340.21571
G1 X159.51 Y156.62 E340.26250
G1 X160.43 Y156.43 E340.30953
G1 X161.37 Y156.43 E340.35628
G1 X162.29 Y156.62 E340.40330
G0 F12000 X161.23 Y156.97
;TYPE:FILL
G1 F4260 X156.98 Y161.22 E340.70344
G0 F12000 X155.53 Y161.20
;TYPE:SUPPORT
G1 F4260 X155.61 Y162.01 E340.74403
G1 X155.96 Y163.10 E340.80084
G1 X156.12 Y163.37 E340.81637
G1 X156.53 Y164.08 E340.85737
G1 X156.74 Y164.31 E340.87274
G1 X157.28 Y164.92 E340.91368
G1 X158.20 Y165.58 E340.96993
G1 X158.48 Y165.71 E340.98543
G1 X159.23 Y166.04 E341.02648
G1 X160.33 Y166.27 E341.08255
G1 X161.47 Y166.27 E341.13918
G1 X162.57 Y166.04 E341.19530
G1 X162.85 Y165.91 E341.21086
G1 X163.60 Y165.58 E341.25172
G1 X163.85 Y165.40 E341.26742
G1 X164.51 Y164.92 E341.30803
G1 X164.72 Y164.68 E341.32374
G1 X165.27 Y164.08 E341.36430
G1 X165.84 Y163.10 E341.42083
G1 X165.94 Y162.80 E341.43654
G1 X166.19 Y162.02 E341.47732
G1 X166.31 Y160.90 E341.53362
G1 X166.19 Y159.78 E341.58976
G1 X165.84 Y158.70 E341.64644
G1 X165.27 Y157.72 E341.70266
G1 X164.51 Y156.88 E341.75911
G1 X163.60 Y156.22 E341.81521
G1 X162.57 Y155.76 E341.87194
G1 X161.46 Y155.53 E341.92813
G1 X160.34 Y155.53 E341.98441
G1 X159.23 Y155.76 E342.04077
G1 X158.20 Y156.22 E342.09726
G1 X157.29 Y156.88 E342.15343
G1 X156.53 Y157.72 E342.20977
G1 X155.96 Y158.70 E342.26617
G1 X155.61 Y159.78 E342.32288
G1 X155.50 Y160.90 E342.37891
G1 X155.53 Y161.20 E342.39426
G0 F12000 X149.60 Y160.88
G0 X149.50 Y160.90
G1 F4260 X149.39 Y159.78 E342.45029
G1 X149.04 Y158.70 E342.50700
G1 X148.47 Y157.72 E342.56340
G1 X147.71 Y156.88 E342.61974
G1 X146.80 Y156.22 E342.67591
G1 X145.77 Y155.76 E342.73240
G1 X144.66 Y155.53 E342.78876
G1 X143.54 Y155.53 E342.84504
G1 X142.43 Y155.76 E342.90123
G1 X141.40 Y156.22 E342.95796
G1 X140.49 Y156.88 E343.01406
G1 X139.73 Y157.72 E343.07051
G1 X139.16 Y158.70 E343.12674
G1 X138.81 Y159.78 E343.18341
G1 X138.69 Y160.90 E343.23955
G1 X138.81 Y162.02 E343.29580
G1 X138.91 Y162.31 E343.31123
G1 X139.16 Y163.10 E343.35222
G1 X139.32 Y163.37 E343.36782
G1 X139.73 Y164.08 E343.40888
G1 X139.84 Y164.19 E343.41658
G1 X140.48 Y164.91 E343.46494
G1 X140.73 Y165.10 E343.48047
G1 X140.74 Y165.10 E343.48054
G1 X141.40 Y165.58 E343.52157
G1 X142.43 Y166.04 E343.57779
G1 X142.73 Y166.10 E343.59331
G1 X142.73 Y166.10 E343.59336
G1 X143.54 Y166.27 E343.63437
G1 X144.67 Y166.27 E343.69085
G1 X145.77 Y166.04 E343.74682
G1 X146.05 Y165.91 E343.76238
G1 X146.80 Y165.58 E343.80324
G1 X147.06 Y165.40 E343.81895
G1 X147.72 Y164.91 E343.85966
G1 X147.93 Y164.68 E343.87538
G1 X148.47 Y164.07 E343.91618
G1 X149.04 Y163.10 E343.97215
G1 X149.14 Y162.80 E343.98812
G1 X149.39 Y162.02 E344.02884
G1 X149.42 Y161.71 E344.04439
G1 X149.50 Y160.90 E344.08523
G0 F12000 X149.60 Y160.88
G0 X149.22 Y158.62
G0 X145.82 Y149.33
G0 X145.77 Y149.24
G1 F4260 X146.05 Y149.11 E344.10068
G1 X146.80 Y148.78 E344.14160
G1 X147.05 Y148.60 E344.15717
G1 X147.72 Y148.12 E344.19800
G1 X148.47 Y147.28 E344.25441
G1 X148.63 Y147.01 E344.26982
G1 X149.04 Y146.30 E344.31077
G1 X149.14 Y146.00 E344.32647
G1 X149.39 Y145.22 E344.36719
G1 X149.50 Y144.10 E344.42353
G1 X149.39 Y142.98 E344.47956
G1 X149.04 Y141.90 E344.53631
G1 X148.47 Y140.92 E344.59287
G1 X147.72 Y140.09 E344.64886
G1 X146.80 Y139.42 E344.70525
G1 X145.77 Y138.96 E344.76185
G1 X144.67 Y138.73 E344.81792
G1 X143.54 Y138.73 E344.87434
G1 X142.43 Y138.96 E344.93076
G1 X141.40 Y139.42 E344.98725
G1 X140.49 Y140.08 E345.04346
G1 X139.73 Y140.92 E345.09974
G1 X139.16 Y141.90 E345.15615
G1 X138.81 Y142.98 E345.21279
G1 X138.69 Y144.10 E345.26899
G1 X138.81 Y145.22 E345.32518
G1 X138.91 Y145.51 E345.34061
G1 X139.16 Y146.30 E345.38155
G1 X139.32 Y146.57 E345.39748
G1 X139.73 Y147.28 E345.43806
G1 X140.49 Y148.12 E345.49445
G1 X140.73 Y148.30 E345.50983
G1 X140.74 Y148.30 E345.50990
G1 X141.40 Y148.78 E345.55094
G1 X142.43 Y149.24 E345.60704
G1 X142.74 Y149.31 E345.62293
G1 X142.74 Y149.31 E345.62298
G1 X143.53 Y149.47 E345.66355
G1 X144.67 Y149.47 E345.72013
G1 X144.78 Y149.45 E345.72575
G1 X145.77 Y149.24 E345.77619
G0 F12000 X145.82 Y149.33
G0 X155.96 Y146.30
G1 F4260 X156.12 Y146.57 E345.79208
G1 X156.53 Y147.28 E345.83266
G1 X157.28 Y148.12 E345.88907
G1 X158.20 Y148.78 E345.94533
G1 X159.23 Y149.24 E346.00168
G1 X159.53 Y149.30 E346.01709
G1 X160.34 Y149.47 E346.05809
G1 X161.47 Y149.47 E346.11451
G1 X161.58 Y149.45 E346.12048
G1 X162.57 Y149.24 E346.17072
G1 X162.85 Y149.11 E346.18617
G1 X163.60 Y148.78 E346.22709
G1 X163.85 Y148.60 E346.24262
G1 X164.52 Y148.11 E346.28365
G1 X165.27 Y147.28 E346.33996
G1 X165.42 Y147.01 E346.35516
G1 X165.84 Y146.30 E346.39618
G1 X165.94 Y146.00 E346.41193
G1 X166.19 Y145.22 E346.45271
G1 X166.31 Y144.10 E346.50895
G1 X166.19 Y142.98 E346.56515
G1 X165.84 Y141.90 E346.62179
G1 X165.27 Y140.92 E346.67820
G1 X164.51 Y140.08 E346.73448
G1 X163.60 Y139.42 E346.79069
G1 X162.57 Y138.96 E346.84718
G1 X161.46 Y138.73 E346.90360
G1 X160.33 Y138.73 E346.96002
G1 X159.23 Y138.96 E347.01609
G1 X158.20 Y139.42 E347.07269
G1 X157.28 Y140.09 E347.12908
G1 X156.53 Y140.92 E347.18507
G1 X155.96 Y141.90 E347.24163
G1 X155.61 Y142.98 E347.29833
G1 X155.50 Y144.10 E347.35446
G1 X155.53 Y144.41 E347.36977
G1 X155.61 Y145.21 E347.41030
G1 X155.96 Y146.30 E347.46705
G1 F2400 E346.26705
G0 F12000 X168.87 Y136.27
G1 F2400 E347.46705
G1 F4260 X168.87 Y168.87 E349.09347
G1 X136.17 Y168.87 E350.72488
G1 X136.17 Y136.27 E352.35130
G1 X168.87 Y136.27 E353.98271
G0 F12000 X165.71 Y136.37
G0 X165.71 Y136.21
G1 F4260 X165.71 Y141.80 E354.26135
G0 F12000 X166.08 Y142.85
G1 F4260 X168.93 Y142.85 E354.40359
G0 F12000 X168.77 Y142.85
G0 X165.84 Y146.49
G0 X165.71 Y146.41
G1 F4260 X165.71 Y158.59 E355.01165
G0 F12000 X165.84 Y158.51
G0 X166.50 Y160.90
G0 X165.84 Y163.28
G0 X165.71 Y163.20
G1 F4260 X165.71 Y168.93 E355.29747
G0 F12000 X165.71 Y168.77
G0 X163.24 Y165.85
G0 X163.17 Y165.71
G1 F4260 X168.93 Y165.71 E355.58479
G0 F12000 X168.77 Y165.71
G0 X160.31 Y166.47
G0 X158.57 Y165.85
G0 X158.63 Y165.71
G1 F4260 X146.37 Y165.71 E356.19644
G0 F12000 X146.44 Y165.85
G0 X144.69 Y166.47
G0 X142.82 Y166.22
G0 X142.85 Y166.07
G1 F4260 X142.85 Y168.93 E356.33933
G0 F12000 X142.85 Y168.77
G0 X141.77 Y165.85
G0 X141.83 Y165.71
G1 F4260 X136.11 Y165.71 E356.62465
G0 F12000 X136.27 Y165.71
G0 X136.27 Y154.28
G0 X136.11 Y154.28
G1 F4260 X168.93 Y154.28 E358.26204
G0 F12000 X168.77 Y154.28
G0 X157.15 Y148.26
G0 X155.78 Y146.38
G0 X155.29 Y144.10
G0 X155.57 Y142.80
G0 X155.72 Y142.85
G1 F4260 X149.28 Y142.85 E358.58314
G0 F12000 X149.43 Y142.80
G0 X148.63 Y140.80
G0 X146.90 Y139.25
G0 X144.69 Y138.53
G0 X142.82 Y138.78
G0 X142.85 Y138.94
G1 F4260 X142.85 Y136.21 E358.71904
G0 F12000 X142.85 Y136.37
G0 X138.98 Y141.82
G0 X138.77 Y142.80
G0 X138.92 Y142.85
G1 F4260 X136.11 Y142.85 E358.85913
G0 F12000 X136.27 Y142.85
G0 X140.35 Y148.26
G0 X142.37 Y149.43
G0 X142.82 Y149.42
G0 X142.85 Y149.27
G1 F4260 X142.85 Y155.73 E359.18162
G0 F12000 X142.82 Y155.58
G0 X144.68 Y155.33
G0 X146.90 Y156.05
G0 X148.63 Y157.60
G0 X149.58 Y159.74
G0 X149.58 Y162.06
G0 X154.28 Y168.77
G0 X154.28 Y168.93
G1 F4260 X154.28 Y136.21 E360.81403
;LAYER:4
G1 F2400 E359.61403
G0 F12000 X158.16 Y141.06 Z1.50
;TYPE:WALL-INNER
G1 F2400 E360.81403
G1 F4380 X158.85 Y140.55 E360.85663
G1 X159.63 Y140.21 E360.89931
G1 X160.47 Y140.03 E360.94211
G1 X161.33 Y140.03 E360.98472
G1 X162.17 Y140.21 E361.02761
G1 X162.95 Y140.55 E361.07030
G1 X163.64 Y141.06 E361.11305
G1 X164.21 Y141.69 E361.15565
G1 X164.64 Y142.43 E361.19837
G1 X164.91 Y143.25 E361.24122
G1 X165.00 Y144.10 E361.28396
G1 X164.91 Y144.95 E361.32675
G1 X164.72 Y145.54 E361.35725
G1 X164.64 Y145.76 E361.36927
G1 X164.21 Y146.51 E361.41217
G1 X163.64 Y147.15 E361.45484
G1 X162.95 Y147.65 E361.49755
G1 X162.17 Y148.00 E361.54024
G1 X161.56 Y148.12 E361.57098
G1 X161.32 Y148.17 E361.58317
G1 X160.47 Y148.17 E361.62578
G1 X159.87 Y148.05 E361.65633
G1 X159.63 Y148.00 E361.66852
G1 X158.85 Y147.65 E361.71120
G1 X158.16 Y147.15 E361.75380
G1 X157.59 Y146.51 E361.79676
G1 X157.16 Y145.77 E361.83935
G1 X156.97 Y145.18 E361.87000
G1 X156.89 Y144.95 E361.88202
G1 X156.80 Y144.10 E361.92482
G1 X156.89 Y143.25 E361.96755
G1 X157.16 Y142.43 E362.01041
G1 X157.59 Y141.69 E362.05297
G1 X158.16 Y141.06 E362.09589
G0 F12000 X157.89 Y140.76
;TYPE:WALL-OUTER
G1 F4380 X158.65 Y140.20 E362.14289
G1 X159.51 Y139.82 E362.18968
G1 X160.43 Y139.63 E362.23672
G1 X161.37 Y139.63 E362.28342
G1 X162.29 Y139.82 E362.33055
G1 X163.15 Y140.20 E362.37734
G1 X163.91 Y140.76 E362.42434
G1 X164.54 Y141.46 E362.47133
G1 X165.01 Y142.27 E362.51813
G1 X165.30 Y143.16 E362.56507
G1 X165.40 Y144.10 E362.61203
G1 X165.30 Y145.04 E362.65904
G1 X165.01 Y145.93 E362.70582
G1 X164.54 Y146.74 E362.75265
G1 X163.91 Y147.44 E362.79967
G1 X163.15 Y148.00 E362.84667
G1 X162.29 Y148.38 E362.89351
G1 X161.37 Y148.57 E362.94053
G1 X160.43 Y148.57 E362.98733
G1 X159.51 Y148.38 E363.03426
G1 X158.65 Y148.00 E363.08110
G1 X157.89 Y147.44 E363.12810
G1 X157.26 Y146.74 E363.17515
G1 X156.79 Y145.93 E363.22199
G1 X156.50 Y145.04 E363.26877
G1 X156.40 Y144.10 E363.31577
G1 X156.50 Y143.16 E363.36277
G1 X156.79 Y142.27 E363.40966
G1 X157.26 Y141.46 E363.45647
G1 X157.89 Y140.76 E363.50349
G0 F12000 X158.09 Y140.98
G0 X161.40 Y140.19
;TYPE:FILL
G1 F4380 X164.80 Y143.59 E363.74348
G0 F12000 X163.17 Y140.89
G1 F4380 X157.67 Y146.38 E364.13118
G1 F2400 E362.93118
G0 F12000 X148.11 Y144.95
;TYPE:WALL-INNER
G1 F2400 E364.13118
G1 F4380 X147.92 Y145.54 E364.16168
G1 X147.84 Y145.76 E364.17370
G1 X147.41 Y146.51 E364.21644
G1 X146.84 Y147.15 E364.25940
G1 X146.15 Y147.65 E364.30200
G1 X145.37 Y148.00 E364.34468
G1 X144.76 Y148.12 E364.37538
G1 X144.53 Y148.17 E364.38752
G1 X143.67 Y148.17 E364.43018
G1 X143.07 Y148.05 E364.46073
G1 X142.83 Y148.00 E364.47303
G1 X142.05 Y147.65 E364.51564
G1 X141.36 Y147.15 E364.55835
G1 X140.79 Y146.51 E364.60103
G1 X140.36 Y145.77 E364.64377
G1 X140.17 Y145.18 E364.67443
G1 X140.09 Y144.95 E364.68645
G1 X140.00 Y144.10 E364.72924
G1 X140.09 Y143.25 E364.77198
G1 X140.36 Y142.43 E364.81483
G1 X140.79 Y141.69 E364.85755
G1 X141.36 Y141.06 E364.90015
G1 X142.05 Y140.55 E364.94290
G1 X142.83 Y140.21 E364.98559
G1 X143.67 Y140.03 E365.02848
G1 X144.53 Y140.03 E365.07109
G1 X145.37 Y140.21 E365.11389
G1 X146.15 Y140.55 E365.15657
G1 X146.84 Y141.06 E365.19917
G1 X147.41 Y141.69 E365.24209
G1 X147.84 Y142.43 E365.28465
G1 X148.11 Y143.25 E365.32751
G1 X148.20 Y144.10 E365.37024
G1 X148.11 Y144.95 E365.41304
G0 F12000 X148.50 Y145.04
;TYPE:WALL-OUTER
G1 F4380 X148.21 Y145.93 E365.45982
G1 X147.74 Y146.74 E365.50665
G1 X147.11 Y147.44 E365.55370
G1 X146.35 Y148.00 E365.60070
G1 X145.49 Y148.38 E365.64754
G1 X144.57 Y148.57 E365.69447
G1 X143.63 Y148.57 E365.74127
G1 X142.71 Y148.38 E365.78829
G1 X141.85 Y148.00 E365.83513
G1 X141.09 Y147.44 E365.88213
G1 X140.46 Y146.74 E365.92915
G1 X139.99 Y145.93 E365.97599
G1 X139.70 Y145.04 E366.02277
G1 X139.60 Y144.10 E366.06977
G1 X139.70 Y143.16 E366.11673
G1 X139.99 Y142.27 E366.16367
G1 X140.46 Y141.46 E366.21048
G1 X141.09 Y140.76 E366.25746
G1 X141.85 Y140.20 E366.30446
G1 X142.71 Y139.82 E366.35125
G1 X143.63 Y139.63 E366.39839
G1 X144.57 Y139.63 E366.44508
G1 X145.49 Y139.82 E366.49212
G1 X146.35 Y140.20 E366.53891
G1 X147.11 Y140.76 E366.58591
G1 X147.74 Y141.46 E366.63293
G1 X148.21 Y142.27 E366.67974
G1 X148.50 Y143.16 E366.72663
G1 X148.60 Y144.10 E366.77363
G1 X148.50 Y145.04 E366.82063
G0 F12000 X148.21 Y144.97
G0 X147.61 Y142.31
;TYPE:FILL
G1 F4380 X142.31 Y147.61 E367.19468
G1 F2400 E365.99468
G0 F12000 X143.67 Y156.83
;TYPE:WALL-INNER
G1 F2400 E367.19468
G1 F4380 X144.53 Y156.83 E367.23734
G1 X145.37 Y157.00 E367.28013
G1 X146.15 Y157.35 E367.32281
G1 X146.84 Y157.85 E367.36556
G1 X147.41 Y158.49 E367.40824
G1 X147.84 Y159.23 E367.45095
G1 X148.11 Y160.05 E367.49376
G1 X148.20 Y160.90 E367.53644
G1 X148.11 Y161.75 E367.57929
G1 X147.92 Y162.34 E367.60979
G1 X147.84 Y162.56 E367.62181
G1 X147.54 Y163.10 E367.65254
G1 X147.41 Y163.31 E367.66482
G1 X147.00 Y163.76 E367.69530
G1 X146.84 Y163.94 E367.70742
G1 X146.15 Y164.45 E367.75013
G1 X145.37 Y164.79 E367.79281
G1 X144.76 Y164.92 E367.82351
G1 X144.53 Y164.97 E367.83566
G1 X143.67 Y164.97 E367.87821
G1 X142.83 Y164.79 E367.92111
G1 X142.05 Y164.45 E367.96379
G1 X141.36 Y163.94 E368.00655
G1 X140.79 Y163.31 E368.04915
G1 X140.48 Y162.78 E368.07989
G1 X140.36 Y162.56 E368.09202
G1 X140.17 Y161.98 E368.12258
G1 X140.09 Y161.75 E368.13460
G1 X140.00 Y160.90 E368.17745
G1 X140.09 Y160.05 E368.22013
G1 X140.36 Y159.23 E368.26294
G1 X140.79 Y158.49 E368.30566
G1 X141.36 Y157.85 E368.34833
G1 X142.05 Y157.35 E368.39104
G1 X142.83 Y157.00 E368.43377
G1 X143.67 Y156.83 E368.47656
G0 F12000 X143.63 Y156.43
;TYPE:WALL-OUTER
G1 F4380 X144.57 Y156.43 E368.52331
G1 X145.49 Y156.62 E368.57033
G1 X146.35 Y157.00 E368.61712
G1 X147.11 Y157.56 E368.66413
G1 X147.74 Y158.26 E368.71118
G1 X148.21 Y159.07 E368.75794
G1 X148.50 Y159.96 E368.80483
G1 X148.60 Y160.90 E368.85179
G1 X148.50 Y161.84 E368.89884
G1 X148.21 Y162.73 E368.94562
G1 X147.74 Y163.54 E368.99267
G1 X147.11 Y164.24 E369.03934
G1 X146.35 Y164.80 E369.08652
G1 X145.49 Y165.18 E369.13331
G1 X144.57 Y165.37 E369.18035
G1 X143.63 Y165.37 E369.22705
G1 X142.71 Y165.18 E369.27418
G1 X141.85 Y164.80 E369.32097
G1 X141.09 Y164.24 E369.36797
G1 X140.46 Y163.54 E369.41496
G1 X139.99 Y162.73 E369.46183
G1 X139.70 Y161.84 E369.50861
G1 X139.60 Y160.90 E369.55567
G1 X139.70 Y159.96 E369.60258
G1 X139.99 Y159.07 E369.64951
G1 X140.46 Y158.26 E369.69628
G1 X141.09 Y157.56 E369.74330
G1 X141.85 Y157.00 E369.79030
G1 X142.71 Y156.62 E369.83714
G1 X143.63 Y156.43 E369.88416
G0 F12000 X143.66 Y156.73
G0 X146.37 Y157.69
;TYPE:FILL
G1 F4380 X140.87 Y163.18 E370.27194
G0 F12000 X140.20 Y161.41
G1 F4380 X143.60 Y164.81 E370.51197
G1 F2400 E369.31197
G0 F12000 X156.89 Y161.75
;TYPE:WALL-INNER
G1 F2400 E370.51197
G1 F4380 X156.80 Y160.90 E370.55481
G1 X156.89 Y160.05 E370.59750
G1 X157.16 Y159.23 E370.64030
G1 X157.59 Y158.49 E370.68302
G1 X158.16 Y157.85 E370.72569
G1 X158.85 Y157.35 E370.76844
G1 X159.63 Y157.00 E370.81113
G1 X160.47 Y156.83 E370.85392
G1 X161.33 Y156.83 E370.89657
G1 X162.17 Y157.00 E370.93936
G1 X162.95 Y157.35 E370.98209
G1 X163.64 Y157.85 E371.02480
G1 X164.21 Y158.49 E371.06747
G1 X164.64 Y159.23 E371.11019
G1 X164.91 Y160.05 E371.15300
G1 X165.00 Y160.90 E371.19568
G1 X164.91 Y161.75 E371.23853
G1 X164.72 Y162.34 E371.26902
G1 X164.64 Y162.56 E371.28105
G1 X164.34 Y163.10 E371.31178
G1 X164.21 Y163.31 E371.32408
G1 X163.64 Y163.94 E371.36658
G1 X162.95 Y164.45 E371.40933
G1 X162.17 Y164.79 E371.45201
G1 X161.33 Y164.97 E371.49491
G1 X160.47 Y164.97 E371.53752
G1 X159.87 Y164.85 E371.56812
G1 X159.63 Y164.79 E371.58032
G1 X158.85 Y164.45 E371.62300
G1 X158.16 Y163.94 E371.66578
G1 X157.75 Y163.49 E371.69637
G1 X157.59 Y163.31 E371.70838
G1 X157.28 Y162.78 E371.73912
G1 X157.16 Y162.56 E371.75125
G1 X156.97 Y161.98 E371.78181
G1 X156.89 Y161.75 E371.79384
G0 F12000 X156.50 Y161.84
;TYPE:WALL-OUTER
G1 F4380 X156.40 Y160.90 E371.84089
G1 X156.50 Y159.96 E371.88784
G1 X156.79 Y159.07 E371.93473
G1 X157.26 Y158.26 E371.98149
G1 X157.89 Y157.56 E372.02855
G1 X158.65 Y157.00 E372.07555
G1 X159.51 Y156.62 E372.12234
G1 X160.43 Y156.43 E372.16937
G1 X161.37 Y156.43 E372.21611
G1 X162.29 Y156.62 E372.26314
G1 X163.15 Y157.00 E372.30998
G1 X163.91 Y157.56 E372.35698
G1 X164.54 Y158.26 E372.40400
G1 X165.01 Y159.07 E372.45077
G1 X165.30 Y159.96 E372.49770
G1 X165.40 Y160.90 E372.54461
G1 X165.30 Y161.84 E372.59167
G1 X165.01 Y162.73 E372.63845
G1 X164.54 Y163.54 E372.68532
G1 X163.91 Y164.24 E372.73231
G1 X163.15 Y164.80 E372.77931
G1 X162.29 Y165.18 E372.82610
G1 X161.37 Y165.37 E372.87323
G1 X160.43 Y165.37 E372.91993
G1 X159.51 Y165.18 E372.96697
G1 X158.65 Y164.80 E373.01376
G1 X157.89 Y164.24 E373.06094
G1 X157.26 Y163.54 E373.10761
G1 X156.79 Y162.73 E373.15466
G1 X156.50 Y161.84 E373.20144
G0 F12000 X156.98 Y161.22
;TYPE:FILL
G1 F4380 X161.23 Y156.97 E373.50165
G0 F12000 X161.46 Y155.53
;TYPE:SUPPORT
G1 F4380 X160.34 Y155.53 E373.55793
G1 X159.23 Y155.76 E373.61429
G1 X158.20 Y156.22 E373.67078
G1 X157.29 Y156.88 E373.72695
G1 X156.53 Y157.72 E373.78329
G1 X155.96 Y158.70 E373.83969
G1 X155.61 Y159.78 E373.89640
G1 X155.50 Y160.90 E373.95243
G1 X155.61 Y162.02 E374.00876
G1 X155.73 Y162.38 E374.02755
G1 X155.96 Y163.10 E374.06529
G1 X156.15 Y163.43 E374.08411
G1 X156.53 Y164.07 E374.12151
G1 X157.28 Y164.92 E374.17804
G1 X158.20 Y165.58 E374.23425
G1 X159.23 Y166.04 E374.29074
G1 X159.60 Y166.12 E374.30946
G1 X160.34 Y166.27 E374.34711
G1 X161.46 Y166.27 E374.40333
G1 X162.57 Y166.04 E374.45985
G1 X163.60 Y165.58 E374.51607
G1 X163.91 Y165.36 E374.53503
G1 X164.52 Y164.92 E374.57250
G1 X165.26 Y164.09 E374.62814
G1 X165.84 Y163.10 E374.68515
G1 X165.96 Y162.74 E374.70425
G1 X166.19 Y162.02 E374.74179
G1 X166.31 Y160.90 E374.79798
G1 X166.19 Y159.78 E374.85413
G1 X165.84 Y158.70 E374.91080
G1 X165.27 Y157.72 E374.96702
G1 X164.51 Y156.88 E375.02347
G1 X163.60 Y156.22 E375.07957
G1 X162.57 Y155.76 E375.13630
G1 X161.46 Y155.53 E375.19250
G0 F12000 X161.50 Y149.57
G0 X161.47 Y149.47
G1 F4380 X161.70 Y149.42 E375.20454
G1 X162.57 Y149.24 E375.24875
G1 X163.60 Y148.78 E375.30519
G1 X163.91 Y148.56 E375.32404
G1 X164.52 Y148.12 E375.36158
G1 X165.27 Y147.28 E375.41793
G1 X165.84 Y146.30 E375.47402
G1 X166.19 Y145.22 E375.53091
G1 X166.31 Y144.10 E375.58700
G1 X166.19 Y142.98 E375.64319
G1 X165.84 Y141.90 E375.69983
G1 X165.27 Y140.92 E375.75625
G1 X164.51 Y140.08 E375.81252
G1 X163.60 Y139.42 E375.86874
G1 X162.57 Y138.96 E375.92522
G1 X161.46 Y138.73 E375.98164
G1 X160.33 Y138.73 E376.03807
G1 X159.23 Y138.96 E376.09414
G1 X158.20 Y139.42 E376.15074
G1 X157.28 Y140.09 E376.20713
G1 X156.53 Y140.92 E376.26312
G1 X155.96 Y141.90 E376.31967
G1 X155.61 Y142.98 E376.37642
G1 X155.50 Y144.10 E376.43230
G1 X155.62 Y145.24 E376.48971
G1 X155.73 Y145.58 E376.50754
G1 X155.96 Y146.30 E376.54517
G1 X156.53 Y147.28 E376.60153
G1 X157.28 Y148.12 E376.65798
G1 X158.20 Y148.78 E376.71419
G1 X159.23 Y149.24 E376.77063
G1 X159.60 Y149.32 E376.78972
G1 X159.60 Y149.32 E376.78977
G1 X160.33 Y149.47 E376.82693
G1 X161.47 Y149.47 E376.88341
G0 F12000 X161.50 Y149.57
G0 X159.17 Y149.43
G0 X157.15 Y148.26
G0 X149.49 Y145.22
G0 X149.39 Y145.22
G1 F4380 X149.50 Y144.10 E376.93964
G1 X149.39 Y142.98 E376.99597
G1 X149.04 Y141.90 E377.05245
G1 X148.47 Y140.92 E377.10900
G1 X147.72 Y140.09 E377.16499
G1 X146.80 Y139.42 E377.22139
G1 X145.77 Y138.96 E377.27798
G1 X144.67 Y138.73 E377.33405
G1 X143.54 Y138.73 E377.39048
G1 X142.43 Y138.96 E377.44690
G1 X141.40 Y139.42 E377.50338
G1 X140.49 Y140.08 E377.55960
G1 X139.73 Y140.92 E377.61587
G1 X139.16 Y141.90 E377.67229
G1 X138.81 Y142.98 E377.72893
G1 X138.69 Y144.10 E377.78512
G1 X138.81 Y145.22 E377.84136
G1 X138.93 Y145.58 E377.86021
G1 X139.16 Y146.30 E377.89789
G1 X139.73 Y147.28 E377.95436
G1 X140.48 Y148.11 E378.01025
G1 X140.79 Y148.34 E378.02939
G1 X141.40 Y148.78 E378.06696
G1 X142.43 Y149.24 E378.12329
G1 X142.81 Y149.32 E378.14238
G1 X143.53 Y149.47 E378.17960
G1 X144.67 Y149.47 E378.23603
G1 X144.87 Y149.43 E378.24623
G1 X145.77 Y149.24 E378.29223
G1 X146.80 Y148.78 E378.34872
G1 X147.11 Y148.56 E378.36757
G1 X147.72 Y148.12 E378.40500
G1 X148.47 Y147.27 E378.46156
G1 X149.04 Y146.31 E378.51747
G1 X149.39 Y145.22 E378.57427
G0 F12000 X149.49 Y145.22
G0 X145.78 Y155.66
G0 X145.77 Y155.76
G1 F4380 X144.66 Y155.53 E378.63063
G1 X143.54 Y155.53 E378.68691
G1 X142.43 Y155.76 E378.74310
G1 X141.40 Y156.22 E378.79983
G1 X140.49 Y156.88 E378.85593
G1 X139.73 Y157.72 E378.91238
G1 X139.16 Y158.70 E378.96860
G1 X138.81 Y159.78 E379.02528
G1 X138.69 Y160.90 E379.08142
G1 X138.81 Y162.02 E379.13777
G1 X138.93 Y162.38 E379.15654
G1 X139.16 Y163.10 E379.19424
G1 X139.35 Y163.43 E379.21305
G1 X139.73 Y164.08 E379.25063
G1 X140.48 Y164.91 E379.30680
G1 X141.40 Y165.58 E379.36316
G1 X142.43 Y166.04 E379.41964
G1 X143.54 Y166.27 E379.47606
G1 X144.66 Y166.27 E379.53229
G1 X144.69 Y166.27 E379.53367
G1 X145.77 Y166.04 E379.58866
G1 X146.80 Y165.58 E379.64497
G1 X147.11 Y165.36 E379.66389
G1 X147.72 Y164.91 E379.70139
G1 X148.46 Y164.09 E379.75710
G1 X149.04 Y163.10 E379.81406
G1 X149.16 Y162.74 E379.83317
G1 X149.39 Y162.02 E379.87065
G1 X149.50 Y160.90 E379.92708
G1 X149.39 Y159.78 E379.98296
G1 X149.04 Y158.70 E380.03966
G1 X148.47 Y157.72 E380.09606
G1 X147.71 Y156.88 E380.15241
G1 X146.80 Y156.22 E380.20858
G1 X145.77 Y155.76 E380.26507
G0 F12000 X145.78 Y155.66
G0 X143.52 Y155.33
G0 X141.29 Y156.05
G0 X139.57 Y157.61
G0 X138.62 Y159.74
G0 X138.74 Y162.44
G0 X136.17 Y168.87
G1 F4380 X136.17 Y136.27 E381.89149
G1 X168.87 Y136.27 E383.52290
G1 X168.87 Y168.87 E385.14932
G1 X136.17 Y168.87 E386.78073
G0 F12000 X136.27 Y165.71
G0 X136.11 Y165.71
G1 F4380 X141.83 Y165.71 E387.06605
G0 F12000 X142.85 Y166.07
G1 F4380 X142.85 Y168.93 E387.20898
G0 F12000 X142.85 Y168.77
G0 X146.44 Y165.85
G0 X146.37 Y165.71
G1 F4380 X158.63 Y165.71 E387.82064
G0 F12000 X158.57 Y165.85
G0 X160.32 Y166.47
G0 X162.63 Y166.23
G0 X163.24 Y165.85
G0 X163.17 Y165.71
G1 F4380 X168.93 Y165.71 E388.10796
G0 F12000 X168.77 Y165.71
G0 X165.84 Y163.28
G0 X165.71 Y163.20
G1 F4380 X165.71 Y168.93 E388.39368
G0 F12000 X165.71 Y168.77
G0 X166.50 Y160.90
G0 X165.84 Y158.51
G0 X165.71 Y158.59
G1 F4380 X165.71 Y146.41 E389.00174
G0 F12000 X165.84 Y146.49
G0 X166.50 Y144.10
G0 X166.23 Y142.80
G0 X166.08 Y142.85
G1 F4380 X168.93 Y142.85 E389.14398
G0 F12000 X168.77 Y142.85
G0 X165.84 Y141.72
G0 X165.71 Y141.80
G1 F4380 X165.71 Y136.21 E389.42261
G0 F12000 X165.71 Y136.37
G0 X154.28 Y136.37
G0 X154.28 Y136.21
G1 F4380 X154.28 Y168.93 E391.05502
G0 F12000 X154.28 Y168.77
G0 X148.63 Y157.60
G0 X146.90 Y156.05
G0 X144.68 Y155.33
G0 X142.82 Y155.58
G0 X142.85 Y155.73
G1 F4380 X142.85 Y149.27 E391.37761
G0 F12000 X142.82 Y149.42
G0 X140.67 Y148.50
G0 X138.98 Y146.38
G0 X138.50 Y144.10
G0 X138.77 Y142.80
G0 X138.92 Y142.85
G1 F4380 X136.11 Y142.85 E391.51770
G0 F12000 X136.27 Y142.85
G0 X141.30 Y139.25
G0 X142.82 Y138.78
G0 X142.85 Y138.94
G1 F4380 X142.85 Y136.21 E391.65360
G0 F12000 X142.85 Y136.37
G0 X147.85 Y139.94
G0 X149.22 Y141.82
G0 X149.43 Y142.80
G0 X149.28 Y142.85
G1 F4380 X155.72 Y142.85 E391.97475
G0 F12000 X155.57 Y142.80
G0 X155.43 Y145.28
G0 X156.37 Y147.39
G0 X158.10 Y148.95
G0 X160.31 Y149.67
G0 X168.77 Y154.28
G0 X168.93 Y154.28
G1 F4380 X136.11 Y154.28 E393.61214
;LAYER:5
G1 F2400 E392.41214
G0 F12000 X140.79 Y158.49 Z1.80
;TYPE:WALL-INNER
G1 F2400 E393.61214
G1 F4380 X141.36 Y157.85 E393.65482
G1 X142.05 Y157.35 E393.69753
G1 X142.83 Y157.00 E393.74026
G1 X143.67 Y156.83 E393.78305
G1 X144.53 Y156.83 E393.82570
G1 X145.37 Y157.00 E393.86849
G1 X146.15 Y157.35 E393.91117
G1 X146.84 Y157.85 E393.95392
G1 X147.41 Y158.49 E393.99660
G1 X147.84 Y159.23 E394.03932
G1 X148.11 Y160.05 E394.08212
G1 X148.20 Y160.90 E394.12481
G1 X148.11 Y161.75 E394.16755
G1 X147.84 Y162.57 E394.21040
G1 X147.41 Y163.31 E394.25311
G1 X146.84 Y163.94 E394.29572
G1 X146.15 Y164.45 E394.33858
G1 X145.65 Y164.67 E394.36576
G1 X145.37 Y164.79 E394.38117
G1 X144.53 Y164.97 E394.42397
G1 X143.67 Y164.97 E394.46657
G1 X142.83 Y164.79 E394.50958
G1 X142.34 Y164.57 E394.53665
G1 X142.05 Y164.45 E394.55210
G1 X141.36 Y163.94 E394.59490
G1 X140.79 Y163.31 E394.63750
G1 X140.36 Y162.57 E394.68022
G1 X140.09 Y161.75 E394.72307
G1 X140.04 Y161.21 E394.75035
G1 X140.00 Y160.90 E394.76586
G1 X140.09 Y160.05 E394.80849
G1 X140.36 Y159.23 E394.85130
G1 X140.79 Y158.49 E394.89402
G0 F12000 X140.46 Y158.26
;TYPE:WALL-OUTER
G1 F4380 X141.09 Y157.56 E394.94104
G1 X141.85 Y157.00 E394.98804
G1 X142.71 Y156.62 E395.03487
G1 X143.63 Y156.43 E395.08190
G1 X144.57 Y156.43 E395.12865
G1 X145.49 Y156.62 E395.17568
G1 X146.35 Y157.00 E395.22247
G1 X147.11 Y157.56 E395.26947
G1 X147.74 Y158.26 E395.31652
G1 X148.21 Y159.07 E395.36329
