;-- START GCODE --
;Sliced for Type A Machines Series 1
;Sliced at: Sun 02-08-2015 15:28:26
;Basic settings: Layer height: 0.3 Walls: 0.8 Fill: 8
;Print Speed: 80 Support: 0
;Retraction Speed: 40 Retraction Distance: 1.2
;Print time: #P_TIME#
;Filament used: #F_AMNT#m #F_WGHT#g
;Filament cost: #F_COST#
M106 S255	 ;start with the fan on
G21        ;metric values
G90        ;absolute positioning
M106 S255    ;start with the fan on
G28     ;move to endstops
G29		;allows for auto-levelling
G1 X150 Y5  Z15.0 F12000 ;center and move the platform down 15mm
M109 S220 ;Heat To temp
G92 E0                  ;zero the extruded length
G1 F200 E30              ;extrude 30mm of feed stock
G92 E0                  ;zero the extruded length again
G1 X175 Y25  Z0 F12000 ;remove bugger
G1 X220 F12000 ;remove bugger
G1 X150 Y150  Z15 F12000 ;recenter and begin
G1 F12000

;Layer count: 78
;LAYER:0
M106 S255
G0 F12000 X125.58 Y130.52 Z0.30
;TYPE:SKIRT
G1 F2700 X173.88 Y130.52 E2.40970
G1 X173.88 Y178.72 E4.81440
G1 X125.58 Y178.72 E7.22410
G1 X125.58 Y130.52 E9.62881
G0 F12000 X125.98 Y130.92
G1 F2700 X173.48 Y130.92 E11.99859
G1 X173.48 Y178.32 E14.36339
G1 X125.98 Y178.32 E16.73317
G1 X125.98 Y130.92 E19.09797
G0 F12000 X126.38 Y131.32
G1 F2700 X173.08 Y131.32 E21.42784
G1 X173.08 Y177.92 E23.75273
G1 X126.38 Y177.92 E26.08260
G1 X126.38 Y131.32 E28.40748
G0 F12000 X126.78 Y131.72
G1 F2700 X172.68 Y131.72 E30.69744
G1 X172.68 Y177.52 E32.98241
G1 X126.78 Y177.52 E35.27237
G1 X126.78 Y131.72 E37.55734
G0 F12000 X127.18 Y132.12
G1 F2700 X172.28 Y132.12 E39.80739
G1 X172.28 Y177.12 E42.05245
G1 X127.18 Y177.12 E44.30250
G1 X127.18 Y132.12 E46.54756
G0 F12000 X127.58 Y132.52
G1 F2700 X171.88 Y132.52 E48.75769
G1 X171.88 Y176.72 E50.96284
G1 X127.58 Y176.72 E53.17298
G1 X127.58 Y132.52 E55.37812
G0 F12000 X127.98 Y132.92
G1 F2700 X171.48 Y132.92 E57.54835
G1 X171.48 Y176.32 E59.71358
G1 X127.98 Y176.32 E61.88381
G1 X127.98 Y132.92 E64.04904
G0 F12000 X128.38 Y133.32
G1 F2700 X171.08 Y133.32 E66.17935
G1 X171.08 Y175.92 E68.30468
G1 X128.38 Y175.92 E70.43499
G1 X128.38 Y133.32 E72.56031
G0 F12000 X128.78 Y133.72
G1 F2700 X170.68 Y133.72 E74.65071
G1 X170.68 Y175.52 E76.73612
G1 X128.78 Y175.52 E78.82652
G1 X128.78 Y133.72 E80.91193
G0 F12000 X129.18 Y134.12
G1 F2700 X170.28 Y134.12 E82.96242
G1 X170.28 Y175.12 E85.00792
G1 X129.18 Y175.12 E87.05840
G1 X129.18 Y134.12 E89.10390
G0 F12000 X129.58 Y134.52
G1 F2700 X169.88 Y134.52 E91.11448
G1 X169.88 Y174.72 E93.12006
G1 X129.58 Y174.72 E95.13064
G1 X129.58 Y134.52 E97.13622
G0 F12000 X129.98 Y134.92
G1 F2700 X169.48 Y134.92 E99.10689
G1 X169.48 Y174.32 E101.07256
G1 X129.98 Y174.32 E103.04322
G1 X129.98 Y134.92 E105.00890
G0 F12000 X130.38 Y135.32
G1 F2700 X169.08 Y135.32 E106.93965
G1 X169.08 Y173.92 E108.86541
G1 X130.38 Y173.92 E110.79616
G1 X130.38 Y135.32 E112.72192
G0 F12000 X130.78 Y135.72
G1 F2700 X168.68 Y135.72 E114.61276
G1 X168.68 Y173.52 E116.49861
G1 X130.78 Y173.52 E118.38945
G1 X130.78 Y135.72 E120.27530
G0 F12000 X131.18 Y136.12
G1 F2700 X168.28 Y136.12 E122.12623
G1 X168.28 Y173.12 E123.97216
G1 X131.18 Y173.12 E125.82309
G1 X131.18 Y136.12 E127.66903
G0 F12000 X131.58 Y136.52
G1 F2700 X167.88 Y136.52 E129.48004
G1 X167.88 Y172.72 E131.28607
G1 X131.58 Y172.72 E133.09708
G1 X131.58 Y136.52 E134.90311
G0 F12000 X131.98 Y136.92
G1 F2700 X167.48 Y136.92 E136.67421
G1 X167.48 Y172.32 E138.44032
G1 X131.98 Y172.32 E140.21143
G1 X131.98 Y136.92 E141.97754
G0 F12000 X132.38 Y137.32
G1 F2700 X167.08 Y137.32 E143.70873
G1 X167.08 Y171.92 E145.43493
G1 X132.38 Y171.92 E147.16612
G1 X132.38 Y137.32 E148.89232
G0 F12000 X132.78 Y137.72
G1 F2700 X166.68 Y137.72 E150.58360
G1 X166.68 Y171.52 E152.26989
G1 X132.78 Y171.52 E153.96117
G1 X132.78 Y137.72 E155.64745
G0 F12000 X133.18 Y138.12
G1 F2700 X166.28 Y138.12 E157.29882
G1 X166.28 Y171.12 E158.94520
G1 X133.18 Y171.12 E160.59656
G1 X133.18 Y138.12 E162.24294
G1 F2400 E161.04294
G0 F12000 X138.57 Y143.10
;TYPE:WALL-INNER
G1 F2400 E162.24294
G1 F2700 X139.26 Y142.60 E162.28577
G1 X140.04 Y142.25 E162.32843
G1 X140.88 Y142.07 E162.37127
G1 X141.74 Y142.07 E162.41387
G1 X142.58 Y142.25 E162.45671
G1 X143.36 Y142.60 E162.49937
G1 X144.05 Y143.10 E162.54220
G1 X144.63 Y143.74 E162.58491
G1 X145.05 Y144.48 E162.62738
G1 X145.32 Y145.30 E162.67029
G1 X145.41 Y146.15 E162.71303
G1 X145.32 Y147.00 E162.75567
G1 X145.06 Y147.79 E162.79699
G1 X144.62 Y148.56 E162.84121
G1 X144.05 Y149.20 E162.88417
G1 X143.36 Y149.70 E162.92653
G1 X142.58 Y150.04 E162.96925
G1 X141.77 Y150.22 E163.01045
G1 X140.88 Y150.22 E163.05485
G1 X140.08 Y150.05 E163.09580
G1 X139.26 Y149.70 E163.14024
G1 X138.57 Y149.19 E163.18292
G1 X138.02 Y148.58 E163.22414
G1 X137.57 Y147.82 E163.26820
G1 X137.30 Y147.00 E163.31105
G1 X137.22 Y146.15 E163.35374
G1 X137.30 Y145.30 E163.39653
G1 X137.57 Y144.48 E163.43944
G1 X138.00 Y143.74 E163.48191
G1 X138.57 Y143.10 E163.52462
G0 F12000 X138.63 Y143.18
G1 F2700 X138.13 Y143.73 E163.56182
G1 X138.07 Y143.80 E163.56624
G1 X137.70 Y144.44 E163.60321
G1 X137.66 Y144.52 E163.60777
G1 X137.42 Y145.23 E163.64524
G1 X137.40 Y145.31 E163.64959
G1 X137.32 Y146.05 E163.68661
G1 X137.31 Y146.14 E163.69118
G1 X137.40 Y146.98 E163.73317
G1 X137.65 Y147.78 E163.77493
G1 X138.07 Y148.50 E163.81668
G1 X138.63 Y149.12 E163.85844
G1 X139.31 Y149.62 E163.90016
G1 X140.07 Y149.96 E163.94197
G1 X140.89 Y150.13 E163.98373
G1 X141.73 Y150.13 E164.02544
G1 X142.55 Y149.96 E164.06720
G1 X143.31 Y149.62 E164.10901
G1 X143.99 Y149.12 E164.15073
G1 X144.55 Y148.50 E164.19249
G1 X144.97 Y147.78 E164.23424
G1 X145.23 Y146.98 E164.27600
G1 X145.31 Y146.15 E164.31774
G1 X145.24 Y145.40 E164.35531
G1 X145.23 Y145.31 E164.35972
G1 X145.00 Y144.60 E164.39697
G1 X144.97 Y144.52 E164.40134
G1 X144.56 Y143.82 E164.44160
G1 X144.05 Y143.24 E164.48015
G1 X143.99 Y143.17 E164.48471
G1 X143.38 Y142.73 E164.52211
G1 X143.32 Y142.68 E164.52624
G1 X142.63 Y142.38 E164.56381
G1 X142.56 Y142.34 E164.56785
G1 X141.76 Y142.18 E164.60863
G1 X140.98 Y142.17 E164.64715
G1 X140.89 Y142.17 E164.65164
G1 X140.10 Y142.34 E164.69207
G1 X139.34 Y142.67 E164.73372
G1 X138.70 Y143.12 E164.77262
G1 X138.63 Y143.18 E164.77715
G0 F12000 X138.90 Y143.47
;TYPE:WALL-OUTER
G1 F2700 X138.40 Y144.03 E164.81467
G1 X138.05 Y144.64 E164.84973
G1 X138.02 Y144.68 E164.85211
G1 X137.80 Y145.35 E164.88737
G1 X137.79 Y145.40 E164.88973
G1 X137.72 Y146.10 E164.92485
G1 X137.71 Y146.15 E164.92720
G1 X137.79 Y146.90 E164.96487
G1 X138.02 Y147.61 E165.00244
G1 X138.40 Y148.26 E165.03994
G1 X138.90 Y148.82 E165.07753
G1 X139.51 Y149.27 E165.11507
G1 X140.20 Y149.57 E165.15266
G1 X140.94 Y149.73 E165.19024
G1 X141.69 Y149.73 E165.22776
G1 X142.42 Y149.57 E165.26535
G1 X143.11 Y149.27 E165.30293
G1 X143.72 Y148.82 E165.34047
G1 X144.22 Y148.26 E165.37806
G1 X144.60 Y147.61 E165.41557
G1 X144.83 Y146.90 E165.45313
G1 X144.91 Y146.15 E165.49070
G1 X144.84 Y145.44 E165.52601
G1 X144.83 Y145.40 E165.52833
G1 X144.62 Y144.73 E165.56358
G1 X144.60 Y144.68 E165.56585
G1 X144.24 Y144.06 E165.60205
G1 X143.72 Y143.47 E165.64089
G1 X143.15 Y143.06 E165.67619
G1 X143.11 Y143.03 E165.67839
G1 X142.47 Y142.74 E165.71373
G1 X142.43 Y142.72 E165.71589
G1 X141.71 Y142.57 E165.75229
G1 X140.98 Y142.57 E165.78876
G1 X140.94 Y142.57 E165.79111
G1 X140.22 Y142.72 E165.82736
G1 X139.53 Y143.02 E165.86487
G1 X138.94 Y143.45 E165.90149
G1 X138.90 Y143.47 E165.90384
G0 F12000 X138.30 Y142.80
G1 F2700 X139.06 Y142.25 E165.95053
G1 X139.92 Y141.87 E165.99749
G1 X140.84 Y141.68 E166.04457
G1 X141.78 Y141.68 E166.09127
G1 X142.70 Y141.87 E166.13834
G1 X143.56 Y142.25 E166.18531
G1 X144.32 Y142.80 E166.23199
G1 X144.95 Y143.51 E166.27919
G1 X145.42 Y144.32 E166.32597
G1 X145.71 Y145.21 E166.37286
G1 X145.81 Y146.15 E166.41972
G1 X145.71 Y147.07 E166.46597
G1 X145.71 Y147.09 E166.46678
G1 X145.43 Y147.94 E166.51187
G1 X144.95 Y148.79 E166.56056
G1 X144.33 Y149.48 E166.60684
G1 X144.32 Y149.49 E166.60744
G1 X143.57 Y150.04 E166.65373
G1 X143.56 Y150.04 E166.65434
G1 X142.71 Y150.42 E166.70073
G1 X141.81 Y150.62 E166.74659
G1 X140.85 Y150.62 E166.79453
G1 X139.95 Y150.44 E166.84041
G1 X139.07 Y150.05 E166.88833
G1 X138.31 Y149.50 E166.93517
G1 X137.69 Y148.82 E166.98123
G1 X137.21 Y147.99 E167.02890
G1 X136.91 Y147.10 E167.07587
G1 X136.81 Y146.16 E167.12284
G1 X136.81 Y146.15 E167.12355
G1 X136.91 Y145.21 E167.17041
G1 X137.20 Y144.32 E167.21730
G1 X137.67 Y143.51 E167.26408
G1 X138.30 Y142.80 E167.31127
G1 F2400 E166.11127
G0 F12000 X140.88 Y158.87
;TYPE:WALL-INNER
G1 F2400 E167.31127
G1 F2700 X141.74 Y158.87 E167.35388
G1 X142.58 Y159.05 E167.39672
G1 X143.36 Y159.40 E167.43938
G1 X144.05 Y159.90 E167.48221
G1 X144.63 Y160.54 E167.52492
G1 X145.05 Y161.28 E167.56739
G1 X145.32 Y162.10 E167.61030
G1 X145.41 Y162.95 E167.65304
G1 X145.32 Y163.80 E167.69568
G1 X145.06 Y164.59 E167.73700
G1 X144.62 Y165.36 E167.78122
G1 X144.05 Y166.00 E167.82418
G1 X143.36 Y166.50 E167.86654
G1 X142.58 Y166.84 E167.90926
G1 X141.77 Y167.01 E167.95046
G1 X140.88 Y167.02 E167.99486
G1 X140.08 Y166.85 E168.03581
G1 X139.26 Y166.50 E168.08025
G1 X138.57 Y165.99 E168.12293
G1 X138.02 Y165.38 E168.16415
G1 X137.57 Y164.62 E168.20821
G1 X137.30 Y163.80 E168.25106
G1 X137.22 Y162.95 E168.29375
G1 X137.30 Y162.10 E168.33653
G1 X137.57 Y161.28 E168.37945
G1 X138.00 Y160.54 E168.42192
G1 X138.57 Y159.90 E168.46463
G1 X139.26 Y159.40 E168.50746
G1 X140.04 Y159.05 E168.55012
G1 X140.88 Y158.87 E168.59296
G0 F12000 X140.89 Y158.97
G1 F2700 X140.10 Y159.13 E168.63339
G1 X139.34 Y159.47 E168.67503
G1 X138.70 Y159.92 E168.71394
G1 X138.63 Y159.98 E168.71847
G1 X138.13 Y160.53 E168.75566
G1 X138.07 Y160.60 E168.76008
G1 X137.70 Y161.24 E168.79705
G1 X137.66 Y161.32 E168.80161
G1 X137.42 Y162.03 E168.83908
G1 X137.40 Y162.11 E168.84344
G1 X137.32 Y162.85 E168.88045
G1 X137.31 Y162.94 E168.88503
G1 X137.40 Y163.78 E168.92702
G1 X137.65 Y164.58 E168.96878
G1 X138.07 Y165.30 E169.01053
G1 X138.63 Y165.92 E169.05228
G1 X139.31 Y166.41 E169.09401
G1 X140.07 Y166.76 E169.13581
G1 X140.89 Y166.93 E169.17758
G1 X141.73 Y166.93 E169.21928
G1 X142.55 Y166.76 E169.26105
G1 X143.31 Y166.41 E169.30285
G1 X143.99 Y165.92 E169.34458
G1 X144.55 Y165.30 E169.38633
G1 X144.97 Y164.58 E169.42808
G1 X145.23 Y163.78 E169.46984
G1 X145.31 Y162.95 E169.51158
G1 X145.24 Y162.20 E169.54915
G1 X145.23 Y162.11 E169.55357
G1 X145.00 Y161.40 E169.59082
G1 X144.97 Y161.32 E169.59519
G1 X144.56 Y160.62 E169.63544
G1 X144.05 Y160.04 E169.67400
G1 X143.99 Y159.97 E169.67856
G1 X143.38 Y159.53 E169.71596
G1 X143.32 Y159.48 E169.72009
G1 X142.63 Y159.18 E169.75766
G1 X142.56 Y159.14 E169.76169
G1 X141.76 Y158.97 E169.80248
G1 X140.98 Y158.97 E169.84099
G1 X140.89 Y158.97 E169.84548
G0 F12000 X140.94 Y159.37
;TYPE:WALL-OUTER
G1 F2700 X140.22 Y159.52 E169.88174
G1 X139.53 Y159.82 E169.91925
G1 X138.94 Y160.25 E169.95587
G1 X138.90 Y160.27 E169.95822
G1 X138.40 Y160.83 E169.99574
G1 X138.05 Y161.44 E170.03081
G1 X138.02 Y161.48 E170.03318
G1 X137.80 Y162.15 E170.06844
G1 X137.79 Y162.20 E170.07081
G1 X137.72 Y162.90 E170.10592
G1 X137.71 Y162.95 E170.10828
G1 X137.79 Y163.70 E170.14595
G1 X138.02 Y164.41 E170.18351
G1 X138.40 Y165.06 E170.22102
G1 X138.90 Y165.62 E170.25860
G1 X139.51 Y166.07 E170.29615
G1 X140.20 Y166.37 E170.33373
G1 X140.94 Y166.53 E170.37132
G1 X141.69 Y166.53 E170.40883
G1 X142.42 Y166.37 E170.44642
G1 X143.11 Y166.07 E170.48400
G1 X143.72 Y165.62 E170.52155
G1 X144.22 Y165.06 E170.55913
G1 X144.60 Y164.41 E170.59664
G1 X144.83 Y163.70 E170.63421
G1 X144.91 Y162.95 E170.67178
G1 X144.84 Y162.24 E170.70709
G1 X144.83 Y162.20 E170.70940
G1 X144.62 Y161.53 E170.74465
G1 X144.60 Y161.48 E170.74692
G1 X144.24 Y160.85 E170.78313
G1 X143.72 Y160.27 E170.82196
G1 X143.15 Y159.86 E170.85726
G1 X143.11 Y159.83 E170.85947
G1 X142.47 Y159.54 E170.89480
G1 X142.43 Y159.52 E170.89696
G1 X141.71 Y159.37 E170.93336
G1 X140.98 Y159.37 E170.96983
G1 X140.94 Y159.37 E170.97218
G0 F12000 X140.84 Y158.47
G1 F2700 X141.78 Y158.47 E171.01888
G1 X142.70 Y158.67 E171.06595
G1 X143.56 Y159.05 E171.11292
G1 X144.32 Y159.60 E171.15960
G1 X144.95 Y160.31 E171.20680
G1 X145.42 Y161.12 E171.25358
G1 X145.71 Y162.01 E171.30047
G1 X145.81 Y162.95 E171.34733
G1 X145.71 Y163.87 E171.39358
G1 X145.71 Y163.88 E171.39439
G1 X145.43 Y164.74 E171.43948
G1 X144.95 Y165.59 E171.48817
G1 X144.33 Y166.28 E171.53445
G1 X144.32 Y166.29 E171.53505
G1 X143.57 Y166.84 E171.58134
G1 X143.56 Y166.84 E171.58195
G1 X142.71 Y167.22 E171.62833
G1 X141.81 Y167.41 E171.67420
G1 X140.85 Y167.42 E171.72214
G1 X139.95 Y167.23 E171.76801
G1 X139.07 Y166.85 E171.81594
G1 X138.31 Y166.30 E171.86278
G1 X137.69 Y165.62 E171.90884
G1 X137.21 Y164.79 E171.95651
G1 X136.91 Y163.90 E172.00348
G1 X136.81 Y162.96 E172.05045
G1 X136.81 Y162.95 E172.05116
G1 X136.91 Y162.01 E172.09801
G1 X137.20 Y161.12 E172.14490
G1 X137.67 Y160.31 E172.19169
G1 X138.30 Y159.60 E172.23888
G1 X139.06 Y159.05 E172.28556
G1 X139.92 Y158.67 E172.33253
G1 X140.84 Y158.47 E172.37961
G1 F2400 E171.17961
G0 F12000 X154.10 Y162.10
;TYPE:WALL-INNER
G1 F2400 E172.37961
G1 F2700 X154.37 Y161.28 E172.42252
G1 X154.79 Y160.54 E172.46499
G1 X155.37 Y159.90 E172.50770
G1 X156.06 Y159.40 E172.55054
G1 X156.84 Y159.05 E172.59319
G1 X157.68 Y158.87 E172.63603
G1 X158.54 Y158.87 E172.67864
G1 X159.38 Y159.05 E172.72148
G1 X160.16 Y159.40 E172.76413
G1 X160.85 Y159.90 E172.80696
G1 X161.43 Y160.54 E172.84968
G1 X161.85 Y161.28 E172.89215
G1 X162.12 Y162.10 E172.93506
G1 X162.21 Y162.95 E172.97780
G1 X162.12 Y163.80 E173.02044
G1 X161.86 Y164.59 E173.06176
G1 X161.42 Y165.36 E173.10598
G1 X160.85 Y166.00 E173.14893
G1 X160.16 Y166.50 E173.19130
G1 X159.38 Y166.84 E173.23402
G1 X158.57 Y167.01 E173.27521
G1 X157.68 Y167.02 E173.31962
G1 X156.88 Y166.85 E173.36057
G1 X156.06 Y166.50 E173.40500
G1 X155.37 Y165.99 E173.44768
G1 X154.82 Y165.38 E173.48891
G1 X154.37 Y164.62 E173.53297
G1 X154.10 Y163.80 E173.57582
G1 X154.01 Y162.95 E173.61850
G1 X154.10 Y162.10 E173.66129
G0 F12000 X154.19 Y162.11
G1 F2700 X154.12 Y162.85 E173.69831
G1 X154.11 Y162.94 E173.70288
G1 X154.19 Y163.78 E173.74487
G1 X154.45 Y164.58 E173.78663
G1 X154.87 Y165.30 E173.82839
G1 X155.43 Y165.92 E173.87014
G1 X156.11 Y166.41 E173.91186
G1 X156.87 Y166.76 E173.95367
G1 X157.69 Y166.93 E173.99543
G1 X158.53 Y166.93 E174.03714
G1 X159.35 Y166.76 E174.07890
G1 X160.11 Y166.41 E174.12071
G1 X160.79 Y165.92 E174.16243
G1 X161.35 Y165.30 E174.20419
G1 X161.77 Y164.58 E174.24594
G1 X162.03 Y163.78 E174.28770
G1 X162.11 Y162.95 E174.32944
G1 X162.03 Y162.20 E174.36701
G1 X162.03 Y162.11 E174.37142
G1 X161.79 Y161.40 E174.40867
G1 X161.77 Y161.32 E174.41304
G1 X161.36 Y160.62 E174.45330
G1 X160.85 Y160.04 E174.49185
G1 X160.79 Y159.97 E174.49641
G1 X160.18 Y159.53 E174.53382
G1 X160.12 Y159.48 E174.53795
G1 X159.43 Y159.18 E174.57551
G1 X159.35 Y159.14 E174.57955
G1 X158.56 Y158.97 E174.62033
G1 X157.78 Y158.97 E174.65885
G1 X157.69 Y158.97 E174.66334
G1 X156.90 Y159.13 E174.70377
G1 X156.13 Y159.47 E174.74542
G1 X155.50 Y159.92 E174.78432
G1 X155.43 Y159.98 E174.78885
G1 X154.93 Y160.53 E174.82605
G1 X154.87 Y160.60 E174.83047
G1 X154.50 Y161.24 E174.86743
G1 X154.45 Y161.32 E174.87199
G1 X154.22 Y162.03 E174.90946
G1 X154.19 Y162.11 E174.91382
G0 F12000 X154.59 Y162.20
;TYPE:WALL-OUTER
G1 F2700 X154.51 Y162.90 E174.94893
G1 X154.51 Y162.95 E174.95129
G1 X154.59 Y163.70 E174.98896
G1 X154.82 Y164.41 E175.02652
G1 X155.20 Y165.06 E175.06403
G1 X155.70 Y165.62 E175.10162
G1 X156.31 Y166.07 E175.13916
G1 X157.00 Y166.37 E175.17675
G1 X157.73 Y166.53 E175.21433
G1 X158.49 Y166.53 E175.25185
G1 X159.22 Y166.37 E175.28943
G1 X159.91 Y166.07 E175.32702
G1 X160.52 Y165.62 E175.36456
G1 X161.02 Y165.06 E175.40215
G1 X161.40 Y164.41 E175.43965
G1 X161.63 Y163.70 E175.47722
G1 X161.71 Y162.95 E175.51479
G1 X161.64 Y162.24 E175.55010
G1 X161.63 Y162.20 E175.55241
G1 X161.41 Y161.53 E175.58766
G1 X161.40 Y161.48 E175.58993
G1 X161.04 Y160.85 E175.62614
G1 X160.52 Y160.27 E175.66498
G1 X159.95 Y159.86 E175.70028
G1 X159.91 Y159.83 E175.70248
G1 X159.26 Y159.54 E175.73781
G1 X159.23 Y159.52 E175.73998
G1 X158.51 Y159.37 E175.77638
G1 X157.78 Y159.37 E175.81285
G1 X157.73 Y159.37 E175.81519
G1 X157.02 Y159.52 E175.85144
G1 X156.33 Y159.82 E175.88896
G1 X155.74 Y160.25 E175.92558
G1 X155.70 Y160.27 E175.92793
G1 X155.20 Y160.83 E175.96545
G1 X154.84 Y161.44 E176.00052
G1 X154.82 Y161.48 E176.00289
G1 X154.60 Y162.15 E176.03815
G1 X154.59 Y162.20 E176.04051
G0 F12000 X153.71 Y162.01
G1 F2700 X154.00 Y161.12 E176.08740
G1 X154.47 Y160.31 E176.13419
G1 X155.10 Y159.60 E176.18138
G1 X155.86 Y159.05 E176.22806
G1 X156.72 Y158.67 E176.27503
G1 X157.64 Y158.47 E176.32211
G1 X158.58 Y158.47 E176.36881
G1 X159.50 Y158.67 E176.41588
G1 X160.36 Y159.05 E176.46285
G1 X161.12 Y159.60 E176.50953
G1 X161.75 Y160.31 E176.55673
G1 X162.22 Y161.12 E176.60351
G1 X162.51 Y162.01 E176.65040
G1 X162.61 Y162.95 E176.69726
G1 X162.51 Y163.87 E176.74351
G1 X162.51 Y163.88 E176.74432
G1 X162.23 Y164.74 E176.78941
G1 X161.75 Y165.59 E176.83809
G1 X161.13 Y166.28 E176.88437
G1 X161.12 Y166.29 E176.88498
G1 X160.37 Y166.84 E176.93127
G1 X160.36 Y166.84 E176.93188
G1 X159.51 Y167.22 E176.97826
G1 X158.61 Y167.41 E177.02413
G1 X157.65 Y167.42 E177.07207
G1 X156.75 Y167.23 E177.11794
G1 X155.87 Y166.85 E177.16586
G1 X155.11 Y166.30 E177.21271
G1 X154.49 Y165.62 E177.25877
G1 X154.01 Y164.79 E177.30644
G1 X153.71 Y163.90 E177.35341
G1 X153.61 Y162.96 E177.40038
G1 X153.61 Y162.95 E177.40108
G1 X153.71 Y162.01 E177.44794
G1 F2400 E176.24794
G0 F12000 X156.88 Y150.05
;TYPE:WALL-INNER
G1 F2400 E177.44794
G1 F2700 X156.06 Y149.70 E177.49238
G1 X155.37 Y149.19 E177.53506
G1 X154.82 Y148.58 E177.57629
G1 X154.37 Y147.82 E177.62034
G1 X154.10 Y147.00 E177.66319
G1 X154.01 Y146.15 E177.70588
G1 X154.10 Y145.30 E177.74867
G1 X154.37 Y144.48 E177.79158
G1 X154.79 Y143.74 E177.83405
G1 X155.37 Y143.10 E177.87676
G1 X156.06 Y142.60 E177.91960
G1 X156.84 Y142.25 E177.96225
G1 X157.68 Y142.07 E178.00509
G1 X158.54 Y142.07 E178.04770
G1 X159.38 Y142.25 E178.09054
G1 X160.16 Y142.60 E178.13319
G1 X160.85 Y143.10 E178.17602
G1 X161.43 Y143.74 E178.21874
G1 X161.85 Y144.48 E178.26121
G1 X162.12 Y145.30 E178.30412
G1 X162.21 Y146.15 E178.34686
G1 X162.12 Y147.00 E178.38950
G1 X161.86 Y147.79 E178.43082
G1 X161.42 Y148.56 E178.47504
G1 X160.85 Y149.20 E178.51799
G1 X160.16 Y149.70 E178.56036
G1 X159.38 Y150.04 E178.60308
G1 X158.57 Y150.22 E178.64427
G1 X157.68 Y150.22 E178.68868
G1 X156.88 Y150.05 E178.72963
G0 F12000 X156.87 Y149.96
G1 F2700 X157.69 Y150.13 E178.77139
G1 X158.53 Y150.13 E178.81310
G1 X159.35 Y149.96 E178.85486
G1 X160.11 Y149.62 E178.89666
G1 X160.79 Y149.12 E178.93839
G1 X161.35 Y148.50 E178.98014
G1 X161.77 Y147.78 E179.02190
G1 X162.03 Y146.98 E179.06366
G1 X162.11 Y146.15 E179.10539
G1 X162.03 Y145.40 E179.14296
G1 X162.03 Y145.31 E179.14738
G1 X161.79 Y144.60 E179.18463
G1 X161.77 Y144.52 E179.18900
G1 X161.36 Y143.82 E179.22925
G1 X160.85 Y143.24 E179.26781
G1 X160.79 Y143.17 E179.27237
G1 X160.18 Y142.73 E179.30977
G1 X160.12 Y142.68 E179.31390
G1 X159.43 Y142.38 E179.35147
G1 X159.35 Y142.34 E179.35551
G1 X158.56 Y142.18 E179.39629
G1 X157.78 Y142.17 E179.43481
G1 X157.69 Y142.17 E179.43930
G1 X156.90 Y142.34 E179.47973
G1 X156.13 Y142.67 E179.52137
G1 X155.50 Y143.12 E179.56028
G1 X155.43 Y143.18 E179.56481
G1 X154.93 Y143.73 E179.60200
G1 X154.87 Y143.80 E179.60642
G1 X154.50 Y144.44 E179.64339
G1 X154.45 Y144.52 E179.64795
G1 X154.22 Y145.23 E179.68542
G1 X154.19 Y145.31 E179.68977
G1 X154.12 Y146.05 E179.72679
G1 X154.11 Y146.14 E179.73137
G1 X154.19 Y146.98 E179.77335
G1 X154.45 Y147.78 E179.81512
G1 X154.87 Y148.50 E179.85687
G1 X155.43 Y149.12 E179.89862
G1 X156.11 Y149.62 E179.94035
G1 X156.87 Y149.96 E179.98215
G0 F12000 X157.00 Y149.57
;TYPE:WALL-OUTER
G1 F2700 X157.73 Y149.73 E180.01974
G1 X158.49 Y149.73 E180.05726
G1 X159.22 Y149.57 E180.09484
G1 X159.91 Y149.27 E180.13243
G1 X160.52 Y148.82 E180.16997
G1 X161.02 Y148.26 E180.20755
G1 X161.40 Y147.61 E180.24506
G1 X161.63 Y146.90 E180.28263
G1 X161.71 Y146.15 E180.32020
G1 X161.64 Y145.44 E180.35551
G1 X161.63 Y145.40 E180.35782
G1 X161.41 Y144.73 E180.39307
G1 X161.40 Y144.68 E180.39534
G1 X161.04 Y144.06 E180.43155
G1 X160.52 Y143.47 E180.47038
G1 X159.95 Y143.06 E180.50568
G1 X159.91 Y143.03 E180.50789
G1 X159.26 Y142.74 E180.54322
G1 X159.23 Y142.72 E180.54538
G1 X158.51 Y142.57 E180.58178
G1 X157.78 Y142.57 E180.61825
G1 X157.73 Y142.57 E180.62060
G1 X157.02 Y142.72 E180.65685
G1 X156.33 Y143.02 E180.69436
G1 X155.74 Y143.45 E180.73098
G1 X155.70 Y143.47 E180.73334
G1 X155.20 Y144.03 E180.77085
G1 X154.84 Y144.64 E180.80592
G1 X154.82 Y144.68 E180.80829
G1 X154.60 Y145.35 E180.84355
G1 X154.59 Y145.40 E180.84592
G1 X154.51 Y146.10 E180.88103
G1 X154.51 Y146.15 E180.88339
G1 X154.59 Y146.90 E180.92106
G1 X154.82 Y147.61 E180.95863
G1 X155.20 Y148.26 E180.99613
G1 X155.70 Y148.82 E181.03372
G1 X156.31 Y149.27 E181.07126
G1 X157.00 Y149.57 E181.10885
G0 F12000 X156.75 Y150.44
G1 F2700 X155.87 Y150.05 E181.15677
G1 X155.11 Y149.50 E181.20361
G1 X154.49 Y148.82 E181.24967
G1 X154.01 Y147.99 E181.29735
G1 X153.71 Y147.10 E181.34432
G1 X153.61 Y146.16 E181.39128
G1 X153.61 Y146.15 E181.39199
G1 X153.71 Y145.21 E181.43885
G1 X154.00 Y144.32 E181.48574
G1 X154.47 Y143.51 E181.53252
G1 X155.10 Y142.80 E181.57972
G1 X155.86 Y142.25 E181.62640
G1 X156.72 Y141.87 E181.67337
G1 X157.64 Y141.68 E181.72044
G1 X158.58 Y141.68 E181.76714
G1 X159.50 Y141.87 E181.81422
G1 X160.36 Y142.25 E181.86118
G1 X161.12 Y142.80 E181.90787
G1 X161.75 Y143.51 E181.95506
G1 X162.22 Y144.32 E182.00184
G1 X162.51 Y145.21 E182.04873
G1 X162.61 Y146.15 E182.09559
G1 X162.51 Y147.07 E182.14185
G1 X162.51 Y147.09 E182.14265
G1 X162.23 Y147.94 E182.18774
G1 X161.75 Y148.79 E182.23643
G1 X161.13 Y149.48 E182.28271
G1 X161.12 Y149.49 E182.28331
G1 X160.37 Y150.04 E182.32960
G1 X160.36 Y150.04 E182.33021
G1 X159.51 Y150.42 E182.37660
G1 X158.61 Y150.62 E182.42246
G1 X157.65 Y150.62 E182.47041
G1 X156.75 Y150.44 E182.51628
G0 F12000 X156.48 Y151.30
;TYPE:SUPPORT
G1 F2700 X157.55 Y151.52 E182.57084
G1 X157.65 Y151.52 E182.57608
G1 X158.71 Y151.51 E182.62896
G1 X159.78 Y151.29 E182.68357
G1 X159.88 Y151.24 E182.68889
G1 X160.81 Y150.83 E182.73965
G1 X160.90 Y150.76 E182.74526
G1 X161.73 Y150.16 E182.79626
G1 X161.80 Y150.08 E182.80185
G1 X162.48 Y149.32 E182.85261
G1 X162.54 Y149.23 E182.85799
G1 X163.06 Y148.31 E182.91075
G1 X163.39 Y147.27 E182.96516
G1 X163.41 Y147.16 E182.97089
G1 X163.51 Y146.15 E183.02161
G1 X163.40 Y145.03 E183.07791
G1 X163.05 Y143.95 E183.13431
G1 X162.48 Y142.97 E183.19076
G1 X161.72 Y142.13 E183.24714
G1 X160.81 Y141.47 E183.30325
G1 X159.78 Y141.01 E183.35998
G1 X158.67 Y140.78 E183.41623
G1 X157.55 Y140.78 E183.47241
G1 X156.44 Y141.01 E183.52866
G1 X155.41 Y141.47 E183.58539
G1 X154.50 Y142.13 E183.64151
G1 X153.74 Y142.97 E183.69789
G1 X153.17 Y143.95 E183.75433
G1 X152.82 Y145.03 E183.81078
G1 X152.71 Y146.15 E183.86722
G1 X152.72 Y146.26 E183.87280
G1 X152.82 Y147.27 E183.92341
G1 X152.86 Y147.37 E183.92861
G1 X153.17 Y148.34 E183.97948
G1 X153.22 Y148.43 E183.98475
G1 X153.76 Y149.35 E184.03791
G1 X154.50 Y150.17 E184.09259
G1 X154.81 Y150.39 E184.11171
G1 X155.41 Y150.83 E184.14867
G1 X155.52 Y150.88 E184.15470
G1 X156.48 Y151.30 E184.20698
G0 F12000 X157.52 Y157.48
G0 X157.55 Y157.57
G1 F2700 X156.44 Y157.81 E184.26323
G1 X155.41 Y158.27 E184.31996
G1 X154.50 Y158.93 E184.37607
G1 X153.74 Y159.77 E184.43246
G1 X153.17 Y160.75 E184.48890
G1 X152.82 Y161.83 E184.54535
G1 X152.71 Y162.95 E184.60179
G1 X152.72 Y163.06 E184.60737
G1 X152.82 Y164.07 E184.65798
G1 X152.86 Y164.17 E184.66318
G1 X153.17 Y165.14 E184.71405
G1 X153.22 Y165.23 E184.71932
G1 X153.76 Y166.15 E184.77247
G1 X154.50 Y166.97 E184.82716
G1 X154.81 Y167.19 E184.84628
G1 X155.41 Y167.63 E184.88324
G1 X155.52 Y167.68 E184.88927
G1 X156.48 Y168.10 E184.94155
G1 X157.55 Y168.32 E184.99611
G1 X157.65 Y168.32 E185.00135
G1 X158.71 Y168.31 E185.05423
G1 X159.78 Y168.09 E185.10884
G1 X159.88 Y168.04 E185.11415
G1 X160.81 Y167.63 E185.16492
G1 X160.90 Y167.56 E185.17053
G1 X161.73 Y166.96 E185.22153
G1 X161.80 Y166.88 E185.22712
G1 X162.48 Y166.12 E185.27788
G1 X162.54 Y166.03 E185.28326
G1 X163.06 Y165.11 E185.33602
G1 X163.39 Y164.07 E185.39043
G1 X163.41 Y163.96 E185.39616
G1 X163.51 Y162.95 E185.44688
G1 X163.40 Y161.83 E185.50318
G1 X163.05 Y160.75 E185.55958
G1 X162.48 Y159.77 E185.61603
G1 X161.72 Y158.93 E185.67241
G1 X160.81 Y158.27 E185.72852
G1 X159.78 Y157.81 E185.78525
G1 X158.67 Y157.57 E185.84150
G1 X157.55 Y157.57 E185.89768
G0 F12000 X157.52 Y157.48
G0 X146.33 Y160.69
G0 X146.25 Y160.75
G1 F2700 X145.68 Y159.77 E185.95412
G1 X144.93 Y158.93 E186.01050
G1 X144.02 Y158.27 E186.06662
G1 X142.98 Y157.81 E186.12335
G1 X141.87 Y157.57 E186.17960
G1 X140.75 Y157.57 E186.23578
G1 X139.65 Y157.81 E186.29203
G1 X138.61 Y158.27 E186.34876
G1 X137.70 Y158.93 E186.40487
G1 X136.94 Y159.77 E186.46125
G1 X136.37 Y160.75 E186.51770
G1 X136.03 Y161.83 E186.57415
G1 X135.91 Y162.95 E186.63059
G1 X135.92 Y163.06 E186.63616
G1 X136.03 Y164.07 E186.68677
G1 X136.06 Y164.17 E186.69198
G1 X136.37 Y165.14 E186.74285
G1 X136.42 Y165.23 E186.74812
G1 X136.96 Y166.15 E186.80127
G1 X137.70 Y166.97 E186.85595
G1 X138.01 Y167.19 E186.87508
G1 X138.61 Y167.63 E186.91204
G1 X138.72 Y167.68 E186.91807
G1 X139.68 Y168.10 E186.97034
G1 X140.75 Y168.32 E187.02490
G1 X140.85 Y168.32 E187.03014
G1 X141.91 Y168.31 E187.08303
G1 X142.98 Y168.09 E187.13764
G1 X143.08 Y168.04 E187.14295
G1 X144.01 Y167.63 E187.19372
G1 X144.10 Y167.56 E187.19933
G1 X144.93 Y166.96 E187.25033
G1 X145.00 Y166.88 E187.25592
G1 X145.68 Y166.12 E187.30668
G1 X145.74 Y166.03 E187.31206
G1 X146.26 Y165.11 E187.36481
G1 X146.59 Y164.07 E187.41923
G1 X146.61 Y163.96 E187.42496
G1 X146.72 Y162.95 E187.47568
G1 X146.60 Y161.83 E187.53198
G1 X146.25 Y160.75 E187.58838
G0 F12000 X146.33 Y160.69
G0 X143.03 Y151.38
G0 X142.98 Y151.29
G1 F2700 X143.08 Y151.24 E187.59369
G1 X144.01 Y150.83 E187.64446
G1 X144.10 Y150.76 E187.65007
G1 X144.93 Y150.16 E187.70107
G1 X145.00 Y150.08 E187.70666
G1 X145.68 Y149.32 E187.75742
G1 X145.74 Y149.23 E187.76280
G1 X146.26 Y148.31 E187.81556
G1 X146.59 Y147.27 E187.86997
G1 X146.61 Y147.16 E187.87570
G1 X146.72 Y146.15 E187.92642
G1 X146.60 Y145.03 E187.98272
G1 X146.25 Y143.95 E188.03912
G1 X145.68 Y142.97 E188.09557
G1 X144.93 Y142.13 E188.15195
G1 X144.02 Y141.47 E188.20806
G1 X142.98 Y141.01 E188.26479
G1 X141.87 Y140.78 E188.32104
G1 X140.75 Y140.78 E188.37722
G1 X139.65 Y141.01 E188.43347
G1 X138.61 Y141.47 E188.49020
G1 X137.70 Y142.13 E188.54632
G1 X136.94 Y142.97 E188.60270
G1 X136.37 Y143.95 E188.65914
G1 X136.03 Y145.03 E188.71559
G1 X135.91 Y146.15 E188.77203
G1 X135.92 Y146.26 E188.77761
G1 X136.03 Y147.27 E188.82822
G1 X136.06 Y147.37 E188.83342
G1 X136.37 Y148.34 E188.88429
G1 X136.42 Y148.43 E188.88956
G1 X136.96 Y149.35 E188.94272
G1 X137.70 Y150.17 E188.99740
G1 X138.01 Y150.39 E189.01652
G1 X138.61 Y150.83 E189.05348
G1 X138.72 Y150.88 E189.05951
G1 X139.68 Y151.30 E189.11179
G1 X140.75 Y151.52 E189.16635
G1 X140.85 Y151.52 E189.17159
G1 X141.91 Y151.51 E189.22447
G1 X142.98 Y151.29 E189.27908
G0 F12000 X143.03 Y151.38
G0 X140.73 Y151.72
G0 X138.51 Y151.00
G0 X136.80 Y149.47
G0 X135.83 Y147.31
G0 X135.83 Y144.99
G0 X133.38 Y138.32
G1 F2700 X166.08 Y138.32 E190.91049
G1 X166.08 Y170.92 E192.53691
G1 X133.38 Y170.92 E194.16832
G1 X133.38 Y138.32 E195.79474
G0 F12000 X133.48 Y142.85
G0 X133.32 Y142.85
G1 F2700 X137.13 Y142.85 E195.98477
G0 F12000 X137.01 Y142.74
G0 X138.51 Y141.30
G0 X140.73 Y140.58
G0 X142.88 Y140.89
G0 X142.85 Y141.04
G1 F2700 X142.85 Y138.26 E196.12367
G0 F12000 X142.85 Y138.42
G0 X145.61 Y142.74
G0 X145.49 Y142.85
G1 F2700 X153.93 Y142.85 E196.54464
G0 F12000 X154.28 Y142.46
G1 F2700 X154.28 Y138.26 E196.75438
G0 F12000 X154.28 Y138.42
G0 X160.91 Y141.30
G0 X162.41 Y142.74
G0 X162.29 Y142.85
G1 F2700 X166.14 Y142.85 E196.94651
G0 F12000 X165.98 Y142.85
G0 X165.71 Y138.42
G0 X165.71 Y138.26
G1 F2700 X165.71 Y170.98 E198.57891
G0 F12000 X165.71 Y170.82
G0 X165.98 Y165.71
G0 X166.14 Y165.71
G1 F2700 X162.65 Y165.71 E198.75293
G0 F12000 X162.79 Y165.78
G0 X161.86 Y167.11
G0 X159.84 Y168.28
G0 X157.53 Y168.52
G0 X155.31 Y167.80
G0 X154.16 Y166.74
G0 X154.28 Y166.63
G1 F2700 X154.28 Y170.98 E198.96965
G0 F12000 X154.28 Y170.82
G0 X153.43 Y165.79
G0 X153.57 Y165.71
G1 F2700 X145.85 Y165.71 E199.35466
G0 F12000 X145.99 Y165.78
G0 X145.06 Y167.11
G0 X144.11 Y167.80
G0 X142.88 Y168.21
G0 X142.85 Y168.05
G1 F2700 X142.85 Y170.98 E199.50064
G0 F12000 X142.85 Y170.82
G0 X137.56 Y167.12
G0 X136.63 Y165.79
G0 X136.77 Y165.71
G1 F2700 X133.32 Y165.71 E199.67281
G0 F12000 X133.48 Y165.71
G0 X133.48 Y154.28
G0 X133.32 Y154.28
G1 F2700 X166.14 Y154.28 E201.31020
G0 F12000 X165.98 Y154.28
G0 X155.31 Y151.00
G0 X154.16 Y149.94
G0 X154.28 Y149.84
G1 F2700 X154.28 Y159.26 E201.78047
G0 F12000 X154.16 Y159.16
G0 X142.88 Y157.69
G0 X142.85 Y157.84
G1 F2700 X142.85 Y151.25 E202.10914
G1 F2400 E200.90914
G0 F12000 X142.14 Y148.71
G1 F2400 E202.10914
G1 F2700 X141.59 Y148.83 E202.13729
G1 X141.03 Y148.83 E202.16532
G1 X140.48 Y148.71 E202.19347
G1 X139.96 Y148.48 E202.22156
G1 X139.50 Y148.15 E202.24996
G1 X139.13 Y147.74 E202.27773
G1 X138.85 Y147.25 E202.30600
G1 X138.67 Y146.71 E202.33413
G1 X138.62 Y146.15 E202.36226
G1 X138.67 Y145.59 E202.39040
G1 X138.85 Y145.05 E202.41843
G1 X139.13 Y144.56 E202.44664
G1 X139.50 Y144.15 E202.47437
G1 X139.98 Y143.81 E202.50387
G1 X140.50 Y143.58 E202.53206
G1 X141.03 Y143.47 E202.55882
G1 X141.62 Y143.47 E202.58836
G1 X142.14 Y143.58 E202.61482
G1 X142.66 Y143.81 E202.64338
G1 X143.11 Y144.14 E202.67139
G1 X143.50 Y144.58 E202.70073
G1 X143.78 Y145.05 E202.72779
G1 X143.95 Y145.59 E202.75597
G1 X144.01 Y146.15 E202.78380
G1 X143.95 Y146.71 E202.81208
G1 X143.77 Y147.25 E202.84017
G1 X143.49 Y147.74 E202.86844
G1 X143.12 Y148.15 E202.89621
G1 X142.66 Y148.48 E202.92461
G1 X142.14 Y148.71 E202.95270
G0 F12000 X142.85 Y148.42
G1 F2700 X142.85 Y143.88 E203.17915
G1 F2400 E201.97915
G0 F12000 X141.62 Y160.27
G1 F2400 E203.17915
G1 F2700 X142.14 Y160.38 E203.20561
G1 X142.66 Y160.61 E203.23418
G1 X143.11 Y160.94 E203.26219
G1 X143.50 Y161.38 E203.29152
G1 X143.78 Y161.85 E203.31859
G1 X143.95 Y162.39 E203.34677
G1 X144.01 Y162.94 E203.37460
G1 X143.95 Y163.51 E203.40288
G1 X143.77 Y164.04 E203.43096
G1 X143.49 Y164.53 E203.45924
G1 X143.12 Y164.95 E203.48700
G1 X142.66 Y165.28 E203.51541
G1 X142.14 Y165.51 E203.54350
G1 X141.59 Y165.63 E203.57164
G1 X141.03 Y165.63 E203.59968
G1 X140.48 Y165.51 E203.62782
G1 X139.96 Y165.28 E203.65591
G1 X139.50 Y164.95 E203.68431
G1 X139.13 Y164.53 E203.71208
G1 X138.85 Y164.04 E203.74036
G1 X138.67 Y163.51 E203.76849
G1 X138.62 Y162.95 E203.79662
G1 X138.67 Y162.39 E203.82475
G1 X138.85 Y161.85 E203.85279
G1 X139.13 Y161.36 E203.88099
G1 X139.50 Y160.95 E203.90872
G1 X139.98 Y160.60 E203.93823
G1 X140.50 Y160.38 E203.96642
G1 X141.03 Y160.27 E203.99318
G1 X141.62 Y160.27 E204.02271
G0 F12000 X142.85 Y160.68
G1 F2700 X142.85 Y165.22 E204.24916
G1 F2400 E203.04916
G0 F12000 X155.47 Y163.51
G1 F2400 E204.24916
G1 F2700 X155.41 Y162.95 E204.27730
G1 X155.47 Y162.39 E204.30543
G1 X155.65 Y161.85 E204.33347
G1 X155.93 Y161.36 E204.36167
G1 X156.30 Y160.95 E204.38940
G1 X156.78 Y160.60 E204.41890
G1 X157.30 Y160.38 E204.44709
G1 X157.82 Y160.27 E204.47386
G1 X158.42 Y160.27 E204.50339
G1 X158.94 Y160.38 E204.52985
G1 X159.46 Y160.61 E204.55841
G1 X159.91 Y160.94 E204.58643
G1 X160.30 Y161.38 E204.61576
G1 X160.57 Y161.85 E204.64283
G1 X160.75 Y162.39 E204.67101
G1 X160.81 Y162.94 E204.69883
G1 X160.75 Y163.51 E204.72712
G1 X160.57 Y164.04 E204.75520
G1 X160.29 Y164.53 E204.78347
G1 X159.92 Y164.95 E204.81124
G1 X159.46 Y165.28 E204.83964
G1 X158.94 Y165.51 E204.86774
G1 X158.39 Y165.63 E204.89588
G1 X157.83 Y165.63 E204.92392
G1 X157.28 Y165.51 E204.95206
G1 X156.76 Y165.28 E204.98015
G1 X156.30 Y164.95 E205.00855
G1 X155.93 Y164.53 E205.03632
G1 X155.65 Y164.04 E205.06459
G1 X155.47 Y163.51 E205.09272
G1 F2400 E203.89272
G0 F12000 X157.83 Y148.83
G1 F2400 E205.09272
G1 F2700 X157.28 Y148.71 E205.12086
G1 X156.76 Y148.48 E205.14896
G1 X156.30 Y148.15 E205.17736
G1 X155.93 Y147.74 E205.20513
G1 X155.65 Y147.25 E205.23340
G1 X155.47 Y146.71 E205.26153
G1 X155.41 Y146.15 E205.28966
G1 X155.47 Y145.59 E205.31780
G1 X155.65 Y145.05 E205.34583
G1 X155.93 Y144.56 E205.37404
G1 X156.30 Y144.15 E205.40177
G1 X156.78 Y143.81 E205.43127
G1 X157.30 Y143.58 E205.45946
G1 X157.82 Y143.47 E205.48622
G1 X158.42 Y143.47 E205.51576
G1 X158.94 Y143.58 E205.54222
G1 X159.46 Y143.81 E205.57078
G1 X159.91 Y144.14 E205.59879
G1 X160.30 Y144.58 E205.62813
G1 X160.57 Y145.05 E205.65519
G1 X160.75 Y145.59 E205.68337
G1 X160.81 Y146.15 E205.71120
G1 X160.75 Y146.71 E205.73948
G1 X160.57 Y147.25 E205.76757
G1 X160.29 Y147.74 E205.79584
G1 X159.92 Y148.15 E205.82361
G1 X159.46 Y148.48 E205.85201
G1 X158.94 Y148.71 E205.88010
G1 X158.39 Y148.83 E205.90824
G1 X157.83 Y148.83 E205.93628
;LAYER:1
G0 F12000 X157.69 Y150.13 Z0.60
;TYPE:WALL-INNER
G1 F3180 X158.53 Y150.13 E205.97799
G1 X159.35 Y149.96 E206.01975
G1 X160.11 Y149.62 E206.06156
G1 X160.79 Y149.12 E206.10328
G1 X161.35 Y148.50 E206.14504
G1 X161.77 Y147.78 E206.18679
G1 X162.03 Y146.98 E206.22855
G1 X162.11 Y146.15 E206.27029
G1 X162.04 Y145.45 E206.30519
G1 X162.03 Y145.32 E206.31207
G1 X161.81 Y144.65 E206.34702
G1 X161.77 Y144.52 E206.35383
G1 X161.35 Y143.80 E206.39550
G1 X160.88 Y143.28 E206.43051
G1 X160.79 Y143.17 E206.43743
G1 X160.22 Y142.76 E206.47223
G1 X160.11 Y142.68 E206.47897
G1 X159.48 Y142.40 E206.51366
G1 X159.35 Y142.34 E206.52072
G1 X158.66 Y142.20 E206.55579
G1 X158.53 Y142.17 E206.56249
G1 X157.69 Y142.17 E206.60425
G1 X157.01 Y142.31 E206.63926
G1 X156.87 Y142.34 E206.64616
G1 X156.23 Y142.63 E206.68112
G1 X156.11 Y142.68 E206.68793
G1 X155.54 Y143.09 E206.72272
G1 X155.43 Y143.18 E206.72965
G1 X154.97 Y143.69 E206.76434
G1 X154.87 Y143.79 E206.77126
G1 X154.45 Y144.52 E206.81308
G1 X154.24 Y145.19 E206.84792
G1 X154.19 Y145.32 E206.85480
G1 X154.12 Y146.01 E206.88966
G1 X154.11 Y146.15 E206.89653
G1 X154.19 Y146.98 E206.93832
G1 X154.45 Y147.78 E206.98008
G1 X154.87 Y148.50 E207.02183
G1 X155.43 Y149.12 E207.06359
G1 X156.11 Y149.62 E207.10531
G1 X156.87 Y149.96 E207.14712
G1 X157.69 Y150.13 E207.18888
G0 F12000 X157.68 Y150.22
G1 F3180 X156.88 Y150.05 E207.22962
G1 X156.10 Y149.71 E207.27216
G1 X156.06 Y149.70 E207.27408
G1 X155.40 Y149.22 E207.31506
G1 X155.37 Y149.19 E207.31692
G1 X154.82 Y148.59 E207.35775
G1 X154.80 Y148.56 E207.35959
G1 X154.39 Y147.85 E207.40052
G1 X154.37 Y147.82 E207.40235
G1 X154.12 Y147.04 E207.44326
G1 X154.10 Y147.00 E207.44509
G1 X154.02 Y146.19 E207.48598
G1 X154.01 Y146.15 E207.48793
G1 X154.10 Y145.30 E207.53062
G1 X154.37 Y144.48 E207.57353
G1 X154.79 Y143.74 E207.61600
G1 X155.37 Y143.10 E207.65871
G1 X156.06 Y142.60 E207.70155
G1 X156.84 Y142.25 E207.74420
G1 X157.68 Y142.07 E207.78704
G1 X158.54 Y142.07 E207.82965
G1 X159.38 Y142.25 E207.87249
G1 X160.16 Y142.60 E207.91514
G1 X160.85 Y143.10 E207.95797
G1 X161.43 Y143.74 E208.00069
G1 X161.85 Y144.48 E208.04316
G1 X162.12 Y145.30 E208.08607
G1 X162.21 Y146.15 E208.12876
G1 X162.12 Y146.96 E208.16949
G1 X162.12 Y147.00 E208.17155
G1 X161.87 Y147.78 E208.21219
G1 X161.85 Y147.81 E208.21424
G1 X161.44 Y148.52 E208.25510
G1 X161.42 Y148.56 E208.25696
G1 X160.88 Y149.16 E208.29780
G1 X160.85 Y149.19 E208.29953
G1 X160.19 Y149.67 E208.34046
G1 X160.16 Y149.70 E208.34246
G1 X159.41 Y150.03 E208.38329
G1 X159.37 Y150.05 E208.38532
G1 X158.57 Y150.21 E208.42605
G1 X158.53 Y150.22 E208.42810
G1 X157.68 Y150.22 E208.47065
G0 F12000 X157.64 Y150.62
;TYPE:WALL-OUTER
G1 F3180 X156.80 Y150.44 E208.51359
G1 X156.72 Y150.43 E208.51746
G1 X155.93 Y150.08 E208.56055
G1 X155.86 Y150.05 E208.56437
G1 X155.10 Y149.49 E208.61148
G1 X154.47 Y148.79 E208.65853
G1 X154.00 Y147.98 E208.70532
G1 X153.74 Y147.16 E208.74821
G1 X153.71 Y147.08 E208.75225
G1 X153.61 Y146.15 E208.79916
G1 X153.71 Y145.21 E208.84612
G1 X154.00 Y144.32 E208.89301
G1 X154.47 Y143.51 E208.93979
G1 X155.10 Y142.80 E208.98699
G1 X155.86 Y142.25 E209.03367
G1 X156.72 Y141.87 E209.08064
G1 X157.64 Y141.68 E209.12771
G1 X158.58 Y141.68 E209.17441
G1 X159.50 Y141.87 E209.22149
G1 X160.36 Y142.25 E209.26845
G1 X161.12 Y142.80 E209.31514
G1 X161.75 Y143.51 E209.36233
G1 X162.22 Y144.32 E209.40912
G1 X162.51 Y145.21 E209.45601
G1 X162.61 Y146.15 E209.50296
G1 X162.51 Y147.09 E209.54992
G1 X162.25 Y147.90 E209.59271
G1 X162.22 Y147.98 E209.59686
G1 X161.75 Y148.79 E209.64360
G1 X161.12 Y149.49 E209.69065
G1 X160.36 Y150.04 E209.73762
G1 X159.57 Y150.39 E209.78048
G1 X159.50 Y150.43 E209.78444
G1 X158.66 Y150.60 E209.82737
G1 X158.58 Y150.62 E209.83141
G1 X157.64 Y150.62 E209.87826
G0 F12000 X157.73 Y149.73
G1 F3180 X158.49 Y149.73 E209.91578
G1 X159.22 Y149.57 E209.95336
G1 X159.91 Y149.27 E209.99095
G1 X160.52 Y148.82 E210.02849
G1 X161.02 Y148.26 E210.06608
G1 X161.40 Y147.61 E210.10358
G1 X161.63 Y146.90 E210.14115
G1 X161.71 Y146.15 E210.17872
G1 X161.63 Y145.40 E210.21629
G1 X161.40 Y144.68 E210.25386
G1 X161.02 Y144.03 E210.29136
G1 X160.58 Y143.54 E210.32425
G1 X160.52 Y143.47 E210.32902
G1 X159.99 Y143.09 E210.36178
G1 X159.91 Y143.03 E210.36649
G1 X159.31 Y142.76 E210.39932
G1 X159.22 Y142.72 E210.40403
G1 X158.58 Y142.59 E210.43692
G1 X158.49 Y142.57 E210.44162
G1 X157.73 Y142.57 E210.47918
G1 X157.09 Y142.70 E210.51201
G1 X157.00 Y142.72 E210.51682
G1 X156.40 Y142.99 E210.54960
G1 X156.31 Y143.03 E210.55436
G1 X155.78 Y143.42 E210.58712
G1 X155.70 Y143.47 E210.59190
G1 X155.26 Y143.96 E210.62465
G1 X155.20 Y144.03 E210.62942
G1 X154.82 Y144.68 E210.66699
G1 X154.59 Y145.40 E210.70456
G1 X154.51 Y146.15 E210.74213
G1 X154.59 Y146.90 E210.77970
G1 X154.82 Y147.61 E210.81726
G1 X155.20 Y148.26 E210.85477
G1 X155.70 Y148.82 E210.89236
G1 X156.31 Y149.27 E210.92990
G1 X157.00 Y149.57 E210.96749
G1 X157.73 Y149.73 E211.00507
G1 F2400 E209.80507
G0 F12000 X157.68 Y158.87
;TYPE:WALL-INNER
G1 F2400 E211.00507
G1 F3180 X158.54 Y158.87 E211.04768
G1 X159.38 Y159.05 E211.09051
G1 X160.16 Y159.40 E211.13317
G1 X160.85 Y159.90 E211.17600
G1 X161.43 Y160.54 E211.21871
G1 X161.85 Y161.28 E211.26118
G1 X162.12 Y162.10 E211.30410
G1 X162.21 Y162.95 E211.34679
G1 X162.12 Y163.76 E211.38752
G1 X162.12 Y163.80 E211.38957
G1 X161.87 Y164.57 E211.43022
G1 X161.85 Y164.61 E211.43227
G1 X161.44 Y165.32 E211.47313
G1 X161.42 Y165.35 E211.47498
G1 X160.88 Y165.96 E211.51582
G1 X160.85 Y165.99 E211.51756
G1 X160.19 Y166.47 E211.55849
G1 X160.16 Y166.50 E211.56049
G1 X159.41 Y166.83 E211.60131
G1 X159.37 Y166.84 E211.60335
G1 X158.57 Y167.01 E211.64408
G1 X158.53 Y167.02 E211.64613
G1 X157.68 Y167.02 E211.68868
G1 X156.88 Y166.85 E211.72943
G1 X156.10 Y166.51 E211.77197
G1 X156.06 Y166.50 E211.77389
G1 X155.40 Y166.01 E211.81486
G1 X155.37 Y165.99 E211.81672
G1 X154.82 Y165.38 E211.85756
G1 X154.80 Y165.36 E211.85939
G1 X154.39 Y164.65 E211.90032
G1 X154.37 Y164.62 E211.90215
G1 X154.12 Y163.84 E211.94306
G1 X154.10 Y163.80 E211.94489
G1 X154.02 Y162.99 E211.98578
G1 X154.01 Y162.95 E211.98773
G1 X154.10 Y162.10 E212.03042
G1 X154.37 Y161.28 E212.07334
G1 X154.79 Y160.54 E212.11581
G1 X155.37 Y159.90 E212.15852
G1 X156.06 Y159.40 E212.20135
G1 X156.84 Y159.05 E212.24401
G1 X157.68 Y158.87 E212.28684
G0 F12000 X157.69 Y158.97
G1 F3180 X157.01 Y159.11 E212.32186
G1 X156.87 Y159.14 E212.32876
G1 X156.23 Y159.43 E212.36372
G1 X156.11 Y159.48 E212.37052
G1 X155.54 Y159.89 E212.40532
G1 X155.43 Y159.97 E212.41225
G1 X154.97 Y160.49 E212.44694
G1 X154.87 Y160.59 E212.45386
G1 X154.45 Y161.32 E212.49568
G1 X154.24 Y161.98 E212.53052
G1 X154.19 Y162.12 E212.53740
G1 X154.12 Y162.81 E212.57226
G1 X154.11 Y162.95 E212.57913
G1 X154.19 Y163.78 E212.62092
G1 X154.45 Y164.58 E212.66268
G1 X154.87 Y165.30 E212.70443
G1 X155.43 Y165.92 E212.74619
G1 X156.11 Y166.41 E212.78791
G1 X156.87 Y166.76 E212.82972
G1 X157.69 Y166.93 E212.87148
G1 X158.53 Y166.93 E212.91319
G1 X159.35 Y166.76 E212.95495
G1 X160.11 Y166.41 E212.99675
G1 X160.79 Y165.92 E213.03848
G1 X161.35 Y165.30 E213.08023
G1 X161.77 Y164.58 E213.12198
G1 X162.03 Y163.78 E213.16375
G1 X162.11 Y162.95 E213.20548
G1 X162.04 Y162.25 E213.24039
G1 X162.03 Y162.12 E213.24727
G1 X161.81 Y161.45 E213.28221
G1 X161.77 Y161.32 E213.28903
G1 X161.35 Y160.60 E213.33069
G1 X160.88 Y160.07 E213.36570
G1 X160.79 Y159.97 E213.37263
G1 X160.22 Y159.56 E213.40743
G1 X160.11 Y159.48 E213.41417
G1 X159.48 Y159.20 E213.44885
G1 X159.35 Y159.14 E213.45591
G1 X158.66 Y159.00 E213.49099
G1 X158.53 Y158.97 E213.49768
G1 X157.69 Y158.97 E213.53944
G0 F12000 X157.73 Y159.37
;TYPE:WALL-OUTER
G1 F3180 X157.09 Y159.50 E213.57227
G1 X157.00 Y159.52 E213.57707
G1 X156.40 Y159.79 E213.60986
G1 X156.31 Y159.83 E213.61462
G1 X155.78 Y160.22 E213.64738
G1 X155.70 Y160.27 E213.65216
G1 X155.26 Y160.76 E213.68491
G1 X155.20 Y160.83 E213.68967
G1 X154.82 Y161.48 E213.72725
G1 X154.59 Y162.20 E213.76481
G1 X154.51 Y162.95 E213.80238
G1 X154.59 Y163.70 E213.83995
G1 X154.82 Y164.41 E213.87752
G1 X155.20 Y165.06 E213.91503
G1 X155.70 Y165.62 E213.95261
G1 X156.31 Y166.07 E213.99016
G1 X157.00 Y166.37 E214.02774
G1 X157.73 Y166.53 E214.06533
G1 X158.49 Y166.53 E214.10284
G1 X159.22 Y166.37 E214.14043
G1 X159.91 Y166.07 E214.17801
G1 X160.52 Y165.62 E214.21556
G1 X161.02 Y165.06 E214.25314
G1 X161.40 Y164.41 E214.29065
G1 X161.63 Y163.70 E214.32822
G1 X161.71 Y162.95 E214.36578
G1 X161.63 Y162.20 E214.40335
G1 X161.40 Y161.48 E214.44092
G1 X161.02 Y160.83 E214.47843
G1 X160.58 Y160.34 E214.51132
G1 X160.52 Y160.27 E214.51608
G1 X159.99 Y159.89 E214.54885
G1 X159.91 Y159.83 E214.55356
G1 X159.31 Y159.56 E214.58639
G1 X159.22 Y159.52 E214.59110
G1 X158.58 Y159.39 E214.62398
G1 X158.49 Y159.37 E214.62868
G1 X157.73 Y159.37 E214.66625
G0 F12000 X157.64 Y158.47
G1 F3180 X158.58 Y158.47 E214.71295
G1 X159.50 Y158.67 E214.76002
G1 X160.36 Y159.05 E214.80699
G1 X161.12 Y159.60 E214.85367
G1 X161.75 Y160.31 E214.90087
G1 X162.22 Y161.12 E214.94765
G1 X162.51 Y162.01 E214.99454
G1 X162.61 Y162.95 E215.04150
G1 X162.51 Y163.88 E215.08846
G1 X162.25 Y164.70 E215.13124
G1 X162.22 Y164.78 E215.13539
G1 X161.75 Y165.59 E215.18213
G1 X161.12 Y166.29 E215.22919
G1 X160.36 Y166.84 E215.27616
G1 X159.57 Y167.19 E215.31902
G1 X159.50 Y167.23 E215.32297
G1 X158.66 Y167.40 E215.36591
G1 X158.58 Y167.42 E215.36995
G1 X157.64 Y167.42 E215.41680
G1 X156.80 Y167.24 E215.45973
G1 X156.72 Y167.23 E215.46361
G1 X155.93 Y166.88 E215.50669
G1 X155.86 Y166.85 E215.51051
G1 X155.10 Y166.29 E215.55762
G1 X154.47 Y165.59 E215.60468
G1 X154.00 Y164.78 E215.65146
G1 X153.74 Y163.96 E215.69436
G1 X153.71 Y163.88 E215.69840
G1 X153.61 Y162.95 E215.74530
G1 X153.71 Y162.01 E215.79226
G1 X154.00 Y161.12 E215.83915
G1 X154.47 Y160.31 E215.88593
G1 X155.10 Y159.60 E215.93313
G1 X155.86 Y159.05 E215.97981
G1 X156.72 Y158.67 E216.02678
G1 X157.64 Y158.47 E216.07386
G1 F2400 E214.87386
G0 F12000 X145.32 Y162.10
;TYPE:WALL-INNER
G1 F2400 E216.07386
G1 F3180 X145.41 Y162.95 E216.11654
G1 X145.32 Y163.76 E216.15728
G1 X145.32 Y163.80 E216.15933
G1 X145.07 Y164.57 E216.19997
G1 X145.05 Y164.61 E216.20202
G1 X144.64 Y165.32 E216.24289
G1 X144.62 Y165.35 E216.24474
G1 X144.08 Y165.96 E216.28558
G1 X144.06 Y165.99 E216.28731
G1 X143.39 Y166.47 E216.32825
G1 X143.36 Y166.50 E216.33024
G1 X142.61 Y166.83 E216.37107
G1 X142.57 Y166.84 E216.37310
G1 X141.78 Y167.01 E216.41384
G1 X141.74 Y167.02 E216.41588
G1 X140.88 Y167.02 E216.45844
G1 X140.08 Y166.85 E216.49918
G1 X139.30 Y166.51 E216.54173
G1 X139.27 Y166.50 E216.54365
G1 X138.60 Y166.01 E216.58462
G1 X138.57 Y165.99 E216.58648
G1 X138.02 Y165.38 E216.62731
G1 X138.00 Y165.36 E216.62915
G1 X137.59 Y164.65 E216.67008
G1 X137.57 Y164.62 E216.67191
G1 X137.32 Y163.84 E216.71282
G1 X137.31 Y163.80 E216.71465
G1 X137.22 Y162.99 E216.75554
G1 X137.22 Y162.95 E216.75749
G1 X137.30 Y162.10 E216.80018
G1 X137.57 Y161.28 E216.84309
G1 X138.00 Y160.54 E216.88556
G1 X138.57 Y159.90 E216.92828
G1 X139.26 Y159.40 E216.97111
G1 X140.04 Y159.05 E217.01377
G1 X140.88 Y158.87 E217.05660
G1 X141.74 Y158.87 E217.09921
G1 X142.58 Y159.05 E217.14205
G1 X143.36 Y159.40 E217.18471
G1 X144.05 Y159.90 E217.22754
G1 X144.63 Y160.54 E217.27025
G1 X145.05 Y161.28 E217.31272
G1 X145.32 Y162.10 E217.35563
G0 F12000 X145.23 Y162.12
G1 F3180 X145.01 Y161.45 E217.39058
G1 X144.97 Y161.32 E217.39739
G1 X144.55 Y160.60 E217.43906
G1 X144.08 Y160.07 E217.47407
G1 X143.99 Y159.97 E217.48099
G1 X143.42 Y159.56 E217.51579
G1 X143.31 Y159.48 E217.52254
G1 X142.68 Y159.20 E217.55722
G1 X142.55 Y159.14 E217.56428
G1 X141.86 Y159.00 E217.59936
G1 X141.73 Y158.97 E217.60605
G1 X140.89 Y158.97 E217.64781
G1 X140.21 Y159.11 E217.68283
G1 X140.07 Y159.14 E217.68973
G1 X139.43 Y159.43 E217.72468
G1 X139.31 Y159.48 E217.73149
G1 X138.74 Y159.89 E217.76629
G1 X138.63 Y159.97 E217.77321
G1 X138.17 Y160.49 E217.80790
G1 X138.07 Y160.59 E217.81483
G1 X137.65 Y161.32 E217.85665
G1 X137.44 Y161.98 E217.89148
G1 X137.40 Y162.12 E217.89836
G1 X137.32 Y162.81 E217.93322
G1 X137.31 Y162.95 E217.94010
G1 X137.40 Y163.78 E217.98188
G1 X137.65 Y164.58 E218.02364
G1 X138.07 Y165.30 E218.06539
G1 X138.63 Y165.92 E218.10715
G1 X139.31 Y166.41 E218.14887
G1 X140.07 Y166.76 E218.19068
G1 X140.89 Y166.93 E218.23244
G1 X141.73 Y166.93 E218.27415
G1 X142.55 Y166.76 E218.31591
G1 X143.31 Y166.41 E218.35772
G1 X143.99 Y165.92 E218.39944
G1 X144.55 Y165.30 E218.44120
G1 X144.97 Y164.58 E218.48295
G1 X145.23 Y163.78 E218.52471
G1 X145.31 Y162.95 E218.56644
G1 X145.24 Y162.25 E218.60135
G1 X145.23 Y162.12 E218.60823
G0 F12000 X144.83 Y162.20
;TYPE:WALL-OUTER
G1 F3180 X144.60 Y161.48 E218.64579
G1 X144.22 Y160.83 E218.68330
G1 X143.78 Y160.34 E218.71619
G1 X143.72 Y160.27 E218.72096
G1 X143.19 Y159.89 E218.75372
G1 X143.11 Y159.83 E218.75843
G1 X142.51 Y159.56 E218.79126
G1 X142.43 Y159.52 E218.79597
G1 X141.78 Y159.39 E218.82886
G1 X141.69 Y159.37 E218.83356
G1 X140.94 Y159.37 E218.87112
G1 X140.29 Y159.50 E218.90395
G1 X140.20 Y159.52 E218.90876
G1 X139.60 Y159.79 E218.94154
G1 X139.51 Y159.83 E218.94630
G1 X138.98 Y160.22 E218.97906
G1 X138.90 Y160.27 E218.98384
G1 X138.46 Y160.76 E219.01659
G1 X138.40 Y160.83 E219.02136
G1 X138.02 Y161.48 E219.05893
G1 X137.79 Y162.20 E219.09650
G1 X137.71 Y162.95 E219.13407
G1 X137.79 Y163.70 E219.17164
G1 X138.02 Y164.41 E219.20920
G1 X138.40 Y165.06 E219.24671
G1 X138.90 Y165.62 E219.28430
G1 X139.51 Y166.07 E219.32184
G1 X140.20 Y166.37 E219.35942
G1 X140.94 Y166.53 E219.39701
G1 X141.69 Y166.53 E219.43453
G1 X142.42 Y166.37 E219.47211
G1 X143.11 Y166.07 E219.50970
G1 X143.72 Y165.62 E219.54724
G1 X144.22 Y165.06 E219.58483
G1 X144.60 Y164.41 E219.62233
G1 X144.83 Y163.70 E219.65990
G1 X144.91 Y162.95 E219.69747
G1 X144.83 Y162.20 E219.73504
G0 F12000 X145.71 Y162.01
G1 F3180 X145.81 Y162.95 E219.78199
G1 X145.71 Y163.88 E219.82895
G1 X145.45 Y164.70 E219.87174
G1 X145.42 Y164.78 E219.87589
G1 X144.95 Y165.59 E219.92263
G1 X144.32 Y166.29 E219.96968
G1 X143.56 Y166.84 E220.01666
G1 X142.77 Y167.19 E220.05952
G1 X142.70 Y167.23 E220.06347
G1 X141.86 Y167.40 E220.10640
G1 X141.78 Y167.42 E220.11045
G1 X140.84 Y167.42 E220.15729
G1 X140.00 Y167.24 E220.20023
G1 X139.92 Y167.23 E220.20410
G1 X139.13 Y166.88 E220.24719
G1 X139.06 Y166.85 E220.25101
G1 X138.30 Y166.29 E220.29812
G1 X137.67 Y165.59 E220.34517
G1 X137.20 Y164.78 E220.39195
G1 X136.94 Y163.96 E220.43485
G1 X136.91 Y163.88 E220.43889
G1 X136.81 Y162.95 E220.48580
G1 X136.91 Y162.01 E220.53276
G1 X137.20 Y161.12 E220.57965
G1 X137.67 Y160.31 E220.62643
G1 X138.30 Y159.60 E220.67363
G1 X139.06 Y159.05 E220.72031
G1 X139.92 Y158.67 E220.76728
G1 X140.84 Y158.47 E220.81435
G1 X141.78 Y158.47 E220.86105
G1 X142.70 Y158.67 E220.90812
G1 X143.56 Y159.05 E220.95509
G1 X144.32 Y159.60 E221.00178
G1 X144.95 Y160.31 E221.04897
G1 X145.42 Y161.12 E221.09575
G1 X145.71 Y162.01 E221.14264
G1 F2400 E219.94264
G0 F12000 X142.57 Y150.05
;TYPE:WALL-INNER
G1 F2400 E221.14264
G1 F3180 X141.78 Y150.21 E221.18338
G1 X141.74 Y150.22 E221.18542
G1 X140.88 Y150.22 E221.22798
G1 X140.08 Y150.05 E221.26872
G1 X139.30 Y149.71 E221.31127
G1 X139.27 Y149.70 E221.31319
G1 X138.60 Y149.22 E221.35416
G1 X138.57 Y149.19 E221.35602
G1 X138.02 Y148.59 E221.39685
G1 X138.00 Y148.56 E221.39869
G1 X137.59 Y147.85 E221.43962
G1 X137.57 Y147.82 E221.44145
G1 X137.32 Y147.04 E221.48236
G1 X137.31 Y147.00 E221.48419
G1 X137.22 Y146.19 E221.52508
G1 X137.22 Y146.15 E221.52703
G1 X137.30 Y145.30 E221.56972
G1 X137.57 Y144.48 E221.61263
G1 X138.00 Y143.74 E221.65510
G1 X138.57 Y143.10 E221.69782
G1 X139.26 Y142.60 E221.74065
G1 X140.04 Y142.25 E221.78330
G1 X140.88 Y142.07 E221.82614
G1 X141.74 Y142.07 E221.86875
G1 X142.58 Y142.25 E221.91159
G1 X143.36 Y142.60 E221.95424
G1 X144.05 Y143.10 E221.99708
G1 X144.63 Y143.74 E222.03979
G1 X145.05 Y144.48 E222.08226
G1 X145.32 Y145.30 E222.12517
G1 X145.41 Y146.15 E222.16786
G1 X145.32 Y146.96 E222.20859
G1 X145.32 Y147.00 E222.21065
G1 X145.07 Y147.78 E222.25129
G1 X145.05 Y147.81 E222.25334
G1 X144.64 Y148.52 E222.29420
G1 X144.62 Y148.56 E222.29606
G1 X144.08 Y149.16 E222.33690
G1 X144.06 Y149.19 E222.33863
G1 X143.39 Y149.67 E222.37956
G1 X143.36 Y149.70 E222.38156
G1 X142.61 Y150.03 E222.42239
G1 X142.57 Y150.05 E222.42442
G0 F12000 X142.55 Y149.96
G1 F3180 X143.31 Y149.62 E222.46623
G1 X143.99 Y149.12 E222.50795
G1 X144.55 Y148.50 E222.54971
G1 X144.97 Y147.78 E222.59146
G1 X145.23 Y146.98 E222.63322
G1 X145.31 Y146.15 E222.67495
G1 X145.24 Y145.45 E222.70986
G1 X145.23 Y145.32 E222.71674
G1 X145.01 Y144.65 E222.75168
G1 X144.97 Y144.52 E222.75850
G1 X144.55 Y143.80 E222.80017
G1 X144.08 Y143.28 E222.83518
G1 X143.99 Y143.17 E222.84210
G1 X143.42 Y142.76 E222.87690
G1 X143.31 Y142.68 E222.88364
G1 X142.68 Y142.40 E222.91833
G1 X142.55 Y142.34 E222.92538
G1 X141.86 Y142.20 E222.96046
G1 X141.73 Y142.17 E222.96716
G1 X140.89 Y142.17 E223.00891
G1 X140.21 Y142.31 E223.04393
G1 X140.07 Y142.34 E223.05083
G1 X139.43 Y142.63 E223.08579
G1 X139.31 Y142.68 E223.09259
G1 X138.74 Y143.09 E223.12739
G1 X138.63 Y143.18 E223.13432
G1 X138.17 Y143.69 E223.16901
G1 X138.07 Y143.79 E223.17593
G1 X137.65 Y144.52 E223.21775
G1 X137.44 Y145.19 E223.25259
G1 X137.40 Y145.32 E223.25947
G1 X137.32 Y146.01 E223.29433
G1 X137.31 Y146.15 E223.30120
G1 X137.40 Y146.98 E223.34299
G1 X137.65 Y147.78 E223.38475
G1 X138.07 Y148.50 E223.42650
G1 X138.63 Y149.12 E223.46825
G1 X139.31 Y149.62 E223.50998
G1 X140.07 Y149.96 E223.55178
G1 X140.89 Y150.13 E223.59355
G1 X141.73 Y150.13 E223.63525
G1 X142.55 Y149.96 E223.67702
G0 F12000 X142.42 Y149.57
;TYPE:WALL-OUTER
G1 F3180 X143.11 Y149.27 E223.71460
G1 X143.72 Y148.82 E223.75214
G1 X144.22 Y148.26 E223.78973
G1 X144.60 Y147.61 E223.82724
G1 X144.83 Y146.90 E223.86480
G1 X144.91 Y146.15 E223.90237
G1 X144.83 Y145.40 E223.93994
G1 X144.60 Y144.68 E223.97751
G1 X144.22 Y144.03 E224.01502
G1 X143.78 Y143.54 E224.04790
G1 X143.72 Y143.47 E224.05267
G1 X143.19 Y143.09 E224.08544
G1 X143.11 Y143.03 E224.09015
G1 X142.51 Y142.76 E224.12298
G1 X142.43 Y142.72 E224.12769
G1 X141.78 Y142.59 E224.16057
G1 X141.69 Y142.57 E224.16527
G1 X140.94 Y142.57 E224.20284
G1 X140.29 Y142.70 E224.23567
G1 X140.20 Y142.72 E224.24047
G1 X139.60 Y142.99 E224.27326
G1 X139.51 Y143.03 E224.27801
G1 X138.98 Y143.42 E224.31078
G1 X138.90 Y143.47 E224.31555
G1 X138.46 Y143.96 E224.34830
G1 X138.40 Y144.03 E224.35307
G1 X138.02 Y144.68 E224.39065
G1 X137.79 Y145.40 E224.42821
G1 X137.71 Y146.15 E224.46578
G1 X137.79 Y146.90 E224.50335
G1 X138.02 Y147.61 E224.54092
G1 X138.40 Y148.26 E224.57842
G1 X138.90 Y148.82 E224.61601
G1 X139.51 Y149.27 E224.65355
G1 X140.20 Y149.57 E224.69114
G1 X140.94 Y149.73 E224.72872
G1 X141.69 Y149.73 E224.76624
G1 X142.42 Y149.57 E224.80382
G0 F12000 X142.77 Y150.39
G1 F3180 X142.70 Y150.43 E224.80778
G1 X141.86 Y150.60 E224.85071
G1 X141.78 Y150.62 E224.85475
G1 X140.84 Y150.62 E224.90160
G1 X140.00 Y150.44 E224.94454
G1 X139.92 Y150.43 E224.94841
G1 X139.13 Y150.08 E224.99149
G1 X139.06 Y150.05 E224.99531
G1 X138.30 Y149.49 E225.04243
G1 X137.67 Y148.79 E225.08948
G1 X137.20 Y147.98 E225.13626
G1 X136.94 Y147.16 E225.17916
G1 X136.91 Y147.08 E225.18320
G1 X136.81 Y146.15 E225.23011
G1 X136.91 Y145.21 E225.27707
G1 X137.20 Y144.32 E225.32396
G1 X137.67 Y143.51 E225.37074
G1 X138.30 Y142.80 E225.41793
G1 X139.06 Y142.25 E225.46462
G1 X139.92 Y141.87 E225.51158
G1 X140.84 Y141.68 E225.55866
G1 X141.78 Y141.68 E225.60536
G1 X142.70 Y141.87 E225.65243
G1 X143.56 Y142.25 E225.69940
G1 X144.32 Y142.80 E225.74608
G1 X144.95 Y143.51 E225.79328
G1 X145.42 Y144.32 E225.84006
G1 X145.71 Y145.21 E225.88695
G1 X145.81 Y146.15 E225.93391
G1 X145.71 Y147.09 E225.98087
G1 X145.45 Y147.90 E226.02366
G1 X145.42 Y147.98 E226.02780
G1 X144.95 Y148.79 E226.07454
G1 X144.32 Y149.49 E226.12160
G1 X143.56 Y150.04 E226.16857
G1 X142.77 Y150.39 E226.21143
G1 F2400 E225.01143
G0 F12000 X155.47 Y146.71
;TYPE:SUPPORT
G1 F2400 E226.21143
G1 F3180 X155.41 Y146.15 E226.23956
G1 X155.47 Y145.59 E226.26775
G1 X155.65 Y145.05 E226.29572
G1 X155.93 Y144.57 E226.32375
G1 X156.31 Y144.14 E226.35208
G1 X156.77 Y143.81 E226.38031
G1 X157.28 Y143.58 E226.40836
G1 X157.83 Y143.47 E226.43625
G1 X158.39 Y143.47 E226.46444
G1 X158.94 Y143.58 E226.49253
G1 X159.45 Y143.81 E226.52042
G1 X159.92 Y144.15 E226.54894
G1 X160.29 Y144.57 E226.57713
G1 X160.57 Y145.05 E226.60507
G1 X160.75 Y145.59 E226.63320
G1 X160.81 Y146.15 E226.66133
G1 X160.75 Y146.71 E226.68942
G1 X160.57 Y147.25 E226.71755
G1 X160.29 Y147.74 E226.74582
G1 X159.92 Y148.15 E226.77359
G1 X159.46 Y148.48 E226.80199
G1 X158.94 Y148.71 E226.83008
G1 X158.39 Y148.83 E226.85822
G1 X157.83 Y148.83 E226.88626
G1 X157.28 Y148.71 E226.91440
G1 X156.76 Y148.48 E226.94250
G1 X156.30 Y148.15 E226.97090
G1 X155.93 Y147.74 E226.99867
G1 X155.65 Y147.25 E227.02694
G1 X155.47 Y146.71 E227.05507
G1 F2400 E225.85507
G0 F12000 X157.83 Y160.27
G1 F2400 E227.05507
G1 F3180 X158.39 Y160.27 E227.08326
G1 X158.94 Y160.38 E227.11135
G1 X159.45 Y160.61 E227.13925
G1 X159.92 Y160.94 E227.16776
G1 X160.29 Y161.37 E227.19595
G1 X160.57 Y161.85 E227.22389
G1 X160.75 Y162.39 E227.25202
G1 X160.81 Y162.95 E227.28015
G1 X160.75 Y163.51 E227.30824
G1 X160.57 Y164.04 E227.33637
G1 X160.29 Y164.53 E227.36464
G1 X159.92 Y164.95 E227.39241
G1 X159.46 Y165.28 E227.42081
G1 X158.94 Y165.51 E227.44890
G1 X158.39 Y165.63 E227.47705
G1 X157.83 Y165.63 E227.50508
G1 X157.28 Y165.51 E227.53322
G1 X156.76 Y165.28 E227.56132
G1 X156.30 Y164.95 E227.58972
G1 X155.93 Y164.53 E227.61749
G1 X155.65 Y164.04 E227.64576
G1 X155.47 Y163.51 E227.67389
G1 X155.41 Y162.95 E227.70202
G1 X155.47 Y162.38 E227.73021
G1 X155.65 Y161.85 E227.75818
G1 X155.93 Y161.37 E227.78621
G1 X156.31 Y160.94 E227.81454
G1 X156.77 Y160.61 E227.84277
G1 X157.28 Y160.38 E227.87082
G1 X157.83 Y160.27 E227.89871
G1 F2400 E226.69871
G0 F12000 X143.95 Y162.39
G1 F2400 E227.89871
G1 F3180 X144.01 Y162.95 E227.92684
G1 X143.95 Y163.51 E227.95492
G1 X143.77 Y164.04 E227.98305
G1 X143.49 Y164.53 E228.01133
G1 X143.12 Y164.95 E228.03910
G1 X142.66 Y165.28 E228.06750
G1 X142.14 Y165.51 E228.09559
G1 X141.59 Y165.63 E228.12373
G1 X141.03 Y165.63 E228.15177
G1 X140.48 Y165.51 E228.17991
G1 X139.96 Y165.28 E228.20801
G1 X139.50 Y164.95 E228.23641
G1 X139.13 Y164.53 E228.26417
G1 X138.85 Y164.04 E228.29245
G1 X138.67 Y163.51 E228.32058
G1 X138.62 Y162.95 E228.34871
G1 X138.67 Y162.38 E228.37690
G1 X138.85 Y161.85 E228.40487
G1 X139.13 Y161.37 E228.43290
G1 X139.51 Y160.94 E228.46123
G1 X139.97 Y160.61 E228.48946
G1 X140.48 Y160.38 E228.51751
G1 X141.03 Y160.27 E228.54540
G1 X141.59 Y160.27 E228.57358
G1 X142.14 Y160.38 E228.60168
G1 X142.65 Y160.61 E228.62957
G1 X143.12 Y160.94 E228.65808
G1 X143.49 Y161.37 E228.68628
G1 X143.77 Y161.85 E228.71422
G1 X143.95 Y162.39 E228.74235
G0 F12000 X142.76 Y160.81
G0 X142.85 Y160.68
G1 F3180 X142.85 Y165.22 E228.96880
G1 F2400 E227.76880
G0 F12000 X141.59 Y148.83
G1 F2400 E228.96880
G1 F3180 X141.03 Y148.83 E228.99684
G1 X140.48 Y148.71 E229.02498
G1 X139.96 Y148.48 E229.05307
G1 X139.50 Y148.15 E229.08147
G1 X139.13 Y147.74 E229.10924
G1 X138.85 Y147.25 E229.13752
G1 X138.67 Y146.71 E229.16565
G1 X138.62 Y146.15 E229.19378
G1 X138.67 Y145.59 E229.22197
G1 X138.85 Y145.05 E229.24994
G1 X139.13 Y144.57 E229.27796
G1 X139.51 Y144.14 E229.30630
G1 X139.97 Y143.81 E229.33453
G1 X140.48 Y143.58 E229.36258
G1 X141.03 Y143.47 E229.39046
G1 X141.59 Y143.47 E229.41865
G1 X142.14 Y143.58 E229.44674
G1 X142.65 Y143.81 E229.47464
G1 X143.12 Y144.15 E229.50315
G1 X143.49 Y144.57 E229.53135
G1 X143.77 Y145.05 E229.55929
G1 X143.95 Y145.59 E229.58742
G1 X144.01 Y146.15 E229.61555
G1 X143.95 Y146.71 E229.64363
G1 X143.77 Y147.25 E229.67176
G1 X143.49 Y147.74 E229.70003
G1 X143.12 Y148.15 E229.72780
G1 X142.66 Y148.48 E229.75620
G1 X142.14 Y148.71 E229.78430
G1 X141.59 Y148.83 E229.81244
G0 F12000 X142.85 Y148.42
G1 F3180 X142.85 Y143.88 E230.03889
G1 F2400 E228.83889
G0 F12000 X144.02 Y141.47
G1 F2400 E230.03889
G1 F3180 X142.98 Y141.01 E230.09562
G1 X141.87 Y140.78 E230.15187
G1 X140.75 Y140.78 E230.20805
G1 X139.65 Y141.01 E230.26430
G1 X138.61 Y141.47 E230.32103
G1 X137.70 Y142.13 E230.37715
G1 X136.94 Y142.97 E230.43353
G1 X136.37 Y143.95 E230.48997
G1 X136.03 Y145.03 E230.54637
G1 X135.91 Y146.15 E230.60257
G1 X135.93 Y146.32 E230.61130
G1 X136.03 Y147.27 E230.65900
G1 X136.08 Y147.44 E230.66757
G1 X136.37 Y148.35 E230.71533
G1 X136.46 Y148.50 E230.72409
G1 X136.94 Y149.33 E230.77185
G1 X137.06 Y149.45 E230.78040
G1 X137.70 Y150.17 E230.82823
G1 X137.84 Y150.27 E230.83712
G1 X138.61 Y150.83 E230.88434
G1 X138.76 Y150.90 E230.89290
G1 X139.64 Y151.29 E230.94062
G1 X139.81 Y151.33 E230.94972
G1 X140.75 Y151.52 E230.99719
G1 X141.88 Y151.52 E231.05372
G1 X142.04 Y151.49 E231.06209
G1 X142.98 Y151.29 E231.10979
G1 X144.01 Y150.83 E231.16629
G1 X144.15 Y150.73 E231.17490
G1 X144.93 Y150.16 E231.22277
G1 X145.68 Y149.33 E231.27883
G1 X146.25 Y148.35 E231.33520
G1 X146.30 Y148.18 E231.34407
G1 X146.60 Y147.27 E231.39179
G1 X146.62 Y147.10 E231.40047
G1 X146.72 Y146.15 E231.44809
G1 X146.60 Y145.03 E231.50438
G1 X146.25 Y143.95 E231.56079
G1 X145.68 Y142.97 E231.61723
G1 X144.93 Y142.13 E231.67361
G1 X144.02 Y141.47 E231.72972
G0 F12000 X144.05 Y141.38
G0 X153.17 Y143.95
G1 F3180 X152.82 Y145.03 E231.78613
G1 X152.71 Y146.15 E231.84232
G1 X152.72 Y146.32 E231.85105
G1 X152.82 Y147.27 E231.89875
G1 X152.88 Y147.44 E231.90732
G1 X153.17 Y148.35 E231.95508
G1 X153.26 Y148.50 E231.96384
G1 X153.74 Y149.33 E232.01161
G1 X153.85 Y149.45 E232.02015
G1 X154.50 Y150.17 E232.06798
G1 X154.64 Y150.27 E232.07688
G1 X155.41 Y150.83 E232.12410
G1 X155.56 Y150.90 E232.13265
G1 X156.44 Y151.29 E232.18038
G1 X156.61 Y151.33 E232.18947
G1 X157.54 Y151.52 E232.23694
G1 X158.68 Y151.52 E232.29347
G1 X158.84 Y151.49 E232.30185
G1 X159.78 Y151.29 E232.34954
G1 X160.81 Y150.83 E232.40605
G1 X160.95 Y150.73 E232.41466
G1 X161.73 Y150.16 E232.46252
G1 X162.48 Y149.33 E232.51858
G1 X163.05 Y148.35 E232.57495
G1 X163.10 Y148.18 E232.58382
G1 X163.40 Y147.27 E232.63155
G1 X163.41 Y147.10 E232.64022
G1 X163.51 Y146.15 E232.68784
G1 X163.40 Y145.03 E232.74413
G1 X163.05 Y143.95 E232.80054
G1 X162.48 Y142.97 E232.85698
G1 X161.72 Y142.13 E232.91336
G1 X160.81 Y141.47 E232.96948
G1 X159.78 Y141.01 E233.02620
G1 X158.67 Y140.78 E233.08246
G1 X157.55 Y140.78 E233.13863
G1 X156.44 Y141.01 E233.19489
G1 X155.41 Y141.47 E233.25162
G1 X154.50 Y142.13 E233.30773
G1 X153.74 Y142.97 E233.36411
G1 X153.17 Y143.95 E233.42055
G1 F2400 E232.22055
G0 F12000 X156.44 Y157.81
G1 F2400 E233.42055
G1 F3180 X155.41 Y158.27 E233.47728
G1 X154.50 Y158.93 E233.53340
G1 X153.74 Y159.77 E233.58978
G1 X153.17 Y160.75 E233.64622
G1 X152.82 Y161.83 E233.70263
G1 X152.71 Y162.95 E233.75882
G1 X152.72 Y163.12 E233.76755
G1 X152.82 Y164.07 E233.81525
G1 X152.88 Y164.23 E233.82382
G1 X153.17 Y165.15 E233.87158
G1 X153.26 Y165.30 E233.88034
G1 X153.74 Y166.13 E233.92811
G1 X153.85 Y166.25 E233.93665
G1 X154.50 Y166.97 E233.98448
G1 X154.64 Y167.07 E233.99337
G1 X155.41 Y167.63 E234.04060
G1 X155.56 Y167.70 E234.04915
G1 X156.44 Y168.09 E234.09688
G1 X156.61 Y168.12 E234.10597
G1 X157.54 Y168.32 E234.15344
G1 X158.68 Y168.32 E234.20997
G1 X158.84 Y168.29 E234.21835
G1 X159.78 Y168.09 E234.26604
G1 X160.81 Y167.63 E234.32254
G1 X160.95 Y167.53 E234.33116
G1 X161.73 Y166.96 E234.37902
G1 X162.48 Y166.13 E234.43508
G1 X163.05 Y165.15 E234.49145
G1 X163.10 Y164.98 E234.50032
G1 X163.40 Y164.07 E234.54805
G1 X163.41 Y163.90 E234.55672
G1 X163.51 Y162.95 E234.60434
G1 X163.40 Y161.83 E234.66063
G1 X163.05 Y160.75 E234.71704
G1 X162.48 Y159.77 E234.77348
G1 X161.72 Y158.93 E234.82986
G1 X160.81 Y158.27 E234.88597
G1 X159.78 Y157.81 E234.94270
G1 X158.67 Y157.57 E234.99896
G1 X157.55 Y157.57 E235.05513
G1 X156.44 Y157.81 E235.11139
G0 F12000 X146.33 Y160.69
G0 X146.25 Y160.75
G1 F3180 X145.68 Y159.77 E235.16783
G1 X144.93 Y158.93 E235.22421
G1 X144.02 Y158.27 E235.28032
G1 X142.98 Y157.81 E235.33705
G1 X141.87 Y157.57 E235.39331
G1 X140.75 Y157.57 E235.44948
G1 X139.65 Y157.81 E235.50574
G1 X138.61 Y158.27 E235.56247
G1 X137.70 Y158.93 E235.61858
G1 X136.94 Y159.77 E235.67496
G1 X136.37 Y160.75 E235.73140
G1 X136.03 Y161.83 E235.78781
G1 X135.91 Y162.95 E235.84400
G1 X135.93 Y163.12 E235.85273
G1 X136.03 Y164.07 E235.90043
G1 X136.08 Y164.23 E235.90900
G1 X136.37 Y165.15 E235.95676
G1 X136.46 Y165.30 E235.96552
G1 X136.94 Y166.13 E236.01329
G1 X137.06 Y166.25 E236.02184
G1 X137.70 Y166.97 E236.06967
G1 X137.84 Y167.07 E236.07856
G1 X138.61 Y167.63 E236.12578
G1 X138.76 Y167.70 E236.13433
G1 X139.64 Y168.09 E236.18206
G1 X139.81 Y168.12 E236.19115
G1 X140.75 Y168.32 E236.23862
G1 X141.88 Y168.32 E236.29515
G1 X142.04 Y168.29 E236.30353
G1 X142.98 Y168.09 E236.35122
G1 X144.01 Y167.63 E236.40773
G1 X144.15 Y167.53 E236.41634
G1 X144.93 Y166.96 E236.46420
G1 X145.68 Y166.13 E236.52026
G1 X146.25 Y165.15 E236.57664
G1 X146.30 Y164.98 E236.58550
G1 X146.60 Y164.07 E236.63323
G1 X146.62 Y163.90 E236.64191
G1 X146.72 Y162.95 E236.68952
G1 X146.60 Y161.83 E236.74582
G1 X146.25 Y160.75 E236.80222
G0 F12000 X146.33 Y160.69
G0 X146.92 Y162.95
G0 X146.43 Y165.23
G0 X145.06 Y167.11
G0 X143.04 Y168.28
G0 X140.73 Y168.52
G0 X138.51 Y167.80
G0 X133.38 Y170.92
G1 F3180 X133.38 Y138.32 E238.42864
G1 X166.08 Y138.32 E240.06005
G1 X166.08 Y170.92 E241.68647
G1 X133.38 Y170.92 E243.31788
G0 F12000 X133.48 Y165.71
G0 X133.32 Y165.71
G1 F3180 X136.77 Y165.71 E243.48980
G0 F12000 X136.63 Y165.79
G0 X137.72 Y167.23
G0 X139.77 Y168.32
G0 X142.09 Y168.48
G0 X142.88 Y168.21
G0 X142.85 Y168.05
G1 F3180 X142.85 Y170.98 E243.63583
G0 F12000 X142.85 Y170.82
G0 X145.99 Y165.79
G0 X145.86 Y165.71
G1 F3180 X153.57 Y165.71 E244.02048
G0 F12000 X154.28 Y166.64
G1 F3180 X154.28 Y170.98 E244.23716
G0 F12000 X154.28 Y170.82
G0 X161.07 Y167.69
G0 X162.64 Y166.24
G0 X162.79 Y165.79
G0 X162.66 Y165.71
G1 F3180 X166.14 Y165.71 E244.41107
G0 F12000 X165.98 Y165.71
G0 X165.71 Y170.82
G0 X165.71 Y170.98
G1 F3180 X165.71 Y138.26 E246.04348
G0 F12000 X165.71 Y138.42
G0 X165.98 Y142.85
G0 X166.14 Y142.85
G1 F3180 X162.29 Y142.85 E246.23561
G0 F12000 X162.41 Y142.74
G0 X160.91 Y141.30
G0 X158.69 Y140.58
G0 X156.38 Y140.82
G0 X154.36 Y141.98
G0 X154.16 Y142.36
G0 X154.28 Y142.46
G1 F3180 X154.28 Y138.26 E246.44535
G0 F12000 X154.28 Y138.42
G0 X153.81 Y142.74
G0 X153.93 Y142.85
G1 F3180 X145.49 Y142.85 E246.86632
G0 F12000 X145.61 Y142.74
G0 X144.12 Y141.30
G0 X142.88 Y140.89
G0 X142.85 Y141.04
G1 F3180 X142.85 Y138.26 E247.00521
G0 F12000 X142.85 Y138.42
G0 X137.56 Y141.98
G0 X137.01 Y142.74
G0 X137.13 Y142.85
G1 F3180 X133.32 Y142.85 E247.19525
G0 F12000 X133.48 Y142.85
G0 X133.48 Y154.28
G0 X133.32 Y154.28
G1 F3180 X166.14 Y154.28 E248.83264
G0 F12000 X165.98 Y154.28
G0 X155.31 Y151.00
G0 X154.16 Y149.94
G0 X154.28 Y149.84
G1 F3180 X154.28 Y159.26 E249.30286
G0 F12000 X154.16 Y159.16
G0 X142.88 Y157.69
G0 X142.85 Y157.84
G1 F3180 X142.85 Y151.25 E249.63158
;LAYER:2
G0 F12000 X142.58 Y150.04 Z0.90
;TYPE:WALL-INNER
G1 F3720 X141.84 Y150.20 E249.66906
G1 X141.74 Y150.22 E249.67437
G1 X140.88 Y150.22 E249.71708
G1 X140.15 Y150.07 E249.75446
G1 X140.05 Y150.05 E249.75962
G1 X139.27 Y149.70 E249.80232
G1 X138.57 Y149.19 E249.84540
G1 X138.07 Y148.64 E249.88260
G1 X137.99 Y148.55 E249.88818
G1 X137.57 Y147.82 E249.93047
G1 X137.34 Y147.10 E249.96807
G1 X137.30 Y147.00 E249.97339
G1 X137.22 Y146.15 E250.01617
G1 X137.30 Y145.30 E250.05886
G1 X137.57 Y144.48 E250.10178
G1 X138.00 Y143.74 E250.14425
G1 X138.57 Y143.10 E250.18696
G1 X139.26 Y142.60 E250.22979
G1 X140.04 Y142.25 E250.27245
G1 X140.88 Y142.07 E250.31528
G1 X141.74 Y142.07 E250.35789
G1 X142.58 Y142.25 E250.40073
G1 X143.36 Y142.60 E250.44339
G1 X144.05 Y143.10 E250.48622
G1 X144.63 Y143.74 E250.52893
G1 X145.05 Y144.48 E250.57140
G1 X145.32 Y145.30 E250.61431
G1 X145.41 Y146.15 E250.65700
G1 X145.32 Y147.00 E250.69979
G1 X145.09 Y147.71 E250.73707
G1 X145.05 Y147.82 E250.74258
G1 X144.63 Y148.56 E250.78523
G1 X144.12 Y149.11 E250.82256
G1 X144.05 Y149.19 E250.82786
G1 X143.36 Y149.70 E250.87087
G1 X142.58 Y150.04 E250.91342
G0 F12000 X142.55 Y149.96
G1 F3720 X143.31 Y149.62 E250.95523
G1 X143.99 Y149.12 E250.99695
G1 X144.55 Y148.50 E251.03871
G1 X144.97 Y147.78 E251.08046
G1 X145.23 Y146.98 E251.12222
G1 X145.31 Y146.15 E251.16395
G1 X145.25 Y145.50 E251.19646
G1 X145.23 Y145.32 E251.20574
G1 X144.97 Y144.52 E251.24745
G1 X144.64 Y143.96 E251.27989
G1 X144.55 Y143.80 E251.28921
G1 X143.99 Y143.17 E251.33096
G1 X143.46 Y142.79 E251.36346
G1 X143.31 Y142.68 E251.37279
G1 X142.72 Y142.42 E251.40491
G1 X142.55 Y142.34 E251.41440
G1 X141.91 Y142.21 E251.44687
G1 X141.73 Y142.17 E251.45621
G1 X140.89 Y142.17 E251.49792
G1 X140.26 Y142.30 E251.53044
G1 X140.07 Y142.34 E251.53978
G1 X139.48 Y142.61 E251.57234
G1 X139.31 Y142.68 E251.58165
G1 X138.78 Y143.06 E251.61383
G1 X138.63 Y143.17 E251.62319
G1 X138.07 Y143.80 E251.66506
G1 X137.75 Y144.36 E251.69738
G1 X137.65 Y144.52 E251.70672
G1 X137.40 Y145.32 E251.74853
G1 X137.33 Y145.96 E251.78094
G1 X137.31 Y146.15 E251.79022
G1 X137.40 Y146.98 E251.83200
G1 X137.65 Y147.78 E251.87376
G1 X138.07 Y148.50 E251.91551
G1 X138.63 Y149.12 E251.95727
G1 X139.31 Y149.62 E251.99899
G1 X140.07 Y149.96 E252.04080
G1 X140.89 Y150.13 E252.08256
G1 X141.73 Y150.13 E252.12427
G1 X142.55 Y149.96 E252.16603
G0 F12000 X142.42 Y149.57
;TYPE:WALL-OUTER
G1 F3720 X143.11 Y149.27 E252.20362
G1 X143.72 Y148.82 E252.24116
G1 X144.22 Y148.26 E252.27875
G1 X144.60 Y147.61 E252.31625
G1 X144.83 Y146.90 E252.35382
G1 X144.91 Y146.15 E252.39139
G1 X144.83 Y145.40 E252.42896
G1 X144.60 Y144.68 E252.46652
G1 X144.22 Y144.03 E252.50403
G1 X143.72 Y143.47 E252.54162
G1 X143.11 Y143.03 E252.57916
G1 X142.56 Y142.78 E252.60958
G1 X142.43 Y142.72 E252.61670
G1 X141.69 Y142.57 E252.65433
G1 X140.94 Y142.57 E252.69185
G1 X140.20 Y142.72 E252.72943
G1 X139.64 Y142.97 E252.75985
G1 X139.51 Y143.03 E252.76702
G1 X138.90 Y143.47 E252.80456
G1 X138.40 Y144.03 E252.84215
G1 X138.02 Y144.68 E252.87966
G1 X137.79 Y145.40 E252.91722
G1 X137.71 Y146.15 E252.95479
G1 X137.79 Y146.90 E252.99236
G1 X138.02 Y147.61 E253.02993
G1 X138.40 Y148.26 E253.06743
G1 X138.90 Y148.82 E253.10502
G1 X139.51 Y149.27 E253.14256
G1 X140.20 Y149.57 E253.18015
G1 X140.94 Y149.73 E253.21773
G1 X141.69 Y149.73 E253.25525
G1 X142.42 Y149.57 E253.29284
G0 F12000 X142.70 Y150.43
G1 F3720 X141.93 Y150.59 E253.33236
G1 X141.78 Y150.62 E253.33972
G1 X140.84 Y150.62 E253.38661
G1 X140.07 Y150.46 E253.42618
G1 X139.93 Y150.43 E253.43337
G1 X139.06 Y150.04 E253.48045
G1 X138.30 Y149.49 E253.52743
G1 X137.67 Y148.79 E253.57448
G1 X137.20 Y147.98 E253.62126
G1 X136.91 Y147.09 E253.66815
G1 X136.81 Y146.15 E253.71511
G1 X136.91 Y145.21 E253.76207
G1 X137.20 Y144.32 E253.80896
G1 X137.67 Y143.51 E253.85574
G1 X138.30 Y142.80 E253.90294
G1 X139.06 Y142.25 E253.94962
G1 X139.92 Y141.87 E253.99659
G1 X140.84 Y141.68 E254.04366
G1 X141.78 Y141.68 E254.09036
G1 X142.70 Y141.87 E254.13744
G1 X143.56 Y142.25 E254.18440
G1 X144.32 Y142.80 E254.23109
G1 X144.95 Y143.51 E254.27828
G1 X145.42 Y144.32 E254.32507
G1 X145.71 Y145.21 E254.37196
G1 X145.81 Y146.15 E254.41891
G1 X145.71 Y147.09 E254.46587
G1 X145.42 Y147.98 E254.51276
G1 X144.95 Y148.79 E254.55954
G1 X144.32 Y149.49 E254.60660
G1 X143.56 Y150.04 E254.65357
G1 X142.70 Y150.43 E254.70043
G1 F2400 E253.50043
G0 F12000 X141.74 Y158.87
;TYPE:WALL-INNER
G1 F2400 E254.70043
G1 F3720 X142.58 Y159.05 E254.74327
G1 X143.36 Y159.40 E254.78592
G1 X144.05 Y159.90 E254.82875
G1 X144.63 Y160.54 E254.87147
G1 X145.05 Y161.28 E254.91394
G1 X145.32 Y162.10 E254.95685
G1 X145.41 Y162.95 E254.99954
G1 X145.32 Y163.80 E255.04232
G1 X145.09 Y164.51 E255.07961
G1 X145.05 Y164.62 E255.08511
G1 X144.63 Y165.36 E255.12776
G1 X144.12 Y165.91 E255.16510
G1 X144.05 Y165.99 E255.17040
G1 X143.36 Y166.50 E255.21341
G1 X142.58 Y166.84 E255.25596
G1 X141.84 Y167.00 E255.29343
G1 X141.74 Y167.02 E255.29875
G1 X140.88 Y167.02 E255.34145
G1 X140.15 Y166.87 E255.37883
G1 X140.05 Y166.84 E255.38399
G1 X139.27 Y166.50 E255.42669
G1 X138.57 Y165.99 E255.46977
G1 X138.07 Y165.44 E255.50697
G1 X137.99 Y165.35 E255.51255
G1 X137.57 Y164.62 E255.55484
G1 X137.34 Y163.90 E255.59244
G1 X137.30 Y163.80 E255.59776
G1 X137.22 Y162.95 E255.64055
G1 X137.30 Y162.10 E255.68323
G1 X137.57 Y161.28 E255.72615
G1 X138.00 Y160.54 E255.76862
G1 X138.57 Y159.90 E255.81133
G1 X139.26 Y159.40 E255.85416
G1 X140.04 Y159.05 E255.89682
G1 X140.88 Y158.87 E255.93966
G1 X141.74 Y158.87 E255.98226
G0 F12000 X141.73 Y158.97
G1 F3720 X140.89 Y158.97 E256.02397
G1 X140.26 Y159.10 E256.05650
G1 X140.07 Y159.14 E256.06583
G1 X139.48 Y159.41 E256.09839
G1 X139.31 Y159.48 E256.10770
G1 X138.78 Y159.86 E256.13989
G1 X138.63 Y159.97 E256.14925
G1 X138.07 Y160.60 E256.19111
G1 X137.75 Y161.16 E256.22343
G1 X137.65 Y161.32 E256.23277
G1 X137.40 Y162.12 E256.27458
G1 X137.33 Y162.76 E256.30699
G1 X137.31 Y162.95 E256.31627
G1 X137.40 Y163.78 E256.35805
G1 X137.65 Y164.58 E256.39982
G1 X138.07 Y165.30 E256.44157
G1 X138.63 Y165.92 E256.48332
G1 X139.31 Y166.41 E256.52505
G1 X140.07 Y166.76 E256.56685
G1 X140.89 Y166.93 E256.60861
G1 X141.73 Y166.93 E256.65032
G1 X142.55 Y166.76 E256.69208
G1 X143.31 Y166.41 E256.73389
G1 X143.99 Y165.92 E256.77561
G1 X144.55 Y165.30 E256.81737
G1 X144.97 Y164.58 E256.85912
G1 X145.23 Y163.78 E256.90088
G1 X145.31 Y162.95 E256.94262
G1 X145.25 Y162.30 E256.97512
G1 X145.23 Y162.12 E256.98440
G1 X144.97 Y161.32 E257.02612
G1 X144.64 Y160.76 E257.05855
G1 X144.55 Y160.59 E257.06787
G1 X143.99 Y159.97 E257.10962
G1 X143.46 Y159.59 E257.14213
G1 X143.31 Y159.48 E257.15146
G1 X142.72 Y159.22 E257.18357
G1 X142.55 Y159.14 E257.19306
G1 X141.91 Y159.01 E257.22554
G1 X141.73 Y158.97 E257.23487
G0 F12000 X141.69 Y159.37
;TYPE:WALL-OUTER
G1 F3720 X140.94 Y159.37 E257.27239
G1 X140.20 Y159.52 E257.30997
G1 X139.64 Y159.77 E257.34039
G1 X139.51 Y159.83 E257.34756
G1 X138.90 Y160.27 E257.38510
G1 X138.40 Y160.83 E257.42269
G1 X138.02 Y161.48 E257.46020
G1 X137.79 Y162.20 E257.49776
G1 X137.71 Y162.95 E257.53533
G1 X137.79 Y163.70 E257.57290
G1 X138.02 Y164.41 E257.61047
G1 X138.40 Y165.06 E257.64797
G1 X138.90 Y165.62 E257.68556
G1 X139.51 Y166.07 E257.72310
G1 X140.20 Y166.37 E257.76069
G1 X140.94 Y166.53 E257.79827
G1 X141.69 Y166.53 E257.83579
G1 X142.42 Y166.37 E257.87337
G1 X143.11 Y166.07 E257.91096
G1 X143.72 Y165.62 E257.94850
G1 X144.22 Y165.06 E257.98609
G1 X144.60 Y164.41 E258.02360
G1 X144.83 Y163.70 E258.06116
G1 X144.91 Y162.95 E258.09873
G1 X144.83 Y162.20 E258.13630
G1 X144.60 Y161.48 E258.17387
G1 X144.22 Y160.83 E258.21137
G1 X143.72 Y160.27 E258.24896
G1 X143.11 Y159.83 E258.28650
G1 X142.56 Y159.58 E258.31692
G1 X142.43 Y159.52 E258.32404
G1 X141.69 Y159.37 E258.36168
G0 F12000 X141.78 Y158.47
G1 F3720 X142.70 Y158.67 E258.40875
G1 X143.56 Y159.05 E258.45572
G1 X144.32 Y159.60 E258.50240
G1 X144.95 Y160.31 E258.54960
G1 X145.42 Y161.12 E258.59638
G1 X145.71 Y162.01 E258.64327
G1 X145.81 Y162.95 E258.69023
G1 X145.71 Y163.88 E258.73719
G1 X145.42 Y164.78 E258.78408
G1 X144.95 Y165.59 E258.83086
G1 X144.32 Y166.29 E258.87791
G1 X143.56 Y166.84 E258.92489
G1 X142.70 Y167.23 E258.97174
G1 X141.93 Y167.39 E259.01126
G1 X141.78 Y167.42 E259.01862
G1 X140.84 Y167.42 E259.06552
G1 X140.07 Y167.26 E259.10509
G1 X139.93 Y167.23 E259.11228
G1 X139.06 Y166.84 E259.15936
G1 X138.30 Y166.29 E259.20633
G1 X137.67 Y165.59 E259.25339
G1 X137.20 Y164.78 E259.30017
G1 X136.91 Y163.88 E259.34706
G1 X136.81 Y162.95 E259.39402
G1 X136.91 Y162.01 E259.44098
G1 X137.20 Y161.12 E259.48787
G1 X137.67 Y160.31 E259.53465
G1 X138.30 Y159.60 E259.58185
G1 X139.06 Y159.05 E259.62853
G1 X139.92 Y158.67 E259.67550
G1 X140.84 Y158.47 E259.72257
G1 X141.78 Y158.47 E259.76927
G1 F2400 E258.56927
G0 F12000 X154.10 Y162.10
;TYPE:WALL-INNER
G1 F2400 E259.76927
G1 F3720 X154.37 Y161.28 E259.81218
G1 X154.79 Y160.54 E259.85465
G1 X155.37 Y159.90 E259.89736
G1 X156.06 Y159.40 E259.94020
G1 X156.84 Y159.05 E259.98285
G1 X157.68 Y158.87 E260.02569
G1 X158.54 Y158.87 E260.06830
G1 X159.38 Y159.05 E260.11114
G1 X160.16 Y159.40 E260.15379
G1 X160.85 Y159.90 E260.19662
G1 X161.43 Y160.54 E260.23934
G1 X161.85 Y161.28 E260.28181
G1 X162.12 Y162.10 E260.32472
G1 X162.21 Y162.95 E260.36741
G1 X162.12 Y163.80 E260.41020
G1 X161.89 Y164.51 E260.44748
G1 X161.85 Y164.62 E260.45298
G1 X161.43 Y165.36 E260.49563
G1 X160.92 Y165.91 E260.53297
G1 X160.85 Y165.99 E260.53827
G1 X160.16 Y166.50 E260.58128
G1 X159.38 Y166.84 E260.62383
G1 X158.64 Y167.00 E260.66130
G1 X158.54 Y167.02 E260.66662
G1 X157.68 Y167.02 E260.70932
G1 X156.95 Y166.87 E260.74670
G1 X156.85 Y166.84 E260.75186
G1 X156.06 Y166.50 E260.79456
G1 X155.37 Y165.99 E260.83764
G1 X154.87 Y165.44 E260.87484
G1 X154.79 Y165.35 E260.88042
G1 X154.37 Y164.62 E260.92271
G1 X154.14 Y163.90 E260.96031
G1 X154.10 Y163.80 E260.96563
G1 X154.01 Y162.95 E261.00842
G1 X154.10 Y162.10 E261.05110
G0 F12000 X154.19 Y162.12
G1 F3720 X154.13 Y162.76 E261.08351
G1 X154.11 Y162.95 E261.09279
G1 X154.19 Y163.78 E261.13457
G1 X154.45 Y164.58 E261.17634
G1 X154.87 Y165.30 E261.21809
G1 X155.43 Y165.92 E261.25984
G1 X156.11 Y166.41 E261.30157
G1 X156.87 Y166.76 E261.34337
G1 X157.69 Y166.93 E261.38514
G1 X158.53 Y166.93 E261.42684
G1 X159.35 Y166.76 E261.46860
G1 X160.11 Y166.41 E261.51041
G1 X160.79 Y165.92 E261.55213
G1 X161.35 Y165.30 E261.59389
G1 X161.77 Y164.58 E261.63564
G1 X162.03 Y163.78 E261.67740
G1 X162.11 Y162.95 E261.71914
G1 X162.05 Y162.30 E261.75164
G1 X162.03 Y162.12 E261.76092
G1 X161.77 Y161.32 E261.80264
G1 X161.44 Y160.76 E261.83507
G1 X161.35 Y160.59 E261.84439
G1 X160.79 Y159.97 E261.88615
G1 X160.26 Y159.59 E261.91865
G1 X160.11 Y159.48 E261.92798
G1 X159.52 Y159.22 E261.96009
G1 X159.35 Y159.14 E261.96958
G1 X158.71 Y159.01 E262.00206
G1 X158.53 Y158.97 E262.01139
G1 X157.69 Y158.97 E262.05310
G1 X157.06 Y159.10 E262.08563
G1 X156.87 Y159.14 E262.09496
G1 X156.28 Y159.41 E262.12752
G1 X156.11 Y159.48 E262.13683
G1 X155.58 Y159.86 E262.16902
G1 X155.43 Y159.97 E262.17838
G1 X154.87 Y160.60 E262.22024
G1 X154.55 Y161.16 E262.25256
G1 X154.45 Y161.32 E262.26191
G1 X154.19 Y162.12 E262.30371
G0 F12000 X154.59 Y162.20
;TYPE:WALL-OUTER
G1 F3720 X154.51 Y162.95 E262.34128
G1 X154.59 Y163.70 E262.37885
G1 X154.82 Y164.41 E262.41642
G1 X155.20 Y165.06 E262.45393
G1 X155.70 Y165.62 E262.49151
G1 X156.31 Y166.07 E262.52906
G1 X157.00 Y166.37 E262.56664
G1 X157.73 Y166.53 E262.60423
G1 X158.49 Y166.53 E262.64174
G1 X159.22 Y166.37 E262.67933
G1 X159.91 Y166.07 E262.71691
G1 X160.52 Y165.62 E262.75446
G1 X161.02 Y165.06 E262.79204
G1 X161.40 Y164.41 E262.82955
G1 X161.63 Y163.70 E262.86712
G1 X161.71 Y162.95 E262.90469
G1 X161.63 Y162.20 E262.94225
G1 X161.40 Y161.48 E262.97982
G1 X161.02 Y160.83 E263.01733
G1 X160.52 Y160.27 E263.05491
G1 X159.91 Y159.83 E263.09246
G1 X159.35 Y159.58 E263.12288
G1 X159.22 Y159.52 E263.13000
G1 X158.49 Y159.37 E263.16763
G1 X157.73 Y159.37 E263.20515
G1 X157.00 Y159.52 E263.24273
G1 X156.44 Y159.77 E263.27315
G1 X156.31 Y159.83 E263.28032
G1 X155.70 Y160.27 E263.31786
G1 X155.20 Y160.83 E263.35545
G1 X154.82 Y161.48 E263.39295
G1 X154.59 Y162.20 E263.43052
G0 F12000 X153.71 Y162.01
G1 F3720 X154.00 Y161.12 E263.47741
G1 X154.47 Y160.31 E263.52419
G1 X155.10 Y159.60 E263.57139
G1 X155.86 Y159.05 E263.61807
G1 X156.72 Y158.67 E263.66504
G1 X157.64 Y158.47 E263.71211
G1 X158.58 Y158.47 E263.75881
G1 X159.50 Y158.67 E263.80589
G1 X160.36 Y159.05 E263.85285
G1 X161.12 Y159.60 E263.89954
G1 X161.75 Y160.31 E263.94673
G1 X162.22 Y161.12 E263.99352
G1 X162.51 Y162.01 E264.04040
G1 X162.61 Y162.95 E264.08736
G1 X162.51 Y163.88 E264.13432
G1 X162.22 Y164.78 E264.18121
G1 X161.75 Y165.59 E264.22799
G1 X161.12 Y166.29 E264.27505
G1 X160.36 Y166.84 E264.32202
G1 X159.50 Y167.23 E264.36888
G1 X158.72 Y167.39 E264.40840
G1 X158.58 Y167.42 E264.41576
G1 X157.64 Y167.42 E264.46265
G1 X156.87 Y167.26 E264.50222
G1 X156.72 Y167.23 E264.50942
G1 X155.86 Y166.84 E264.55650
G1 X155.10 Y166.29 E264.60347
G1 X154.47 Y165.59 E264.65052
G1 X154.00 Y164.78 E264.69731
G1 X153.71 Y163.88 E264.74420
G1 X153.61 Y162.95 E264.79115
G1 X153.71 Y162.01 E264.83811
G1 F2400 E263.63811
G0 F12000 X156.85 Y150.05
;TYPE:WALL-INNER
G1 F2400 E264.83811
G1 F3720 X156.06 Y149.70 E264.88081
G1 X155.37 Y149.19 E264.92389
G1 X154.87 Y148.64 E264.96110
G1 X154.79 Y148.55 E264.96668
G1 X154.37 Y147.82 E265.00897
G1 X154.14 Y147.10 E265.04656
G1 X154.10 Y147.00 E265.05188
G1 X154.01 Y146.15 E265.09467
G1 X154.10 Y145.30 E265.13736
G1 X154.37 Y144.48 E265.18027
G1 X154.79 Y143.74 E265.22274
G1 X155.37 Y143.10 E265.26545
G1 X156.06 Y142.60 E265.30828
G1 X156.84 Y142.25 E265.35094
G1 X157.68 Y142.07 E265.39378
G1 X158.54 Y142.07 E265.43639
G1 X159.38 Y142.25 E265.47922
G1 X160.16 Y142.60 E265.52188
G1 X160.85 Y143.10 E265.56471
G1 X161.43 Y143.74 E265.60742
G1 X161.85 Y144.48 E265.64989
G1 X162.12 Y145.30 E265.69281
G1 X162.21 Y146.15 E265.73550
G1 X162.12 Y147.00 E265.77828
G1 X161.89 Y147.71 E265.81556
G1 X161.85 Y147.82 E265.82107
G1 X161.43 Y148.56 E265.86372
G1 X160.92 Y149.11 E265.90106
G1 X160.85 Y149.19 E265.90636
G1 X160.16 Y149.70 E265.94937
G1 X159.38 Y150.04 E265.99192
G1 X158.64 Y150.20 E266.02939
G1 X158.54 Y150.22 E266.03471
G1 X157.68 Y150.22 E266.07741
G1 X156.95 Y150.07 E266.11479
G1 X156.85 Y150.05 E266.11995
G0 F12000 X156.87 Y149.96
G1 F3720 X157.69 Y150.13 E266.16171
G1 X158.53 Y150.13 E266.20342
G1 X159.35 Y149.96 E266.24518
G1 X160.11 Y149.62 E266.28698
G1 X160.79 Y149.12 E266.32871
G1 X161.35 Y148.50 E266.37046
G1 X161.77 Y147.78 E266.41222
G1 X162.03 Y146.98 E266.45398
G1 X162.11 Y146.15 E266.49571
G1 X162.05 Y145.50 E266.52821
G1 X162.03 Y145.32 E266.53750
G1 X161.77 Y144.52 E266.57921
G1 X161.44 Y143.96 E266.61164
G1 X161.35 Y143.80 E266.62096
G1 X160.79 Y143.17 E266.66272
G1 X160.26 Y142.79 E266.69522
G1 X160.11 Y142.68 E266.70455
G1 X159.52 Y142.42 E266.73667
G1 X159.35 Y142.34 E266.74616
G1 X158.71 Y142.21 E266.77863
G1 X158.53 Y142.17 E266.78797
G1 X157.69 Y142.17 E266.82967
G1 X157.06 Y142.30 E266.86220
G1 X156.87 Y142.34 E266.87153
G1 X156.28 Y142.61 E266.90410
G1 X156.11 Y142.68 E266.91341
G1 X155.58 Y143.06 E266.94559
G1 X155.43 Y143.17 E266.95495
G1 X154.87 Y143.80 E266.99681
G1 X154.55 Y144.36 E267.02913
G1 X154.45 Y144.52 E267.03848
G1 X154.19 Y145.32 E267.08029
G1 X154.13 Y145.96 E267.11270
G1 X154.11 Y146.15 E267.12197
G1 X154.19 Y146.98 E267.16376
G1 X154.45 Y147.78 E267.20552
G1 X154.87 Y148.50 E267.24727
G1 X155.43 Y149.12 E267.28903
G1 X156.11 Y149.62 E267.33075
G1 X156.87 Y149.96 E267.37256
G0 F12000 X157.00 Y149.57
;TYPE:WALL-OUTER
G1 F3720 X157.73 Y149.73 E267.41014
G1 X158.49 Y149.73 E267.44766
G1 X159.22 Y149.57 E267.48524
G1 X159.91 Y149.27 E267.52283
G1 X160.52 Y148.82 E267.56037
G1 X161.02 Y148.26 E267.59796
G1 X161.40 Y147.61 E267.63546
G1 X161.63 Y146.90 E267.67303
G1 X161.71 Y146.15 E267.71060
G1 X161.63 Y145.40 E267.74817
G1 X161.40 Y144.68 E267.78573
G1 X161.02 Y144.03 E267.82324
G1 X160.52 Y143.47 E267.86083
G1 X159.91 Y143.03 E267.89837
G1 X159.35 Y142.78 E267.92879
G1 X159.22 Y142.72 E267.93591
G1 X158.49 Y142.57 E267.97354
G1 X157.73 Y142.57 E268.01106
G1 X157.00 Y142.72 E268.04865
G1 X156.44 Y142.97 E268.07906
G1 X156.31 Y143.03 E268.08623
G1 X155.70 Y143.47 E268.12377
G1 X155.20 Y144.03 E268.16136
G1 X154.82 Y144.68 E268.19887
G1 X154.59 Y145.40 E268.23643
G1 X154.51 Y146.15 E268.27400
G1 X154.59 Y146.90 E268.31157
G1 X154.82 Y147.61 E268.34914
G1 X155.20 Y148.26 E268.38664
G1 X155.70 Y148.82 E268.42423
G1 X156.31 Y149.27 E268.46177
G1 X157.00 Y149.57 E268.49936
G0 F12000 X156.87 Y150.46
G1 F3720 X156.72 Y150.43 E268.50655
G1 X155.86 Y150.04 E268.55363
G1 X155.10 Y149.49 E268.60061
G1 X154.47 Y148.79 E268.64766
G1 X154.00 Y147.98 E268.69444
G1 X153.71 Y147.09 E268.74133
G1 X153.61 Y146.15 E268.78829
G1 X153.71 Y145.21 E268.83525
G1 X154.00 Y144.32 E268.88214
G1 X154.47 Y143.51 E268.92892
G1 X155.10 Y142.80 E268.97612
G1 X155.86 Y142.25 E269.02280
G1 X156.72 Y141.87 E269.06977
G1 X157.64 Y141.68 E269.11684
G1 X158.58 Y141.68 E269.16354
G1 X159.50 Y141.87 E269.21061
G1 X160.36 Y142.25 E269.25758
G1 X161.12 Y142.80 E269.30427
G1 X161.75 Y143.51 E269.35146
G1 X162.22 Y144.32 E269.39824
G1 X162.51 Y145.21 E269.44513
G1 X162.61 Y146.15 E269.49209
G1 X162.51 Y147.09 E269.53905
G1 X162.22 Y147.98 E269.58594
G1 X161.75 Y148.79 E269.63272
G1 X161.12 Y149.49 E269.67978
G1 X160.36 Y150.04 E269.72675
G1 X159.50 Y150.43 E269.77361
G1 X158.72 Y150.59 E269.81313
G1 X158.58 Y150.62 E269.82049
G1 X157.64 Y150.62 E269.86738
G1 X156.87 Y150.46 E269.90695
G1 F2400 E268.70695
G0 F12000 X143.95 Y146.71
;TYPE:SUPPORT
G1 F2400 E269.90695
G1 F3720 X143.77 Y147.25 E269.93508
G1 X143.49 Y147.74 E269.96336
G1 X143.12 Y148.15 E269.99112
G1 X142.66 Y148.48 E270.01953
G1 X142.14 Y148.71 E270.04762
G1 X141.59 Y148.83 E270.07576
G1 X141.03 Y148.83 E270.10380
G1 X140.48 Y148.71 E270.13194
G1 X139.96 Y148.48 E270.16003
G1 X139.50 Y148.15 E270.18843
G1 X139.13 Y147.74 E270.21620
G1 X138.85 Y147.25 E270.24448
G1 X138.67 Y146.71 E270.27261
G1 X138.62 Y146.15 E270.30079
G1 X138.67 Y145.59 E270.32873
G1 X138.85 Y145.05 E270.35705
G1 X139.13 Y144.56 E270.38506
G1 X139.51 Y144.15 E270.41311
G1 X139.96 Y143.81 E270.44122
G1 X140.49 Y143.58 E270.46978
G1 X141.03 Y143.47 E270.49741
G1 X141.59 Y143.47 E270.52550
G1 X142.14 Y143.58 E270.55359
G1 X142.66 Y143.82 E270.58200
G1 X143.12 Y144.15 E270.61001
G1 X143.49 Y144.56 E270.63803
G1 X143.77 Y145.05 E270.66597
G1 X143.95 Y145.59 E270.69467
G1 X144.01 Y146.15 E270.72250
G1 X143.95 Y146.71 E270.75058
G0 F12000 X142.76 Y148.29
G0 X142.85 Y148.42
G1 F3720 X142.85 Y143.88 E270.97708
G1 F2400 E269.77708
G0 F12000 X141.59 Y160.27
G1 F2400 E270.97708
G1 F3720 X142.14 Y160.38 E271.00517
G1 X142.66 Y160.62 E271.03358
G1 X143.12 Y160.94 E271.06159
G1 X143.49 Y161.36 E271.08960
G1 X143.77 Y161.85 E271.11754
G1 X143.95 Y162.39 E271.14624
G1 X144.01 Y162.95 E271.17407
G1 X143.95 Y163.51 E271.20216
G1 X143.77 Y164.04 E271.23029
G1 X143.49 Y164.53 E271.25856
G1 X143.12 Y164.95 E271.28633
G1 X142.66 Y165.28 E271.31473
G1 X142.14 Y165.51 E271.34282
G1 X141.59 Y165.63 E271.37096
G1 X141.03 Y165.63 E271.39900
G1 X140.48 Y165.51 E271.42714
G1 X139.96 Y165.28 E271.45524
G1 X139.50 Y164.95 E271.48364
G1 X139.13 Y164.53 E271.51141
G1 X138.85 Y164.04 E271.53968
G1 X138.67 Y163.51 E271.56781
G1 X138.62 Y162.95 E271.59599
G1 X138.67 Y162.39 E271.62393
G1 X138.85 Y161.85 E271.65225
G1 X139.13 Y161.36 E271.68026
G1 X139.51 Y160.94 E271.70831
G1 X139.96 Y160.61 E271.73642
G1 X140.49 Y160.38 E271.76498
G1 X141.03 Y160.27 E271.79262
G1 X141.59 Y160.27 E271.82070
G0 F12000 X142.85 Y160.68
G1 F3720 X142.85 Y165.22 E272.04721
G1 F2400 E270.84721
G0 F12000 X155.47 Y163.51
G1 F2400 E272.04721
G1 F3720 X155.41 Y162.95 E272.07539
G1 X155.47 Y162.39 E272.10333
G1 X155.65 Y161.85 E272.13165
G1 X155.93 Y161.36 E272.15966
G1 X156.31 Y160.94 E272.18771
G1 X156.76 Y160.61 E272.21582
G1 X157.28 Y160.38 E272.24438
G1 X157.83 Y160.27 E272.27201
G1 X158.39 Y160.27 E272.30010
G1 X158.94 Y160.38 E272.32819
G1 X159.46 Y160.62 E272.35660
G1 X159.91 Y160.94 E272.38461
G1 X160.29 Y161.36 E272.41263
G1 X160.57 Y161.85 E272.44057
G1 X160.75 Y162.39 E272.46927
G1 X160.81 Y162.95 E272.49709
G1 X160.75 Y163.51 E272.52518
G1 X160.57 Y164.04 E272.55331
G1 X160.29 Y164.53 E272.58158
G1 X159.92 Y164.95 E272.60935
G1 X159.46 Y165.28 E272.63775
G1 X158.94 Y165.51 E272.66584
G1 X158.39 Y165.63 E272.69399
G1 X157.83 Y165.63 E272.72202
G1 X157.28 Y165.51 E272.75016
G1 X156.76 Y165.28 E272.77826
G1 X156.30 Y164.95 E272.80666
G1 X155.93 Y164.53 E272.83443
G1 X155.65 Y164.04 E272.86270
G1 X155.47 Y163.51 E272.89083
G1 F2400 E271.69083
G0 F12000 X157.83 Y148.83
G1 F2400 E272.89083
G1 F3720 X157.28 Y148.71 E272.91897
G1 X156.76 Y148.48 E272.94707
G1 X156.30 Y148.15 E272.97547
G1 X155.93 Y147.74 E273.00324
G1 X155.65 Y147.25 E273.03151
G1 X155.47 Y146.71 E273.05964
G1 X155.41 Y146.15 E273.08782
G1 X155.47 Y145.59 E273.11576
G1 X155.65 Y145.05 E273.14408
G1 X155.93 Y144.56 E273.17209
G1 X156.31 Y144.15 E273.20014
G1 X156.76 Y143.81 E273.22825
G1 X157.28 Y143.58 E273.25682
G1 X157.83 Y143.47 E273.28445
G1 X158.39 Y143.47 E273.31254
G1 X158.94 Y143.58 E273.34063
G1 X159.46 Y143.82 E273.36904
G1 X159.91 Y144.15 E273.39705
G1 X160.29 Y144.56 E273.42506
G1 X160.57 Y145.05 E273.45300
G1 X160.75 Y145.59 E273.48170
G1 X160.81 Y146.15 E273.50953
G1 X160.75 Y146.71 E273.53761
G1 X160.57 Y147.25 E273.56574
G1 X160.29 Y147.74 E273.59402
G1 X159.92 Y148.15 E273.62178
G1 X159.46 Y148.48 E273.65018
G1 X158.94 Y148.71 E273.67828
G1 X158.39 Y148.83 E273.70642
G1 X157.83 Y148.83 E273.73446
G1 F2400 E272.53446
G0 F12000 X157.54 Y151.52
G1 F2400 E273.73446
G1 F3720 X158.67 Y151.52 E273.79078
G1 X158.91 Y151.47 E273.80278
G1 X159.78 Y151.29 E273.84718
G1 X160.81 Y150.83 E273.90349
G1 X161.72 Y150.17 E273.95985
G1 X161.89 Y149.98 E273.97211
G1 X162.48 Y149.33 E274.01623
G1 X163.05 Y148.35 E274.07272
G1 X163.12 Y148.11 E274.08494
G1 X163.40 Y147.27 E274.12918
G1 X163.51 Y146.15 E274.18538
G1 X163.40 Y145.03 E274.24167
G1 X163.05 Y143.95 E274.29808
G1 X162.48 Y142.97 E274.35452
G1 X161.72 Y142.13 E274.41090
G1 X160.81 Y141.47 E274.46701
G1 X159.78 Y141.01 E274.52374
G1 X158.67 Y140.78 E274.58000
G1 X157.55 Y140.78 E274.63617
G1 X156.44 Y141.01 E274.69243
G1 X155.41 Y141.47 E274.74916
G1 X154.50 Y142.13 E274.80527
G1 X153.74 Y142.97 E274.86165
G1 X153.17 Y143.95 E274.91809
G1 X152.82 Y145.03 E274.97450
G1 X152.71 Y146.15 E275.03079
G1 X152.82 Y147.27 E275.08714
G1 X152.90 Y147.50 E275.09919
G1 X153.17 Y148.35 E275.14356
G1 X153.74 Y149.33 E275.19998
G1 X153.90 Y149.50 E275.21195
G1 X154.49 Y150.16 E275.25615
G1 X155.41 Y150.83 E275.31269
G1 X156.44 Y151.29 E275.36888
G1 X156.68 Y151.34 E275.38098
G1 X157.54 Y151.52 E275.42534
G0 F12000 X157.56 Y151.62
G0 X157.52 Y157.48
G0 X157.55 Y157.57
G1 F3720 X156.44 Y157.81 E275.48159
G1 X155.41 Y158.27 E275.53832
G1 X154.50 Y158.93 E275.59444
G1 X153.74 Y159.77 E275.65082
G1 X153.17 Y160.75 E275.70726
G1 X152.82 Y161.83 E275.76366
G1 X152.71 Y162.95 E275.81996
G1 X152.82 Y164.07 E275.87631
G1 X152.90 Y164.30 E275.88836
G1 X153.17 Y165.15 E275.93273
G1 X153.74 Y166.13 E275.98914
G1 X153.90 Y166.30 E276.00112
G1 X154.49 Y166.96 E276.04531
G1 X155.41 Y167.63 E276.10186
G1 X156.44 Y168.09 E276.15805
G1 X156.68 Y168.14 E276.17014
G1 X157.54 Y168.32 E276.21451
G1 X158.67 Y168.32 E276.27083
G1 X158.91 Y168.27 E276.28283
G1 X159.78 Y168.09 E276.32723
G1 X160.81 Y167.63 E276.38354
G1 X161.72 Y166.97 E276.43990
G1 X161.89 Y166.78 E276.45216
G1 X162.48 Y166.12 E276.49628
G1 X163.05 Y165.15 E276.55277
G1 X163.12 Y164.91 E276.56499
G1 X163.40 Y164.07 E276.60923
G1 X163.51 Y162.95 E276.66543
G1 X163.40 Y161.83 E276.72172
G1 X163.05 Y160.75 E276.77813
G1 X162.48 Y159.77 E276.83457
G1 X161.72 Y158.93 E276.89095
G1 X160.81 Y158.27 E276.94706
G1 X159.78 Y157.81 E277.00379
G1 X158.67 Y157.57 E277.06005
G1 X157.55 Y157.57 E277.11622
G0 F12000 X157.52 Y157.48
G0 X146.33 Y160.69
G0 X146.25 Y160.75
G1 F3720 X145.68 Y159.77 E277.17267
G1 X144.93 Y158.93 E277.22905
G1 X144.02 Y158.27 E277.28516
G1 X142.98 Y157.81 E277.34189
G1 X141.87 Y157.57 E277.39814
G1 X140.75 Y157.57 E277.45432
G1 X139.65 Y157.81 E277.51057
G1 X138.61 Y158.27 E277.56730
G1 X137.70 Y158.93 E277.62342
G1 X136.94 Y159.77 E277.67980
G1 X136.37 Y160.75 E277.73624
G1 X136.03 Y161.83 E277.79264
G1 X135.91 Y162.95 E277.84894
G1 X136.03 Y164.07 E277.90529
G1 X136.10 Y164.30 E277.91734
G1 X136.37 Y165.15 E277.96170
G1 X136.94 Y166.13 E278.01812
G1 X137.10 Y166.30 E278.03010
G1 X137.69 Y166.96 E278.07429
G1 X138.61 Y167.63 E278.13083
G1 X139.64 Y168.09 E278.18703
G1 X139.88 Y168.14 E278.19912
G1 X140.75 Y168.32 E278.24349
G1 X141.88 Y168.32 E278.29981
G1 X142.11 Y168.27 E278.31181
G1 X142.98 Y168.09 E278.35621
G1 X144.01 Y167.63 E278.41252
G1 X144.93 Y166.97 E278.46888
G1 X145.09 Y166.78 E278.48114
G1 X145.68 Y166.12 E278.52526
G1 X146.25 Y165.15 E278.58175
G1 X146.32 Y164.91 E278.59397
G1 X146.60 Y164.07 E278.63821
G1 X146.72 Y162.95 E278.69441
G1 X146.60 Y161.83 E278.75070
G1 X146.25 Y160.75 E278.80711
G0 F12000 X146.33 Y160.69
G0 X143.03 Y151.38
G0 X142.98 Y151.29
G1 F3720 X144.01 Y150.83 E278.86341
G1 X144.93 Y150.17 E278.91977
G1 X145.09 Y149.98 E278.93203
G1 X145.68 Y149.33 E278.97615
G1 X146.25 Y148.35 E279.03264
G1 X146.32 Y148.11 E279.04487
G1 X146.60 Y147.27 E279.08911
G1 X146.72 Y146.15 E279.14530
G1 X146.60 Y145.03 E279.20159
G1 X146.25 Y143.95 E279.25800
G1 X145.68 Y142.97 E279.31444
G1 X144.93 Y142.13 E279.37082
G1 X144.02 Y141.47 E279.42694
G1 X142.98 Y141.01 E279.48366
G1 X141.87 Y140.78 E279.53992
G1 X140.75 Y140.78 E279.59609
G1 X139.65 Y141.01 E279.65235
G1 X138.61 Y141.47 E279.70908
G1 X137.70 Y142.13 E279.76519
G1 X136.94 Y142.97 E279.82157
G1 X136.37 Y143.95 E279.87801
G1 X136.03 Y145.03 E279.93442
G1 X135.91 Y146.15 E279.99072
G1 X136.03 Y147.27 E280.04706
G1 X136.10 Y147.50 E280.05911
G1 X136.37 Y148.35 E280.10348
G1 X136.94 Y149.33 E280.15990
G1 X137.10 Y149.50 E280.17187
G1 X137.69 Y150.16 E280.21607
G1 X138.61 Y150.83 E280.27261
G1 X139.64 Y151.29 E280.32880
G1 X139.88 Y151.34 E280.34090
G1 X140.75 Y151.52 E280.38526
G1 X141.88 Y151.52 E280.44159
G1 X142.11 Y151.47 E280.45359
G1 X142.98 Y151.29 E280.49799
G0 F12000 X143.03 Y151.38
G0 X140.73 Y151.72
G0 X138.51 Y151.00
G0 X136.78 Y149.44
G0 X135.83 Y147.31
G0 X135.83 Y144.99
G0 X133.38 Y138.32
G1 F3720 X166.08 Y138.32 E282.12940
G1 X166.08 Y170.92 E283.75582
G1 X133.38 Y170.92 E285.38723
G1 X133.38 Y138.32 E287.01365
G0 F12000 X133.48 Y142.85
G0 X133.32 Y142.85
G1 F3720 X137.13 Y142.85 E287.20368
G0 F12000 X137.01 Y142.74
G0 X138.51 Y141.30
G0 X140.73 Y140.58
G0 X142.88 Y140.89
G0 X142.85 Y141.04
G1 F3720 X142.85 Y138.26 E287.34257
G0 F12000 X142.85 Y138.42
G0 X145.61 Y142.74
G0 X145.49 Y142.85
G1 F3720 X153.93 Y142.85 E287.76355
G0 F12000 X154.28 Y142.46
G1 F3720 X154.28 Y138.26 E287.97329
G0 F12000 X154.28 Y138.42
G0 X160.91 Y141.30
G0 X162.41 Y142.74
G0 X162.29 Y142.85
G1 F3720 X166.14 Y142.85 E288.16541
G0 F12000 X165.98 Y142.85
G0 X165.71 Y138.42
G0 X165.71 Y138.26
G1 F3720 X165.71 Y170.98 E289.79782
G0 F12000 X165.71 Y170.82
G0 X165.98 Y165.71
G0 X166.14 Y165.71
G1 F3720 X162.66 Y165.71 E289.97174
G0 F12000 X162.79 Y165.79
G0 X161.86 Y167.11
G0 X159.84 Y168.28
G0 X157.53 Y168.52
G0 X155.31 Y167.80
G0 X154.16 Y166.74
G0 X154.28 Y166.64
G1 F3720 X154.28 Y170.98 E290.18836
G0 F12000 X154.28 Y170.82
G0 X153.43 Y165.79
G0 X153.57 Y165.71
G1 F3720 X145.86 Y165.71 E290.57302
G0 F12000 X145.99 Y165.79
G0 X145.06 Y167.11
G0 X142.88 Y168.21
G0 X142.85 Y168.05
G1 F3720 X142.85 Y170.98 E290.71894
G0 F12000 X142.85 Y170.82
G0 X136.95 Y166.44
G0 X136.63 Y165.79
G0 X136.77 Y165.71
G1 F3720 X133.32 Y165.71 E290.89087
G0 F12000 X133.48 Y165.71
G0 X133.48 Y154.28
G0 X133.32 Y154.28
G1 F3720 X166.14 Y154.28 E292.52826
G0 F12000 X165.98 Y154.28
G0 X155.31 Y151.00
G0 X154.16 Y149.94
G0 X154.28 Y149.84
G1 F3720 X154.28 Y159.26 E292.99843
G0 F12000 X154.16 Y159.16
G0 X142.88 Y157.69
G0 X142.85 Y157.84
G1 F3720 X142.85 Y151.25 E293.32705
;LAYER:3
G0 F12000 X142.58 Y150.04 Z1.20
;TYPE:WALL-INNER
G1 F4260 X141.91 Y150.19 E293.36102
G1 X141.74 Y150.22 E293.36984
G1 X140.88 Y150.22 E293.41245
G1 X140.22 Y150.08 E293.44636
G1 X140.04 Y150.04 E293.45524
G1 X139.42 Y149.77 E293.48916
G1 X139.26 Y149.70 E293.49796
G1 X138.71 Y149.30 E293.53186
G1 X138.57 Y149.19 E293.54061
G1 X137.99 Y148.55 E293.58357
G1 X137.57 Y147.82 E293.62597
G1 X137.36 Y147.17 E293.66015
G1 X137.30 Y147.00 E293.66882
G1 X137.22 Y146.15 E293.71156
G1 X137.30 Y145.30 E293.75430
G1 X137.57 Y144.48 E293.79721
G1 X138.00 Y143.74 E293.83968
G1 X138.57 Y143.10 E293.88240
G1 X139.26 Y142.60 E293.92523
G1 X140.04 Y142.25 E293.96788
G1 X140.88 Y142.07 E294.01072
G1 X141.74 Y142.07 E294.05333
G1 X142.58 Y142.25 E294.09617
G1 X143.36 Y142.60 E294.13882
G1 X144.05 Y143.10 E294.18166
G1 X144.63 Y143.74 E294.22437
G1 X145.05 Y144.48 E294.26684
G1 X145.32 Y145.30 E294.30975
G1 X145.41 Y146.15 E294.35249
G1 X145.32 Y147.00 E294.39533
G1 X145.11 Y147.65 E294.42914
G1 X145.05 Y147.82 E294.43801
G1 X144.63 Y148.55 E294.48048
G1 X144.05 Y149.19 E294.52347
G1 X143.50 Y149.59 E294.55744
G1 X143.36 Y149.70 E294.56626
G1 X142.74 Y149.97 E294.60016
G1 X142.58 Y150.04 E294.60890
G0 F12000 X142.55 Y149.96
G1 F4260 X143.31 Y149.62 E294.65070
G1 X143.99 Y149.12 E294.69243
G1 X144.55 Y148.50 E294.73418
G1 X144.97 Y147.78 E294.77593
G1 X145.23 Y146.98 E294.81770
G1 X145.31 Y146.15 E294.85943
G1 X145.23 Y145.32 E294.90117
G1 X145.04 Y144.74 E294.93122
G1 X144.97 Y144.52 E294.94297
G1 X144.55 Y143.80 E294.98468
G1 X143.99 Y143.17 E295.02651
G1 X143.31 Y142.68 E295.06823
G1 X142.77 Y142.44 E295.09805
G1 X142.55 Y142.34 E295.10988
G1 X141.96 Y142.22 E295.13996
G1 X141.73 Y142.17 E295.15174
G1 X140.89 Y142.17 E295.19345
G1 X140.31 Y142.29 E295.22343
G1 X140.07 Y142.34 E295.23526
G1 X139.52 Y142.59 E295.26536
G1 X139.31 Y142.68 E295.27707
G1 X138.63 Y143.17 E295.31868
G1 X138.07 Y143.80 E295.36051
G1 X137.65 Y144.52 E295.40226
G1 X137.47 Y145.09 E295.43211
G1 X137.40 Y145.32 E295.44397
G1 X137.31 Y146.15 E295.48576
G1 X137.40 Y146.98 E295.52749
G1 X137.65 Y147.78 E295.56925
G1 X138.07 Y148.50 E295.61101
G1 X138.63 Y149.12 E295.65276
G1 X139.31 Y149.62 E295.69448
G1 X140.07 Y149.96 E295.73629
G1 X140.89 Y150.13 E295.77805
G1 X141.73 Y150.13 E295.81976
G1 X142.55 Y149.96 E295.86152
G0 F12000 X142.42 Y149.57
;TYPE:WALL-OUTER
G1 F4260 X143.11 Y149.27 E295.89911
G1 X143.72 Y148.82 E295.93665
G1 X144.22 Y148.26 E295.97424
G1 X144.60 Y147.61 E296.01174
G1 X144.83 Y146.90 E296.04931
G1 X144.91 Y146.15 E296.08688
G1 X144.83 Y145.40 E296.12445
G1 X144.60 Y144.68 E296.16201
G1 X144.22 Y144.03 E296.19952
G1 X143.72 Y143.47 E296.23718
G1 X143.11 Y143.03 E296.27469
G1 X142.60 Y142.80 E296.30261
G1 X142.43 Y142.72 E296.31219
G1 X141.69 Y142.57 E296.34982
G1 X140.94 Y142.57 E296.38734
G1 X140.20 Y142.72 E296.42492
G1 X139.69 Y142.95 E296.45288
G1 X139.51 Y143.03 E296.46251
G1 X138.90 Y143.47 E296.49998
G1 X138.40 Y144.03 E296.53764
G1 X138.02 Y144.68 E296.57514
G1 X137.79 Y145.40 E296.61271
G1 X137.71 Y146.15 E296.65028
G1 X137.79 Y146.90 E296.68785
G1 X138.02 Y147.61 E296.72542
G1 X138.40 Y148.26 E296.76292
G1 X138.90 Y148.82 E296.80051
G1 X139.51 Y149.27 E296.83805
G1 X140.20 Y149.57 E296.87564
G1 X140.94 Y149.73 E296.91322
G1 X141.69 Y149.73 E296.95074
G1 X142.42 Y149.57 E296.98832
G0 F12000 X142.70 Y150.43
G1 F4260 X141.78 Y150.62 E297.03530
G1 X140.84 Y150.62 E297.08210
G1 X139.92 Y150.43 E297.12908
G1 X139.06 Y150.04 E297.17609
G1 X138.30 Y149.49 E297.22277
G1 X137.67 Y148.79 E297.26997
G1 X137.20 Y147.98 E297.31682
G1 X136.91 Y147.09 E297.36355
G1 X136.81 Y146.15 E297.41061
G1 X136.91 Y145.21 E297.45756
G1 X137.20 Y144.32 E297.50445
G1 X137.67 Y143.51 E297.55124
G1 X138.30 Y142.80 E297.59843
G1 X139.06 Y142.25 E297.64512
G1 X139.92 Y141.87 E297.69208
G1 X140.84 Y141.68 E297.73916
G1 X141.78 Y141.68 E297.78586
G1 X142.70 Y141.87 E297.83293
G1 X143.56 Y142.25 E297.87990
G1 X144.32 Y142.80 E297.92658
G1 X144.95 Y143.51 E297.97378
G1 X145.42 Y144.32 E298.02056
G1 X145.71 Y145.21 E298.06745
G1 X145.81 Y146.15 E298.11441
G1 X145.71 Y147.09 E298.16147
G1 X145.42 Y147.98 E298.20820
G1 X144.95 Y148.79 E298.25505
G1 X144.32 Y149.49 E298.30224
G1 X143.56 Y150.04 E298.34893
G1 X142.70 Y150.43 E298.39594
G1 F2400 E297.19594
G0 F12000 X141.74 Y158.87
;TYPE:WALL-INNER
G1 F2400 E298.39594
G1 F4260 X142.58 Y159.05 E298.43878
G1 X143.36 Y159.40 E298.48144
G1 X144.05 Y159.90 E298.52427
G1 X144.63 Y160.54 E298.56698
G1 X145.05 Y161.28 E298.60945
G1 X145.32 Y162.10 E298.65236
G1 X145.41 Y162.95 E298.69510
G1 X145.32 Y163.80 E298.73794
G1 X145.11 Y164.45 E298.77175
G1 X145.05 Y164.62 E298.78062
G1 X144.63 Y165.35 E298.82309
G1 X144.05 Y165.99 E298.86608
G1 X143.50 Y166.39 E298.90005
G1 X143.36 Y166.50 E298.90887
G1 X142.74 Y166.77 E298.94278
G1 X142.58 Y166.84 E298.95151
G1 X141.91 Y166.99 E298.98547
G1 X141.74 Y167.02 E298.99430
G1 X140.88 Y167.02 E299.03690
G1 X140.22 Y166.88 E299.07082
G1 X140.04 Y166.84 E299.07969
G1 X139.42 Y166.57 E299.11362
G1 X139.26 Y166.50 E299.12242
G1 X138.71 Y166.10 E299.15632
G1 X138.57 Y165.99 E299.16507
G1 X137.99 Y165.35 E299.20803
G1 X137.57 Y164.62 E299.25043
G1 X137.36 Y163.97 E299.28460
G1 X137.30 Y163.80 E299.29328
G1 X137.22 Y162.95 E299.33602
G1 X137.30 Y162.10 E299.37875
G1 X137.57 Y161.28 E299.42167
G1 X138.00 Y160.54 E299.46414
G1 X138.57 Y159.90 E299.50685
G1 X139.26 Y159.40 E299.54968
G1 X140.04 Y159.05 E299.59234
G1 X140.88 Y158.87 E299.63518
G1 X141.74 Y158.87 E299.67778
G0 F12000 X141.73 Y158.97
G1 F4260 X140.89 Y158.97 E299.71949
G1 X140.31 Y159.09 E299.74947
G1 X140.07 Y159.14 E299.76130
G1 X139.52 Y159.39 E299.79141
G1 X139.31 Y159.48 E299.80311
G1 X138.63 Y159.97 E299.84472
G1 X138.07 Y160.59 E299.88655
G1 X137.65 Y161.32 E299.92830
G1 X137.47 Y161.89 E299.95815
G1 X137.40 Y162.12 E299.97001
G1 X137.31 Y162.95 E300.01180
G1 X137.40 Y163.78 E300.05353
G1 X137.65 Y164.58 E300.09529
G1 X138.07 Y165.30 E300.13705
G1 X138.63 Y165.92 E300.17880
G1 X139.31 Y166.41 E300.22052
G1 X140.07 Y166.76 E300.26233
G1 X140.89 Y166.93 E300.30409
G1 X141.73 Y166.93 E300.34580
G1 X142.55 Y166.76 E300.38756
G1 X143.31 Y166.41 E300.42937
G1 X143.99 Y165.92 E300.47109
G1 X144.55 Y165.30 E300.51285
G1 X144.97 Y164.58 E300.55460
G1 X145.23 Y163.78 E300.59636
G1 X145.31 Y162.95 E300.63810
G1 X145.23 Y162.12 E300.67983
G1 X145.04 Y161.54 E300.70989
G1 X144.97 Y161.32 E300.72164
G1 X144.55 Y160.59 E300.76335
G1 X143.99 Y159.97 E300.80518
G1 X143.31 Y159.48 E300.84690
G1 X142.77 Y159.24 E300.87672
G1 X142.55 Y159.14 E300.88855
G1 X141.96 Y159.02 E300.91863
G1 X141.73 Y158.97 E300.93041
G0 F12000 X141.69 Y159.37
;TYPE:WALL-OUTER
G1 F4260 X140.94 Y159.37 E300.96793
G1 X140.20 Y159.52 E301.00551
G1 X139.69 Y159.75 E301.03347
G1 X139.51 Y159.83 E301.04310
G1 X138.90 Y160.27 E301.08057
G1 X138.40 Y160.83 E301.11823
G1 X138.02 Y161.48 E301.15573
G1 X137.79 Y162.20 E301.19330
G1 X137.71 Y162.95 E301.23087
G1 X137.79 Y163.70 E301.26844
G1 X138.02 Y164.41 E301.30600
G1 X138.40 Y165.06 E301.34351
G1 X138.90 Y165.62 E301.38110
G1 X139.51 Y166.07 E301.41864
G1 X140.20 Y166.37 E301.45623
G1 X140.94 Y166.53 E301.49381
G1 X141.69 Y166.53 E301.53133
G1 X142.42 Y166.37 E301.56891
G1 X143.11 Y166.07 E301.60650
G1 X143.72 Y165.62 E301.64404
G1 X144.22 Y165.06 E301.68163
G1 X144.60 Y164.41 E301.71913
G1 X144.83 Y163.70 E301.75670
G1 X144.91 Y162.95 E301.79427
G1 X144.83 Y162.20 E301.83184
G1 X144.60 Y161.48 E301.86940
G1 X144.22 Y160.83 E301.90691
G1 X143.72 Y160.27 E301.94457
G1 X143.11 Y159.83 E301.98208
G1 X142.60 Y159.60 E302.01000
G1 X142.43 Y159.52 E302.01958
G1 X141.69 Y159.37 E302.05721
G0 F12000 X141.78 Y158.47
G1 F4260 X142.70 Y158.67 E302.10428
G1 X143.56 Y159.05 E302.15125
G1 X144.32 Y159.60 E302.19793
G1 X144.95 Y160.31 E302.24513
G1 X145.42 Y161.12 E302.29191
G1 X145.71 Y162.01 E302.33880
G1 X145.81 Y162.95 E302.38576
G1 X145.71 Y163.89 E302.43282
G1 X145.42 Y164.78 E302.47955
G1 X144.95 Y165.59 E302.52640
G1 X144.32 Y166.29 E302.57360
G1 X143.56 Y166.84 E302.62028
G1 X142.70 Y167.23 E302.66729
