;-- START GCODE --
;Sliced for Type A Machines Series 1
;Sliced at: Sun 02-08-2015 16:41:02
;Basic settings: Layer height: 0.3 Walls: 0.8 Fill: 8
;Print Speed: 80 Support: 0
;Retraction Speed: 40 Retraction Distance: 1.2
;Print time: #P_TIME#
;Filament used: #F_AMNT#m #F_WGHT#g
;Filament cost: #F_COST#
M106 S255	 ;start with the fan on
G21        ;metric values
G90        ;absolute positioning
M106 S255    ;start with the fan on
G28     ;move to endstops
G29		;allows for auto-levelling
G1 X150 Y5  Z15.0 F12000 ;center and move the platform down 15mm
M109 S220 ;Heat To temp
G92 E0                  ;zero the extruded length
G1 F200 E30              ;extrude 30mm of feed stock
G92 E0                  ;zero the extruded length again
G1 X175 Y25  Z0 F12000 ;remove bugger
G1 X220 F12000 ;remove bugger
G1 X150 Y150  Z15 F12000 ;recenter and begin
G1 F12000

;Layer count: 79
;LAYER:0
M106 S255
G0 F12000 X126.07 Y126.17 Z0.30
;TYPE:SKIRT
G1 F2700 X178.97 Y126.17 E2.63919
G1 X178.97 Y178.97 E5.27339
G1 X126.07 Y178.97 E7.91259
G1 X126.07 Y126.17 E10.54679
G0 F12000 X126.47 Y126.57
G1 F2700 X178.57 Y126.57 E13.14607
G1 X178.57 Y178.57 E15.74036
G1 X126.47 Y178.57 E18.33964
G1 X126.47 Y126.57 E20.93393
G0 F12000 X126.87 Y126.97
G1 F2700 X178.17 Y126.97 E23.49330
G1 X178.17 Y178.17 E26.04767
G1 X126.87 Y178.17 E28.60704
G1 X126.87 Y126.97 E31.16142
G0 F12000 X127.27 Y127.37
G1 F2700 X177.77 Y127.37 E33.68088
G1 X177.77 Y177.77 E36.19534
G1 X127.27 Y177.77 E38.71480
G1 X127.27 Y127.37 E41.22926
G0 F12000 X127.67 Y127.77
G1 F2700 X177.37 Y127.77 E43.70881
G1 X177.37 Y177.37 E46.18336
G1 X127.67 Y177.37 E48.66290
G1 X127.67 Y127.77 E51.13746
G0 F12000 X128.07 Y128.17
G1 F2700 X176.97 Y128.17 E53.57709
G1 X176.97 Y176.97 E56.01173
G1 X128.07 Y176.97 E58.45136
G1 X128.07 Y128.17 E60.88600
G0 F12000 X128.47 Y128.57
G1 F2700 X176.57 Y128.57 E63.28572
G1 X176.57 Y176.57 E65.68045
G1 X128.47 Y176.57 E68.08017
G1 X128.47 Y128.57 E70.47490
G0 F12000 X128.87 Y128.97
G1 F2700 X176.17 Y128.97 E72.83471
G1 X176.17 Y176.17 E75.18952
G1 X128.87 Y176.17 E77.54933
G1 X128.87 Y128.97 E79.90415
G0 F12000 X129.27 Y129.37
G1 F2700 X175.77 Y129.37 E82.22404
G1 X175.77 Y175.77 E84.53895
G1 X129.27 Y175.77 E86.85884
G1 X129.27 Y129.37 E89.17375
G0 F12000 X129.67 Y129.77
G1 F2700 X175.37 Y129.77 E91.45373
G1 X175.37 Y175.37 E93.72872
G1 X129.67 Y175.37 E96.00871
G1 X129.67 Y129.77 E98.28370
G0 F12000 X130.07 Y130.17
G1 F2700 X174.97 Y130.17 E100.52377
G1 X174.97 Y174.97 E102.75885
G1 X130.07 Y174.97 E104.99892
G1 X130.07 Y130.17 E107.23400
G0 F12000 X130.47 Y130.57
G1 F2700 X174.57 Y130.57 E109.43416
G1 X174.57 Y174.57 E111.62933
G1 X130.47 Y174.57 E113.82949
G1 X130.47 Y130.57 E116.02466
G0 F12000 X130.87 Y130.97
G1 F2700 X174.17 Y130.97 E118.18490
G1 X174.17 Y174.17 E120.34016
G1 X130.87 Y174.17 E122.50040
G1 X130.87 Y130.97 E124.65566
G0 F12000 X131.27 Y131.37
G1 F2700 X173.77 Y131.37 E126.77599
G1 X173.77 Y173.77 E128.89134
G1 X131.27 Y173.77 E131.01167
G1 X131.27 Y131.37 E133.12702
G0 F12000 X131.67 Y131.77
G1 F2700 X173.37 Y131.77 E135.20744
G1 X173.37 Y173.37 E137.28287
G1 X131.67 Y173.37 E139.36329
G1 X131.67 Y131.77 E141.43872
G0 F12000 X132.07 Y132.17
G1 F2700 X172.97 Y132.17 E143.47923
G1 X172.97 Y172.97 E145.51475
G1 X132.07 Y172.97 E147.55526
G1 X132.07 Y132.17 E149.59078
G0 F12000 X132.47 Y132.57
G1 F2700 X172.57 Y132.57 E151.59138
G1 X172.57 Y172.57 E153.58699
G1 X132.47 Y172.57 E155.58759
G1 X132.47 Y132.57 E157.58319
G0 F12000 X132.87 Y132.97
G1 F2700 X172.17 Y132.97 E159.54388
G1 X172.17 Y172.17 E161.49957
G1 X132.87 Y172.17 E163.46026
G1 X132.87 Y132.97 E165.41596
G0 F12000 X133.27 Y133.37
G1 F2700 X171.77 Y133.37 E167.33673
G1 X171.77 Y171.77 E169.25251
G1 X133.27 Y171.77 E171.17329
G1 X133.27 Y133.37 E173.08907
G0 F12000 X133.67 Y133.77
G1 F2700 X171.37 Y133.77 E174.96993
G1 X171.37 Y171.37 E176.84580
G1 X133.67 Y171.37 E178.72666
G1 X133.67 Y133.77 E180.60253
G1 F2400 E179.40253
G0 F12000 X141.36 Y141.06
;TYPE:WALL-INNER
G1 F2400 E180.60253
G1 F2700 X142.05 Y140.55 E180.64528
G1 X142.83 Y140.21 E180.68797
G1 X143.67 Y140.03 E180.73086
G1 X144.53 Y140.03 E180.77347
G1 X145.37 Y140.21 E180.81627
G1 X146.15 Y140.55 E180.85895
G1 X146.84 Y141.06 E180.90155
G1 X147.41 Y141.69 E180.94447
G1 X147.84 Y142.43 E180.98704
G1 X148.11 Y143.25 E181.02989
G1 X148.20 Y144.10 E181.07262
G1 X148.11 Y144.95 E181.11521
G1 X147.85 Y145.74 E181.15653
G1 X147.41 Y146.51 E181.20089
G1 X146.84 Y147.15 E181.24374
G1 X146.15 Y147.65 E181.28613
G1 X145.36 Y148.00 E181.32904
G1 X144.56 Y148.17 E181.36998
G1 X143.67 Y148.17 E181.41438
G1 X142.87 Y148.00 E181.45543
G1 X142.05 Y147.65 E181.49980
G1 X141.36 Y147.14 E181.54269
G1 X140.81 Y146.53 E181.58346
G1 X140.36 Y145.77 E181.62786
G1 X140.09 Y144.95 E181.67064
G1 X140.00 Y144.10 E181.71328
G1 X140.09 Y143.25 E181.75607
G1 X140.36 Y142.43 E181.79892
G1 X140.79 Y141.69 E181.84164
G1 X141.36 Y141.06 E181.88424
G0 F12000 X141.09 Y140.76
;TYPE:WALL-OUTER
G1 F2700 X141.85 Y140.20 E181.93124
G1 X142.71 Y139.82 E181.97803
G1 X143.63 Y139.63 E182.02517
G1 X144.57 Y139.63 E182.07187
G1 X145.49 Y139.82 E182.11890
G1 X146.35 Y140.20 E182.16569
G1 X147.11 Y140.76 E182.21270
G1 X147.74 Y141.46 E182.25971
G1 X148.21 Y142.27 E182.30652
G1 X148.50 Y143.16 E182.35341
G1 X148.60 Y144.10 E182.40041
G1 X148.50 Y145.02 E182.44651
G1 X148.50 Y145.04 E182.44732
G1 X148.22 Y145.90 E182.49246
G1 X147.74 Y146.74 E182.54112
G1 X147.12 Y147.43 E182.58740
G1 X147.11 Y147.44 E182.58801
G1 X146.36 Y147.99 E182.63433
G1 X145.50 Y148.37 E182.68127
G1 X144.60 Y148.57 E182.72710
G1 X143.64 Y148.57 E182.77504
G1 X142.74 Y148.39 E182.82096
G1 X141.86 Y148.00 E182.86886
G1 X141.10 Y147.45 E182.91574
G1 X140.48 Y146.77 E182.96166
G1 X140.00 Y145.94 E183.00956
G1 X139.70 Y145.05 E183.05642
G1 X139.60 Y144.11 E183.10334
G1 X139.60 Y144.10 E183.10404
G1 X139.70 Y143.16 E183.15090
G1 X139.99 Y142.27 E183.19784
G1 X140.46 Y141.46 E183.24465
G1 X141.09 Y140.76 E183.29163
G0 F12000 X141.45 Y141.16
;TYPE:FILL
G1 F2700 X147.02 Y146.74 E183.68463
G0 F12000 X147.29 Y146.44
G1 F2700 X141.78 Y140.93 E184.07346
G0 F12000 X142.10 Y140.69
G1 F2700 X147.49 Y146.08 E184.45386
G0 F12000 X147.70 Y145.72
G1 F2700 X142.49 Y140.51 E184.82145
G0 F12000 X142.88 Y140.34
G1 F2700 X147.85 Y145.30 E185.17158
G0 F12000 X147.97 Y144.86
G1 F2700 X143.35 Y140.24 E185.49790
G0 F12000 X143.84 Y140.17
G1 F2700 X148.03 Y144.35 E185.79324
G0 F12000 X148.02 Y143.78
G1 F2700 X144.41 Y140.17 E186.04820
G0 F12000 X145.10 Y140.29
G1 F2700 X147.91 Y143.10 E186.24667
G0 F12000 X147.51 Y142.13
G1 F2700 X146.03 Y140.65 E186.35123
G0 F12000 X141.18 Y141.46
G1 F2700 X146.75 Y147.03 E186.74423
G0 F12000 X146.42 Y147.27
G1 F2700 X140.91 Y141.76 E187.13313
G0 F12000 X140.70 Y142.12
G1 F2700 X146.10 Y147.51 E187.51370
G0 F12000 X145.71 Y147.69
G1 F2700 X140.50 Y142.47 E187.88161
G0 F12000 X140.35 Y142.90
G1 F2700 X145.32 Y147.86 E188.23178
G0 F12000 X144.85 Y147.96
G1 F2700 X140.22 Y143.34 E188.55806
G0 F12000 X140.17 Y143.85
G1 F2700 X144.35 Y148.03 E188.85284
G0 F12000 X143.79 Y148.03
G1 F2700 X140.18 Y144.42 E189.10766
G0 F12000 X140.29 Y145.09
G1 F2700 X143.10 Y147.91 E189.30623
G0 F12000 X142.17 Y147.55
G1 F2700 X140.70 Y146.07 E189.41016
G1 F2400 E188.21016
G0 F12000 X156.80 Y144.10
;TYPE:WALL-INNER
G1 F2400 E189.41016
G1 F2700 X156.89 Y143.25 E189.45290
G1 X157.16 Y142.43 E189.49575
G1 X157.59 Y141.69 E189.53831
G1 X158.16 Y141.06 E189.58123
G1 X158.85 Y140.55 E189.62383
G1 X159.63 Y140.21 E189.66652
G1 X160.47 Y140.03 E189.70932
G1 X161.33 Y140.03 E189.75192
G1 X162.17 Y140.21 E189.79482
G1 X162.95 Y140.55 E189.83750
G1 X163.64 Y141.06 E189.88025
G1 X164.21 Y141.69 E189.92286
G1 X164.64 Y142.43 E189.96557
G1 X164.91 Y143.25 E190.00843
G1 X165.00 Y144.10 E190.05116
G1 X164.91 Y144.95 E190.09375
G1 X164.65 Y145.74 E190.13507
G1 X164.21 Y146.51 E190.17961
G1 X163.64 Y147.15 E190.22207
G1 X162.95 Y147.65 E190.26464
G1 X162.16 Y148.00 E190.30755
G1 X161.36 Y148.17 E190.34859
G1 X160.47 Y148.17 E190.39299
G1 X159.67 Y148.00 E190.43389
G1 X158.85 Y147.65 E190.47831
G1 X158.16 Y147.14 E190.52102
G1 X157.61 Y146.53 E190.56217
G1 X157.16 Y145.77 E190.60639
G1 X156.89 Y144.95 E190.64918
G1 X156.80 Y144.10 E190.69187
G0 F12000 X156.40 Y144.11
;TYPE:WALL-OUTER
G1 F2700 X156.40 Y144.10 E190.69257
G1 X156.50 Y143.16 E190.73948
G1 X156.79 Y142.27 E190.78637
G1 X157.26 Y141.46 E190.83317
G1 X157.89 Y140.76 E190.88019
G1 X158.65 Y140.20 E190.92719
G1 X159.51 Y139.82 E190.97398
G1 X160.43 Y139.63 E191.02102
G1 X161.37 Y139.63 E191.06772
G1 X162.29 Y139.82 E191.11485
G1 X163.15 Y140.20 E191.16164
G1 X163.91 Y140.76 E191.20864
G1 X164.54 Y141.46 E191.25563
G1 X165.01 Y142.27 E191.30244
G1 X165.30 Y143.16 E191.34937
G1 X165.40 Y144.10 E191.39633
G1 X165.30 Y145.02 E191.44244
G1 X165.30 Y145.04 E191.44324
G1 X165.02 Y145.90 E191.48838
G1 X164.54 Y146.74 E191.53705
G1 X163.92 Y147.43 E191.58329
G1 X163.91 Y147.44 E191.58390
G1 X163.16 Y147.99 E191.63022
G1 X162.30 Y148.37 E191.67716
G1 X161.40 Y148.57 E191.72308
G1 X160.44 Y148.57 E191.77103
G1 X159.54 Y148.39 E191.81685
G1 X158.66 Y148.00 E191.86475
G1 X157.90 Y147.45 E191.91163
G1 X157.28 Y146.77 E191.95758
G1 X156.79 Y145.94 E192.00549
G1 X156.50 Y145.05 E192.05234
G1 X156.40 Y144.11 E192.09926
G0 F12000 X156.96 Y144.23
;TYPE:FILL
G1 F2700 X160.76 Y148.03 E192.36765
G0 F12000 X161.32 Y148.03
G1 F2700 X156.99 Y143.69 E192.67344
G0 F12000 X157.06 Y143.20
G1 F2700 X161.79 Y147.93 E193.00748
G0 F12000 X162.24 Y147.81
G1 F2700 X157.19 Y142.77 E193.36315
G0 F12000 X157.36 Y142.37
G1 F2700 X162.63 Y147.64 E193.73501
G0 F12000 X163.00 Y147.44
G1 F2700 X157.56 Y142.01 E194.11827
G0 F12000 X157.79 Y141.67
G1 F2700 X163.32 Y147.20 E194.50851
G0 F12000 X163.63 Y146.94
G1 F2700 X158.06 Y141.37 E194.90158
G0 F12000 X158.35 Y141.09
G1 F2700 X163.90 Y146.65 E195.29334
G0 F12000 X164.15 Y146.33
G1 F2700 X158.67 Y140.85 E195.67970
G0 F12000 X159.02 Y140.63
G1 F2700 X164.36 Y145.97 E196.05639
G0 F12000 X164.55 Y145.60
G1 F2700 X159.41 Y140.46 E196.41908
G0 F12000 X159.82 Y140.31
G1 F2700 X164.69 Y145.17 E196.76219
G0 F12000 X164.79 Y144.71
G1 F2700 X160.29 Y140.21 E197.07969
G0 F12000 X160.81 Y140.17
G1 F2700 X164.84 Y144.20 E197.36407
G0 F12000 X164.80 Y143.59
G1 F2700 X161.40 Y140.19 E197.60406
G0 F12000 X162.12 Y140.34
G1 F2700 X164.63 Y142.85 E197.78137
G0 F12000 X163.91 Y141.57
G1 F2700 X163.40 Y141.05 E197.81770
G0 F12000 X157.02 Y144.86
G1 F2700 X160.12 Y147.96 E198.03614
G0 F12000 X159.28 Y147.68
G1 F2700 X157.27 Y145.68 E198.17768
G1 F2400 E196.97768
G0 F12000 X159.63 Y157.00
;TYPE:WALL-INNER
G1 F2400 E198.17768
G1 F2700 X160.47 Y156.83 E198.22047
G1 X161.33 Y156.83 E198.26312
G1 X162.17 Y157.00 E198.30591
G1 X162.95 Y157.35 E198.34864
G1 X163.64 Y157.85 E198.39135
G1 X164.21 Y158.49 E198.43402
G1 X164.64 Y159.23 E198.47674
G1 X164.91 Y160.05 E198.51955
G1 X165.00 Y160.90 E198.56223
G1 X164.91 Y161.75 E198.60487
G1 X164.65 Y162.54 E198.64624
G1 X164.21 Y163.31 E198.69078
G1 X163.64 Y163.95 E198.73338
G1 X162.95 Y164.45 E198.77577
G1 X162.16 Y164.79 E198.81865
G1 X161.36 Y164.97 E198.85976
G1 X160.47 Y164.97 E198.90401
G1 X159.67 Y164.80 E198.94507
G1 X158.85 Y164.45 E198.98944
G1 X158.16 Y163.94 E199.03219
G1 X157.61 Y163.33 E199.07328
G1 X157.16 Y162.57 E199.11754
G1 X156.89 Y161.75 E199.16033
G1 X156.80 Y160.90 E199.20306
G1 X156.89 Y160.05 E199.24575
G1 X157.16 Y159.23 E199.28856
G1 X157.59 Y158.49 E199.33127
G1 X158.16 Y157.85 E199.37395
G1 X158.85 Y157.35 E199.41670
G1 X159.63 Y157.00 E199.45938
G0 F12000 X159.51 Y156.62
;TYPE:WALL-OUTER
G1 F2700 X160.43 Y156.43 E199.50641
G1 X161.37 Y156.43 E199.55316
G1 X162.29 Y156.62 E199.60018
G1 X163.15 Y157.00 E199.64702
G1 X163.91 Y157.56 E199.69402
G1 X164.54 Y158.26 E199.74104
G1 X165.01 Y159.07 E199.78781
G1 X165.30 Y159.96 E199.83474
G1 X165.40 Y160.90 E199.88165
G1 X165.30 Y161.82 E199.92780
G1 X165.30 Y161.84 E199.92861
G1 X165.02 Y162.70 E199.97375
G1 X164.54 Y163.54 E200.02246
G1 X163.92 Y164.23 E200.06867
G1 X163.91 Y164.24 E200.06927
G1 X163.16 Y164.79 E200.11559
G1 X162.30 Y165.17 E200.16254
G1 X162.29 Y165.18 E200.16314
G1 X161.40 Y165.37 E200.20853
G1 X160.44 Y165.37 E200.25643
G1 X159.54 Y165.18 E200.30232
G1 X158.66 Y164.80 E200.35016
G1 X157.90 Y164.25 E200.39703
G1 X157.28 Y163.57 E200.44295
G1 X156.79 Y162.74 E200.49090
G1 X156.50 Y161.85 E200.53775
G1 X156.40 Y160.91 E200.58472
G1 X156.40 Y160.90 E200.58542
G1 X156.50 Y159.96 E200.63227
G1 X156.79 Y159.07 E200.67916
G1 X157.26 Y158.26 E200.72593
G1 X157.89 Y157.56 E200.77298
G1 X158.65 Y157.00 E200.81999
G1 X159.51 Y156.62 E200.86678
G0 F12000 X159.68 Y157.14
;TYPE:FILL
G1 F2700 X164.65 Y162.10 E201.21694
G0 F12000 X164.50 Y162.52
G1 F2700 X159.29 Y157.31 E201.58457
G0 F12000 X158.90 Y157.49
G1 F2700 X164.29 Y162.88 E201.96501
G0 F12000 X164.09 Y163.24
G1 F2700 X158.57 Y157.72 E202.35401
G0 F12000 X158.25 Y157.96
G1 F2700 X163.82 Y163.54 E202.74715
G0 F12000 X163.55 Y163.83
G1 F2700 X157.98 Y158.26 E203.14021
G0 F12000 X157.71 Y158.56
G1 F2700 X163.22 Y164.07 E203.52911
G0 F12000 X162.90 Y164.31
G1 F2700 X157.50 Y158.91 E203.90976
G0 F12000 X157.29 Y159.27
G1 F2700 X162.51 Y164.49 E204.27764
G0 F12000 X162.11 Y164.66
G1 F2700 X157.15 Y159.70 E204.62777
G0 F12000 X157.02 Y160.13
G1 F2700 X161.65 Y164.76 E204.95409
G0 F12000 X161.15 Y164.83
G1 F2700 X156.97 Y160.65 E205.24901
G0 F12000 X156.98 Y161.22
G1 F2700 X160.59 Y164.83 E205.50385
G0 F12000 X159.90 Y164.71
G1 F2700 X157.09 Y161.89 E205.70236
G0 F12000 X157.50 Y162.87
G1 F2700 X158.97 Y164.34 E205.80629
G0 F12000 X164.77 Y161.66
G1 F2700 X160.15 Y157.04 E206.13261
G0 F12000 X160.64 Y156.97
G1 F2700 X164.83 Y161.15 E206.42788
G0 F12000 X164.82 Y160.58
G1 F2700 X161.21 Y156.97 E206.68269
G0 F12000 X161.90 Y157.09
G1 F2700 X164.71 Y159.90 E206.88110
G0 F12000 X164.31 Y158.93
G1 F2700 X162.82 Y157.45 E206.98566
G1 F2400 E205.78566
G0 F12000 X148.11 Y160.05
;TYPE:WALL-INNER
G1 F2400 E206.98566
G1 F2700 X148.20 Y160.90 E207.02835
G1 X148.11 Y161.75 E207.07098
G1 X147.85 Y162.54 E207.11235
G1 X147.41 Y163.31 E207.15671
G1 X146.84 Y163.94 E207.19935
G1 X146.15 Y164.45 E207.24192
G1 X145.36 Y164.79 E207.28480
G1 X144.56 Y164.97 E207.32581
G1 X143.67 Y164.97 E207.37012
G1 X142.87 Y164.80 E207.41123
G1 X142.05 Y164.45 E207.45558
G1 X141.36 Y163.94 E207.49847
G1 X140.81 Y163.33 E207.53921
G1 X140.36 Y162.57 E207.58365
G1 X140.09 Y161.75 E207.62644
G1 X140.00 Y160.90 E207.66912
G1 X140.09 Y160.05 E207.71186
G1 X140.36 Y159.23 E207.75466
G1 X140.79 Y158.49 E207.79738
G1 X141.36 Y157.85 E207.84006
G1 X142.05 Y157.35 E207.88277
G1 X142.83 Y157.00 E207.92550
G1 X143.67 Y156.83 E207.96829
G1 X144.53 Y156.83 E208.01094
G1 X145.37 Y157.00 E208.05373
G1 X146.15 Y157.35 E208.09641
G1 X146.84 Y157.85 E208.13916
G1 X147.41 Y158.49 E208.18184
G1 X147.84 Y159.23 E208.22456
G1 X148.11 Y160.05 E208.26736
G0 F12000 X148.50 Y159.96
;TYPE:WALL-OUTER
G1 F2700 X148.60 Y160.90 E208.31431
G1 X148.50 Y161.82 E208.36046
G1 X148.50 Y161.84 E208.36127
G1 X148.22 Y162.70 E208.40640
G1 X147.74 Y163.54 E208.45512
G1 X147.12 Y164.23 E208.50136
G1 X147.11 Y164.24 E208.50196
G1 X146.36 Y164.79 E208.54828
G1 X145.50 Y165.17 E208.59523
G1 X145.49 Y165.18 E208.59583
G1 X144.60 Y165.37 E208.64112
G1 X143.64 Y165.37 E208.68902
G1 X142.74 Y165.18 E208.73501
G1 X141.86 Y164.80 E208.78284
G1 X141.10 Y164.25 E208.82972
G1 X140.48 Y163.57 E208.87560
G1 X140.00 Y162.74 E208.92355
G1 X139.70 Y161.85 E208.97041
G1 X139.60 Y160.91 E209.01738
G1 X139.60 Y160.90 E209.01808
G1 X139.70 Y159.96 E209.06489
G1 X139.99 Y159.07 E209.11183
G1 X140.46 Y158.26 E209.15859
G1 X141.09 Y157.56 E209.20561
G1 X141.85 Y157.00 E209.25262
G1 X142.71 Y156.62 E209.29945
G1 X143.63 Y156.43 E209.34648
G1 X144.57 Y156.43 E209.39323
G1 X145.49 Y156.62 E209.44025
G1 X146.35 Y157.00 E209.48704
G1 X147.11 Y157.56 E209.53405
G1 X147.74 Y158.26 E209.58110
G1 X148.21 Y159.07 E209.62786
G1 X148.50 Y159.96 E209.67475
G0 F12000 X147.98 Y160.14
;TYPE:FILL
G1 F2700 X144.88 Y157.04 E209.89309
G0 F12000 X144.24 Y156.97
G1 F2700 X148.04 Y160.77 E210.16162
G0 F12000 X148.01 Y161.31
G1 F2700 X143.67 Y156.97 E210.46776
G0 F12000 X143.21 Y157.07
G1 F2700 X147.94 Y161.80 E210.80188
G0 F12000 X147.81 Y162.23
G1 F2700 X142.76 Y157.19 E211.15762
G0 F12000 X142.37 Y157.36
G1 F2700 X147.64 Y162.63 E211.52923
G0 F12000 X147.43 Y162.99
G1 F2700 X142.00 Y157.56 E211.91235
G0 F12000 X141.68 Y157.80
G1 F2700 X147.21 Y163.33 E212.30259
G0 F12000 X146.94 Y163.62
G1 F2700 X141.37 Y158.05 E212.69569
G0 F12000 X141.10 Y158.35
G1 F2700 X146.65 Y163.91 E213.08745
G0 F12000 X146.32 Y164.14
G1 F2700 X140.85 Y158.66 E213.47402
G0 F12000 X140.64 Y159.02
G1 F2700 X145.98 Y164.37 E213.85096
G0 F12000 X145.59 Y164.54
G1 F2700 X140.45 Y159.40 E214.21362
G0 F12000 X140.31 Y159.83
G1 F2700 X145.17 Y164.69 E214.55673
G0 F12000 X144.71 Y164.79
G1 F2700 X140.21 Y160.29 E214.87416
G0 F12000 X140.15 Y160.80
G1 F2700 X144.18 Y164.83 E215.15821
G0 F12000 X143.60 Y164.81
G1 F2700 X140.20 Y161.41 E215.39824
G0 F12000 X140.37 Y162.15
G1 F2700 X142.87 Y164.65 E215.57484
G0 F12000 X141.60 Y163.94
G1 F2700 X141.09 Y163.43 E215.61062
G0 F12000 X145.72 Y157.31
G1 F2700 X147.72 Y159.32 E215.75240
G1 F2400 E214.55240
G0 F12000 X151.63 Y162.57
;TYPE:SUPPORT
G1 F2400 E215.75240
G1 F2700 X153.37 Y162.57 E215.83951
G1 X153.85 Y164.03 E215.91602
G1 X154.02 Y164.33 E215.93356
G1 X154.69 Y165.47 E215.99951
G1 X155.75 Y166.65 E216.07832
G1 X156.02 Y166.84 E216.09514
G1 X157.04 Y167.58 E216.15782
G1 X157.36 Y167.72 E216.17517
G1 X158.56 Y168.25 E216.24059
G1 X160.09 Y168.57 E216.31894
G1 X160.45 Y168.57 E216.33665
G1 X161.75 Y168.56 E216.40161
G1 X163.29 Y168.24 E216.48010
G1 X164.78 Y167.56 E216.56161
G1 X165.04 Y167.38 E216.57739
G1 X166.07 Y166.63 E216.64138
G1 X166.31 Y166.36 E216.65930
G1 X167.15 Y165.43 E216.72186
G1 X167.32 Y165.12 E216.73929
G1 X167.96 Y164.00 E216.80393
G1 X168.44 Y162.52 E216.88129
G1 X168.48 Y162.16 E216.89912
G1 X168.49 Y162.16 E216.89917
G1 X168.62 Y160.90 E216.96273
G1 X168.45 Y159.30 E217.04285
G1 X167.95 Y157.76 E217.12382
G1 X167.14 Y156.36 E217.20434
G1 X166.07 Y155.17 E217.28439
G1 X164.76 Y154.22 E217.36499
G1 X162.65 Y153.28 E217.47995
G1 X162.65 Y151.72 E217.55763
G1 X163.60 Y151.30 E217.60946
G1 X164.75 Y150.79 E217.67220
G1 X165.04 Y150.58 E217.68997
G1 X166.07 Y149.83 E217.75404
G1 X167.14 Y148.62 E217.83410
G1 X167.15 Y148.63 E217.83474
G1 X167.97 Y147.20 E217.91719
G1 X168.44 Y145.72 E217.99453
G1 X168.48 Y145.37 E218.01232
G1 X168.49 Y145.37 E218.01237
G1 X168.62 Y144.10 E218.07588
G1 X168.45 Y142.50 E218.15610
G1 X167.95 Y140.96 E218.23717
G1 X167.14 Y139.57 E218.31731
G1 X166.06 Y138.37 E218.39786
G1 X164.76 Y137.42 E218.47836
G1 X163.29 Y136.76 E218.55869
G1 X161.70 Y136.43 E218.63943
G1 X160.09 Y136.43 E218.71980
G1 X158.51 Y136.76 E218.80030
G1 X157.04 Y137.42 E218.88066
G1 X155.74 Y138.37 E218.96128
G1 X154.66 Y139.56 E219.04157
G1 X153.85 Y140.96 E219.12203
G1 X153.37 Y142.43 E219.19932
G1 X151.63 Y142.43 E219.28643
G1 X151.15 Y140.96 E219.36372
G1 X150.34 Y139.56 E219.44417
G1 X149.26 Y138.37 E219.52447
G1 X147.96 Y137.42 E219.60508
G1 X146.49 Y136.76 E219.68544
G1 X144.91 Y136.43 E219.76594
G1 X143.30 Y136.43 E219.84632
G1 X141.71 Y136.76 E219.92705
G1 X140.24 Y137.42 E220.00739
G1 X138.94 Y138.37 E220.08789
G1 X137.86 Y139.57 E220.16843
G1 X137.05 Y140.96 E220.24857
G1 X136.55 Y142.50 E220.32965
G1 X136.38 Y144.10 E220.40981
G1 X136.38 Y144.10 E220.40986
G1 X136.38 Y144.12 E220.41082
G1 X136.41 Y144.35 E220.42238
G1 X136.55 Y145.71 E220.49076
G1 X136.67 Y146.05 E220.50868
G1 X137.04 Y147.23 E220.57013
G1 X137.22 Y147.54 E220.58796
G1 X137.89 Y148.67 E220.65362
G1 X138.94 Y149.84 E220.73236
G1 X139.21 Y150.04 E220.74885
G1 X140.24 Y150.78 E220.81185
G1 X140.56 Y150.93 E220.82949
G1 X140.56 Y150.92 E220.82954
G1 X142.36 Y151.71 E220.92746
G1 X142.36 Y153.28 E221.00559
G1 X140.24 Y154.22 E221.12142
G1 X138.93 Y155.17 E221.20202
G1 X137.86 Y156.36 E221.28207
G1 X137.05 Y157.76 E221.36259
G1 X136.55 Y159.30 E221.44352
G1 X136.38 Y160.89 E221.52338
G1 X136.55 Y162.51 E221.60469
G1 X136.67 Y162.85 E221.62256
G1 X137.05 Y164.03 E221.68412
G1 X137.22 Y164.33 E221.70166
G1 X137.89 Y165.47 E221.76749
G1 X138.95 Y166.65 E221.84641
G1 X139.21 Y166.84 E221.86271
G1 X140.24 Y167.58 E221.92571
G1 X140.56 Y167.72 E221.94335
G1 X140.56 Y167.72 E221.94340
G1 X141.76 Y168.25 E222.00893
G1 X143.30 Y168.57 E222.08722
G1 X143.65 Y168.57 E222.10493
G1 X144.95 Y168.56 E222.16984
G1 X146.49 Y168.24 E222.24834
G1 X147.98 Y167.56 E222.32979
G1 X148.24 Y167.38 E222.34557
G1 X149.27 Y166.63 E222.40957
G1 X149.49 Y166.38 E222.42597
G1 X150.35 Y165.43 E222.48966
G1 X150.87 Y164.51 E222.54234
G1 X150.87 Y164.51 E222.54249
G1 X151.16 Y164.00 E222.57223
G1 X151.63 Y162.57 E222.64701
G1 F2400 E221.44701
G0 F12000 X133.87 Y171.17
G1 F2400 E222.64701
G1 F2700 X133.87 Y133.97 E224.50293
G1 X171.17 Y133.97 E226.36383
G1 X171.17 Y171.17 E228.21975
G1 X133.87 Y171.17 E230.08065
G0 F12000 X133.97 Y165.71
G0 X133.81 Y165.71
G1 F2700 X138.19 Y165.71 E230.29887
G0 F12000 X138.06 Y165.81
G0 X139.10 Y167.00
G0 X141.70 Y168.44
G0 X142.82 Y168.57
G0 X142.85 Y168.42
G1 F2700 X142.85 Y171.23 E230.43921
G0 F12000 X142.85 Y171.07
G0 X149.64 Y166.51
G0 X150.14 Y165.81
G0 X150.02 Y165.71
G1 F2700 X154.98 Y165.71 E230.68672
G0 F12000 X154.28 Y164.66
G1 F2700 X154.28 Y171.23 E231.01475
G0 F12000 X154.28 Y171.07
G0 X165.71 Y171.07
G0 X165.71 Y171.23
G1 F2700 X165.71 Y166.82 E231.23496
G0 F12000 X165.80 Y166.95
G0 X166.94 Y165.81
G0 X166.82 Y165.71
G1 F2700 X171.23 Y165.71 E231.45513
G0 F12000 X171.07 Y165.71
G0 X171.07 Y154.28
G0 X171.23 Y154.28
G1 F2700 X164.74 Y154.28 E231.77891
G0 F12000 X165.71 Y154.98
G1 F2700 X165.71 Y150.02 E232.02642
G0 F12000 X165.80 Y150.15
G0 X167.16 Y148.83
G0 X168.15 Y147.28
G0 X168.82 Y144.10
G0 X168.58 Y142.83
G0 X168.42 Y142.85
G1 F2700 X171.23 Y142.85 E232.16646
G0 F12000 X171.07 Y142.85
G0 X165.80 Y138.05
G0 X165.71 Y138.18
G1 F2700 X165.71 Y133.91 E232.37944
G0 F12000 X165.71 Y134.07
G0 X154.28 Y134.07
G0 X154.28 Y133.91
G1 F2700 X154.28 Y140.34 E232.70019
G0 F12000 X154.14 Y140.26
G0 X146.55 Y136.57
G0 X143.28 Y136.23
G0 X142.82 Y136.43
G0 X142.85 Y136.58
G1 F2700 X142.85 Y133.91 E232.83349
G0 F12000 X142.85 Y134.07
G0 X137.70 Y139.45
G0 X136.36 Y142.46
G0 X136.42 Y142.83
G0 X136.57 Y142.85
G1 F2700 X133.81 Y142.85 E232.97139
G0 F12000 X133.97 Y142.85
G0 X133.97 Y154.28
G0 X133.81 Y154.28
G1 F2700 X140.26 Y154.28 E233.29303
G1 F2400 E232.09303
G0 F12000 X145.85 Y153.28
G1 F2400 E233.29303
G1 F2700 X145.85 Y151.73 E233.37061
G1 X146.80 Y151.30 E233.42239
G1 X147.95 Y150.79 E233.48520
G1 X148.24 Y150.58 E233.50294
G1 X149.28 Y149.83 E233.56701
G1 X149.49 Y149.58 E233.58348
G1 X150.35 Y148.63 E233.64745
G1 X150.52 Y148.32 E233.66479
G1 X151.16 Y147.20 E233.72943
G1 X151.63 Y145.77 E233.80431
G1 X153.37 Y145.77 E233.89142
G1 X153.84 Y147.23 E233.96777
G1 X154.02 Y147.54 E233.98559
G1 X154.69 Y148.67 E234.05124
G1 X155.75 Y149.85 E234.13016
G1 X156.01 Y150.04 E234.14651
G1 X157.03 Y150.78 E234.20951
G1 X157.36 Y150.93 E234.22714
G1 X157.36 Y150.92 E234.22719
G1 X159.16 Y151.71 E234.32507
G1 X159.16 Y153.28 E234.40320
G1 X157.04 Y154.22 E234.51899
G1 X155.74 Y155.16 E234.59938
G1 X154.66 Y156.36 E234.67978
G1 X153.85 Y157.76 E234.76019
G1 X153.37 Y159.23 E234.83748
G1 X151.63 Y159.23 E234.92459
G1 X151.15 Y157.76 E235.00189
G1 X150.34 Y156.36 E235.08230
G1 X149.26 Y155.16 E235.16270
G1 X147.96 Y154.22 E235.24309
G1 X145.85 Y153.28 E235.35800
G0 F12000 X145.96 Y153.27
G0 X148.03 Y154.15
G0 X147.94 Y154.28
G1 F2700 X157.06 Y154.28 E235.81285
G0 F12000 X156.97 Y154.15
G0 X155.60 Y155.02
G0 X154.50 Y156.25
G0 X154.14 Y157.06
G0 X154.28 Y157.14
G1 F2700 X154.28 Y147.85 E236.27608
;LAYER:1
G1 F2400 E235.07608
G0 F12000 X157.16 Y145.77 Z0.60
;TYPE:WALL-INNER
G1 F2400 E236.27608
G1 F3180 X156.90 Y144.99 E236.31693
G1 X156.89 Y144.95 E236.31881
G1 X156.81 Y144.14 E236.35964
G1 X156.80 Y144.10 E236.36155
G1 X156.89 Y143.25 E236.40423
G1 X157.16 Y142.43 E236.44708
G1 X157.59 Y141.69 E236.48964
G1 X158.16 Y141.06 E236.53256
G1 X158.85 Y140.55 E236.57516
G1 X159.63 Y140.21 E236.61785
G1 X160.47 Y140.03 E236.66065
G1 X161.33 Y140.03 E236.70325
G1 X162.17 Y140.21 E236.74615
G1 X162.95 Y140.55 E236.78883
G1 X163.64 Y141.06 E236.83158
G1 X164.21 Y141.69 E236.87419
G1 X164.64 Y142.43 E236.91691
G1 X164.91 Y143.25 E236.95976
G1 X165.00 Y144.10 E237.00249
G1 X164.91 Y144.91 E237.04323
G1 X164.91 Y144.95 E237.04503
G1 X164.66 Y145.73 E237.08588
G1 X164.64 Y145.77 E237.08793
G1 X164.21 Y146.51 E237.13071
G1 X163.67 Y147.12 E237.17148
G1 X163.64 Y147.15 E237.17353
G1 X162.98 Y147.62 E237.21410
G1 X162.95 Y147.65 E237.21618
G1 X162.20 Y147.98 E237.25694
G1 X162.16 Y148.00 E237.25897
G1 X161.36 Y148.16 E237.29971
G1 X161.32 Y148.17 E237.30175
G1 X160.47 Y148.17 E237.34431
G1 X159.67 Y148.00 E237.38505
G1 X159.63 Y148.00 E237.38705
G1 X158.89 Y147.67 E237.42759
G1 X158.85 Y147.65 E237.42969
G1 X158.19 Y147.17 E237.47054
G1 X158.16 Y147.15 E237.47240
G1 X157.61 Y146.54 E237.51323
G1 X157.59 Y146.51 E237.51514
G1 X157.16 Y145.77 E237.55793
G0 F12000 X156.79 Y145.93
;TYPE:WALL-OUTER
G1 F3180 X156.52 Y145.11 E237.60081
G1 X156.50 Y145.03 E237.60485
G1 X156.40 Y144.10 E237.65170
G1 X156.50 Y143.16 E237.69870
G1 X156.79 Y142.27 E237.74559
G1 X157.26 Y141.46 E237.79240
G1 X157.89 Y140.76 E237.83942
G1 X158.65 Y140.20 E237.88642
G1 X159.51 Y139.82 E237.93321
G1 X160.43 Y139.63 E237.98025
G1 X161.37 Y139.63 E238.02695
G1 X162.29 Y139.82 E238.07408
G1 X163.15 Y140.20 E238.12087
G1 X163.91 Y140.76 E238.16787
G1 X164.54 Y141.46 E238.21486
G1 X165.01 Y142.27 E238.26166
G1 X165.30 Y143.16 E238.30860
G1 X165.40 Y144.10 E238.35556
G1 X165.30 Y145.04 E238.40257
G1 X165.04 Y145.85 E238.44529
G1 X165.01 Y145.93 E238.44946
G1 X164.54 Y146.74 E238.49618
G1 X163.91 Y147.44 E238.54320
G1 X163.15 Y148.00 E238.59020
G1 X162.36 Y148.34 E238.63304
G1 X162.29 Y148.38 E238.63699
G1 X161.45 Y148.56 E238.67998
G1 X161.37 Y148.57 E238.68402
G1 X160.43 Y148.57 E238.73087
G1 X159.59 Y148.40 E238.77375
G1 X159.51 Y148.38 E238.77763
G1 X158.72 Y148.03 E238.82069
G1 X158.65 Y148.00 E238.82451
G1 X157.89 Y147.44 E238.87165
G1 X157.26 Y146.74 E238.91871
G1 X156.79 Y145.93 E238.96554
G0 F12000 X157.27 Y145.66
;TYPE:FILL
G1 F3180 X162.44 Y140.48 E239.33066
G0 F12000 X162.83 Y140.66
G1 F3180 X157.47 Y146.02 E239.70941
G0 F12000 X157.67 Y146.38
G1 F3180 X163.17 Y140.89 E240.09718
G0 F12000 X163.50 Y141.12
G1 F3180 X157.94 Y146.69 E240.48961
G0 F12000 X158.20 Y146.98
G1 F3180 X163.77 Y141.41 E240.88256
G0 F12000 X164.04 Y141.71
G1 F3180 X158.52 Y147.23 E241.27214
G0 F12000 X158.85 Y147.47
G1 F3180 X164.26 Y142.06 E241.65419
G0 F12000 X164.47 Y142.41
G1 F3180 X159.22 Y147.66 E242.02440
G0 F12000 X159.62 Y147.83
G1 F3180 X164.62 Y142.83 E242.37767
G0 F12000 X164.76 Y143.25
G1 F3180 X160.07 Y147.94 E242.70864
G0 F12000 X160.55 Y148.03
G1 F3180 X164.82 Y143.76 E243.01002
G0 F12000 X164.83 Y144.31
G1 F3180 X161.11 Y148.03 E243.27249
G0 F12000 X161.78 Y147.94
G1 F3180 X164.76 Y144.96 E243.48274
G0 F12000 X164.44 Y145.84
G1 F3180 X162.65 Y147.63 E243.60893
G0 F12000 X157.13 Y145.23
G1 F3180 X162.04 Y140.32 E243.95522
G0 F12000 X161.57 Y140.22
G1 F3180 X157.01 Y144.78 E244.27670
G0 F12000 X156.96 Y144.27
G1 F3180 X161.06 Y140.17 E244.56598
G0 F12000 X160.50 Y140.17
G1 F3180 X156.99 Y143.67 E244.81342
G0 F12000 X157.13 Y142.97
G1 F3180 X159.78 Y140.32 E245.00025
G0 F12000 X158.68 Y140.85
G1 F3180 X157.62 Y141.91 E245.07483
G1 F2400 E243.87483
G0 F12000 X148.11 Y143.25
;TYPE:WALL-INNER
G1 F2400 E245.07483
G1 F3180 X148.20 Y144.10 E245.11756
G1 X148.11 Y144.91 E245.15835
G1 X148.11 Y144.95 E245.16010
G1 X147.86 Y145.73 E245.20095
G1 X147.84 Y145.77 E245.20300
G1 X147.41 Y146.51 E245.24563
G1 X146.87 Y147.12 E245.28654
G1 X146.18 Y147.62 E245.32915
G1 X146.15 Y147.65 E245.33123
G1 X145.40 Y147.98 E245.37199
G1 X145.36 Y148.00 E245.37402
G1 X144.56 Y148.16 E245.41471
G1 X144.53 Y148.17 E245.41676
G1 X143.67 Y148.17 E245.45931
G1 X142.87 Y148.00 E245.50010
G1 X142.83 Y148.00 E245.50210
G1 X142.09 Y147.67 E245.54264
G1 X142.05 Y147.65 E245.54474
G1 X141.39 Y147.17 E245.58559
G1 X141.36 Y147.14 E245.58763
G1 X140.81 Y146.54 E245.62822
G1 X140.36 Y145.77 E245.67291
G1 X140.10 Y144.99 E245.71376
G1 X140.09 Y144.95 E245.71559
G1 X140.01 Y144.14 E245.75647
G1 X140.00 Y144.10 E245.75833
G1 X140.09 Y143.25 E245.80107
G1 X140.36 Y142.43 E245.84392
G1 X140.79 Y141.69 E245.88664
G1 X141.36 Y141.06 E245.92924
G1 X142.05 Y140.55 E245.97199
G1 X142.83 Y140.21 E246.01467
G1 X143.67 Y140.03 E246.05757
G1 X144.53 Y140.03 E246.10018
G1 X145.37 Y140.21 E246.14298
G1 X146.15 Y140.55 E246.18566
G1 X146.84 Y141.06 E246.22826
G1 X147.41 Y141.69 E246.27118
G1 X147.84 Y142.43 E246.31374
G1 X148.11 Y143.25 E246.35659
G0 F12000 X148.50 Y143.16
;TYPE:WALL-OUTER
G1 F3180 X148.60 Y144.10 E246.40360
G1 X148.50 Y145.04 E246.45060
G1 X148.24 Y145.85 E246.49332
G1 X148.21 Y145.93 E246.49749
G1 X147.74 Y146.74 E246.54421
G1 X147.11 Y147.44 E246.59126
G1 X146.35 Y148.00 E246.63827
G1 X145.56 Y148.34 E246.68111
G1 X145.49 Y148.38 E246.68506
G1 X144.65 Y148.56 E246.72794
G1 X144.57 Y148.57 E246.73199
G1 X143.63 Y148.57 E246.77883
G1 X142.79 Y148.40 E246.82182
G1 X142.71 Y148.38 E246.82569
G1 X141.92 Y148.03 E246.86876
G1 X141.85 Y148.00 E246.87258
G1 X141.09 Y147.44 E246.91972
G1 X140.46 Y146.74 E246.96674
G1 X139.99 Y145.93 E247.01357
G1 X139.72 Y145.11 E247.05645
G1 X139.70 Y145.03 E247.06049
G1 X139.60 Y144.10 E247.10735
G1 X139.70 Y143.16 E247.15431
G1 X139.99 Y142.27 E247.20125
G1 X140.46 Y141.46 E247.24805
G1 X141.09 Y140.76 E247.29504
G1 X141.85 Y140.20 E247.34204
G1 X142.71 Y139.82 E247.38883
G1 X143.63 Y139.63 E247.43597
G1 X144.57 Y139.63 E247.48266
G1 X145.49 Y139.82 E247.52970
G1 X146.35 Y140.20 E247.57649
G1 X147.11 Y140.76 E247.62349
G1 X147.74 Y141.46 E247.67051
G1 X148.21 Y142.27 E247.71732
G1 X148.50 Y143.16 E247.76421
G0 F12000 X147.92 Y143.12
;TYPE:FILL
G1 F3180 X143.13 Y147.91 E248.10217
G0 F12000 X142.70 Y147.78
G1 F3180 X147.78 Y142.70 E248.46084
G0 F12000 X147.61 Y142.31
G1 F3180 X142.30 Y147.61 E248.83499
G0 F12000 X141.95 Y147.40
G1 F3180 X147.40 Y141.95 E249.21959
G0 F12000 X147.16 Y141.62
G1 F3180 X141.62 Y147.16 E249.61036
G0 F12000 X141.32 Y146.89
G1 F3180 X146.89 Y141.32 E250.00318
G0 F12000 X146.60 Y141.05
G1 F3180 X141.06 Y146.59 E250.39427
G0 F12000 X140.82 Y146.27
G1 F3180 X146.27 Y140.81 E250.77907
G0 F12000 X145.92 Y140.60
G1 F3180 X140.61 Y145.91 E251.15376
G0 F12000 X140.43 Y145.53
G1 F3180 X145.53 Y140.43 E251.51345
G0 F12000 X145.10 Y140.29
G1 F3180 X140.29 Y145.10 E251.85265
G0 F12000 X140.20 Y144.62
G1 F3180 X144.63 Y140.19 E252.16521
G0 F12000 X144.09 Y140.17
G1 F3180 X140.15 Y144.11 E252.44348
G0 F12000 X140.21 Y143.48
G1 F3180 X143.48 Y140.21 E252.67423
G0 F12000 X142.71 Y140.41
G1 F3180 X140.41 Y142.71 E252.83647
G0 F12000 X143.60 Y148.01
G1 F3180 X148.00 Y143.61 E253.14741
G0 F12000 X148.05 Y144.12
G1 F3180 X144.14 Y148.03 E253.42324
G0 F12000 X144.76 Y147.98
G1 F3180 X147.99 Y144.75 E253.65079
G0 F12000 X147.77 Y145.54
G1 F3180 X145.54 Y147.76 E253.80774
G1 F2400 E252.60774
G0 F12000 X144.53 Y156.83
;TYPE:WALL-INNER
G1 F2400 E253.80774
G1 F3180 X145.37 Y157.00 E253.85053
G1 X146.15 Y157.35 E253.89321
G1 X146.84 Y157.85 E253.93596
G1 X147.41 Y158.49 E253.97863
G1 X147.84 Y159.23 E254.02135
G1 X148.11 Y160.05 E254.06415
G1 X148.20 Y160.90 E254.10684
G1 X148.11 Y161.71 E254.14752
G1 X148.11 Y161.75 E254.14968
G1 X147.86 Y162.53 E254.19026
G1 X147.84 Y162.57 E254.19232
G1 X147.43 Y163.27 E254.23316
G1 X147.41 Y163.31 E254.23513
G1 X146.87 Y163.91 E254.27586
G1 X146.18 Y164.42 E254.31847
G1 X146.15 Y164.45 E254.32055
G1 X145.40 Y164.78 E254.36131
G1 X145.36 Y164.80 E254.36334
G1 X144.56 Y164.97 E254.40405
G1 X143.67 Y164.97 E254.44850
G1 X142.87 Y164.80 E254.48936
G1 X142.83 Y164.79 E254.49140
G1 X142.09 Y164.47 E254.53194
G1 X142.05 Y164.45 E254.53404
G1 X141.39 Y163.97 E254.57489
G1 X141.36 Y163.94 E254.57693
G1 X140.81 Y163.34 E254.61748
G1 X140.38 Y162.60 E254.66027
G1 X140.36 Y162.57 E254.66217
G1 X140.10 Y161.79 E254.70307
G1 X140.09 Y161.75 E254.70490
G1 X140.01 Y160.94 E254.74578
G1 X140.00 Y160.90 E254.74774
G1 X140.09 Y160.05 E254.79038
G1 X140.36 Y159.23 E254.83318
G1 X140.79 Y158.49 E254.87590
G1 X141.36 Y157.85 E254.91858
G1 X142.05 Y157.35 E254.96129
G1 X142.83 Y157.00 E255.00401
G1 X143.67 Y156.83 E255.04680
G1 X144.53 Y156.83 E255.08946
G0 F12000 X144.57 Y156.43
;TYPE:WALL-OUTER
G1 F3180 X145.49 Y156.62 E255.13649
G1 X146.35 Y157.00 E255.18328
G1 X147.11 Y157.56 E255.23028
G1 X147.74 Y158.26 E255.27733
G1 X148.21 Y159.07 E255.32410
G1 X148.50 Y159.96 E255.37099
G1 X148.60 Y160.90 E255.41794
G1 X148.50 Y161.84 E255.46499
G1 X148.24 Y162.65 E255.50772
G1 X148.21 Y162.73 E255.51188
G1 X147.78 Y163.47 E255.55474
G1 X147.74 Y163.54 E255.55876
G1 X147.11 Y164.24 E255.60567
G1 X146.35 Y164.80 E255.65267
G1 X145.56 Y165.14 E255.69551
G1 X145.49 Y165.18 E255.69942
G1 X144.65 Y165.36 E255.74237
G1 X144.57 Y165.37 E255.74636
G1 X143.63 Y165.37 E255.79320
G1 X142.79 Y165.19 E255.83620
G1 X142.71 Y165.18 E255.84012
G1 X141.92 Y164.83 E255.88318
G1 X141.85 Y164.80 E255.88700
G1 X141.09 Y164.24 E255.93414
G1 X140.46 Y163.54 E255.98113
G1 X140.03 Y162.80 E256.02387
G1 X139.99 Y162.73 E256.02805
G1 X139.72 Y161.91 E256.07088
G1 X139.70 Y161.83 E256.07492
G1 X139.60 Y160.90 E256.12183
G1 X139.70 Y159.96 E256.16874
G1 X139.99 Y159.07 E256.21568
G1 X140.46 Y158.26 E256.26244
G1 X141.09 Y157.56 E256.30946
G1 X141.85 Y157.00 E256.35646
G1 X142.71 Y156.62 E256.40330
G1 X143.63 Y156.43 E256.45033
G1 X144.57 Y156.43 E256.49707
G0 F12000 X144.26 Y156.96
;TYPE:FILL
G1 F3180 X140.16 Y161.06 E256.78635
G0 F12000 X140.22 Y161.58
G1 F3180 X144.77 Y157.02 E257.10780
G0 F12000 X145.24 Y157.12
G1 F3180 X140.33 Y162.03 E257.45416
G0 F12000 X140.47 Y162.46
G1 F3180 X145.64 Y157.28 E257.81935
G0 F12000 X146.03 Y157.45
G1 F3180 X140.67 Y162.82 E258.19795
G0 F12000 X140.88 Y163.18
G1 F3180 X146.37 Y157.69 E258.58530
G0 F12000 X146.70 Y157.92
G1 F3180 X141.13 Y163.49 E258.97777
G0 F12000 X141.40 Y163.78
G1 F3180 X146.97 Y158.21 E259.37072
G0 F12000 X147.24 Y158.51
G1 F3180 X141.72 Y164.03 E259.76033
G0 F12000 X142.05 Y164.27
G1 F3180 X147.46 Y158.85 E260.14239
G0 F12000 X147.67 Y159.21
G1 F3180 X142.42 Y164.46 E260.51256
G0 F12000 X142.81 Y164.63
G1 F3180 X147.82 Y159.63 E260.86590
G0 F12000 X147.96 Y160.05
G1 F3180 X143.27 Y164.75 E261.19694
G0 F12000 X143.75 Y164.83
G1 F3180 X148.02 Y160.56 E261.49843
G0 F12000 X148.03 Y161.11
G1 F3180 X144.32 Y164.83 E261.76044
G0 F12000 X144.98 Y164.73
G1 F3180 X147.96 Y161.75 E261.97073
G0 F12000 X147.64 Y162.64
G1 F3180 X145.85 Y164.42 E262.09667
G0 F12000 X140.19 Y160.47
G1 F3180 X143.70 Y156.96 E262.34407
G0 F12000 X142.98 Y157.12
G1 F3180 X140.33 Y159.76 E262.53083
G0 F12000 X140.82 Y158.71
G1 F3180 X141.88 Y157.65 E262.60572
G1 F2400 E261.40572
G0 F12000 X156.89 Y160.05
;TYPE:WALL-INNER
G1 F2400 E262.60572
G1 F3180 X157.16 Y159.23 E262.64853
G1 X157.59 Y158.49 E262.69125
G1 X158.16 Y157.85 E262.73392
G1 X158.85 Y157.35 E262.77667
G1 X159.63 Y157.00 E262.81935
G1 X160.47 Y156.83 E262.86214
G1 X161.33 Y156.83 E262.90480
G1 X162.17 Y157.00 E262.94759
G1 X162.95 Y157.35 E262.99032
G1 X163.64 Y157.85 E263.03303
G1 X164.21 Y158.49 E263.07570
G1 X164.64 Y159.23 E263.11842
G1 X164.91 Y160.05 E263.16122
G1 X165.00 Y160.90 E263.20391
G1 X164.91 Y161.71 E263.24459
G1 X164.91 Y161.75 E263.24675
G1 X164.66 Y162.53 E263.28733
G1 X164.64 Y162.57 E263.28938
G1 X164.23 Y163.27 E263.33023
G1 X164.21 Y163.31 E263.33235
G1 X163.67 Y163.91 E263.37294
G1 X163.64 Y163.95 E263.37499
G1 X162.98 Y164.42 E263.41556
G1 X162.95 Y164.45 E263.41764
G1 X162.20 Y164.78 E263.45840
G1 X162.16 Y164.80 E263.46043
G1 X161.36 Y164.97 E263.50124
G1 X160.47 Y164.97 E263.54569
G1 X159.67 Y164.80 E263.58645
G1 X159.63 Y164.79 E263.58849
G1 X158.89 Y164.47 E263.62903
G1 X158.85 Y164.45 E263.63113
G1 X158.19 Y163.97 E263.67198
G1 X158.16 Y163.94 E263.67388
G1 X157.61 Y163.34 E263.71464
G1 X157.59 Y163.31 E263.71655
G1 X157.18 Y162.60 E263.75744
G1 X157.16 Y162.57 E263.75934
G1 X156.90 Y161.79 E263.80023
G1 X156.81 Y160.94 E263.84286
G1 X156.80 Y160.90 E263.84491
G1 X156.89 Y160.05 E263.88750
G0 F12000 X156.50 Y159.96
;TYPE:WALL-OUTER
G1 F3180 X156.79 Y159.07 E263.93439
G1 X157.26 Y158.26 E263.98115
G1 X157.89 Y157.56 E264.02821
G1 X158.65 Y157.00 E264.07521
G1 X159.51 Y156.62 E264.12200
G1 X160.43 Y156.43 E264.16902
G1 X161.37 Y156.43 E264.21577
G1 X162.29 Y156.62 E264.26280
G1 X163.15 Y157.00 E264.30964
G1 X163.91 Y157.56 E264.35664
G1 X164.54 Y158.26 E264.40366
G1 X165.01 Y159.07 E264.45042
G1 X165.30 Y159.96 E264.49736
G1 X165.40 Y160.90 E264.54427
G1 X165.30 Y161.84 E264.59132
G1 X165.04 Y162.65 E264.63405
G1 X165.01 Y162.73 E264.63822
G1 X164.58 Y163.47 E264.68107
G1 X164.54 Y163.54 E264.68509
G1 X163.91 Y164.24 E264.73197
G1 X163.15 Y164.80 E264.77897
G1 X162.36 Y165.14 E264.82181
G1 X162.29 Y165.18 E264.82572
G1 X161.45 Y165.36 E264.86877
G1 X161.37 Y165.37 E264.87275
G1 X160.43 Y165.37 E264.91960
G1 X159.59 Y165.19 E264.96250
G1 X159.51 Y165.18 E264.96642
G1 X158.72 Y164.83 E265.00948
G1 X158.65 Y164.80 E265.01330
G1 X157.89 Y164.24 E265.06044
G1 X157.26 Y163.54 E265.10746
G1 X156.83 Y162.80 E265.15020
G1 X156.79 Y162.73 E265.15438
G1 X156.52 Y161.91 E265.19722
G1 X156.50 Y161.83 E265.20126
G1 X156.40 Y160.90 E265.24816
G1 X156.50 Y159.96 E265.29511
G0 F12000 X157.05 Y160.02
;TYPE:FILL
G1 F3180 X160.00 Y157.07 E265.50304
G0 F12000 X160.67 Y156.97
G1 F3180 X156.97 Y160.66 E265.76388
G0 F12000 X156.98 Y161.22
G1 F3180 X161.23 Y156.97 E266.06381
G0 F12000 X161.71 Y157.05
G1 F3180 X157.04 Y161.72 E266.39355
G0 F12000 X157.17 Y162.16
G1 F3180 X162.17 Y157.16 E266.74619
G0 F12000 X162.56 Y157.33
G1 F3180 X157.32 Y162.57 E267.11586
G0 F12000 X157.53 Y162.93
G1 F3180 X162.94 Y157.52 E267.49767
G0 F12000 X163.27 Y157.76
G1 F3180 X157.75 Y163.28 E267.88707
G0 F12000 X158.02 Y163.57
G1 F3180 X163.59 Y158.01 E268.27996
G0 F12000 X163.85 Y158.30
G1 F3180 X158.29 Y163.87 E268.67253
G0 F12000 X158.62 Y164.10
G1 F3180 X164.12 Y158.61 E269.06048
G0 F12000 X164.32 Y158.97
G1 F3180 X158.95 Y164.34 E269.43964
G0 F12000 X159.34 Y164.51
G1 F3180 X164.52 Y159.33 E269.80533
G0 F12000 X164.66 Y159.76
G1 F3180 X159.74 Y164.68 E270.15250
G0 F12000 X160.21 Y164.77
G1 F3180 X164.78 Y160.20 E270.47494
G0 F12000 X164.84 Y160.72
G1 F3180 X160.72 Y164.83 E270.76527
G0 F12000 X161.29 Y164.82
G1 F3180 X164.81 Y161.31 E271.01359
G0 F12000 X164.68 Y162.00
G1 F3180 X162.00 Y164.69 E271.20278
G0 F12000 X163.05 Y164.20
G1 F3180 X164.20 Y163.05 E271.28435
G0 F12000 X159.11 Y157.39
G1 F3180 X157.39 Y159.11 E271.40613
G1 F2400 E270.20613
G0 F12000 X153.85 Y157.76
;TYPE:SUPPORT
G1 F2400 E271.40613
G1 F3180 X153.37 Y159.23 E271.48342
G1 X151.63 Y159.23 E271.57053
G1 X151.15 Y157.76 E271.64782
G1 X150.34 Y156.36 E271.72823
G1 X149.26 Y155.16 E271.80863
G1 X147.96 Y154.22 E271.88902
G1 X145.86 Y153.28 E272.00389
G1 X145.85 Y151.73 E272.08142
G1 X146.88 Y151.26 E272.13760
G1 X147.95 Y150.79 E272.19630
G1 X148.30 Y150.54 E272.21749
G1 X149.27 Y149.83 E272.27767
G1 X149.54 Y149.53 E272.29791
G1 X150.34 Y148.64 E272.35751
G1 X150.55 Y148.28 E272.37807
G1 X151.15 Y147.25 E272.43760
G1 X151.28 Y146.84 E272.45899
G1 X151.63 Y145.77 E272.51521
G1 X153.37 Y145.77 E272.60232
G1 X153.85 Y147.24 E272.67945
G1 X154.66 Y148.63 E272.75970
G1 X154.93 Y148.94 E272.78040
G1 X155.74 Y149.84 E272.84060
G1 X156.07 Y150.08 E272.86094
G1 X157.03 Y150.78 E272.92037
G1 X157.42 Y150.95 E272.94127
G1 X159.15 Y151.72 E273.03588
G1 X159.15 Y153.28 E273.11371
G1 X157.04 Y154.22 E273.22884
G1 X155.74 Y155.16 E273.30923
G1 X154.66 Y156.36 E273.38964
G1 X153.85 Y157.76 E273.47005
G0 F12000 X154.28 Y157.14
G1 F3180 X154.28 Y147.86 E273.93298
G0 F12000 X154.14 Y147.94
G0 X156.97 Y154.15
G0 X157.06 Y154.28
G1 F3180 X147.94 Y154.28 E274.38783
G1 F2400 E273.18783
G0 F12000 X142.35 Y153.28
G1 F2400 E274.38783
G1 F3180 X140.24 Y154.22 E274.50296
G1 X138.93 Y155.17 E274.58356
G1 X137.86 Y156.36 E274.66361
G1 X137.05 Y157.76 E274.74414
G1 X136.55 Y159.30 E274.82510
G1 X136.38 Y160.90 E274.90532
G1 X136.43 Y161.31 E274.92609
G1 X136.55 Y162.51 E274.98598
G1 X136.68 Y162.90 E275.00652
G1 X137.05 Y164.03 E275.06604
G1 X137.26 Y164.40 E275.08698
G1 X137.85 Y165.43 E275.14648
G1 X138.13 Y165.74 E275.16729
G1 X138.94 Y166.64 E275.22745
G1 X139.27 Y166.88 E275.24803
G1 X140.24 Y167.58 E275.30743
G1 X140.62 Y167.75 E275.32811
G1 X140.62 Y167.75 E275.32816
G1 X141.71 Y168.24 E275.38794
G1 X142.11 Y168.32 E275.40837
G1 X143.30 Y168.57 E275.46886
G1 X144.92 Y168.57 E275.54983
G1 X145.33 Y168.48 E275.57103
G1 X146.49 Y168.24 E275.63021
G1 X146.88 Y168.06 E275.65115
G1 X147.95 Y167.59 E275.70980
G1 X148.30 Y167.34 E275.73100
G1 X149.27 Y166.63 E275.79099
G1 X149.54 Y166.33 E275.81127
G1 X150.34 Y165.43 E275.87125
G1 X150.55 Y165.07 E275.89224
G1 X151.15 Y164.05 E275.95112
G1 X151.28 Y163.64 E275.97251
G1 X151.62 Y162.57 E276.02858
G1 X153.37 Y162.57 E276.11579
G1 X153.85 Y164.03 E276.19261
G1 X154.06 Y164.40 E276.21355
G1 X154.65 Y165.43 E276.27306
G1 X154.93 Y165.74 E276.29391
G1 X155.74 Y166.64 E276.35406
G1 X156.07 Y166.88 E276.37464
G1 X157.04 Y167.58 E276.43404
G1 X157.41 Y167.75 E276.45471
G1 X157.41 Y167.75 E276.45476
G1 X158.51 Y168.24 E276.51455
G1 X158.91 Y168.32 E276.53498
G1 X160.09 Y168.57 E276.59537
G1 X161.72 Y168.57 E276.67639
G1 X162.11 Y168.49 E276.69641
G1 X163.29 Y168.24 E276.75682
G1 X163.68 Y168.06 E276.77776
G1 X164.75 Y167.59 E276.83641
G1 X165.10 Y167.34 E276.85761
G1 X166.07 Y166.63 E276.91771
G1 X166.35 Y166.32 E276.93853
G1 X167.14 Y165.43 E276.99791
G1 X167.35 Y165.07 E277.01888
G1 X167.94 Y164.05 E277.07765
G1 X168.08 Y163.64 E277.09909
G1 X168.45 Y162.50 E277.15874
G1 X168.62 Y160.90 E277.23932
G1 X168.45 Y159.30 E277.31939
G1 X167.95 Y157.76 E277.40036
G1 X167.14 Y156.36 E277.48088
G1 X166.07 Y155.17 E277.56093
G1 X164.76 Y154.22 E277.64153
G1 X162.65 Y153.28 E277.75649
G1 X162.65 Y151.73 E277.83407
G1 X163.68 Y151.26 E277.89027
G1 X164.75 Y150.79 E277.94892
G1 X165.10 Y150.54 E277.97012
G1 X166.07 Y149.83 E278.03011
G1 X167.14 Y148.63 E278.11024
G1 X167.94 Y147.25 E278.19018
G1 X168.08 Y146.84 E278.21157
G1 X168.45 Y145.71 E278.27107
G1 X168.49 Y145.29 E278.29179
G1 X168.62 Y144.10 E278.35165
G1 X168.45 Y142.50 E278.43187
G1 X167.95 Y140.96 E278.51295
G1 X167.14 Y139.57 E278.59308
G1 X166.06 Y138.37 E278.67363
G1 X164.76 Y137.42 E278.75413
G1 X163.29 Y136.76 E278.83446
G1 X161.70 Y136.43 E278.91520
G1 X160.09 Y136.43 E278.99557
G1 X158.51 Y136.76 E279.07608
G1 X157.04 Y137.42 E279.15644
G1 X155.74 Y138.37 E279.23705
G1 X154.66 Y139.56 E279.31734
G1 X153.85 Y140.96 E279.39780
G1 X153.37 Y142.43 E279.47509
G1 X151.63 Y142.43 E279.56220
G1 X151.15 Y140.96 E279.63949
G1 X150.34 Y139.56 E279.71994
G1 X149.26 Y138.37 E279.80024
G1 X147.96 Y137.42 E279.88085
G1 X146.49 Y136.76 E279.96121
G1 X144.91 Y136.43 E280.04171
G1 X143.30 Y136.43 E280.12209
G1 X141.71 Y136.76 E280.20282
G1 X140.24 Y137.42 E280.28316
G1 X138.94 Y138.37 E280.36366
G1 X137.86 Y139.57 E280.44420
G1 X137.05 Y140.96 E280.52434
G1 X136.55 Y142.50 E280.60542
G1 X136.38 Y144.11 E280.68613
G1 X136.41 Y144.33 E280.69717
G1 X136.55 Y145.71 E280.76630
G1 X136.68 Y146.10 E280.78679
G1 X137.05 Y147.24 E280.84673
G1 X137.86 Y148.63 E280.92694
G1 X138.93 Y149.83 E281.00727
G1 X140.23 Y150.78 E281.08756
G1 X140.62 Y150.95 E281.10846
G1 X142.35 Y151.72 E281.20307
G1 X142.35 Y153.28 E281.28090
G1 F2400 E280.08090
G0 F12000 X133.87 Y171.17
G1 F2400 E281.28090
G1 F3180 X133.87 Y133.97 E283.13681
G1 X171.17 Y133.97 E284.99772
G1 X171.17 Y171.17 E286.85363
G1 X133.87 Y171.17 E288.71454
G0 F12000 X133.97 Y165.71
G0 X133.81 Y165.71
G1 F3180 X138.19 Y165.71 E288.93276
G0 F12000 X138.06 Y165.81
G0 X139.16 Y167.04
G0 X142.07 Y168.52
G0 X142.82 Y168.57
G0 X142.85 Y168.42
G1 F3180 X142.85 Y171.23 E289.07315
G0 F12000 X142.85 Y171.07
G0 X149.69 Y166.46
G0 X150.14 Y165.81
G0 X150.02 Y165.71
G1 F3180 X154.98 Y165.71 E289.32080
G0 F12000 X154.28 Y164.66
G1 F3180 X154.28 Y171.23 E289.64863
G0 F12000 X154.28 Y171.07
G0 X165.71 Y171.07
G0 X165.71 Y171.23
G1 F3180 X165.71 Y166.82 E289.86885
G0 F12000 X165.80 Y166.95
G0 X166.94 Y165.81
G0 X166.82 Y165.71
G1 F3180 X171.23 Y165.71 E290.08906
G0 F12000 X171.07 Y165.71
G0 X171.07 Y154.28
G0 X171.23 Y154.28
G1 F3180 X164.74 Y154.28 E290.41285
G0 F12000 X165.71 Y154.98
G1 F3180 X165.71 Y150.02 E290.66040
G0 F12000 X165.80 Y150.15
G0 X167.30 Y148.75
G0 X168.64 Y145.75
G0 X168.82 Y144.10
G0 X168.58 Y142.83
G0 X168.42 Y142.85
G1 F3180 X171.23 Y142.85 E290.80044
G0 F12000 X171.07 Y142.85
G0 X165.80 Y138.05
G0 X165.71 Y138.18
G1 F3180 X165.71 Y133.91 E291.01343
G0 F12000 X165.71 Y134.07
G0 X154.28 Y134.07
G0 X154.28 Y133.91
G1 F3180 X154.28 Y140.34 E291.33417
G0 F12000 X154.14 Y140.26
G0 X146.55 Y136.57
G0 X143.28 Y136.23
G0 X142.82 Y136.43
G0 X142.85 Y136.58
G1 F3180 X142.85 Y133.91 E291.46748
G0 F12000 X142.85 Y134.07
G0 X137.70 Y139.45
G0 X136.36 Y142.46
G0 X136.42 Y142.83
G0 X136.57 Y142.85
G1 F3180 X133.81 Y142.85 E291.60537
G0 F12000 X133.97 Y142.85
G0 X133.97 Y154.28
G0 X133.81 Y154.28
G1 F3180 X140.26 Y154.28 E291.92702
;LAYER:2
G1 F2400 E290.72702
G0 F12000 X142.05 Y157.35 Z0.90
;TYPE:WALL-INNER
G1 F2400 E291.92702
G1 F3720 X142.83 Y157.00 E291.96974
G1 X143.67 Y156.83 E292.01253
G1 X144.53 Y156.83 E292.05519
G1 X145.37 Y157.00 E292.09798
G1 X146.15 Y157.35 E292.14066
G1 X146.84 Y157.85 E292.18341
G1 X147.41 Y158.49 E292.22609
G1 X147.84 Y159.23 E292.26880
G1 X148.11 Y160.05 E292.31161
G1 X148.20 Y160.90 E292.35430
G1 X148.12 Y161.64 E292.39162
G1 X148.11 Y161.75 E292.39714
G1 X147.88 Y162.46 E292.43436
G1 X147.84 Y162.56 E292.43971
G1 X147.41 Y163.31 E292.48245
G1 X146.91 Y163.86 E292.51982
G1 X146.84 Y163.94 E292.52533
G1 X146.24 Y164.38 E292.56259
G1 X146.15 Y164.45 E292.56802
G1 X145.37 Y164.79 E292.61065
G1 X144.63 Y164.95 E292.64814
G1 X144.53 Y164.97 E292.65345
G1 X143.67 Y164.97 E292.69606
G1 X142.94 Y164.82 E292.73355
G1 X142.84 Y164.80 E292.73880
G1 X142.05 Y164.45 E292.78159
G1 X141.45 Y164.01 E292.81901
G1 X141.36 Y163.94 E292.82448
G1 X140.86 Y163.39 E292.86169
G1 X140.78 Y163.31 E292.86716
G1 X140.36 Y162.57 E292.90977
G1 X140.13 Y161.85 E292.94719
G1 X140.09 Y161.75 E292.95255
G1 X140.00 Y160.90 E292.99529
G1 X140.09 Y160.05 E293.03798
G1 X140.36 Y159.23 E293.08078
G1 X140.79 Y158.49 E293.12350
G1 X141.36 Y157.85 E293.16618
G1 X142.05 Y157.35 E293.20889
G0 F12000 X141.85 Y157.00
;TYPE:WALL-OUTER
G1 F3720 X142.71 Y156.62 E293.25572
G1 X143.63 Y156.43 E293.30275
G1 X144.57 Y156.43 E293.34950
G1 X145.49 Y156.62 E293.39652
G1 X146.35 Y157.00 E293.44331
G1 X147.11 Y157.56 E293.49031
G1 X147.74 Y158.26 E293.53737
G1 X148.21 Y159.07 E293.58413
G1 X148.50 Y159.96 E293.63102
G1 X148.60 Y160.90 E293.67798
G1 X148.50 Y161.84 E293.72503
G1 X148.21 Y162.73 E293.77181
G1 X147.74 Y163.54 E293.81868
G1 X147.11 Y164.24 E293.86570
G1 X146.35 Y164.80 E293.91270
G1 X145.49 Y165.18 E293.95949
G1 X144.57 Y165.37 E294.00653
G1 X143.63 Y165.37 E294.05323
G1 X142.71 Y165.18 E294.10036
G1 X141.85 Y164.80 E294.14715
G1 X141.09 Y164.24 E294.19415
G1 X140.46 Y163.54 E294.24114
G1 X139.99 Y162.73 E294.28801
G1 X139.70 Y161.84 E294.33479
G1 X139.60 Y160.90 E294.38185
G1 X139.70 Y159.96 E294.42876
G1 X139.99 Y159.07 E294.47570
G1 X140.46 Y158.26 E294.52246
G1 X141.09 Y157.56 E294.56948
G1 X141.85 Y157.00 E294.61648
G0 F12000 X142.00 Y157.56
;TYPE:FILL
G1 F3720 X147.44 Y162.99 E294.99981
G0 F12000 X147.21 Y163.33
G1 F3720 X141.68 Y157.80 E295.39005
G0 F12000 X141.37 Y158.05
G1 F3720 X146.94 Y163.62 E295.78315
G0 F12000 X146.65 Y163.91
G1 F3720 X141.10 Y158.35 E296.17491
G0 F12000 X140.85 Y158.66
G1 F3720 X146.32 Y164.14 E296.56148
G0 F12000 X145.98 Y164.37
G1 F3720 X140.64 Y159.02 E296.93843
G0 F12000 X140.45 Y159.40
G1 F3720 X145.59 Y164.54 E297.30112
G0 F12000 X145.17 Y164.69
G1 F3720 X140.31 Y159.83 E297.64423
G0 F12000 X140.21 Y160.29
G1 F3720 X144.71 Y164.79 E297.96180
G0 F12000 X144.19 Y164.83
G1 F3720 X140.15 Y160.80 E298.24624
G0 F12000 X140.20 Y161.41
G1 F3720 X143.60 Y164.81 E298.48627
G0 F12000 X142.88 Y164.66
G1 F3720 X140.37 Y162.15 E298.66358
G0 F12000 X141.09 Y163.43
G1 F3720 X141.60 Y163.95 E298.69998
G0 F12000 X147.64 Y162.63
G1 F3720 X142.37 Y157.36 E299.07192
G0 F12000 X142.76 Y157.19
G1 F3720 X147.81 Y162.23 E299.42773
G0 F12000 X147.94 Y161.80
G1 F3720 X143.21 Y157.07 E299.76188
G0 F12000 X143.67 Y156.97
G1 F3720 X148.01 Y161.31 E300.06802
G0 F12000 X148.04 Y160.77
G1 F3720 X144.24 Y156.97 E300.33655
G0 F12000 X144.88 Y157.04
G1 F3720 X147.98 Y160.14 E300.55489
G0 F12000 X147.72 Y159.32
G1 F3720 X145.72 Y157.31 E300.69667
G1 F2400 E299.49667
G0 F12000 X144.53 Y148.17
;TYPE:WALL-INNER
G1 F2400 E300.69667
G1 F3720 X143.67 Y148.17 E300.73937
G1 X142.94 Y148.02 E300.77680
G1 X142.84 Y148.00 E300.78201
G1 X142.05 Y147.65 E300.82480
G1 X141.45 Y147.21 E300.86222
G1 X141.36 Y147.15 E300.86751
G1 X140.86 Y146.59 E300.90492
G1 X140.78 Y146.51 E300.91040
G1 X140.36 Y145.77 E300.95300
G1 X140.13 Y145.05 E300.99038
G1 X140.09 Y144.95 E300.99574
G1 X140.00 Y144.10 E301.03843
G1 X140.09 Y143.25 E301.08117
G1 X140.36 Y142.43 E301.12402
G1 X140.79 Y141.69 E301.16674
G1 X141.36 Y141.06 E301.20934
G1 X142.05 Y140.55 E301.25209
G1 X142.83 Y140.21 E301.29477
G1 X143.67 Y140.03 E301.33767
G1 X144.53 Y140.03 E301.38028
G1 X145.37 Y140.21 E301.42308
G1 X146.15 Y140.55 E301.46576
G1 X146.84 Y141.06 E301.50836
G1 X147.41 Y141.69 E301.55128
G1 X147.84 Y142.43 E301.59384
G1 X148.11 Y143.25 E301.63669
G1 X148.20 Y144.10 E301.67943
G1 X148.12 Y144.84 E301.71670
G1 X148.11 Y144.95 E301.72223
G1 X147.88 Y145.66 E301.75944
G1 X147.84 Y145.77 E301.76479
G1 X147.41 Y146.51 E301.80765
G1 X146.91 Y147.06 E301.84491
G1 X146.84 Y147.15 E301.85043
G1 X146.24 Y147.59 E301.88768
G1 X146.15 Y147.65 E301.89311
G1 X145.37 Y148.00 E301.93574
G1 X144.63 Y148.15 E301.97322
G1 X144.53 Y148.17 E301.97853
G0 F12000 X144.57 Y148.57
;TYPE:WALL-OUTER
G1 F3720 X143.63 Y148.57 E302.02543
G1 X142.85 Y148.41 E302.06505
G1 X142.71 Y148.38 E302.07229
G1 X141.85 Y148.00 E302.11930
G1 X141.09 Y147.44 E302.16630
G1 X140.46 Y146.74 E302.21333
G1 X139.99 Y145.93 E302.26016
G1 X139.70 Y145.04 E302.30694
G1 X139.60 Y144.10 E302.35395
G1 X139.70 Y143.16 E302.40090
G1 X139.99 Y142.27 E302.44784
G1 X140.46 Y141.46 E302.49465
G1 X141.09 Y140.76 E302.54163
G1 X141.85 Y140.20 E302.58863
G1 X142.71 Y139.82 E302.63543
G1 X143.63 Y139.63 E302.68256
G1 X144.57 Y139.63 E302.72926
G1 X145.49 Y139.82 E302.77629
G1 X146.35 Y140.20 E302.82308
G1 X147.11 Y140.76 E302.87009
G1 X147.74 Y141.46 E302.91710
G1 X148.21 Y142.27 E302.96391
G1 X148.50 Y143.16 E303.01080
G1 X148.60 Y144.10 E303.05780
G1 X148.50 Y145.04 E303.10481
G1 X148.21 Y145.93 E303.15159
G1 X147.74 Y146.74 E303.19842
G1 X147.11 Y147.44 E303.24547
G1 X146.35 Y148.00 E303.29247
G1 X145.49 Y148.38 E303.33927
G1 X144.72 Y148.54 E303.37879
G1 X144.57 Y148.57 E303.38615
G0 F12000 X144.36 Y148.03
;TYPE:FILL
G1 F3720 X140.17 Y143.85 E303.68142
G0 F12000 X140.22 Y143.34
G1 F3720 X144.85 Y147.96 E304.00777
G0 F12000 X145.32 Y147.86
G1 F3720 X140.35 Y142.90 E304.35791
G0 F12000 X140.50 Y142.47
G1 F3720 X145.71 Y147.69 E304.72582
G0 F12000 X146.10 Y147.51
G1 F3720 X140.70 Y142.12 E305.10639
G0 F12000 X140.91 Y141.76
G1 F3720 X146.42 Y147.27 E305.49529
G0 F12000 X146.75 Y147.03
G1 F3720 X141.18 Y141.46 E305.88836
G0 F12000 X141.45 Y141.16
G1 F3720 X147.02 Y146.74 E306.28142
G0 F12000 X147.29 Y146.44
G1 F3720 X141.78 Y140.93 E306.67036
G0 F12000 X142.10 Y140.69
G1 F3720 X147.50 Y146.08 E307.05104
G0 F12000 X147.71 Y145.73
G1 F3720 X142.49 Y140.51 E307.41906
G0 F12000 X142.88 Y140.34
G1 F3720 X147.85 Y145.30 E307.76922
G0 F12000 X147.97 Y144.86
G1 F3720 X143.35 Y140.24 E308.09554
G0 F12000 X143.84 Y140.17
G1 F3720 X148.03 Y144.35 E308.39089
G0 F12000 X148.02 Y143.78
G1 F3720 X144.41 Y140.17 E308.64584
G0 F12000 X145.10 Y140.29
G1 F3720 X147.91 Y143.10 E308.84431
G0 F12000 X147.51 Y142.13
G1 F3720 X146.03 Y140.65 E308.94887
G0 F12000 X140.18 Y144.42
G1 F3720 X143.79 Y148.03 E309.20376
G0 F12000 X143.10 Y147.91
G1 F3720 X140.29 Y145.09 E309.40223
G0 F12000 X140.69 Y146.06
G1 F3720 X142.18 Y147.55 E309.50693
G1 F2400 E308.30693
G0 F12000 X156.89 Y144.95
;TYPE:WALL-INNER
G1 F2400 E309.50693
G1 F3720 X156.81 Y144.21 E309.54430
G1 X156.80 Y144.10 E309.54967
G1 X156.89 Y143.25 E309.59235
G1 X157.16 Y142.43 E309.63520
G1 X157.59 Y141.69 E309.67776
G1 X158.16 Y141.06 E309.72068
G1 X158.85 Y140.55 E309.76328
G1 X159.63 Y140.21 E309.80596
G1 X160.47 Y140.03 E309.84876
G1 X161.33 Y140.03 E309.89137
G1 X162.17 Y140.21 E309.93427
G1 X162.95 Y140.55 E309.97695
G1 X163.64 Y141.06 E310.01970
G1 X164.21 Y141.69 E310.06231
G1 X164.64 Y142.43 E310.10502
G1 X164.91 Y143.25 E310.14787
G1 X165.00 Y144.10 E310.19061
G1 X164.91 Y144.95 E310.23340
G1 X164.68 Y145.66 E310.27062
G1 X164.64 Y145.77 E310.27597
G1 X164.21 Y146.51 E310.31867
G1 X163.71 Y147.06 E310.35605
G1 X163.64 Y147.15 E310.36156
G1 X163.04 Y147.59 E310.39881
G1 X162.95 Y147.65 E310.40424
G1 X162.17 Y148.00 E310.44688
G1 X161.43 Y148.15 E310.48445
G1 X161.33 Y148.17 E310.48977
G1 X160.47 Y148.17 E310.53242
G1 X159.74 Y148.02 E310.56980
G1 X159.64 Y148.00 E310.57501
G1 X158.85 Y147.65 E310.61780
G1 X158.25 Y147.21 E310.65522
G1 X158.16 Y147.14 E310.66069
G1 X157.66 Y146.59 E310.69796
G1 X157.58 Y146.51 E310.70344
G1 X157.16 Y145.77 E310.74604
G1 X156.93 Y145.05 E310.78342
G1 X156.89 Y144.95 E310.78878
G0 F12000 X156.50 Y145.04
;TYPE:WALL-OUTER
G1 F3720 X156.40 Y144.10 E310.83579
G1 X156.50 Y143.16 E310.88279
G1 X156.79 Y142.27 E310.92968
G1 X157.26 Y141.46 E310.97649
G1 X157.89 Y140.76 E311.02350
G1 X158.65 Y140.20 E311.07050
G1 X159.51 Y139.82 E311.11730
G1 X160.43 Y139.63 E311.16433
G1 X161.37 Y139.63 E311.21103
G1 X162.29 Y139.82 E311.25816
G1 X163.15 Y140.20 E311.30496
G1 X163.91 Y140.76 E311.35196
G1 X164.54 Y141.46 E311.39894
G1 X165.01 Y142.27 E311.44575
G1 X165.30 Y143.16 E311.49269
G1 X165.40 Y144.10 E311.53964
G1 X165.30 Y145.04 E311.58665
G1 X165.01 Y145.93 E311.63343
G1 X164.54 Y146.74 E311.68026
G1 X163.91 Y147.44 E311.72728
G1 X163.15 Y148.00 E311.77429
G1 X162.29 Y148.38 E311.82108
G1 X161.51 Y148.54 E311.86070
G1 X161.37 Y148.57 E311.86806
G1 X160.43 Y148.57 E311.91495
G1 X159.66 Y148.41 E311.95447
G1 X159.51 Y148.38 E311.96171
G1 X158.65 Y148.00 E312.00873
G1 X157.89 Y147.44 E312.05573
G1 X157.26 Y146.74 E312.10278
G1 X156.79 Y145.93 E312.14962
G1 X156.50 Y145.04 E312.19640
G0 F12000 X157.02 Y144.86
;TYPE:FILL
G1 F3720 X160.12 Y147.96 E312.41477
G0 F12000 X160.76 Y148.03
G1 F3720 X156.96 Y144.23 E312.68323
G0 F12000 X156.99 Y143.69
G1 F3720 X161.32 Y148.03 E312.98937
G0 F12000 X161.79 Y147.93
G1 F3720 X157.05 Y143.19 E313.32348
G0 F12000 X157.19 Y142.77
G1 F3720 X162.24 Y147.81 E313.67922
G0 F12000 X162.63 Y147.64
G1 F3720 X157.36 Y142.37 E314.05112
G0 F12000 X157.56 Y142.01
G1 F3720 X163.00 Y147.44 E314.43441
G0 F12000 X163.32 Y147.20
G1 F3720 X157.79 Y141.67 E314.82466
G0 F12000 X158.06 Y141.37
G1 F3720 X163.63 Y146.94 E315.21772
G0 F12000 X163.90 Y146.65
G1 F3720 X158.35 Y141.09 E315.60948
G0 F12000 X158.67 Y140.85
G1 F3720 X164.15 Y146.33 E315.99595
G0 F12000 X164.36 Y145.97
G1 F3720 X159.02 Y140.63 E316.37289
G0 F12000 X159.41 Y140.46
G1 F3720 X164.55 Y145.60 E316.73568
G0 F12000 X164.69 Y145.17
G1 F3720 X159.82 Y140.31 E317.07887
G0 F12000 X160.29 Y140.21
G1 F3720 X164.79 Y144.71 E317.39636
G0 F12000 X164.84 Y144.20
G1 F3720 X160.81 Y140.17 E317.68077
G0 F12000 X161.40 Y140.19
G1 F3720 X164.80 Y143.59 E317.92080
G0 F12000 X164.63 Y142.85
G1 F3720 X162.12 Y140.34 E318.09811
G0 F12000 X163.40 Y141.05
G1 F3720 X163.91 Y141.57 E318.13444
G0 F12000 X159.28 Y147.69
G1 F3720 X157.27 Y145.68 E318.27633
G1 F2400 E317.07633
G0 F12000 X159.63 Y157.00
;TYPE:WALL-INNER
G1 F2400 E318.27633
G1 F3720 X160.47 Y156.83 E318.31912
G1 X161.33 Y156.83 E318.36178
G1 X162.17 Y157.00 E318.40457
G1 X162.95 Y157.35 E318.44730
G1 X163.64 Y157.85 E318.49001
G1 X164.21 Y158.49 E318.53268
G1 X164.64 Y159.23 E318.57540
G1 X164.91 Y160.05 E318.61820
G1 X165.00 Y160.90 E318.66089
G1 X164.91 Y161.75 E318.70373
G1 X164.68 Y162.46 E318.74095
G1 X164.64 Y162.56 E318.74630
G1 X164.21 Y163.31 E318.78920
G1 X163.71 Y163.86 E318.82639
G1 X163.64 Y163.94 E318.83190
G1 X163.04 Y164.38 E318.86916
G1 X162.95 Y164.45 E318.87459
G1 X162.17 Y164.79 E318.91722
G1 X161.43 Y164.95 E318.95481
G1 X161.33 Y164.97 E318.96012
G1 X160.47 Y164.97 E319.00273
G1 X159.74 Y164.82 E319.04011
G1 X159.64 Y164.80 E319.04537
G1 X158.85 Y164.45 E319.08816
G1 X158.25 Y164.01 E319.12558
G1 X158.16 Y163.94 E319.13094
G1 X157.66 Y163.39 E319.16832
G1 X157.59 Y163.31 E319.17369
G1 X157.16 Y162.57 E319.21636
G1 X156.93 Y161.85 E319.25378
G1 X156.89 Y161.75 E319.25915
G1 X156.81 Y161.00 E319.29656
G1 X156.80 Y160.90 E319.30193
G1 X156.89 Y160.05 E319.34456
G1 X157.16 Y159.23 E319.38737
G1 X157.59 Y158.49 E319.43008
G1 X158.16 Y157.85 E319.47276
G1 X158.85 Y157.35 E319.51551
G1 X159.63 Y157.00 E319.55819
G0 F12000 X159.51 Y156.62
;TYPE:WALL-OUTER
G1 F3720 X160.43 Y156.43 E319.60522
G1 X161.37 Y156.43 E319.65197
G1 X162.29 Y156.62 E319.69899
G1 X163.15 Y157.00 E319.74583
G1 X163.91 Y157.56 E319.79283
G1 X164.54 Y158.26 E319.83985
G1 X165.01 Y159.07 E319.88662
G1 X165.30 Y159.96 E319.93355
G1 X165.40 Y160.90 E319.98046
G1 X165.30 Y161.84 E320.02752
G1 X165.01 Y162.73 E320.07430
G1 X164.54 Y163.54 E320.12117
G1 X163.91 Y164.24 E320.16816
G1 X163.15 Y164.80 E320.21516
G1 X162.29 Y165.18 E320.26195
G1 X161.37 Y165.37 E320.30909
G1 X160.43 Y165.37 E320.35578
G1 X159.51 Y165.18 E320.40282
G1 X158.65 Y164.80 E320.44961
G1 X157.89 Y164.24 E320.49661
G1 X157.26 Y163.54 E320.54363
G1 X156.79 Y162.73 E320.59051
G1 X156.50 Y161.84 E320.63729
G1 X156.40 Y160.90 E320.68434
G1 X156.50 Y159.96 E320.73129
G1 X156.79 Y159.07 E320.77818
G1 X157.26 Y158.26 E320.82494
G1 X157.89 Y157.56 E320.87200
G1 X158.65 Y157.00 E320.91900
G1 X159.51 Y156.62 E320.96579
G0 F12000 X159.68 Y157.14
;TYPE:FILL
G1 F3720 X164.65 Y162.10 E321.31599
G0 F12000 X164.50 Y162.53
G1 F3720 X159.29 Y157.31 E321.68397
G0 F12000 X158.90 Y157.49
G1 F3720 X164.30 Y162.88 E322.06462
G0 F12000 X164.09 Y163.24
G1 F3720 X158.57 Y157.72 E322.45363
G0 F12000 X158.25 Y157.96
G1 F3720 X163.82 Y163.54 E322.84673
G0 F12000 X163.55 Y163.83
G1 F3720 X157.98 Y158.26 E323.23979
G0 F12000 X157.71 Y158.56
G1 F3720 X163.22 Y164.07 E323.62869
G0 F12000 X162.90 Y164.31
G1 F3720 X157.50 Y158.91 E324.00927
G0 F12000 X157.29 Y159.27
G1 F3720 X162.51 Y164.49 E324.37714
G0 F12000 X162.12 Y164.66
G1 F3720 X157.15 Y159.70 E324.72735
G0 F12000 X157.02 Y160.13
G1 F3720 X161.65 Y164.76 E325.05374
G0 F12000 X161.16 Y164.83
G1 F3720 X156.97 Y160.65 E325.34915
G0 F12000 X156.98 Y161.22
G1 F3720 X160.59 Y164.83 E325.60410
G0 F12000 X159.90 Y164.71
G1 F3720 X157.09 Y161.89 E325.80261
G0 F12000 X157.49 Y162.86
G1 F3720 X158.97 Y164.35 E325.90717
G0 F12000 X164.77 Y161.66
G1 F3720 X160.15 Y157.04 E326.23349
G0 F12000 X160.64 Y156.97
G1 F3720 X164.83 Y161.15 E326.52877
G0 F12000 X164.82 Y160.58
G1 F3720 X161.21 Y156.97 E326.78365
G0 F12000 X161.90 Y157.09
G1 F3720 X164.71 Y159.90 E326.98205
G0 F12000 X164.31 Y158.93
G1 F3720 X162.82 Y157.45 E327.08661
G1 F2400 E325.88661
G0 F12000 X159.15 Y153.28
;TYPE:SUPPORT
G1 F2400 E327.08661
G1 F3720 X157.04 Y154.22 E327.20175
G1 X155.74 Y155.16 E327.28214
G1 X154.66 Y156.36 E327.36254
G1 X153.85 Y157.76 E327.44295
G1 X153.37 Y159.23 E327.52025
G1 X151.63 Y159.23 E327.60736
G1 X151.15 Y157.76 E327.68465
G1 X150.34 Y156.36 E327.76506
G1 X149.26 Y155.16 E327.84546
G1 X147.96 Y154.22 E327.92585
G1 X145.85 Y153.28 E328.04099
G1 X145.85 Y151.72 E328.11887
G1 X146.93 Y151.24 E328.17748
G1 X147.96 Y150.78 E328.23387
G1 X148.35 Y150.50 E328.25820
G1 X149.26 Y149.84 E328.31419
G1 X149.59 Y149.47 E328.33856
G1 X150.34 Y148.64 E328.39473
G1 X151.15 Y147.25 E328.47487
G1 X151.30 Y146.78 E328.49966
G1 X151.63 Y145.77 E328.55243
G1 X153.37 Y145.77 E328.63954
G1 X153.85 Y147.24 E328.71671
G1 X154.09 Y147.66 E328.74105
G1 X154.66 Y148.64 E328.79759
G1 X154.98 Y148.99 E328.82115
G1 X155.74 Y149.84 E328.87767
G1 X157.04 Y150.78 E328.95807
G1 X159.15 Y151.72 E329.07312
G1 X159.15 Y153.28 E329.15094
G0 F12000 X156.97 Y154.15
G0 X157.06 Y154.28
G1 F3720 X147.94 Y154.28 E329.60579
G0 F12000 X148.03 Y154.15
G0 X154.14 Y157.06
G0 X154.28 Y157.14
G1 F3720 X154.28 Y147.86 E330.06873
G1 F2400 E328.86873
G0 F12000 X153.37 Y142.43
G1 F2400 E330.06873
G1 F3720 X151.63 Y142.43 E330.15583
G1 X151.15 Y140.96 E330.23313
G1 X150.34 Y139.56 E330.31358
G1 X149.26 Y138.37 E330.39388
G1 X147.96 Y137.42 E330.47449
G1 X146.49 Y136.76 E330.55485
G1 X144.91 Y136.43 E330.63535
G1 X143.30 Y136.43 E330.71572
G1 X141.71 Y136.76 E330.79646
G1 X140.24 Y137.42 E330.87679
G1 X138.94 Y138.37 E330.95730
G1 X137.86 Y139.57 E331.03784
G1 X137.05 Y140.96 E331.11798
G1 X136.55 Y142.50 E331.19906
G1 X136.38 Y144.10 E331.27927
G1 X136.44 Y144.58 E331.30336
G1 X136.55 Y145.71 E331.35984
G1 X136.70 Y146.16 E331.38360
G1 X137.05 Y147.24 E331.44029
G1 X137.29 Y147.66 E331.46468
G1 X137.86 Y148.64 E331.52103
G1 X138.18 Y148.99 E331.54463
G1 X138.94 Y149.84 E331.60116
G1 X139.33 Y150.12 E331.62538
G1 X140.24 Y150.78 E331.68181
G1 X142.35 Y151.72 E331.79681
G1 X142.35 Y153.28 E331.87464
G1 X140.24 Y154.22 E331.98968
G1 X138.93 Y155.17 E332.07029
G1 X137.86 Y156.36 E332.15034
G1 X137.05 Y157.76 E332.23086
G1 X136.55 Y159.30 E332.31183
G1 X136.38 Y160.90 E332.39214
G1 X136.55 Y162.50 E332.47256
G1 X136.70 Y162.96 E332.49638
G1 X137.05 Y164.04 E332.55312
G1 X137.86 Y165.44 E332.63390
G1 X138.44 Y166.09 E332.67714
G1 X138.94 Y166.64 E332.71412
G1 X140.24 Y167.58 E332.79449
G1 X141.71 Y168.24 E332.87464
G1 X142.18 Y168.34 E332.89883
G1 X142.18 Y168.34 E332.89888
G1 X143.30 Y168.57 E332.95566
G1 X144.91 Y168.57 E333.03633
G1 X145.39 Y168.47 E333.06072
G1 X146.49 Y168.24 E333.11658
G1 X147.95 Y167.59 E333.19669
G1 X148.35 Y167.30 E333.22131
G1 X149.26 Y166.64 E333.27723
G1 X149.59 Y166.28 E333.30153
G1 X150.34 Y165.44 E333.35770
G1 X151.15 Y164.04 E333.43814
G1 X151.30 Y163.57 E333.46277
G1 X151.63 Y162.57 E333.51550
G1 X153.37 Y162.57 E333.60266
G1 X153.85 Y164.04 E333.67990
G1 X154.66 Y165.44 E333.76049
G1 X155.74 Y166.64 E333.84095
G1 X157.04 Y167.58 E333.92128
G1 X158.51 Y168.24 E334.00148
G1 X158.98 Y168.34 E334.02557
G1 X158.98 Y168.34 E334.02562
G1 X160.09 Y168.57 E334.08230
G1 X161.71 Y168.57 E334.16307
G1 X162.18 Y168.47 E334.18680
G1 X163.29 Y168.24 E334.24332
G1 X164.75 Y167.59 E334.32347
G1 X165.15 Y167.30 E334.34809
G1 X166.06 Y166.64 E334.40402
G1 X166.39 Y166.27 E334.42839
G1 X167.14 Y165.43 E334.48477
G1 X167.95 Y164.05 E334.56473
G1 X168.10 Y163.57 E334.58951
G1 X168.45 Y162.50 E334.64571
G1 X168.62 Y160.90 E334.72619
G1 X168.45 Y159.30 E334.80631
G1 X167.95 Y157.76 E334.88728
G1 X167.14 Y156.36 E334.96780
G1 X166.07 Y155.17 E335.04785
G1 X164.76 Y154.22 E335.12845
G1 X162.65 Y153.28 E335.24359
G1 X162.65 Y151.72 E335.32142
G1 X164.76 Y150.78 E335.43644
G1 X165.15 Y150.50 E335.46052
G1 X165.15 Y150.50 E335.46057
G1 X166.06 Y149.83 E335.51695
G1 X166.39 Y149.47 E335.54129
G1 X167.14 Y148.64 E335.59728
G1 X167.95 Y147.25 E335.67749
G1 X168.10 Y146.78 E335.70221
G1 X168.45 Y145.70 E335.75847
G1 X168.62 Y144.10 E335.83890
G1 X168.45 Y142.50 E335.91907
G1 X167.95 Y140.96 E336.00015
G1 X167.14 Y139.57 E336.08029
G1 X166.06 Y138.37 E336.16083
G1 X164.76 Y137.42 E336.24133
G1 X163.29 Y136.76 E336.32167
G1 X161.70 Y136.43 E336.40240
G1 X160.09 Y136.43 E336.48278
G1 X158.51 Y136.76 E336.56328
G1 X157.04 Y137.42 E336.64364
G1 X155.74 Y138.37 E336.72425
G1 X154.66 Y139.56 E336.80455
G1 X153.85 Y140.96 E336.88500
G1 X153.37 Y142.43 E336.96229
G0 F12000 X153.36 Y142.33
G0 X153.67 Y140.88
G0 X155.60 Y138.22
G0 X158.45 Y136.57
G0 X161.72 Y136.23
G0 X171.17 Y133.97
G1 F3720 X171.17 Y171.17 E338.81821
G1 X133.87 Y171.17 E340.67911
G1 X133.87 Y133.97 E342.53503
G1 X171.17 Y133.97 E344.39593
G0 F12000 X165.71 Y134.07
G0 X165.71 Y133.91
G1 F3720 X165.71 Y138.18 E344.60891
G0 F12000 X165.80 Y138.05
G0 X167.30 Y139.45
G0 X168.64 Y142.46
G0 X168.58 Y142.83
G0 X168.42 Y142.85
G1 F3720 X171.23 Y142.85 E344.74896
G0 F12000 X171.07 Y142.85
G0 X166.54 Y149.61
G0 X165.80 Y150.15
G0 X165.71 Y150.02
G1 F3720 X165.71 Y154.98 E344.99641
G0 F12000 X164.74 Y154.28
G1 F3720 X171.23 Y154.28 E345.32020
G0 F12000 X171.07 Y154.28
G0 X171.07 Y165.71
G0 X171.23 Y165.71
G1 F3720 X166.82 Y165.71 E345.54036
G0 F12000 X166.94 Y165.81
G0 X165.80 Y166.95
G0 X165.71 Y166.82
G1 F3720 X165.71 Y171.23 E345.76053
G0 F12000 X165.71 Y171.07
G0 X154.28 Y171.07
G0 X154.28 Y171.23
G1 F3720 X154.28 Y164.66 E346.08831
G0 F12000 X154.98 Y165.71
G1 F3720 X150.02 Y165.71 E346.33586
G0 F12000 X150.14 Y165.81
G0 X148.47 Y167.46
G0 X145.43 Y168.67
G0 X142.82 Y168.57
G0 X142.85 Y168.42
G1 F3720 X142.85 Y171.23 E346.47620
G0 F12000 X142.85 Y171.07
G0 X138.06 Y165.81
G0 X138.18 Y165.71
G1 F3720 X133.81 Y165.71 E346.69422
G0 F12000 X133.97 Y165.71
G0 X133.97 Y154.28
G0 X133.81 Y154.28
G1 F3720 X140.26 Y154.28 E347.01587
G0 F12000 X140.17 Y154.15
G0 X136.36 Y145.75
G0 X136.18 Y144.10
G0 X136.42 Y142.83
G0 X136.57 Y142.85
G1 F3720 X133.81 Y142.85 E347.15376
G0 F12000 X133.97 Y142.85
G0 X140.14 Y137.24
G0 X141.65 Y136.57
G0 X142.82 Y136.43
G0 X142.85 Y136.58
G1 F3720 X142.85 Y133.91 E347.28707
G0 F12000 X142.85 Y134.07
G0 X154.28 Y134.07
G0 X154.28 Y133.91
G1 F3720 X154.28 Y140.34 E347.60781
;LAYER:3
G1 F2400 E346.40781
G0 F12000 X157.16 Y142.43 Z1.20
;TYPE:WALL-INNER
G1 F2400 E347.60781
G1 F4260 X157.59 Y141.69 E347.65038
G1 X158.16 Y141.06 E347.69330
G1 X158.85 Y140.55 E347.73590
G1 X159.63 Y140.21 E347.77858
G1 X160.47 Y140.03 E347.82138
G1 X161.33 Y140.03 E347.86399
G1 X162.17 Y140.21 E347.90688
G1 X162.95 Y140.55 E347.94957
G1 X163.64 Y141.06 E347.99232
G1 X164.21 Y141.69 E348.03492
G1 X164.64 Y142.43 E348.07764
G1 X164.91 Y143.25 E348.12049
G1 X165.00 Y144.10 E348.16323
G1 X164.91 Y144.95 E348.20602
G1 X164.70 Y145.60 E348.23988
G1 X164.64 Y145.77 E348.24859
G1 X164.30 Y146.36 E348.28263
G1 X164.21 Y146.51 E348.29153
G1 X163.64 Y147.15 E348.33407
G1 X163.09 Y147.55 E348.36815
G1 X162.94 Y147.65 E348.37701
G1 X162.32 Y147.93 E348.41085
G1 X162.16 Y148.00 E348.41958
G1 X161.50 Y148.14 E348.45360
G1 X161.32 Y148.17 E348.46242
G1 X160.47 Y148.17 E348.50503
G1 X159.81 Y148.03 E348.53894
G1 X159.63 Y148.00 E348.54788
G1 X159.01 Y147.72 E348.58165
G1 X158.85 Y147.65 E348.59051
G1 X158.30 Y147.25 E348.62440
G1 X158.16 Y147.15 E348.63316
G1 X157.58 Y146.51 E348.67604
G1 X157.24 Y145.92 E348.70995
G1 X157.16 Y145.77 E348.71869
G1 X156.95 Y145.12 E348.75266
G1 X156.89 Y144.95 E348.76138
G1 X156.82 Y144.27 E348.79539
G1 X156.80 Y144.10 E348.80412
G1 X156.89 Y143.25 E348.84680
G1 X157.16 Y142.43 E348.88965
G0 F12000 X156.79 Y142.27
;TYPE:WALL-OUTER
G1 F4260 X157.26 Y141.46 E348.93646
G1 X157.89 Y140.76 E348.98348
G1 X158.65 Y140.20 E349.03048
G1 X159.51 Y139.82 E349.07727
G1 X160.43 Y139.63 E349.12431
G1 X161.37 Y139.63 E349.17100
G1 X162.29 Y139.82 E349.21814
G1 X163.15 Y140.20 E349.26493
G1 X163.91 Y140.76 E349.31193
G1 X164.54 Y141.46 E349.35891
G1 X165.01 Y142.27 E349.40572
G1 X165.30 Y143.16 E349.45266
G1 X165.40 Y144.10 E349.49962
G1 X165.30 Y145.04 E349.54662
G1 X165.01 Y145.93 E349.59340
G1 X164.54 Y146.74 E349.64024
G1 X163.91 Y147.44 E349.68726
G1 X163.15 Y148.00 E349.73426
G1 X162.29 Y148.38 E349.78110
G1 X161.37 Y148.57 E349.82812
G1 X160.43 Y148.57 E349.87492
G1 X159.51 Y148.38 E349.92185
G1 X158.65 Y148.00 E349.96869
G1 X157.89 Y147.44 E350.01569
G1 X157.26 Y146.74 E350.06274
G1 X156.79 Y145.93 E350.10957
G1 X156.50 Y145.04 E350.15635
G1 X156.40 Y144.10 E350.20336
G1 X156.50 Y143.16 E350.25036
G1 X156.79 Y142.27 E350.29725
G0 F12000 X157.06 Y142.39
G0 X157.67 Y146.38
;TYPE:FILL
G1 F4260 X163.17 Y140.89 E350.68502
G0 F12000 X161.40 Y140.19
G1 F4260 X164.80 Y143.59 E350.92505
G1 F2400 E349.72505
G0 F12000 X148.20 Y144.10
;TYPE:WALL-INNER
G1 F2400 E350.92505
G1 F4260 X148.13 Y144.78 E350.95901
G1 X148.11 Y144.95 E350.96784
G1 X147.90 Y145.60 E351.00170
G1 X147.84 Y145.77 E351.01041
G1 X147.50 Y146.36 E351.04446
G1 X147.41 Y146.51 E351.05318
G1 X146.84 Y147.15 E351.09606
G1 X146.29 Y147.55 E351.12999
G1 X146.15 Y147.65 E351.13885
G1 X145.53 Y147.93 E351.17269
G1 X145.37 Y148.00 E351.18143
G1 X144.70 Y148.14 E351.21539
G1 X144.53 Y148.17 E351.22417
G1 X143.67 Y148.17 E351.26682
G1 X143.01 Y148.03 E351.30074
G1 X142.83 Y148.00 E351.30977
G1 X142.21 Y147.72 E351.34350
G1 X142.05 Y147.65 E351.35236
G1 X141.50 Y147.25 E351.38625
G1 X141.36 Y147.14 E351.39514
G1 X140.79 Y146.51 E351.43767
G1 X140.44 Y145.92 E351.47177
G1 X140.36 Y145.77 E351.48050
G1 X140.15 Y145.12 E351.51447
G1 X140.09 Y144.95 E351.52320
G1 X140.00 Y144.10 E351.56588
G1 X140.09 Y143.25 E351.60862
G1 X140.36 Y142.43 E351.65147
G1 X140.79 Y141.69 E351.69419
G1 X141.36 Y141.06 E351.73680
G1 X142.05 Y140.55 E351.77955
G1 X142.83 Y140.21 E351.82223
G1 X143.67 Y140.03 E351.86513
G1 X144.53 Y140.03 E351.90773
G1 X145.37 Y140.21 E351.95053
G1 X146.15 Y140.55 E351.99321
G1 X146.84 Y141.06 E352.03582
G1 X147.41 Y141.69 E352.07874
G1 X147.84 Y142.43 E352.12130
G1 X148.11 Y143.25 E352.16415
G1 X148.20 Y144.10 E352.20689
G0 F12000 X148.60 Y144.10
;TYPE:WALL-OUTER
G1 F4260 X148.50 Y145.04 E352.25389
G1 X148.21 Y145.93 E352.30067
G1 X147.74 Y146.74 E352.34750
G1 X147.11 Y147.44 E352.39456
G1 X146.35 Y148.00 E352.44156
G1 X145.49 Y148.38 E352.48839
G1 X144.57 Y148.57 E352.53532
G1 X143.63 Y148.57 E352.58212
G1 X142.71 Y148.38 E352.62915
G1 X141.85 Y148.00 E352.67598
G1 X141.09 Y147.44 E352.72298
G1 X140.46 Y146.74 E352.77001
G1 X139.99 Y145.93 E352.81684
G1 X139.70 Y145.04 E352.86362
G1 X139.60 Y144.10 E352.91063
G1 X139.70 Y143.16 E352.95758
G1 X139.99 Y142.27 E353.00452
G1 X140.46 Y141.46 E353.05133
G1 X141.09 Y140.76 E353.09831
G1 X141.85 Y140.20 E353.14531
G1 X142.71 Y139.82 E353.19210
G1 X143.63 Y139.63 E353.23924
G1 X144.57 Y139.63 E353.28594
G1 X145.49 Y139.82 E353.33297
G1 X146.35 Y140.20 E353.37976
G1 X147.11 Y140.76 E353.42677
G1 X147.74 Y141.46 E353.47378
G1 X148.21 Y142.27 E353.52059
G1 X148.50 Y143.16 E353.56748
G1 X148.60 Y144.10 E353.61448
G0 F12000 X148.30 Y144.10
G0 X147.61 Y142.31
;TYPE:FILL
G1 F4260 X142.31 Y147.61 E353.98857
G1 F2400 E352.78857
G0 F12000 X143.67 Y156.83
;TYPE:WALL-INNER
G1 F2400 E353.98857
G1 F4260 X144.53 Y156.83 E354.03122
G1 X145.37 Y157.00 E354.07401
G1 X146.15 Y157.35 E354.11670
G1 X146.84 Y157.85 E354.15945
G1 X147.41 Y158.49 E354.20212
G1 X147.84 Y159.23 E354.24484
G1 X148.11 Y160.05 E354.28764
G1 X148.20 Y160.90 E354.33033
G1 X148.13 Y161.58 E354.36434
G1 X148.11 Y161.75 E354.37317
G1 X147.90 Y162.40 E354.40703
G1 X147.84 Y162.56 E354.41574
G1 X147.41 Y163.31 E354.45848
G1 X146.84 Y163.94 E354.50140
G1 X146.29 Y164.34 E354.53533
G1 X146.15 Y164.45 E354.54419
G1 X145.53 Y164.72 E354.57803
G1 X145.37 Y164.79 E354.58676
G1 X144.70 Y164.94 E354.62079
G1 X144.53 Y164.97 E354.62956
G1 X143.67 Y164.97 E354.67207
G1 X143.01 Y164.83 E354.70609
G1 X142.83 Y164.79 E354.71513
G1 X142.21 Y164.52 E354.74885
G1 X142.05 Y164.45 E354.75772
G1 X141.50 Y164.05 E354.79161
G1 X141.36 Y163.94 E354.80050
G1 X140.90 Y163.44 E354.83434
G1 X140.79 Y163.31 E354.84303
G1 X140.36 Y162.57 E354.88577
G1 X140.15 Y161.92 E354.91984
G1 X140.09 Y161.75 E354.92856
G1 X140.00 Y160.90 E354.97130
G1 X140.09 Y160.05 E355.01399
G1 X140.36 Y159.23 E355.05679
G1 X140.79 Y158.49 E355.09951
G1 X141.36 Y157.85 E355.14218
G1 X142.05 Y157.35 E355.18489
G1 X142.83 Y157.00 E355.22762
G1 X143.67 Y156.83 E355.27041
G0 F12000 X143.63 Y156.43
;TYPE:WALL-OUTER
G1 F4260 X144.57 Y156.43 E355.31716
G1 X145.49 Y156.62 E355.36419
G1 X146.35 Y157.00 E355.41098
G1 X147.11 Y157.56 E355.45798
G1 X147.74 Y158.26 E355.50503
G1 X148.21 Y159.07 E355.55180
G1 X148.50 Y159.96 E355.59869
G1 X148.60 Y160.90 E355.64564
G1 X148.50 Y161.84 E355.69269
G1 X148.21 Y162.73 E355.73947
G1 X147.74 Y163.54 E355.78635
G1 X147.11 Y164.24 E355.83336
G1 X146.35 Y164.80 E355.88037
G1 X145.49 Y165.18 E355.92716
G1 X144.57 Y165.37 E355.97419
G1 X143.63 Y165.37 E356.02089
G1 X142.71 Y165.18 E356.06803
G1 X141.85 Y164.80 E356.11482
G1 X141.09 Y164.24 E356.16182
G1 X140.46 Y163.54 E356.20880
G1 X139.99 Y162.73 E356.25568
G1 X139.70 Y161.84 E356.30246
G1 X139.60 Y160.90 E356.34951
G1 X139.70 Y159.96 E356.39642
G1 X139.99 Y159.07 E356.44336
G1 X140.46 Y158.26 E356.49012
G1 X141.09 Y157.56 E356.53715
G1 X141.85 Y157.00 E356.58415
G1 X142.71 Y156.62 E356.63098
G1 X143.63 Y156.43 E356.67801
G0 F12000 X143.66 Y156.73
G0 X146.37 Y157.69
;TYPE:FILL
G1 F4260 X140.87 Y163.18 E357.06578
G0 F12000 X140.20 Y161.41
G1 F4260 X143.60 Y164.81 E357.30581
G1 F2400 E356.10581
G0 F12000 X156.89 Y161.75
;TYPE:WALL-INNER
G1 F2400 E357.30581
G1 F4260 X156.82 Y161.07 E357.33987
G1 X156.80 Y160.90 E357.34859
G1 X156.89 Y160.05 E357.39123
G1 X157.16 Y159.23 E357.43403
G1 X157.59 Y158.49 E357.47675
G1 X158.16 Y157.85 E357.51942
G1 X158.85 Y157.35 E357.56217
G1 X159.63 Y157.00 E357.60486
G1 X160.47 Y156.83 E357.64765
G1 X161.33 Y156.83 E357.69030
G1 X162.17 Y157.00 E357.73309
G1 X162.95 Y157.35 E357.77582
G1 X163.64 Y157.85 E357.81853
G1 X164.21 Y158.49 E357.86121
G1 X164.64 Y159.23 E357.90392
G1 X164.91 Y160.05 E357.94673
G1 X165.00 Y160.90 E357.98941
G1 X164.91 Y161.75 E358.03226
G1 X164.70 Y162.40 E358.06612
G1 X164.64 Y162.56 E358.07482
G1 X164.21 Y163.31 E358.11772
G1 X163.76 Y163.81 E358.15160
G1 X163.64 Y163.94 E358.16026
G1 X163.09 Y164.34 E358.19440
G1 X162.94 Y164.45 E358.20327
G1 X162.32 Y164.72 E358.23710
G1 X162.16 Y164.79 E358.24584
G1 X161.50 Y164.94 E358.27986
G1 X161.32 Y164.97 E358.28869
G1 X160.47 Y164.97 E358.33124
G1 X159.81 Y164.83 E358.36522
G1 X159.63 Y164.79 E358.37415
G1 X159.01 Y164.52 E358.40792
G1 X158.85 Y164.45 E358.41679
G1 X158.30 Y164.05 E358.45068
G1 X158.16 Y163.94 E358.45943
G1 X157.59 Y163.31 E358.50224
G1 X157.16 Y162.57 E358.54488
G1 X156.95 Y161.92 E358.57894
G1 X156.89 Y161.75 E358.58766
G0 F12000 X156.50 Y161.84
;TYPE:WALL-OUTER
G1 F4260 X156.40 Y160.90 E358.63472
G1 X156.50 Y159.96 E358.68167
G1 X156.79 Y159.07 E358.72856
G1 X157.26 Y158.26 E358.77532
G1 X157.89 Y157.56 E358.82238
G1 X158.65 Y157.00 E358.86938
G1 X159.51 Y156.62 E358.91617
G1 X160.43 Y156.43 E358.96320
G1 X161.37 Y156.43 E359.00994
G1 X162.29 Y156.62 E359.05697
G1 X163.15 Y157.00 E359.10381
G1 X163.91 Y157.56 E359.15081
G1 X164.54 Y158.26 E359.19783
G1 X165.01 Y159.07 E359.24459
G1 X165.30 Y159.96 E359.29153
G1 X165.40 Y160.90 E359.33844
G1 X165.30 Y161.84 E359.38550
G1 X165.01 Y162.73 E359.43228
G1 X164.54 Y163.54 E359.47915
G1 X163.91 Y164.24 E359.52614
G1 X163.15 Y164.80 E359.57314
G1 X162.29 Y165.18 E359.61993
G1 X161.37 Y165.37 E359.66706
G1 X160.43 Y165.37 E359.71376
G1 X159.51 Y165.18 E359.76080
G1 X158.65 Y164.80 E359.80759
G1 X157.89 Y164.24 E359.85459
G1 X157.26 Y163.54 E359.90161
G1 X156.79 Y162.73 E359.94848
G1 X156.50 Y161.84 E359.99526
G0 F12000 X156.98 Y161.22
;TYPE:FILL
G1 F4260 X161.23 Y156.97 E360.29541
G1 F2400 E359.09541
G0 F12000 X159.15 Y153.28
;TYPE:SUPPORT
G1 F2400 E360.29541
G1 F4260 X157.04 Y154.22 E360.41054
G1 X155.74 Y155.16 E360.49093
G1 X154.66 Y156.36 E360.57134
G1 X153.85 Y157.76 E360.65175
G1 X153.37 Y159.23 E360.72904
G1 X151.63 Y159.23 E360.81615
G1 X151.15 Y157.76 E360.89344
G1 X150.34 Y156.36 E360.97385
G1 X149.26 Y155.16 E361.05425
G1 X147.96 Y154.22 E361.13476
G1 X145.85 Y153.28 E361.24973
G1 X145.85 Y151.72 E361.32751
G1 X146.28 Y151.53 E361.35105
G1 X146.28 Y151.53 E361.35120
G1 X147.96 Y150.78 E361.44254
G1 X148.41 Y150.46 E361.47043
G1 X149.26 Y149.84 E361.52315
G1 X150.34 Y148.63 E361.60366
G1 X151.15 Y147.25 E361.68357
G1 X151.32 Y146.71 E361.71177
G1 X151.32 Y146.71 E361.71182
G1 X151.62 Y145.77 E361.76109
G1 X153.37 Y145.77 E361.84835
G1 X153.85 Y147.24 E361.92559
G1 X154.13 Y147.72 E361.95329
G1 X154.13 Y147.72 E361.95334
G1 X154.66 Y148.64 E362.00618
G1 X155.74 Y149.83 E362.08641
G1 X156.18 Y150.16 E362.11408
G1 X157.04 Y150.78 E362.16694
G1 X157.55 Y151.01 E362.19477
G1 X159.15 Y151.72 E362.28208
G1 X159.15 Y153.28 E362.35996
G0 F12000 X156.97 Y154.15
G0 X157.06 Y154.28
G1 F4260 X147.94 Y154.28 E362.81485
G0 F12000 X148.03 Y154.15
G0 X154.14 Y157.06
G0 X154.28 Y157.14
G1 F4260 X154.28 Y147.86 E363.27774
G1 F2400 E362.07774
G0 F12000 X153.37 Y142.43
G1 F2400 E363.27774
G1 F4260 X151.63 Y142.43 E363.36484
G1 X151.15 Y140.96 E363.44214
G1 X150.34 Y139.56 E363.52259
G1 X149.26 Y138.37 E363.60289
G1 X147.96 Y137.42 E363.68350
G1 X146.49 Y136.76 E363.76386
G1 X144.91 Y136.43 E363.84436
G1 X143.30 Y136.43 E363.92473
G1 X141.71 Y136.76 E364.00547
G1 X140.24 Y137.42 E364.08580
G1 X138.94 Y138.37 E364.16631
G1 X137.86 Y139.57 E364.24685
G1 X137.05 Y140.96 E364.32699
G1 X136.55 Y142.50 E364.40807
G1 X136.38 Y144.10 E364.48823
G1 X136.44 Y144.65 E364.51578
G1 X136.55 Y145.71 E364.56875
G1 X136.72 Y146.22 E364.59588
G1 X137.05 Y147.24 E364.64921
G1 X137.33 Y147.72 E364.67695
G1 X137.33 Y147.72 E364.67700
G1 X137.86 Y148.64 E364.72995
G1 X138.94 Y149.83 E364.81011
G1 X139.38 Y150.16 E364.83762
G1 X140.24 Y150.78 E364.89066
G1 X140.75 Y151.01 E364.91819
G1 X142.35 Y151.72 E365.00577
G1 X142.35 Y153.28 E365.08365
G1 X140.24 Y154.22 E365.19883
G1 X138.93 Y155.17 E365.27943
G1 X137.86 Y156.36 E365.35948
G1 X137.05 Y157.76 E365.44000
G1 X136.55 Y159.30 E365.52097
G1 X136.38 Y160.90 E365.60134
G1 X136.55 Y162.51 E365.68181
G1 X136.72 Y163.02 E365.70879
G1 X137.05 Y164.04 E365.76210
G1 X137.33 Y164.52 E365.78988
G1 X137.86 Y165.44 E365.84289
G1 X138.96 Y166.65 E365.92461
G1 X139.38 Y166.96 E365.95047
G1 X140.24 Y167.58 E366.00351
G1 X140.75 Y167.81 E366.03105
G1 X141.72 Y168.24 E366.08398
G1 X142.25 Y168.35 E366.11144
G1 X142.25 Y168.35 E366.11149
G1 X143.30 Y168.57 E366.16474
G1 X144.91 Y168.57 E366.24526
G1 X146.50 Y168.23 E366.32642
G1 X146.99 Y168.01 E366.35334
G1 X147.96 Y167.58 E366.40596
G1 X148.41 Y167.25 E366.43381
G1 X149.26 Y166.63 E366.48631
G1 X149.63 Y166.22 E366.51407
G1 X150.34 Y165.43 E366.56709
G1 X150.81 Y164.64 E366.61287
G1 X150.81 Y164.64 E366.61302
G1 X151.15 Y164.04 E366.64723
G1 X151.32 Y163.52 E366.67473
G1 X151.62 Y162.57 E366.72443
G1 X153.37 Y162.57 E366.81173
G1 X153.85 Y164.04 E366.88890
G1 X154.13 Y164.52 E366.91662
G1 X154.13 Y164.52 E366.91667
G1 X154.66 Y165.44 E366.96981
G1 X155.74 Y166.63 E367.04978
G1 X156.18 Y166.96 E367.07746
G1 X157.04 Y167.58 E367.13031
G1 X157.55 Y167.81 E367.15814
G1 X158.51 Y168.24 E367.21085
G1 X160.09 Y168.57 E367.29121
G1 X161.71 Y168.57 E367.37188
G1 X163.30 Y168.23 E367.45319
G1 X163.79 Y168.01 E367.48021
G1 X164.76 Y167.58 E367.53277
G1 X165.21 Y167.25 E367.56062
G1 X166.06 Y166.63 E367.61312
G1 X166.44 Y166.22 E367.64095
G1 X167.14 Y165.44 E367.69373
G1 X167.95 Y164.04 E367.77402
G1 X168.12 Y163.51 E367.80170
G1 X168.12 Y163.51 E367.80175
G1 X168.45 Y162.51 E367.85465
G1 X168.62 Y160.90 E367.93533
G1 X168.45 Y159.30 E368.01545
G1 X167.95 Y157.76 E368.09642
G1 X167.14 Y156.36 E368.17694
G1 X166.07 Y155.17 E368.25699
G1 X164.76 Y154.22 E368.33759
G1 X162.65 Y153.28 E368.45264
G1 X162.65 Y151.72 E368.53042
G1 X163.08 Y151.53 E368.55407
G1 X163.08 Y151.53 E368.55427
G1 X164.76 Y150.78 E368.64560
G1 X166.04 Y149.85 E368.72468
G1 X166.04 Y149.85 E368.72482
G1 X166.06 Y149.83 E368.72640
G1 X167.14 Y148.64 E368.80674
G1 X167.94 Y147.25 E368.88672
G1 X168.12 Y146.71 E368.91492
G1 X168.45 Y145.71 E368.96761
G1 X168.62 Y144.10 E369.04824
G1 X168.45 Y142.50 E369.12841
G1 X167.95 Y140.96 E369.20949
G1 X167.14 Y139.57 E369.28963
G1 X166.06 Y138.37 E369.37017
G1 X164.76 Y137.42 E369.45068
G1 X163.29 Y136.76 E369.53101
G1 X161.70 Y136.43 E369.61175
G1 X160.09 Y136.43 E369.69212
G1 X158.51 Y136.76 E369.77262
G1 X157.04 Y137.42 E369.85298
G1 X155.74 Y138.37 E369.93359
G1 X154.66 Y139.56 E370.01389
G1 X153.85 Y140.96 E370.09434
G1 X153.37 Y142.43 E370.17164
G0 F12000 X153.36 Y142.33
G0 X153.67 Y140.88
G0 X155.60 Y138.22
G0 X158.45 Y136.57
G0 X161.72 Y136.23
G0 X171.17 Y133.97
G1 F4260 X171.17 Y171.17 E372.02755
G1 X133.87 Y171.17 E373.88846
G1 X133.87 Y133.97 E375.74437
G1 X171.17 Y133.97 E377.60528
G0 F12000 X165.71 Y134.07
G0 X165.71 Y133.91
G1 F4260 X165.71 Y138.18 E377.81826
G0 F12000 X165.80 Y138.05
G0 X167.30 Y139.45
G0 X168.64 Y142.46
G0 X168.58 Y142.83
G0 X168.42 Y142.85
G1 F4260 X171.23 Y142.85 E377.95830
G0 F12000 X171.07 Y142.85
G0 X167.30 Y148.75
G0 X165.80 Y150.15
G0 X165.71 Y150.02
G1 F4260 X165.71 Y154.98 E378.20590
G0 F12000 X164.74 Y154.28
G1 F4260 X171.23 Y154.28 E378.52969
G0 F12000 X171.07 Y154.28
G0 X171.07 Y165.71
G0 X171.23 Y165.71
G1 F4260 X166.82 Y165.71 E378.74986
G0 F12000 X166.94 Y165.81
G0 X165.80 Y166.95
G0 X165.71 Y166.82
G1 F4260 X165.71 Y171.23 E378.96997
G0 F12000 X165.71 Y171.07
G0 X154.28 Y171.07
G0 X154.28 Y171.23
G1 F4260 X154.28 Y164.66 E379.29785
G0 F12000 X154.98 Y165.71
G1 F4260 X150.02 Y165.71 E379.54551
G0 F12000 X150.14 Y165.81
G0 X148.53 Y167.41
G0 X146.56 Y168.42
G0 X143.28 Y168.77
G0 X142.82 Y168.57
G0 X142.85 Y168.42
G1 F4260 X142.85 Y171.23 E379.68585
G0 F12000 X142.85 Y171.07
G0 X138.06 Y165.81
G0 X138.18 Y165.71
G1 F4260 X133.81 Y165.71 E379.90402
G0 F12000 X133.97 Y165.71
G0 X133.97 Y154.28
G0 X133.81 Y154.28
G1 F4260 X140.26 Y154.28 E380.22566
G0 F12000 X140.17 Y154.15
G0 X136.36 Y145.75
G0 X136.18 Y144.10
G0 X136.42 Y142.83
G0 X136.57 Y142.85
G1 F4260 X133.81 Y142.85 E380.36356
G0 F12000 X133.97 Y142.85
G0 X140.14 Y137.24
G0 X141.65 Y136.57
G0 X142.82 Y136.43
G0 X142.85 Y136.58
G1 F4260 X142.85 Y133.91 E380.49686
G0 F12000 X142.85 Y134.07
G0 X154.28 Y134.07
G0 X154.28 Y133.91
G1 F4260 X154.28 Y140.34 E380.81761
;LAYER:4
G1 F2400 E379.61761
G0 F12000 X157.16 Y142.43 Z1.50
;TYPE:WALL-INNER
G1 F2400 E380.81761
G1 F4440 X157.59 Y141.69 E380.86017
G1 X158.16 Y141.06 E380.90309
G1 X158.85 Y140.55 E380.94569
G1 X159.63 Y140.21 E380.98837
G1 X160.47 Y140.03 E381.03117
G1 X161.33 Y140.03 E381.07378
G1 X162.17 Y140.21 E381.11668
G1 X162.95 Y140.55 E381.15936
G1 X163.64 Y141.06 E381.20211
G1 X164.21 Y141.69 E381.24471
G1 X164.64 Y142.43 E381.28743
G1 X164.91 Y143.25 E381.33028
G1 X165.00 Y144.10 E381.37302
G1 X164.91 Y144.95 E381.41581
G1 X164.72 Y145.54 E381.44631
G1 X164.64 Y145.76 E381.45833
G1 X164.21 Y146.51 E381.50123
G1 X163.64 Y147.15 E381.54390
G1 X162.95 Y147.65 E381.58661
G1 X162.17 Y148.00 E381.62930
G1 X161.56 Y148.12 E381.66004
G1 X161.32 Y148.17 E381.67223
G1 X160.47 Y148.17 E381.71484
G1 X159.87 Y148.05 E381.74539
G1 X159.63 Y148.00 E381.75758
G1 X158.85 Y147.65 E381.80026
G1 X158.16 Y147.15 E381.84286
G1 X157.59 Y146.51 E381.88582
G1 X157.16 Y145.77 E381.92841
G1 X156.97 Y145.18 E381.95906
G1 X156.89 Y144.95 E381.97108
G1 X156.80 Y144.10 E382.01388
G1 X156.89 Y143.25 E382.05662
G1 X157.16 Y142.43 E382.09947
G0 F12000 X156.79 Y142.27
;TYPE:WALL-OUTER
G1 F4440 X157.26 Y141.46 E382.14627
G1 X157.89 Y140.76 E382.19329
G1 X158.65 Y140.20 E382.24029
G1 X159.51 Y139.82 E382.28708
G1 X160.43 Y139.63 E382.33412
G1 X161.37 Y139.63 E382.38082
G1 X162.29 Y139.82 E382.42795
G1 X163.15 Y140.20 E382.47474
G1 X163.91 Y140.76 E382.52175
G1 X164.54 Y141.46 E382.56873
G1 X165.01 Y142.27 E382.61554
G1 X165.30 Y143.16 E382.66247
G1 X165.40 Y144.10 E382.70943
G1 X165.30 Y145.04 E382.75644
G1 X165.01 Y145.93 E382.80322
G1 X164.54 Y146.74 E382.85005
G1 X163.91 Y147.44 E382.89707
G1 X163.15 Y148.00 E382.94407
G1 X162.29 Y148.38 E382.99091
G1 X161.37 Y148.57 E383.03794
G1 X160.43 Y148.57 E383.08473
G1 X159.51 Y148.38 E383.13166
G1 X158.65 Y148.00 E383.17850
G1 X157.89 Y147.44 E383.22550
G1 X157.26 Y146.74 E383.27256
G1 X156.79 Y145.93 E383.31939
G1 X156.50 Y145.04 E383.36617
G1 X156.40 Y144.10 E383.41317
G1 X156.50 Y143.16 E383.46017
G1 X156.79 Y142.27 E383.50706
G0 F12000 X157.06 Y142.39
G0 X157.67 Y146.38
;TYPE:FILL
G1 F4440 X163.17 Y140.89 E383.89476
G0 F12000 X161.40 Y140.19
G1 F4440 X164.80 Y143.59 E384.13476
G1 F2400 E382.93476
G0 F12000 X148.20 Y144.10
;TYPE:WALL-INNER
G1 F2400 E384.13476
G1 F4440 X148.11 Y144.95 E384.17755
G1 X147.92 Y145.54 E384.20805
G1 X147.84 Y145.76 E384.22007
G1 X147.41 Y146.51 E384.26281
G1 X146.84 Y147.15 E384.30577
G1 X146.15 Y147.65 E384.34837
G1 X145.37 Y148.00 E384.39105
G1 X144.76 Y148.12 E384.42175
G1 X144.53 Y148.17 E384.43389
G1 X143.67 Y148.17 E384.47655
G1 X143.07 Y148.05 E384.50710
G1 X142.83 Y148.00 E384.51940
G1 X142.05 Y147.65 E384.56201
G1 X141.36 Y147.15 E384.60472
G1 X140.79 Y146.51 E384.64740
G1 X140.36 Y145.77 E384.69014
G1 X140.17 Y145.18 E384.72080
G1 X140.09 Y144.95 E384.73282
G1 X140.00 Y144.10 E384.77561
G1 X140.09 Y143.25 E384.81835
G1 X140.36 Y142.43 E384.86120
G1 X140.79 Y141.69 E384.90392
G1 X141.36 Y141.06 E384.94652
G1 X142.05 Y140.55 E384.98927
G1 X142.83 Y140.21 E385.03196
G1 X143.67 Y140.03 E385.07485
G1 X144.53 Y140.03 E385.11746
G1 X145.37 Y140.21 E385.16026
G1 X146.15 Y140.55 E385.20294
G1 X146.84 Y141.06 E385.24554
G1 X147.41 Y141.69 E385.28846
G1 X147.84 Y142.43 E385.33102
G1 X148.11 Y143.25 E385.37388
G1 X148.20 Y144.10 E385.41661
G0 F12000 X148.60 Y144.10
;TYPE:WALL-OUTER
G1 F4440 X148.50 Y145.04 E385.46362
G1 X148.21 Y145.93 E385.51039
G1 X147.74 Y146.74 E385.55723
G1 X147.11 Y147.44 E385.60428
G1 X146.35 Y148.00 E385.65128
G1 X145.49 Y148.38 E385.69812
G1 X144.57 Y148.57 E385.74505
G1 X143.63 Y148.57 E385.79185
G1 X142.71 Y148.38 E385.83887
G1 X141.85 Y148.00 E385.88571
G1 X141.09 Y147.44 E385.93271
G1 X140.46 Y146.74 E385.97973
G1 X139.99 Y145.93 E386.02657
G1 X139.70 Y145.04 E386.07334
G1 X139.60 Y144.10 E386.12035
G1 X139.70 Y143.16 E386.16731
G1 X139.99 Y142.27 E386.21425
G1 X140.46 Y141.46 E386.26105
G1 X141.09 Y140.76 E386.30804
G1 X141.85 Y140.20 E386.35504
G1 X142.71 Y139.82 E386.40183
G1 X143.63 Y139.63 E386.44897
G1 X144.57 Y139.63 E386.49566
G1 X145.49 Y139.82 E386.54270
G1 X146.35 Y140.20 E386.58949
G1 X147.11 Y140.76 E386.63649
G1 X147.74 Y141.46 E386.68351
G1 X148.21 Y142.27 E386.73032
G1 X148.50 Y143.16 E386.77721
G1 X148.60 Y144.10 E386.82421
G0 F12000 X148.30 Y144.10
G0 X147.61 Y142.31
;TYPE:FILL
G1 F4440 X142.31 Y147.61 E387.19826
G1 F2400 E385.99826
G0 F12000 X143.67 Y156.83
;TYPE:WALL-INNER
G1 F2400 E387.19826
G1 F4440 X144.53 Y156.83 E387.24092
G1 X145.37 Y157.00 E387.28371
G1 X146.15 Y157.35 E387.32639
G1 X146.84 Y157.85 E387.36914
G1 X147.41 Y158.49 E387.41181
G1 X147.84 Y159.23 E387.45453
G1 X148.11 Y160.05 E387.49733
G1 X148.20 Y160.90 E387.54002
G1 X148.11 Y161.75 E387.58286
G1 X147.92 Y162.34 E387.61336
G1 X147.84 Y162.56 E387.62538
G1 X147.54 Y163.10 E387.65612
G1 X147.41 Y163.31 E387.66839
G1 X147.00 Y163.76 E387.69888
G1 X146.84 Y163.94 E387.71099
G1 X146.15 Y164.45 E387.75370
G1 X145.37 Y164.79 E387.79639
G1 X144.76 Y164.92 E387.82709
G1 X144.53 Y164.97 E387.83924
G1 X143.67 Y164.97 E387.88179
G1 X142.83 Y164.79 E387.92469
G1 X142.05 Y164.45 E387.96737
G1 X141.36 Y163.94 E388.01012
G1 X140.79 Y163.31 E388.05273
G1 X140.48 Y162.78 E388.08346
G1 X140.36 Y162.56 E388.09560
G1 X140.17 Y161.98 E388.12616
G1 X140.09 Y161.75 E388.13818
G1 X140.00 Y160.90 E388.18102
G1 X140.09 Y160.05 E388.22371
G1 X140.36 Y159.23 E388.26652
G1 X140.79 Y158.49 E388.30923
G1 X141.36 Y157.85 E388.35191
G1 X142.05 Y157.35 E388.39462
G1 X142.83 Y157.00 E388.43735
G1 X143.67 Y156.83 E388.48014
G0 F12000 X143.63 Y156.43
;TYPE:WALL-OUTER
G1 F4440 X144.57 Y156.43 E388.52688
G1 X145.49 Y156.62 E388.57391
G1 X146.35 Y157.00 E388.62070
G1 X147.11 Y157.56 E388.66770
G1 X147.74 Y158.26 E388.71476
G1 X148.21 Y159.07 E388.76152
G1 X148.50 Y159.96 E388.80841
G1 X148.60 Y160.90 E388.85536
G1 X148.50 Y161.84 E388.90242
G1 X148.21 Y162.73 E388.94920
G1 X147.74 Y163.54 E388.99625
G1 X147.11 Y164.24 E389.04292
G1 X146.35 Y164.80 E389.09010
G1 X145.49 Y165.18 E389.13689
G1 X144.57 Y165.37 E389.18393
G1 X143.63 Y165.37 E389.23062
G1 X142.71 Y165.18 E389.27776
G1 X141.85 Y164.80 E389.32455
G1 X141.09 Y164.24 E389.37155
G1 X140.46 Y163.54 E389.41853
G1 X139.99 Y162.73 E389.46541
G1 X139.70 Y161.84 E389.51219
G1 X139.60 Y160.90 E389.55925
G1 X139.70 Y159.96 E389.60615
G1 X139.99 Y159.07 E389.65309
G1 X140.46 Y158.26 E389.69986
G1 X141.09 Y157.56 E389.74688
G1 X141.85 Y157.00 E389.79388
G1 X142.71 Y156.62 E389.84072
G1 X143.63 Y156.43 E389.88774
G0 F12000 X143.66 Y156.73
G0 X146.37 Y157.69
;TYPE:FILL
G1 F4440 X140.87 Y163.18 E390.27551
G0 F12000 X140.20 Y161.41
G1 F4440 X143.60 Y164.81 E390.51554
G1 F2400 E389.31554
G0 F12000 X156.89 Y161.75
;TYPE:WALL-INNER
G1 F2400 E390.51554
G1 F4440 X156.80 Y160.90 E390.55839
G1 X156.89 Y160.05 E390.60107
G1 X157.16 Y159.23 E390.64388
G1 X157.59 Y158.49 E390.68660
G1 X158.16 Y157.85 E390.72927
G1 X158.85 Y157.35 E390.77202
G1 X159.63 Y157.00 E390.81470
G1 X160.47 Y156.83 E390.85749
G1 X161.33 Y156.83 E390.90015
G1 X162.17 Y157.00 E390.94294
G1 X162.95 Y157.35 E390.98567
G1 X163.64 Y157.85 E391.02838
G1 X164.21 Y158.49 E391.07105
G1 X164.64 Y159.23 E391.11377
G1 X164.91 Y160.05 E391.15657
G1 X165.00 Y160.90 E391.19926
G1 X164.91 Y161.75 E391.24210
G1 X164.72 Y162.34 E391.27260
G1 X164.64 Y162.56 E391.28462
G1 X164.34 Y163.10 E391.31536
G1 X164.21 Y163.31 E391.32766
G1 X163.64 Y163.94 E391.37016
G1 X162.95 Y164.45 E391.41291
G1 X162.17 Y164.79 E391.45559
G1 X161.33 Y164.97 E391.49849
G1 X160.47 Y164.97 E391.54109
G1 X159.87 Y164.85 E391.57170
G1 X159.63 Y164.79 E391.58389
G1 X158.85 Y164.45 E391.62658
G1 X158.16 Y163.94 E391.66936
G1 X157.75 Y163.49 E391.69995
G1 X157.59 Y163.31 E391.71196
G1 X157.28 Y162.78 E391.74270
G1 X157.16 Y162.56 E391.75483
G1 X156.97 Y161.98 E391.78539
G1 X156.89 Y161.75 E391.79741
G0 F12000 X156.50 Y161.84
;TYPE:WALL-OUTER
G1 F4440 X156.40 Y160.90 E391.84446
G1 X156.50 Y159.96 E391.89142
G1 X156.79 Y159.07 E391.93831
G1 X157.26 Y158.26 E391.98507
G1 X157.89 Y157.56 E392.03213
G1 X158.65 Y157.00 E392.07913
G1 X159.51 Y156.62 E392.12592
G1 X160.43 Y156.43 E392.17295
G1 X161.37 Y156.43 E392.21969
G1 X162.29 Y156.62 E392.26672
G1 X163.15 Y157.00 E392.31356
G1 X163.91 Y157.56 E392.36056
G1 X164.54 Y158.26 E392.40758
G1 X165.01 Y159.07 E392.45434
G1 X165.30 Y159.96 E392.50128
G1 X165.40 Y160.90 E392.54819
G1 X165.30 Y161.84 E392.59525
G1 X165.01 Y162.73 E392.64202
G1 X164.54 Y163.54 E392.68890
G1 X163.91 Y164.24 E392.73588
G1 X163.15 Y164.80 E392.78289
G1 X162.29 Y165.18 E392.82968
G1 X161.37 Y165.37 E392.87681
G1 X160.43 Y165.37 E392.92351
G1 X159.51 Y165.18 E392.97055
G1 X158.65 Y164.80 E393.01734
G1 X157.89 Y164.24 E393.06452
G1 X157.26 Y163.54 E393.11118
G1 X156.79 Y162.73 E393.15824
G1 X156.50 Y161.84 E393.20502
G0 F12000 X156.98 Y161.22
;TYPE:FILL
G1 F4440 X161.23 Y156.97 E393.50523
G1 F2400 E392.30523
G0 F12000 X159.15 Y153.28
;TYPE:SUPPORT
G1 F2400 E393.50523
G1 F4440 X157.04 Y154.22 E393.62037
G1 X155.74 Y155.16 E393.70076
G1 X154.66 Y156.36 E393.78116
G1 X153.85 Y157.76 E393.86157
G1 X153.37 Y159.23 E393.93887
G1 X151.63 Y159.23 E394.02597
G1 X151.15 Y157.76 E394.10327
G1 X150.34 Y156.36 E394.18368
G1 X149.26 Y155.16 E394.26408
G1 X147.96 Y154.22 E394.34447
G1 X145.85 Y153.28 E394.45961
G1 X145.85 Y151.72 E394.53744
G1 X147.96 Y150.78 E394.65230
G1 X149.26 Y149.83 E394.73310
G1 X150.34 Y148.64 E394.81339
G1 X151.15 Y147.25 E394.89355
G1 X151.34 Y146.64 E394.92530
G1 X151.64 Y145.76 E394.97143
G1 X153.38 Y145.78 E395.05824
G1 X153.85 Y147.24 E395.13500
G1 X154.66 Y148.64 E395.21583
G1 X155.73 Y149.83 E395.29567
G1 X156.24 Y150.20 E395.32689
G1 X157.04 Y150.78 E395.37658
G1 X159.15 Y151.72 E395.49151
G1 X159.15 Y153.28 E395.56934
G0 F12000 X156.97 Y154.15
G0 X157.06 Y154.28
G1 F4440 X147.94 Y154.28 E396.02419
G0 F12000 X148.03 Y154.15
G0 X154.14 Y157.06
G0 X154.28 Y157.14
G1 F4440 X154.28 Y147.86 E396.48712
G1 F2400 E395.28712
G0 F12000 X153.37 Y142.43
G1 F2400 E396.48712
G1 F4440 X151.63 Y142.43 E396.57423
G1 X151.15 Y140.96 E396.65152
G1 X150.34 Y139.56 E396.73197
G1 X149.26 Y138.37 E396.81227
G1 X147.96 Y137.42 E396.89288
G1 X146.49 Y136.76 E396.97324
G1 X144.91 Y136.43 E397.05374
G1 X143.30 Y136.43 E397.13412
G1 X141.71 Y136.76 E397.21485
G1 X140.24 Y137.42 E397.29519
G1 X138.94 Y138.37 E397.37569
G1 X137.86 Y139.57 E397.45623
G1 X137.05 Y140.96 E397.53637
G1 X136.55 Y142.50 E397.61745
G1 X136.38 Y144.10 E397.69762
G1 X136.55 Y145.70 E397.77804
G1 X136.74 Y146.29 E397.80869
G1 X137.05 Y147.24 E397.85852
G1 X137.86 Y148.64 E397.93931
G1 X138.93 Y149.83 E398.01918
G1 X139.44 Y150.20 E398.05050
G1 X140.24 Y150.78 E398.10007
G1 X142.35 Y151.72 E398.21516
G1 X142.35 Y153.28 E398.29299
G1 X140.24 Y154.22 E398.40817
G1 X138.93 Y155.17 E398.48877
G1 X137.86 Y156.36 E398.56882
G1 X137.05 Y157.76 E398.64935
G1 X136.55 Y159.30 E398.73031
G1 X136.38 Y160.90 E398.81048
G1 X136.55 Y162.50 E398.89101
G1 X136.74 Y163.09 E398.92160
G1 X137.05 Y164.04 E398.97145
G1 X137.36 Y164.58 E399.00257
G1 X137.36 Y164.58 E399.00262
G1 X137.86 Y165.44 E399.05240
G1 X138.93 Y166.63 E399.13217
G1 X139.44 Y167.00 E399.16339
G1 X140.24 Y167.58 E399.21296
G1 X141.72 Y168.24 E399.29348
G1 X142.32 Y168.37 E399.32421
G1 X143.29 Y168.57 E399.37398
G1 X144.91 Y168.57 E399.45456
G1 X146.50 Y168.23 E399.53597
G1 X147.96 Y167.58 E399.61515
G1 X148.96 Y166.85 E399.67705
G1 X149.26 Y166.63 E399.69580
G1 X149.67 Y166.18 E399.72646
G1 X150.34 Y165.44 E399.77612
G1 X150.65 Y164.91 E399.80685
G1 X151.15 Y164.04 E399.85646
G1 X151.34 Y163.44 E399.88815
G1 X151.64 Y162.56 E399.93424
G1 X153.38 Y162.57 E400.02095
G1 X153.85 Y164.04 E400.09769
G1 X154.16 Y164.58 E400.12892
G1 X154.66 Y165.44 E400.17848
G1 X155.07 Y165.90 E400.20922
G1 X155.73 Y166.63 E400.25856
G1 X156.24 Y167.00 E400.28952
G1 X157.04 Y167.58 E400.33938
G1 X158.51 Y168.24 E400.41963
G1 X159.12 Y168.37 E400.45046
G1 X159.12 Y168.37 E400.45051
G1 X160.09 Y168.57 E400.50029
G1 X161.71 Y168.57 E400.58066
G1 X163.28 Y168.24 E400.66125
G1 X164.75 Y167.58 E400.74152
G1 X165.26 Y167.21 E400.77292
G1 X165.26 Y167.21 E400.77297
G1 X166.07 Y166.63 E400.82241
G1 X166.48 Y166.17 E400.85318
G1 X167.14 Y165.44 E400.90245
G1 X167.45 Y164.91 E400.93323
G1 X167.95 Y164.04 E400.98281
G1 X168.14 Y163.44 E401.01430
G1 X168.45 Y162.50 E401.06389
G1 X168.62 Y160.90 E401.14417
G1 X168.45 Y159.30 E401.22433
G1 X167.95 Y157.76 E401.30530
G1 X167.14 Y156.36 E401.38583
G1 X166.07 Y155.17 E401.46588
G1 X164.76 Y154.22 E401.54648
G1 X162.65 Y153.28 E401.66166
G1 X162.65 Y151.72 E401.73949
G1 X164.76 Y150.78 E401.85453
G1 X166.06 Y149.83 E401.93514
G1 X167.14 Y148.64 E402.01544
G1 X167.45 Y148.11 E402.04606
G1 X167.95 Y147.25 E402.09564
G1 X168.14 Y146.65 E402.12714
G1 X168.45 Y145.70 E402.17672
G1 X168.62 Y144.10 E402.25695
G1 X168.45 Y142.50 E402.33717
G1 X167.95 Y140.96 E402.41825
G1 X167.14 Y139.57 E402.49838
G1 X166.06 Y138.37 E402.57893
G1 X164.76 Y137.42 E402.65943
G1 X163.29 Y136.76 E402.73976
G1 X161.70 Y136.43 E402.82050
G1 X160.09 Y136.43 E402.90087
G1 X158.51 Y136.76 E402.98138
G1 X157.04 Y137.42 E403.06174
G1 X155.74 Y138.37 E403.14235
G1 X154.66 Y139.56 E403.22264
G1 X153.85 Y140.96 E403.30310
G1 X153.37 Y142.43 E403.38039
G0 F12000 X153.36 Y142.33
G0 X153.67 Y140.88
G0 X155.60 Y138.22
G0 X158.45 Y136.57
G0 X161.72 Y136.23
G0 X171.17 Y133.97
G1 F4440 X171.17 Y171.17 E405.23631
G1 X133.87 Y171.17 E407.09721
G1 X133.87 Y133.97 E408.95313
G1 X171.17 Y133.97 E410.81403
G0 F12000 X165.71 Y134.07
G0 X165.71 Y133.91
G1 F4440 X165.71 Y138.18 E411.02701
G0 F12000 X165.80 Y138.05
G0 X167.30 Y139.45
G0 X168.64 Y142.46
G0 X168.58 Y142.83
G0 X168.42 Y142.85
G1 F4440 X171.23 Y142.85 E411.16705
G0 F12000 X171.07 Y142.85
G0 X167.30 Y148.75
G0 X165.80 Y150.15
G0 X165.71 Y150.02
G1 F4440 X165.71 Y154.98 E411.41456
G0 F12000 X164.74 Y154.28
G1 F4440 X171.23 Y154.28 E411.73835
G0 F12000 X171.07 Y154.28
G0 X171.07 Y165.71
G0 X171.23 Y165.71
G1 F4440 X166.82 Y165.71 E411.95846
G0 F12000 X166.94 Y165.81
G0 X165.80 Y166.95
G0 X165.71 Y166.82
G1 F4440 X165.71 Y171.23 E412.17863
G0 F12000 X165.71 Y171.07
G0 X154.28 Y171.07
G0 X154.28 Y171.23
G1 F4440 X154.28 Y164.66 E412.50651
G0 F12000 X154.98 Y165.71
G1 F4440 X150.02 Y165.71 E412.75411
G0 F12000 X150.14 Y165.81
G0 X149.08 Y167.02
G0 X146.57 Y168.42
G0 X143.28 Y168.77
G0 X142.82 Y168.57
G0 X142.85 Y168.42
G1 F4440 X142.85 Y171.23 E412.89445
G0 F12000 X142.85 Y171.07
G0 X138.06 Y165.81
G0 X138.18 Y165.71
G1 F4440 X133.81 Y165.71 E413.11252
G0 F12000 X133.97 Y165.71
G0 X133.97 Y154.28
G0 X133.81 Y154.28
G1 F4440 X140.26 Y154.28 E413.43416
G0 F12000 X140.17 Y154.15
G0 X136.36 Y145.74
G0 X136.18 Y144.10
G0 X136.42 Y142.83
G0 X136.57 Y142.85
G1 F4440 X133.81 Y142.85 E413.57206
G0 F12000 X133.97 Y142.85
G0 X140.14 Y137.24
G0 X141.65 Y136.57
G0 X142.82 Y136.43
G0 X142.85 Y136.58
G1 F4440 X142.85 Y133.91 E413.70537
G0 F12000 X142.85 Y134.07
G0 X154.28 Y134.07
G0 X154.28 Y133.91
G1 F4440 X154.28 Y140.34 E414.02611
;LAYER:5
G1 F2400 E412.82611
G0 F12000 X157.16 Y142.43 Z1.80
;TYPE:WALL-INNER
G1 F2400 E414.02611
G1 F4440 X157.59 Y141.69 E414.06867
G1 X158.16 Y141.06 E414.11159
G1 X158.85 Y140.55 E414.15419
G1 X159.63 Y140.21 E414.19688
G1 X160.47 Y140.03 E414.23968
G1 X161.33 Y140.03 E414.28228
G1 X162.17 Y140.21 E414.32518
G1 X162.95 Y140.55 E414.36786
G1 X163.64 Y141.06 E414.41061
G1 X164.21 Y141.69 E414.45322
G1 X164.64 Y142.43 E414.49594
G1 X164.91 Y143.25 E414.53879
G1 X165.00 Y144.10 E414.58157
G1 X164.94 Y144.64 E414.60866
G1 X164.91 Y144.95 E414.62421
G1 X164.64 Y145.77 E414.66702
G1 X164.21 Y146.51 E414.70973
G1 X163.64 Y147.15 E414.75241
G1 X162.95 Y147.65 E414.79520
G1 X162.45 Y147.87 E414.82238
G1 X162.17 Y148.00 E414.83784
G1 X161.63 Y148.11 E414.86516
G1 X161.33 Y148.17 E414.88067
G1 X160.47 Y148.17 E414.92333
G1 X159.94 Y148.06 E414.95051
G1 X159.63 Y148.00 E414.96618
G1 X159.13 Y147.78 E414.99325
G1 X158.85 Y147.65 E415.00870
G1 X158.16 Y147.15 E415.05146
G1 X157.79 Y146.74 E415.07869
G1 X157.59 Y146.51 E415.09416
G1 X157.16 Y145.77 E415.13688
G1 X156.89 Y144.95 E415.17968
G1 X156.80 Y144.10 E415.22237
G1 X156.89 Y143.25 E415.26511
G1 X157.16 Y142.43 E415.30796
G0 F12000 X156.79 Y142.27
;TYPE:WALL-OUTER
G1 F4440 X157.26 Y141.46 E415.35477
G1 X157.89 Y140.76 E415.40179
G1 X158.65 Y140.20 E415.44879
G1 X159.51 Y139.82 E415.49558
G1 X160.43 Y139.63 E415.54262
G1 X161.37 Y139.63 E415.58931
G1 X162.29 Y139.82 E415.63645
G1 X163.15 Y140.20 E415.68324
G1 X163.91 Y140.76 E415.73024
G1 X164.54 Y141.46 E415.77722
G1 X165.01 Y142.27 E415.82403
G1 X165.30 Y143.16 E415.87097
G1 X165.40 Y144.10 E415.91793
G1 X165.30 Y145.04 E415.96484
G1 X165.01 Y145.93 E416.01177
G1 X164.54 Y146.74 E416.05854
G1 X163.91 Y147.44 E416.10556
G1 X163.15 Y148.00 E416.15256
G1 X162.29 Y148.38 E416.19940
G1 X161.37 Y148.57 E416.24642
G1 X160.43 Y148.57 E416.29322
G1 X159.51 Y148.38 E416.34015
G1 X158.65 Y148.00 E416.38699
G1 X157.89 Y147.44 E416.43399
G1 X157.26 Y146.74 E416.48104
G1 X156.79 Y145.93 E416.52781
G1 X156.50 Y145.04 E416.57470
G1 X156.40 Y144.10 E416.62165
G1 X156.50 Y143.16 E416.66865
G1 X156.79 Y142.27 E416.71554
G0 F12000 X157.06 Y142.39
G0 X157.67 Y146.38
;TYPE:FILL
G1 F4440 X163.17 Y140.89 E417.10324
G0 F12000 X161.40 Y140.19
G1 F4440 X164.80 Y143.59 E417.34324
G1 F2400 E416.14324
G0 F12000 X148.20 Y144.10
;TYPE:WALL-INNER
G1 F2400 E417.34324
G1 F4440 X148.11 Y144.95 E417.38593
G1 X147.84 Y145.77 E417.42873
G1 X147.41 Y146.51 E417.47145
G1 X147.05 Y146.91 E417.49861
G1 X146.84 Y147.14 E417.51408
G1 X146.15 Y147.65 E417.55694
G1 X145.65 Y147.87 E417.58413
G1 X145.37 Y148.00 E417.59958
G1 X144.83 Y148.11 E417.62681
G1 X144.53 Y148.17 E417.64232
G1 X143.67 Y148.17 E417.68503
G1 X143.14 Y148.06 E417.71226
G1 X142.83 Y148.00 E417.72793
G1 X142.34 Y147.78 E417.75500
G1 X142.05 Y147.65 E417.77045
G1 X141.36 Y147.15 E417.81320
G1 X140.79 Y146.51 E417.85588
G1 X140.36 Y145.77 E417.89859
G1 X140.09 Y144.95 E417.94140
G1 X140.04 Y144.41 E417.96863
G1 X140.00 Y144.10 E417.98414
G1 X140.09 Y143.25 E418.02682
G1 X140.36 Y142.43 E418.06967
G1 X140.79 Y141.69 E418.11239
G1 X141.36 Y141.06 E418.15500
G1 X142.05 Y140.55 E418.19775
G1 X142.83 Y140.21 E418.24043
G1 X143.67 Y140.03 E418.28333
G1 X144.53 Y140.03 E418.32593
G1 X145.37 Y140.21 E418.36873
G1 X146.15 Y140.55 E418.41142
G1 X146.84 Y141.06 E418.45402
G1 X147.41 Y141.69 E418.49694
G1 X147.84 Y142.43 E418.53950
G1 X148.11 Y143.25 E418.58235
G1 X148.20 Y144.10 E418.62509
G0 F12000 X148.60 Y144.10
;TYPE:WALL-OUTER
G1 F4440 X148.50 Y145.04 E418.67204
G1 X148.21 Y145.93 E418.71893
G1 X147.74 Y146.74 E418.76569
G1 X147.11 Y147.44 E418.81275
G1 X146.35 Y148.00 E418.85975
G1 X145.49 Y148.38 E418.90659
G1 X144.57 Y148.57 E418.95352
G1 X143.63 Y148.57 E419.00031
G1 X142.71 Y148.38 E419.04734
G1 X141.85 Y148.00 E419.09418
G1 X141.09 Y147.44 E419.14118
G1 X140.46 Y146.74 E419.18820
G1 X139.99 Y145.93 E419.23496
