;-- START GCODE --
;Sliced for Type A Machines Series 1
;Sliced at: Sun 02-08-2015 19:12:09
;Basic settings: Layer height: 0.3 Walls: 0.8 Fill: 8
;Print Speed: 80 Support: 0
;Retraction Speed: 40 Retraction Distance: 1.2
;Print time: #P_TIME#
;Filament used: #F_AMNT#m #F_WGHT#g
;Filament cost: #F_COST#
M106 S255	 ;start with the fan on
G21        ;metric values
G90        ;absolute positioning
M106 S255    ;start with the fan on
G28     ;move to endstops
G29		;allows for auto-levelling
G1 X150 Y5  Z15.0 F12000 ;center and move the platform down 15mm
M109 S220 ;Heat To temp
G92 E0                  ;zero the extruded length
G1 F200 E30              ;extrude 30mm of feed stock
G92 E0                  ;zero the extruded length again
G1 X175 Y25  Z0 F12000 ;remove bugger
G1 X220 F12000 ;remove bugger
G1 X150 Y150  Z15 F12000 ;recenter and begin
G1 F12000

;Layer count: 78
;LAYER:0
M106 S255
G0 F12000 X126.07 Y126.17 Z0.30
;TYPE:SKIRT
G1 F2700 X178.97 Y126.17 E2.63919
G1 X178.97 Y213.37 E6.98962
G1 X126.07 Y213.37 E9.62881
G1 X126.07 Y126.17 E13.97923
G0 F12000 X126.47 Y126.57
G1 F2700 X178.57 Y126.57 E16.57851
G1 X178.57 Y212.97 E20.88903
G1 X126.47 Y212.97 E23.48831
G1 X126.47 Y126.57 E27.79882
G0 F12000 X126.87 Y126.97
G1 F2700 X178.17 Y126.97 E30.35819
G1 X178.17 Y212.57 E34.62879
G1 X126.87 Y212.57 E37.18816
G1 X126.87 Y126.97 E41.45876
G0 F12000 X127.27 Y127.37
G1 F2700 X177.77 Y127.37 E43.97821
G1 X177.77 Y212.17 E48.20890
G1 X127.27 Y212.17 E50.72836
G1 X127.27 Y127.37 E54.95905
G0 F12000 X127.67 Y127.77
G1 F2700 X177.37 Y127.77 E57.43859
G1 X177.37 Y211.77 E61.62937
G1 X127.67 Y211.77 E64.10891
G1 X127.67 Y127.77 E68.29969
G0 F12000 X128.07 Y128.17
G1 F2700 X176.97 Y128.17 E70.73932
G1 X176.97 Y211.37 E74.89018
G1 X128.07 Y211.37 E77.32981
G1 X128.07 Y128.17 E81.48068
G0 F12000 X128.47 Y128.57
G1 F2700 X176.57 Y128.57 E83.88040
G1 X176.57 Y210.97 E87.99135
G1 X128.47 Y210.97 E90.39107
G1 X128.47 Y128.57 E94.50202
G0 F12000 X128.87 Y128.97
G1 F2700 X176.17 Y128.97 E96.86183
G1 X176.17 Y210.57 E100.93287
G1 X128.87 Y210.57 E103.29268
G1 X128.87 Y128.97 E107.36372
G0 F12000 X129.27 Y129.37
G1 F2700 X175.77 Y129.37 E109.68361
G1 X175.77 Y210.17 E113.71474
G1 X129.27 Y210.17 E116.03463
G1 X129.27 Y129.37 E120.06576
G0 F12000 X129.67 Y129.77
G1 F2700 X175.37 Y129.77 E122.34574
G1 X175.37 Y209.77 E126.33696
G1 X129.67 Y209.77 E128.61694
G1 X129.67 Y129.77 E132.60816
G0 F12000 X130.07 Y130.17
G1 F2700 X174.97 Y130.17 E134.84823
G1 X174.97 Y209.37 E138.79953
G1 X130.07 Y209.37 E141.03960
G1 X130.07 Y130.17 E144.99091
G0 F12000 X130.47 Y130.57
G1 F2700 X174.57 Y130.57 E147.19106
G1 X174.57 Y208.97 E151.10246
G1 X130.47 Y208.97 E153.30261
G1 X130.47 Y130.57 E157.21401
G0 F12000 X130.87 Y130.97
G1 F2700 X174.17 Y130.97 E159.37425
G1 X174.17 Y208.57 E163.24573
G1 X130.87 Y208.57 E165.40598
G1 X130.87 Y130.97 E169.27746
G0 F12000 X131.27 Y131.37
G1 F2700 X173.77 Y131.37 E171.39779
G1 X173.77 Y208.17 E175.22936
G1 X131.27 Y208.17 E177.34969
G1 X131.27 Y131.37 E181.18126
G0 F12000 X131.67 Y131.77
G1 F2700 X173.37 Y131.77 E183.26168
G1 X173.37 Y207.77 E187.05334
G1 X131.67 Y207.77 E189.13376
G1 X131.67 Y131.77 E192.92541
G0 F12000 X132.07 Y132.17
G1 F2700 X172.97 Y132.17 E194.96592
G1 X172.97 Y207.37 E198.71767
G1 X132.07 Y207.37 E200.75818
G1 X132.07 Y132.17 E204.50992
G0 F12000 X132.47 Y132.57
G1 F2700 X172.57 Y132.57 E206.51052
G1 X172.57 Y206.97 E210.22235
G1 X132.47 Y206.97 E212.22294
G1 X132.47 Y132.57 E215.93477
G0 F12000 X132.87 Y132.97
G1 F2700 X172.17 Y132.97 E217.89546
G1 X172.17 Y206.57 E221.56738
G1 X132.87 Y206.57 E223.52806
G1 X132.87 Y132.97 E227.19998
G0 F12000 X133.27 Y133.37
G1 F2700 X171.77 Y133.37 E229.12076
G1 X171.77 Y206.17 E232.75276
G1 X133.27 Y206.17 E234.67353
G1 X133.27 Y133.37 E238.30554
G0 F12000 X133.67 Y133.77
G1 F2700 X171.37 Y133.77 E240.18640
G1 X171.37 Y205.77 E243.77850
G1 X133.67 Y205.77 E245.65936
G1 X133.67 Y133.77 E249.25145
G1 F2400 E248.05145
G0 F12000 X141.66 Y141.39
;TYPE:WALL-INNER
G1 F2400 E249.25145
G1 F2700 X142.28 Y140.94 E249.28952
G1 X142.94 Y140.65 E249.32590
G1 X143.69 Y140.48 E249.36406
G1 X144.48 Y140.48 E249.40322
G1 X145.19 Y140.63 E249.43978
G1 X145.92 Y140.95 E249.47946
G1 X146.53 Y141.39 E249.51714
G1 X147.03 Y141.94 E249.55395
G1 X147.43 Y142.62 E249.59342
G1 X147.66 Y143.33 E249.63083
G1 X147.74 Y144.10 E249.66926
G1 X147.66 Y144.86 E249.70738
G1 X147.43 Y145.58 E249.74531
G1 X147.05 Y146.25 E249.78351
G1 X146.54 Y146.81 E249.82135
G1 X145.93 Y147.25 E249.85917
G1 X145.23 Y147.56 E249.89736
G1 X144.49 Y147.72 E249.93516
G1 X143.72 Y147.72 E249.97328
G1 X142.97 Y147.56 E250.01133
G1 X142.28 Y147.25 E250.04953
G1 X141.66 Y146.81 E250.08735
G1 X141.16 Y146.25 E250.12518
G1 X140.77 Y145.58 E250.16338
G1 X140.54 Y144.86 E250.20130
G1 X140.46 Y144.10 E250.23938
G1 X140.54 Y143.35 E250.27711
G1 X140.77 Y142.62 E250.31500
G1 X141.15 Y141.96 E250.35311
G1 X141.66 Y141.39 E250.39127
G0 F12000 X141.38 Y141.11
;TYPE:WALL-OUTER
G1 F2700 X142.07 Y140.60 E250.43359
G1 X142.08 Y140.60 E250.43420
G1 X142.82 Y140.26 E250.47492
G1 X143.65 Y140.08 E250.51696
G1 X144.50 Y140.08 E250.55986
G1 X144.52 Y140.08 E250.56051
G1 X145.32 Y140.25 E250.60135
G1 X146.11 Y140.59 E250.64445
G1 X146.79 Y141.09 E250.68658
G1 X146.81 Y141.09 E250.68719
G1 X147.35 Y141.70 E250.72806
G1 X147.79 Y142.44 E250.77095
G1 X148.05 Y143.24 E250.81271
G1 X148.14 Y144.09 E250.85522
G1 X148.15 Y144.10 E250.85587
G1 X148.06 Y144.94 E250.89826
G1 X147.80 Y145.75 E250.94038
G1 X147.38 Y146.48 E250.98247
G1 X146.81 Y147.11 E251.02479
G1 X146.12 Y147.60 E251.06700
G1 X145.35 Y147.95 E251.10908
G1 X144.52 Y148.12 E251.15131
G1 X143.68 Y148.12 E251.19342
G1 X142.85 Y147.95 E251.23581
G1 X142.08 Y147.60 E251.27789
G1 X141.39 Y147.11 E251.32010
G1 X140.83 Y146.48 E251.36242
G1 X140.41 Y145.75 E251.40450
G1 X140.14 Y144.94 E251.44663
G1 X140.05 Y144.10 E251.48888
G1 X140.14 Y143.28 E251.53002
G1 X140.14 Y143.26 E251.53107
G1 X140.40 Y142.48 E251.57217
G1 X140.40 Y142.46 E251.57303
G1 X140.82 Y141.74 E251.61453
G1 X140.82 Y141.73 E251.61518
G1 X141.38 Y141.11 E251.65683
G0 F12000 X141.77 Y141.49
;TYPE:FILL
G1 F2700 X146.70 Y146.42 E252.00467
G0 F12000 X146.43 Y146.71
G1 F2700 X141.50 Y141.78 E252.35244
G0 F12000 X141.24 Y142.09
G1 F2700 X146.10 Y146.95 E252.69551
G0 F12000 X145.76 Y147.17
G1 F2700 X141.03 Y142.45 E253.02896
G0 F12000 X140.85 Y142.83
G1 F2700 X145.37 Y147.35 E253.34769
G0 F12000 X144.94 Y147.48
G1 F2700 X140.71 Y143.26 E253.64575
G0 F12000 X140.63 Y143.75
G1 F2700 X144.47 Y147.58 E253.91633
G0 F12000 X143.91 Y147.58
G1 F2700 X140.62 Y144.29 E254.14825
G0 F12000 X140.72 Y144.96
G1 F2700 X143.23 Y147.47 E254.32570
G0 F12000 X142.26 Y147.07
G1 F2700 X141.15 Y145.96 E254.40401
G0 F12000 X142.10 Y141.25
G1 F2700 X146.96 Y146.11 E254.74705
G0 F12000 X147.17 Y145.75
G1 F2700 X142.44 Y141.03 E255.08057
G0 F12000 X142.83 Y140.85
G1 F2700 X147.35 Y145.37 E255.39934
G0 F12000 X147.49 Y144.94
G1 F2700 X143.27 Y140.72 E255.69729
G0 F12000 X143.74 Y140.62
G1 F2700 X147.56 Y144.45 E255.96749
G0 F12000 X147.58 Y143.90
G1 F2700 X144.29 Y140.62 E256.19926
G0 F12000 X144.97 Y140.72
G1 F2700 X147.48 Y143.24 E256.37678
G0 F12000 X147.03 Y142.23
G1 F2700 X145.94 Y141.13 E256.45386
G1 F2400 E255.25386
G0 F12000 X157.34 Y143.35
;TYPE:WALL-INNER
G1 F2400 E256.45386
G1 F2700 X157.57 Y142.62 E256.49171
G1 X157.95 Y141.96 E256.52982
G1 X158.46 Y141.39 E256.56797
G1 X159.08 Y140.94 E256.60604
G1 X159.75 Y140.65 E256.64247
G1 X160.49 Y140.48 E256.68057
G1 X161.28 Y140.48 E256.71974
G1 X161.99 Y140.63 E256.75630
G1 X162.72 Y140.95 E256.79593
G1 X163.33 Y141.39 E256.83368
G1 X163.83 Y141.94 E256.87045
G1 X164.23 Y142.62 E256.90992
G1 X164.46 Y143.33 E256.94728
G1 X164.54 Y144.10 E256.98577
G1 X164.46 Y144.86 E257.02390
G1 X164.23 Y145.58 E257.06183
G1 X163.84 Y146.25 E257.10003
G1 X163.34 Y146.81 E257.13779
G1 X162.72 Y147.26 E257.17587
G1 X162.03 Y147.56 E257.21377
G1 X161.28 Y147.72 E257.25167
G1 X160.52 Y147.72 E257.28979
G1 X159.77 Y147.56 E257.32794
G1 X159.08 Y147.26 E257.36593
G1 X158.46 Y146.81 E257.40386
G1 X157.95 Y146.25 E257.44170
G1 X157.57 Y145.58 E257.47990
G1 X157.34 Y144.86 E257.51783
G1 X157.26 Y144.10 E257.55585
G1 X157.34 Y143.35 E257.59367
G0 F12000 X156.94 Y143.28
;TYPE:WALL-OUTER
G1 F2700 X156.94 Y143.26 E257.59473
G1 X157.20 Y142.48 E257.63583
G1 X157.20 Y142.46 E257.63668
G1 X157.62 Y141.74 E257.67818
G1 X157.62 Y141.73 E257.67884
G1 X158.18 Y141.11 E257.72049
G1 X158.87 Y140.60 E257.76282
G1 X158.88 Y140.60 E257.76343
G1 X159.62 Y140.26 E257.80418
G1 X160.44 Y140.08 E257.84618
G1 X161.30 Y140.08 E257.88908
G1 X161.32 Y140.08 E257.88973
G1 X162.12 Y140.25 E257.93057
G1 X162.91 Y140.59 E257.97363
G1 X163.59 Y141.09 E258.01579
G1 X163.60 Y141.09 E258.01640
G1 X164.15 Y141.70 E258.05727
G1 X164.59 Y142.44 E258.10017
G1 X164.85 Y143.24 E258.14193
G1 X164.94 Y144.09 E258.18444
G1 X164.94 Y144.10 E258.18509
G1 X164.86 Y144.94 E258.22748
G1 X164.59 Y145.75 E258.26961
G1 X164.17 Y146.48 E258.31169
G1 X163.60 Y147.11 E258.35415
G1 X162.92 Y147.60 E258.39609
G1 X162.15 Y147.95 E258.43830
G1 X161.32 Y148.12 E258.48053
G1 X160.48 Y148.12 E258.52264
G1 X159.65 Y147.95 E258.56503
G1 X158.88 Y147.60 E258.60713
G1 X158.19 Y147.11 E258.64931
G1 X157.62 Y146.48 E258.69163
G1 X157.20 Y145.75 E258.73371
G1 X156.94 Y144.94 E258.77584
G1 X156.85 Y144.10 E258.81808
G1 X156.94 Y143.28 E258.85921
G0 F12000 X157.45 Y143.59
;TYPE:FILL
G1 F2700 X161.41 Y147.55 E259.13865
G0 F12000 X161.88 Y147.45
G1 F2700 X157.55 Y143.13 E259.44380
G0 F12000 X157.69 Y142.70
G1 F2700 X162.28 Y147.29 E259.76804
G0 F12000 X162.67 Y147.12
G1 F2700 X157.89 Y142.34 E260.10526
G0 F12000 X158.11 Y141.99
G1 F2700 X163.00 Y146.88 E260.45020
G0 F12000 X163.31 Y146.62
G1 F2700 X158.38 Y141.69 E260.79829
G0 F12000 X158.67 Y141.42
G1 F2700 X163.58 Y146.33 E261.14482
G0 F12000 X163.82 Y146.00
G1 F2700 X159.00 Y141.18 E261.48532
G0 F12000 X159.36 Y140.97
G1 F2700 X164.03 Y145.64 E261.81489
G0 F12000 X164.19 Y145.24
G1 F2700 X159.75 Y140.80 E262.12829
G0 F12000 X160.21 Y140.69
G1 F2700 X164.33 Y144.81 E262.41905
G0 F12000 X164.38 Y144.30
G1 F2700 X160.70 Y140.62 E262.67845
G0 F12000 X161.26 Y140.62
G1 F2700 X164.36 Y143.71 E262.89675
G0 F12000 X164.20 Y142.99
G1 F2700 X162.00 Y140.78 E263.05225
G0 F12000 X157.40 Y144.10
G1 F2700 X160.88 Y147.58 E263.29775
G0 F12000 X160.25 Y147.52
G1 F2700 X157.46 Y144.73 E263.49446
G0 F12000 X157.72 Y145.55
G1 F2700 X159.41 Y147.25 E263.61430
G1 F2400 E262.41430
G0 F12000 X160.49 Y157.28
;TYPE:WALL-INNER
G1 F2400 E263.61430
G1 F2700 X161.28 Y157.28 E263.65341
G1 X161.99 Y157.43 E263.68998
G1 X162.72 Y157.74 E263.72943
G1 X163.34 Y158.19 E263.76751
G1 X163.83 Y158.74 E263.80411
G1 X164.23 Y159.42 E263.84358
G1 X164.46 Y160.13 E263.88094
G1 X164.54 Y160.90 E263.91938
G1 X164.46 Y161.66 E263.95756
G1 X164.23 Y162.38 E263.99549
G1 X163.84 Y163.04 E264.03369
G1 X163.34 Y163.61 E264.07152
G1 X162.72 Y164.06 E264.10952
G1 X162.03 Y164.37 E264.14751
G1 X161.28 Y164.52 E264.18530
G1 X160.52 Y164.52 E264.22357
G1 X159.77 Y164.37 E264.26156
G1 X159.08 Y164.06 E264.29956
G1 X158.46 Y163.61 E264.33756
G1 X157.95 Y163.04 E264.37539
G1 X157.57 Y162.38 E264.41359
G1 X157.34 Y161.66 E264.45152
G1 X157.26 Y160.90 E264.48959
G1 X157.34 Y160.15 E264.52737
G1 X157.57 Y159.42 E264.56522
G1 X157.95 Y158.76 E264.60332
G1 X158.46 Y158.19 E264.64144
G1 X159.08 Y157.75 E264.67940
G1 X159.74 Y157.45 E264.71589
G1 X160.49 Y157.28 E264.75412
G0 F12000 X160.44 Y156.88
;TYPE:WALL-OUTER
G1 F2700 X161.30 Y156.88 E264.79702
G1 X161.32 Y156.88 E264.79767
G1 X162.12 Y157.05 E264.83853
G1 X162.91 Y157.39 E264.88162
G1 X163.59 Y157.88 E264.92372
G1 X163.60 Y157.89 E264.92433
G1 X164.15 Y158.50 E264.96520
G1 X164.59 Y159.24 E265.00809
G1 X164.85 Y160.04 E265.04986
G1 X164.94 Y160.88 E265.09232
G1 X164.94 Y160.90 E265.09297
G1 X164.86 Y161.74 E265.13541
G1 X164.59 Y162.54 E265.17754
G1 X164.17 Y163.28 E265.21962
G1 X163.61 Y163.91 E265.26194
G1 X162.92 Y164.40 E265.30415
G1 X162.15 Y164.75 E265.34630
G1 X161.32 Y164.92 E265.38842
G1 X160.48 Y164.92 E265.43063
G1 X159.65 Y164.75 E265.47291
G1 X158.88 Y164.40 E265.51506
G1 X158.19 Y163.91 E265.55727
G1 X157.62 Y163.28 E265.59959
G1 X157.20 Y162.54 E265.64167
G1 X156.94 Y161.74 E265.68380
G1 X156.85 Y160.90 E265.72609
G1 X156.94 Y160.08 E265.76717
G1 X156.94 Y160.06 E265.76823
G1 X157.20 Y159.28 E265.80933
G1 X157.20 Y159.26 E265.81019
G1 X157.62 Y158.54 E265.85169
G1 X157.62 Y158.53 E265.85234
G1 X158.18 Y157.91 E265.89399
G1 X158.87 Y157.41 E265.93629
G1 X158.88 Y157.40 E265.93690
G1 X159.62 Y157.06 E265.97766
G1 X160.44 Y156.88 E266.01966
G0 F12000 X160.53 Y157.42
;TYPE:FILL
G1 F2700 X164.36 Y161.25 E266.28992
G0 F12000 X164.29 Y161.74
G1 F2700 X160.07 Y157.52 E266.58777
G0 F12000 X159.63 Y157.65
G1 F2700 X164.15 Y162.17 E266.90647
G0 F12000 X163.97 Y162.55
G1 F2700 X159.24 Y157.83 E267.23988
G0 F12000 X158.90 Y158.05
G1 F2700 X163.76 Y162.91 E267.58292
G0 F12000 X163.50 Y163.22
G1 F2700 X158.57 Y158.29 E267.93076
G0 F12000 X158.30 Y158.58
G1 F2700 X163.23 Y163.51 E268.27860
G0 F12000 X162.90 Y163.75
G1 F2700 X158.04 Y158.89 E268.62171
G0 F12000 X157.83 Y159.25
G1 F2700 X162.56 Y163.97 E268.95522
G0 F12000 X162.17 Y164.15
G1 F2700 X157.65 Y159.63 E269.27399
G0 F12000 X157.51 Y160.06
G1 F2700 X161.74 Y164.28 E269.57209
G0 F12000 X161.27 Y164.38
G1 F2700 X157.43 Y160.54 E269.84270
G0 F12000 X157.42 Y161.09
G1 F2700 X160.70 Y164.38 E270.07455
G0 F12000 X160.03 Y164.28
G1 F2700 X157.51 Y161.76 E270.25217
G0 F12000 X157.95 Y162.76
G1 F2700 X159.06 Y163.87 E270.33038
G0 F12000 X164.38 Y160.70
G1 F2700 X161.09 Y157.42 E270.56230
G0 F12000 X161.77 Y157.52
G1 F2700 X164.28 Y160.04 E270.73978
G0 F12000 X163.83 Y159.03
G1 F2700 X162.75 Y157.94 E270.81658
G1 F2400 E269.61658
G0 F12000 X147.66 Y160.13
;TYPE:WALL-INNER
G1 F2400 E270.81658
G1 F2700 X147.74 Y160.90 E270.85497
G1 X147.66 Y161.66 E270.89314
G1 X147.43 Y162.38 E270.93106
G1 X147.05 Y163.04 E270.96926
G1 X146.54 Y163.61 E271.00710
G1 X145.92 Y164.06 E271.04510
G1 X145.23 Y164.37 E271.08309
G1 X144.49 Y164.52 E271.12088
G1 X143.72 Y164.52 E271.15915
G1 X142.97 Y164.37 E271.19714
G1 X142.28 Y164.06 E271.23513
G1 X141.66 Y163.61 E271.27313
G1 X141.16 Y163.04 E271.31097
G1 X140.77 Y162.38 E271.34917
G1 X140.54 Y161.66 E271.38710
G1 X140.46 Y160.90 E271.42517
G1 X140.54 Y160.15 E271.46290
G1 X140.77 Y159.42 E271.50080
G1 X141.15 Y158.76 E271.53891
G1 X141.66 Y158.19 E271.57703
G1 X142.28 Y157.75 E271.61503
G1 X142.94 Y157.45 E271.65143
G1 X143.69 Y157.28 E271.68970
G1 X144.48 Y157.28 E271.72882
G1 X145.19 Y157.43 E271.76538
G1 X145.92 Y157.74 E271.80484
G1 X146.54 Y158.19 E271.84292
G1 X147.03 Y158.74 E271.87952
G1 X147.43 Y159.42 E271.91899
G1 X147.66 Y160.13 E271.95640
G0 F12000 X148.05 Y160.04
;TYPE:WALL-OUTER
G1 F2700 X148.14 Y160.88 E271.99886
G1 X148.15 Y160.90 E271.99951
G1 X148.06 Y161.74 E272.04194
G1 X147.80 Y162.54 E272.08407
G1 X147.38 Y163.28 E272.12615
G1 X146.81 Y163.91 E272.16847
G1 X146.12 Y164.40 E272.21068
G1 X145.35 Y164.75 E272.25283
G1 X144.53 Y164.92 E272.29495
G1 X143.68 Y164.92 E272.33716
G1 X142.85 Y164.75 E272.37944
G1 X142.08 Y164.40 E272.42159
G1 X141.39 Y163.91 E272.46380
G1 X140.83 Y163.28 E272.50612
G1 X140.41 Y162.54 E272.54820
G1 X140.14 Y161.74 E272.59033
G1 X140.05 Y160.90 E272.63263
G1 X140.14 Y160.08 E272.67372
G1 X140.14 Y160.06 E272.67477
G1 X140.40 Y159.28 E272.71587
G1 X140.40 Y159.26 E272.71673
G1 X140.82 Y158.54 E272.75823
G1 X140.82 Y158.53 E272.75888
G1 X141.38 Y157.91 E272.80053
G1 X142.07 Y157.41 E272.84283
G1 X142.08 Y157.40 E272.84344
G1 X142.82 Y157.06 E272.88415
G1 X143.65 Y156.88 E272.92621
G1 X144.50 Y156.88 E272.96911
G1 X144.52 Y156.88 E272.96976
G1 X145.32 Y157.05 E273.01061
G1 X146.11 Y157.39 E273.05371
G1 X146.79 Y157.88 E273.09581
G1 X146.81 Y157.89 E273.09642
G1 X147.35 Y158.50 E273.13729
G1 X147.79 Y159.24 E273.18018
G1 X148.05 Y160.04 E273.22194
G0 F12000 X147.53 Y160.26
;TYPE:FILL
G1 F2700 X144.75 Y157.48 E273.41851
G0 F12000 X144.12 Y157.42
G1 F2700 X147.60 Y160.90 E273.66387
G0 F12000 X147.55 Y161.41
G1 F2700 X143.59 Y157.45 E273.94334
G0 F12000 X143.13 Y157.55
G1 F2700 X147.45 Y161.87 E274.24821
G0 F12000 X147.31 Y162.30
G1 F2700 X142.71 Y157.71 E274.57234
G0 F12000 X142.33 Y157.88
G1 F2700 X147.10 Y162.66 E274.90945
G0 F12000 X146.89 Y163.01
G1 F2700 X142.00 Y158.12 E275.25429
G0 F12000 X141.69 Y158.37
G1 F2700 X146.62 Y163.31 E275.60234
G0 F12000 X146.33 Y163.58
G1 F2700 X141.42 Y158.67 E275.94894
G0 F12000 X141.18 Y159.00
G1 F2700 X146.00 Y163.82 E276.28952
G0 F12000 X145.64 Y164.03
G1 F2700 X140.97 Y159.35 E276.61911
G0 F12000 X140.81 Y159.76
G1 F2700 X145.25 Y164.20 E276.93242
G0 F12000 X144.79 Y164.31
G1 F2700 X140.67 Y160.19 E277.22328
G0 F12000 X140.62 Y160.70
G1 F2700 X144.30 Y164.38 E277.48300
G0 F12000 X143.74 Y164.38
G1 F2700 X140.64 Y161.29 E277.70147
G0 F12000 X140.80 Y162.01
G1 F2700 X143.01 Y164.23 E277.85775
G0 F12000 X147.28 Y159.44
G1 F2700 X145.59 Y157.75 E277.97702
G1 F2400 E276.77702
G0 F12000 X144.48 Y174.92
;TYPE:WALL-INNER
G1 F2400 E277.97702
G1 F2700 X145.19 Y175.07 E278.01358
G1 X145.92 Y175.38 E278.05306
G1 X146.54 Y175.83 E278.09114
G1 X147.03 Y176.38 E278.12774
G1 X147.43 Y177.06 E278.16721
G1 X147.66 Y177.77 E278.20461
G1 X147.74 Y178.54 E278.24305
G1 X147.66 Y179.30 E278.28117
G1 X147.43 Y180.02 E278.31910
G1 X147.05 Y180.69 E278.35730
G1 X146.54 Y181.25 E278.39513
G1 X145.93 Y181.69 E278.43295
G1 X145.23 Y182.00 E278.47115
G1 X144.49 Y182.16 E278.50895
G1 X143.72 Y182.16 E278.54706
G1 X142.97 Y182.00 E278.58512
G1 X142.28 Y181.69 E278.62331
G1 X141.66 Y181.25 E278.66113
G1 X141.16 Y180.69 E278.69897
G1 X140.77 Y180.02 E278.73717
G1 X140.54 Y179.30 E278.77508
G1 X140.46 Y178.54 E278.81316
G1 X140.54 Y177.79 E278.85089
G1 X140.77 Y177.06 E278.88879
G1 X141.15 Y176.40 E278.92690
G1 X141.66 Y175.84 E278.96501
G1 X142.28 Y175.39 E279.00290
G1 X142.95 Y175.09 E279.03957
G1 X143.69 Y174.92 E279.07763
G1 X144.48 Y174.92 E279.11680
G0 F12000 X144.50 Y174.52
;TYPE:WALL-OUTER
G1 F2700 X144.52 Y174.52 E279.11745
G1 X145.32 Y174.69 E279.15829
G1 X146.11 Y175.03 E279.20141
G1 X146.79 Y175.53 E279.24350
G1 X146.81 Y175.53 E279.24411
G1 X147.35 Y176.14 E279.28498
G1 X147.79 Y176.88 E279.32788
G1 X148.05 Y177.68 E279.36964
G1 X148.14 Y178.53 E279.41215
G1 X148.15 Y178.54 E279.41280
G1 X148.06 Y179.38 E279.45518
G1 X147.80 Y180.19 E279.49731
G1 X147.38 Y180.92 E279.53939
G1 X146.81 Y181.55 E279.58171
G1 X146.12 Y182.04 E279.62393
G1 X145.35 Y182.39 E279.66601
G1 X144.52 Y182.56 E279.70824
G1 X143.68 Y182.56 E279.75034
G1 X142.85 Y182.39 E279.79273
G1 X142.08 Y182.04 E279.83481
G1 X141.39 Y181.55 E279.87702
G1 X140.83 Y180.92 E279.91934
G1 X140.41 Y180.19 E279.96143
G1 X140.14 Y179.38 E280.00355
G1 X140.05 Y178.54 E280.04580
G1 X140.14 Y177.72 E280.08694
G1 X140.14 Y177.70 E280.08800
G1 X140.40 Y176.92 E280.12910
G1 X140.40 Y176.90 E280.12995
G1 X140.82 Y176.18 E280.17146
G1 X140.82 Y176.17 E280.17211
G1 X141.38 Y175.55 E280.21376
G1 X142.07 Y175.05 E280.25606
G1 X142.82 Y174.71 E280.29748
G1 X143.65 Y174.52 E280.33942
G1 X144.50 Y174.52 E280.38233
G0 F12000 X144.23 Y175.06
;TYPE:FILL
G1 F2700 X147.59 Y178.42 E280.61940
G0 F12000 X147.56 Y178.95
G1 F2700 X143.67 Y175.07 E280.89347
G0 F12000 X143.21 Y175.17
G1 F2700 X147.47 Y179.43 E281.19414
G0 F12000 X147.33 Y179.86
G1 F2700 X142.79 Y175.31 E281.51503
G0 F12000 X142.40 Y175.49
G1 F2700 X147.14 Y180.24 E281.84995
G0 F12000 X146.94 Y180.59
G1 F2700 X142.06 Y175.72 E282.19402
G0 F12000 X141.74 Y175.96
G1 F2700 X146.67 Y180.89 E282.54207
G0 F12000 X146.39 Y181.18
G1 F2700 X141.47 Y176.26 E282.88934
G0 F12000 X141.21 Y176.57
G1 F2700 X146.06 Y181.42 E283.23143
G0 F12000 X145.71 Y181.63
G1 F2700 X141.01 Y176.93 E283.56332
G0 F12000 X140.83 Y177.32
G1 F2700 X145.32 Y181.81 E283.87994
G0 F12000 X144.88 Y181.93
G1 F2700 X140.69 Y177.75 E284.17528
G0 F12000 X140.63 Y178.25
G1 F2700 X144.40 Y182.02 E284.44173
G0 F12000 X143.84 Y182.02
G1 F2700 X140.63 Y178.81 E284.66836
G0 F12000 X140.75 Y179.50
G1 F2700 X143.15 Y181.90 E284.83748
G0 F12000 X142.02 Y181.33
G1 F2700 X141.24 Y180.56 E284.89198
G0 F12000 X144.88 Y175.14
G1 F2700 X147.52 Y177.78 E285.07804
G0 F12000 X147.13 Y176.83
G1 F2700 X145.78 Y175.47 E285.17385
G1 F2400 E283.97385
G0 F12000 X157.34 Y177.79
;TYPE:WALL-INNER
G1 F2400 E285.17385
G1 F2700 X157.57 Y177.06 E285.21170
G1 X157.95 Y176.40 E285.24981
G1 X158.46 Y175.84 E285.28793
G1 X159.07 Y175.39 E285.32582
G1 X159.75 Y175.09 E285.36253
G1 X160.49 Y174.92 E285.40054
G1 X161.28 Y174.92 E285.43971
G1 X161.99 Y175.07 E285.47621
G1 X162.72 Y175.39 E285.51591
G1 X163.33 Y175.83 E285.55368
G1 X163.83 Y176.38 E285.59041
G1 X164.23 Y177.06 E285.62989
G1 X164.46 Y177.77 E285.66725
G1 X164.54 Y178.54 E285.70573
G1 X164.46 Y179.30 E285.74386
G1 X164.23 Y180.02 E285.78179
G1 X163.84 Y180.69 E285.81999
G1 X163.34 Y181.25 E285.85782
G1 X162.72 Y181.70 E285.89587
G1 X162.03 Y182.00 E285.93363
G1 X161.28 Y182.16 E285.97164
G1 X160.52 Y182.16 E286.00976
G1 X159.77 Y182.00 E286.04781
G1 X159.07 Y181.69 E286.08600
G1 X158.46 Y181.25 E286.12383
G1 X157.95 Y180.69 E286.16166
G1 X157.57 Y180.02 E286.19986
G1 X157.34 Y179.30 E286.23779
G1 X157.26 Y178.54 E286.27581
G1 X157.34 Y177.79 E286.31363
G0 F12000 X156.94 Y177.72
;TYPE:WALL-OUTER
G1 F2700 X156.94 Y177.70 E286.31469
G1 X157.20 Y176.92 E286.35579
G1 X157.20 Y176.90 E286.35664
G1 X157.62 Y176.18 E286.39815
G1 X157.62 Y176.17 E286.39880
G1 X158.18 Y175.55 E286.44045
G1 X158.87 Y175.05 E286.48275
G1 X159.62 Y174.71 E286.52422
G1 X160.44 Y174.52 E286.56611
G1 X161.30 Y174.52 E286.60902
G1 X161.32 Y174.52 E286.60967
G1 X162.12 Y174.69 E286.65051
G1 X162.91 Y175.03 E286.69358
G1 X162.92 Y175.04 E286.69419
G1 X163.59 Y175.53 E286.73573
G1 X163.60 Y175.53 E286.73634
G1 X164.15 Y176.14 E286.77721
G1 X164.59 Y176.88 E286.82011
G1 X164.85 Y177.68 E286.86187
G1 X164.94 Y178.53 E286.90438
G1 X164.94 Y178.54 E286.90503
G1 X164.86 Y179.38 E286.94742
G1 X164.59 Y180.19 E286.98955
G1 X164.17 Y180.92 E287.03163
G1 X163.61 Y181.55 E287.07395
G1 X162.92 Y182.04 E287.11621
G1 X162.15 Y182.39 E287.15824
G1 X161.32 Y182.56 E287.20047
G1 X160.48 Y182.56 E287.24258
G1 X159.65 Y182.39 E287.28497
G1 X158.88 Y182.04 E287.32705
G1 X158.19 Y181.55 E287.36926
G1 X157.62 Y180.92 E287.41158
G1 X157.20 Y180.19 E287.45366
G1 X156.94 Y179.38 E287.49579
G1 X156.85 Y178.54 E287.53803
G1 X156.94 Y177.72 E287.57916
G0 F12000 X157.54 Y177.62
;TYPE:FILL
G1 F2700 X161.82 Y181.90 E287.88146
G0 F12000 X162.24 Y181.75
G1 F2700 X157.67 Y177.19 E288.20351
G0 F12000 X157.87 Y176.82
G1 F2700 X162.63 Y181.58 E288.53946
G0 F12000 X162.96 Y181.35
G1 F2700 X158.08 Y176.47 E288.88384
G0 F12000 X158.35 Y176.17
G1 F2700 X163.28 Y181.10 E289.23196
G0 F12000 X163.55 Y180.80
G1 F2700 X158.63 Y175.88 E289.57899
G0 F12000 X158.96 Y175.65
G1 F2700 X163.80 Y180.49 E289.92047
G0 F12000 X164.00 Y180.13
G1 F2700 X159.31 Y175.44 E290.25152
G0 F12000 X159.71 Y175.26
G1 F2700 X164.18 Y179.73 E290.56690
G0 F12000 X164.31 Y179.31
G1 F2700 X160.15 Y175.14 E290.86066
G0 F12000 X160.64 Y175.06
G1 F2700 X164.37 Y178.80 E291.12433
G0 F12000 X164.37 Y178.23
G1 F2700 X161.20 Y175.06 E291.34802
G0 F12000 X161.90 Y175.19
G1 F2700 X164.23 Y177.53 E291.51284
G0 F12000 X163.53 Y176.26
G1 F2700 X163.12 Y175.85 E291.54219
G0 F12000 X157.44 Y178.09
G1 F2700 X161.35 Y182.00 E291.81813
G0 F12000 X160.81 Y182.02
G1 F2700 X157.41 Y178.62 E292.05823
G0 F12000 X157.47 Y179.25
G1 F2700 X160.16 Y181.94 E292.24824
G0 F12000 X159.29 Y181.64
G1 F2700 X157.81 Y180.15 E292.35287
G1 F2400 E291.15287
G0 F12000 X160.49 Y191.72
;TYPE:WALL-INNER
G1 F2400 E292.35287
G1 F2700 X161.28 Y191.72 E292.39199
G1 X161.99 Y191.87 E292.42855
G1 X162.72 Y192.19 E292.46801
G1 X163.34 Y192.63 E292.50609
G1 X163.83 Y193.18 E292.54269
G1 X164.23 Y193.86 E292.58216
G1 X164.46 Y194.57 E292.61952
G1 X164.54 Y195.34 E292.65796
G1 X164.46 Y196.10 E292.69613
G1 X164.23 Y196.82 E292.73406
G1 X163.84 Y197.49 E292.77226
G1 X163.34 Y198.05 E292.81010
G1 X162.72 Y198.50 E292.84810
G1 X162.03 Y198.81 E292.88609
G1 X161.28 Y198.96 E292.92388
G1 X160.52 Y198.96 E292.96215
G1 X159.77 Y198.81 E293.00014
G1 X159.08 Y198.50 E293.03813
G1 X158.46 Y198.05 E293.07613
G1 X157.95 Y197.49 E293.11397
G1 X157.57 Y196.82 E293.15217
G1 X157.34 Y196.10 E293.19010
G1 X157.26 Y195.34 E293.22817
G1 X157.34 Y194.59 E293.26594
G1 X157.57 Y193.87 E293.30379
G1 X157.95 Y193.20 E293.34190
G1 X158.46 Y192.63 E293.38002
G1 X159.08 Y192.19 E293.41798
G1 X159.74 Y191.89 E293.45447
G1 X160.49 Y191.72 E293.49269
G0 F12000 X160.44 Y191.32
;TYPE:WALL-OUTER
G1 F2700 X161.30 Y191.32 E293.53560
G1 X161.32 Y191.32 E293.53625
G1 X162.12 Y191.49 E293.57710
G1 X162.91 Y191.83 E293.62020
G1 X163.59 Y192.33 E293.66230
G1 X163.60 Y192.33 E293.66290
G1 X164.15 Y192.94 E293.70378
G1 X164.59 Y193.68 E293.74667
G1 X164.85 Y194.48 E293.78843
G1 X164.94 Y195.32 E293.83090
G1 X164.94 Y195.34 E293.83155
G1 X164.86 Y196.18 E293.87399
G1 X164.59 Y196.99 E293.91611
G1 X164.17 Y197.72 E293.95820
G1 X163.61 Y198.35 E294.00052
G1 X162.92 Y198.84 E294.04273
G1 X162.15 Y199.19 E294.08488
G1 X161.32 Y199.36 E294.12700
G1 X160.48 Y199.36 E294.16921
G1 X159.65 Y199.19 E294.21149
G1 X158.88 Y198.84 E294.25363
G1 X158.19 Y198.35 E294.29585
G1 X157.62 Y197.72 E294.33816
G1 X157.20 Y196.99 E294.38025
G1 X156.94 Y196.18 E294.42237
G1 X156.85 Y195.34 E294.46467
G1 X156.94 Y194.52 E294.50575
G1 X156.94 Y194.50 E294.50681
G1 X157.20 Y193.72 E294.54791
G1 X157.20 Y193.70 E294.54876
G1 X157.62 Y192.98 E294.59027
G1 X157.62 Y192.97 E294.59092
G1 X158.18 Y192.35 E294.63257
G1 X158.87 Y191.85 E294.67487
G1 X158.88 Y191.84 E294.67548
G1 X159.62 Y191.51 E294.71623
G1 X160.44 Y191.32 E294.75824
G0 F12000 X160.47 Y191.87
;TYPE:FILL
G1 F2700 X164.36 Y195.75 E295.03231
G0 F12000 X164.27 Y196.23
G1 F2700 X160.01 Y191.97 E295.33295
G0 F12000 X159.59 Y192.11
G1 F2700 X164.13 Y196.66 E295.65376
G0 F12000 X163.94 Y197.04
G1 F2700 X159.19 Y192.29 E295.98879
G0 F12000 X158.86 Y192.52
G1 F2700 X163.74 Y197.39 E296.33282
G0 F12000 X163.47 Y197.69
G1 F2700 X158.54 Y192.76 E296.68080
G0 F12000 X158.27 Y193.06
G1 F2700 X163.19 Y197.98 E297.02815
G0 F12000 X162.86 Y198.22
G1 F2700 X158.01 Y193.37 E297.37037
G0 F12000 X157.81 Y193.73
G1 F2700 X162.51 Y198.43 E297.70241
G0 F12000 X162.12 Y198.61
G1 F2700 X157.63 Y194.12 E298.01906
G0 F12000 X157.49 Y194.55
G1 F2700 X161.68 Y198.73 E298.31448
G0 F12000 X161.20 Y198.82
G1 F2700 X157.43 Y195.05 E298.58089
G0 F12000 X157.43 Y195.61
G1 F2700 X160.64 Y198.82 E298.80759
G0 F12000 X159.95 Y198.70
G1 F2700 X157.55 Y196.30 E298.97699
G0 F12000 X158.04 Y197.35
G1 F2700 X158.82 Y198.13 E299.03195
G0 F12000 X164.39 Y195.22
G1 F2700 X161.03 Y191.86 E299.26902
G0 F12000 X161.68 Y191.94
G1 F2700 X164.32 Y194.58 E299.45493
G0 F12000 X163.93 Y193.63
G1 F2700 X162.58 Y192.28 E299.55054
G1 F2400 E298.35054
G0 F12000 X147.66 Y194.57
;TYPE:WALL-INNER
G1 F2400 E299.55054
G1 F2700 X147.74 Y195.34 E299.58892
G1 X147.66 Y196.10 E299.62709
G1 X147.43 Y196.82 E299.66502
G1 X147.05 Y197.49 E299.70322
G1 X146.54 Y198.05 E299.74106
G1 X145.92 Y198.50 E299.77906
G1 X145.23 Y198.81 E299.81705
G1 X144.49 Y198.96 E299.85484
G1 X143.72 Y198.96 E299.89310
G1 X142.97 Y198.81 E299.93110
G1 X142.28 Y198.50 E299.96909
G1 X141.66 Y198.05 E300.00709
G1 X141.16 Y197.49 E300.04493
G1 X140.77 Y196.82 E300.08313
G1 X140.54 Y196.10 E300.12105
G1 X140.46 Y195.34 E300.15913
G1 X140.54 Y194.59 E300.19686
G1 X140.77 Y193.87 E300.23476
G1 X141.15 Y193.20 E300.27286
G1 X141.66 Y192.63 E300.31098
G1 X142.28 Y192.19 E300.34898
G1 X142.94 Y191.89 E300.38538
G1 X143.69 Y191.72 E300.42366
G1 X144.48 Y191.72 E300.46277
G1 X145.19 Y191.87 E300.49934
G1 X145.92 Y192.19 E300.53880
G1 X146.54 Y192.63 E300.57688
G1 X147.03 Y193.18 E300.61347
G1 X147.43 Y193.86 E300.65294
G1 X147.66 Y194.57 E300.69035
G0 F12000 X148.05 Y194.48
;TYPE:WALL-OUTER
G1 F2700 X148.14 Y195.32 E300.73281
G1 X148.15 Y195.34 E300.73346
G1 X148.06 Y196.18 E300.77590
G1 X147.80 Y196.99 E300.81802
G1 X147.38 Y197.72 E300.86011
G1 X146.81 Y198.35 E300.90243
G1 X146.12 Y198.84 E300.94464
G1 X145.35 Y199.19 E300.98679
G1 X144.53 Y199.36 E301.02891
G1 X143.68 Y199.36 E301.07112
G1 X142.85 Y199.19 E301.11340
G1 X142.08 Y198.84 E301.15554
G1 X141.39 Y198.35 E301.19775
G1 X140.83 Y197.72 E301.24007
G1 X140.41 Y196.99 E301.28216
G1 X140.14 Y196.18 E301.32428
G1 X140.05 Y195.34 E301.36658
G1 X140.14 Y194.52 E301.40767
G1 X140.14 Y194.50 E301.40873
G1 X140.40 Y193.72 E301.44983
G1 X140.40 Y193.70 E301.45068
G1 X140.82 Y192.98 E301.49219
G1 X140.82 Y192.97 E301.49284
G1 X141.38 Y192.35 E301.53449
G1 X142.07 Y191.85 E301.57679
G1 X142.08 Y191.84 E301.57740
G1 X142.82 Y191.51 E301.61811
G1 X143.65 Y191.32 E301.66016
G1 X144.50 Y191.32 E301.70307
G1 X144.52 Y191.32 E301.70372
G1 X145.32 Y191.49 E301.74457
G1 X146.11 Y191.83 E301.78767
G1 X146.79 Y192.33 E301.82976
G1 X146.81 Y192.33 E301.83037
G1 X147.35 Y192.94 E301.87124
G1 X147.79 Y193.68 E301.91414
G1 X148.05 Y194.48 E301.95590
G0 F12000 X147.54 Y194.78
;TYPE:FILL
G1 F2700 X144.66 Y191.90 E302.15885
G0 F12000 X144.06 Y191.86
G1 F2700 X147.60 Y195.40 E302.40841
G0 F12000 X147.54 Y195.91
G1 F2700 X143.53 Y191.90 E302.69116
G0 F12000 X143.07 Y192.00
G1 F2700 X147.43 Y196.36 E302.99874
G0 F12000 X147.29 Y196.78
G1 F2700 X142.67 Y192.17 E303.32467
G0 F12000 X142.29 Y192.35
G1 F2700 X147.08 Y197.14 E303.66277
G0 F12000 X146.86 Y197.49
G1 F2700 X141.96 Y192.59 E304.00807
G0 F12000 X141.66 Y192.85
G1 F2700 X146.59 Y197.78 E304.35609
G0 F12000 X146.29 Y198.05
G1 F2700 X141.39 Y193.15 E304.70209
G0 F12000 X141.15 Y193.48
G1 F2700 X145.97 Y198.29 E305.04167
G0 F12000 X145.59 Y198.49
G1 F2700 X140.95 Y193.84 E305.36969
G0 F12000 X140.79 Y194.25
G1 F2700 X145.20 Y198.66 E305.68098
G0 F12000 X144.74 Y198.76
G1 F2700 X140.67 Y194.69 E305.96849
G0 F12000 X140.61 Y195.20
G1 F2700 X144.23 Y198.82 E306.22404
G0 F12000 X143.65 Y198.80
G1 F2700 X140.65 Y195.80 E306.43599
G0 F12000 X140.83 Y196.55
G1 F2700 X142.90 Y198.62 E306.58169
G0 F12000 X147.33 Y194.00
G1 F2700 X145.47 Y192.14 E306.71236
G1 F2400 E305.51236
G0 F12000 X147.40 Y188.91
;TYPE:SUPPORT
G1 F2400 E306.71236
G1 F2700 X146.30 Y188.42 E306.77266
G1 X144.08 Y187.95 E306.88589
G1 X141.81 Y188.46 E307.00180
G1 X140.48 Y189.05 E307.07432
G1 X140.19 Y189.25 E307.09205
G1 X139.26 Y189.93 E307.14963
G1 X139.01 Y190.20 E307.16757
G1 X138.25 Y191.04 E307.22424
G1 X138.08 Y191.32 E307.24048
G1 X137.50 Y192.33 E307.29886
G1 X137.38 Y192.65 E307.31602
G1 X137.01 Y193.78 E307.37495
G1 X136.97 Y194.11 E307.39194
G1 X136.84 Y195.34 E307.45344
G1 X137.00 Y196.85 E307.52930
G1 X137.47 Y198.29 E307.60499
G1 X138.22 Y199.61 E307.68063
G1 X139.24 Y200.74 E307.75650
G1 X140.47 Y201.63 E307.83218
G1 X141.86 Y202.25 E307.90809
G1 X143.34 Y202.56 E307.98391
G1 X144.44 Y202.56 E308.03869
G1 X144.82 Y202.57 E308.05736
G1 X146.34 Y202.25 E308.13527
G1 X147.73 Y201.63 E308.21119
G1 X148.96 Y200.74 E308.28686
G1 X149.98 Y199.61 E308.36274
G1 X150.74 Y198.29 E308.43846
G1 X151.20 Y196.85 E308.51400
G1 X151.36 Y195.34 E308.58999
G1 X151.21 Y193.90 E308.66198
G1 X151.12 Y193.55 E308.68012
G1 X150.74 Y192.40 E308.74060
G1 X150.56 Y192.08 E308.75919
G1 X149.95 Y191.04 E308.81918
G1 X148.97 Y189.95 E308.89220
G1 X148.69 Y189.75 E308.90919
G1 X147.74 Y189.06 E308.96802
G1 X147.40 Y188.91 E308.98633
G0 F12000 X147.43 Y188.81
G0 X146.39 Y185.53
G0 X146.34 Y185.45
G1 F2700 X147.74 Y184.83 E309.06229
G1 X148.96 Y183.94 E309.13796
G1 X149.98 Y182.81 E309.21381
G1 X150.74 Y181.49 E309.28953
G1 X151.20 Y180.05 E309.36507
G1 X151.36 Y178.54 E309.44102
G1 X151.21 Y177.10 E309.51300
G1 X151.12 Y176.75 E309.53115
G1 X150.74 Y175.60 E309.59168
G1 X150.56 Y175.28 E309.61025
G1 X149.95 Y174.24 E309.67024
G1 X148.97 Y173.15 E309.74327
G1 X148.69 Y172.95 E309.76025
G1 X147.74 Y172.26 E309.81912
G1 X147.42 Y172.11 E309.83664
G1 X146.30 Y171.62 E309.89773
G1 X144.90 Y171.33 E309.96875
G1 X144.53 Y171.32 E309.98737
G1 X143.28 Y171.33 E310.04948
G1 X141.81 Y171.65 E310.12467
G1 X140.48 Y172.25 E310.19760
G1 X140.19 Y172.45 E310.21535
G1 X139.26 Y173.13 E310.27275
G1 X139.01 Y173.40 E310.29076
G1 X138.25 Y174.24 E310.34742
G1 X138.08 Y174.52 E310.36366
G1 X137.50 Y175.53 E310.42204
G1 X137.38 Y175.85 E310.43920
G1 X137.01 Y176.98 E310.49813
G1 X136.97 Y177.31 E310.51512
G1 X136.84 Y178.54 E310.57673
G1 X137.00 Y180.05 E310.65249
G1 X137.47 Y181.50 E310.72817
G1 X138.22 Y182.81 E310.80381
G1 X139.24 Y183.94 E310.87966
G1 X140.47 Y184.83 E310.95533
G1 X141.86 Y185.45 E311.03129
G1 X144.10 Y185.93 E311.14585
G1 X146.34 Y185.45 E311.26006
G0 F12000 X146.39 Y185.53
G0 X154.26 Y181.50
G1 F2700 X155.02 Y182.81 E311.33570
G1 X156.04 Y183.94 E311.41154
G1 X157.26 Y184.83 E311.48721
G1 X158.66 Y185.45 E311.56318
G1 X160.90 Y185.93 E311.67773
G1 X163.14 Y185.45 E311.79199
G1 X164.53 Y184.83 E311.86777
G1 X165.76 Y183.94 E311.94349
G1 X166.78 Y182.81 E312.01941
G1 X167.53 Y181.50 E312.09505
G1 X168.00 Y180.05 E312.17084
G1 X168.16 Y178.57 E312.24519
G1 X168.13 Y178.21 E312.26338
G1 X168.01 Y177.10 E312.31882
G1 X167.92 Y176.76 E312.33655
G1 X167.54 Y175.60 E312.39729
G1 X167.35 Y175.28 E312.41586
G1 X166.75 Y174.24 E312.47581
G1 X165.77 Y173.15 E312.54869
G1 X165.48 Y172.94 E312.56656
G1 X165.48 Y172.94 E312.56661
G1 X164.54 Y172.26 E312.62466
G1 X164.20 Y172.11 E312.64300
G1 X163.10 Y171.62 E312.70318
G1 X161.70 Y171.33 E312.77437
G1 X161.33 Y171.32 E312.79298
G1 X160.08 Y171.33 E312.85510
G1 X158.61 Y171.65 E312.93029
G1 X157.28 Y172.25 E313.00316
G1 X156.99 Y172.46 E313.02102
G1 X156.99 Y172.45 E313.02107
G1 X156.06 Y173.13 E313.07843
G1 X155.81 Y173.40 E313.09644
G1 X155.05 Y174.24 E313.15310
G1 X154.88 Y174.52 E313.16934
G1 X154.30 Y175.53 E313.22772
G1 X154.18 Y175.85 E313.24488
G1 X153.81 Y176.98 E313.30381
G1 X153.76 Y177.31 E313.32085
G1 X153.63 Y178.54 E313.38241
G1 X153.79 Y180.05 E313.45806
G1 X154.26 Y181.50 E313.53386
G0 F12000 X157.28 Y189.05
G1 F2700 X157.00 Y189.25 E313.55118
G1 X156.99 Y189.25 E313.55178
G1 X156.05 Y189.93 E313.60946
G1 X155.81 Y190.20 E313.62722
G1 X155.05 Y191.04 E313.68389
G1 X154.88 Y191.32 E313.70013
G1 X154.30 Y192.33 E313.75851
G1 X154.18 Y192.65 E313.77567
G1 X153.81 Y193.78 E313.83460
G1 X153.76 Y194.11 E313.85159
G1 X153.63 Y195.34 E313.91309
G1 X153.79 Y196.85 E313.98885
G1 X154.26 Y198.29 E314.06464
G1 X155.02 Y199.61 E314.14028
G1 X156.04 Y200.74 E314.21616
G1 X157.27 Y201.63 E314.29183
G1 X158.66 Y202.25 E314.36775
G1 X160.14 Y202.56 E314.44357
G1 X161.24 Y202.56 E314.49835
G1 X161.62 Y202.57 E314.51701
G1 X163.14 Y202.25 E314.59493
G1 X164.53 Y201.63 E314.67084
G1 X165.76 Y200.74 E314.74651
G1 X166.78 Y199.61 E314.82239
G1 X167.53 Y198.29 E314.89803
G1 X168.00 Y196.85 E314.97382
G1 X168.16 Y195.37 E315.04823
G1 X168.13 Y195.00 E315.06636
G1 X168.01 Y193.90 E315.12181
G1 X167.92 Y193.56 E315.13954
G1 X167.54 Y192.40 E315.20028
G1 X167.35 Y192.08 E315.21884
G1 X166.75 Y191.04 E315.27884
G1 X165.77 Y189.95 E315.35186
G1 X165.49 Y189.75 E315.36884
G1 X164.54 Y189.06 E315.42767
G1 X164.20 Y188.91 E315.44598
G1 X163.09 Y188.42 E315.50629
G1 X160.88 Y187.95 E315.61952
G1 X158.61 Y188.46 E315.73538
G1 X157.28 Y189.05 E315.80781
G1 F2400 E314.60781
G0 F12000 X171.17 Y205.57
G1 F2400 E315.80781
G1 F2700 X133.87 Y205.57 E317.66871
G1 X133.87 Y133.97 E321.24085
G1 X171.17 Y133.97 E323.10176
G1 X171.17 Y205.57 E326.67389
G0 F12000 X171.07 Y205.56
G0 X167.53 Y191.98
G0 X165.61 Y189.59
G0 X163.16 Y188.23
G0 X155.91 Y184.09
G0 X154.08 Y181.58
G0 X153.44 Y178.54
G0 X147.80 Y167.26
G0 X147.73 Y167.19
G1 F2700 X148.96 Y166.30 E326.74957
G1 X149.98 Y165.17 E326.82545
G1 X150.74 Y163.85 E326.90117
G1 X151.20 Y162.41 E326.97671
G1 X151.36 Y160.90 E327.05270
G1 X151.21 Y159.46 E327.12469
G1 X151.12 Y159.11 E327.14283
G1 X150.74 Y157.96 E327.20331
G1 X150.56 Y157.63 E327.22190
G1 X149.95 Y156.60 E327.28189
G1 X148.97 Y155.51 E327.35491
G1 X148.69 Y155.31 E327.37190
G1 X147.74 Y154.62 E327.43072
G1 X147.40 Y154.47 E327.44904
G1 X146.30 Y153.98 E327.50929
G1 X144.07 Y153.51 E327.62276
G1 X141.81 Y154.01 E327.73846
G1 X140.48 Y154.60 E327.81098
G1 X140.19 Y154.81 E327.82872
G1 X139.26 Y155.49 E327.88630
G1 X139.01 Y155.75 E327.90424
G1 X138.25 Y156.60 E327.96090
G1 X138.08 Y156.88 E327.97714
G1 X137.50 Y157.89 E328.03552
G1 X137.38 Y158.21 E328.05268
G1 X137.01 Y159.34 E328.11161
G1 X136.97 Y159.67 E328.12860
G1 X136.84 Y160.90 E328.19011
G1 X137.00 Y162.41 E328.26597
G1 X137.47 Y163.85 E328.34165
G1 X138.22 Y165.17 E328.41729
G1 X139.24 Y166.30 E328.49317
G1 X140.47 Y167.19 E328.56884
G1 X141.86 Y167.81 E328.64475
G1 X143.34 Y168.12 E328.72057
G1 X144.44 Y168.12 E328.77535
G1 X144.82 Y168.13 E328.79402
G1 X146.34 Y167.81 E328.87194
G1 X147.73 Y167.19 E328.94785
G0 F12000 X147.80 Y167.26
G0 X154.26 Y163.85
G1 F2700 X155.02 Y165.17 E329.02349
G1 X156.04 Y166.30 E329.09937
G1 X157.27 Y167.19 E329.17504
G1 X158.66 Y167.81 E329.25095
G1 X160.14 Y168.12 E329.32677
G1 X161.24 Y168.12 E329.38155
G1 X161.62 Y168.13 E329.40022
G1 X163.14 Y167.81 E329.47814
G1 X164.53 Y167.19 E329.55405
G1 X165.76 Y166.30 E329.62972
G1 X166.78 Y165.17 E329.70560
G1 X167.53 Y163.85 E329.78124
G1 X168.00 Y162.41 E329.85703
G1 X168.16 Y160.93 E329.93143
G1 X168.13 Y160.56 E329.94957
G1 X168.01 Y159.46 E330.00501
G1 X167.92 Y159.12 E330.02274
G1 X167.54 Y157.96 E330.08348
G1 X167.35 Y157.63 E330.10205
G1 X166.75 Y156.60 E330.16205
G1 X165.77 Y155.51 E330.23507
G1 X165.49 Y155.31 E330.25205
G1 X164.54 Y154.62 E330.31088
G1 X164.20 Y154.47 E330.32919
G1 X163.09 Y153.98 E330.38949
G1 X160.88 Y153.51 E330.50272
G1 X158.61 Y154.01 E330.61832
G1 X157.28 Y154.60 E330.69102
G1 X157.00 Y154.81 E330.70834
G1 X156.99 Y154.81 E330.70894
G1 X156.05 Y155.49 E330.76662
G1 X155.81 Y155.75 E330.78438
G1 X155.05 Y156.60 E330.84105
G1 X154.88 Y156.88 E330.85729
G1 X154.30 Y157.89 E330.91567
G1 X154.18 Y158.21 E330.93283
G1 X153.81 Y159.34 E330.99176
G1 X153.76 Y159.67 E331.00875
G1 X153.63 Y160.90 E331.07025
G1 X153.79 Y162.41 E331.14601
G1 X154.26 Y163.85 E331.22180
G1 F2400 E330.02180
G0 F12000 X158.65 Y151.01
G1 F2400 E331.22180
G1 F2700 X160.90 Y151.49 E331.33641
G1 X163.15 Y151.01 E331.45091
G1 X164.53 Y150.39 E331.52644
G1 X165.76 Y149.50 E331.60220
G1 X166.78 Y148.37 E331.67819
G1 X167.53 Y147.06 E331.75383
G1 X168.00 Y145.61 E331.82962
G1 X168.16 Y144.13 E331.90397
G1 X168.13 Y143.76 E331.92216
G1 X168.01 Y142.66 E331.97761
G1 X167.92 Y142.32 E331.99534
G1 X167.54 Y141.16 E332.05608
G1 X167.35 Y140.84 E332.07464
G1 X166.75 Y139.80 E332.13464
G1 X165.77 Y138.71 E332.20752
G1 X165.48 Y138.50 E332.22521
G1 X164.54 Y137.81 E332.28350
G1 X164.20 Y137.66 E332.30181
G1 X163.09 Y137.18 E332.36211
G1 X161.70 Y136.89 E332.43315
G1 X161.33 Y136.88 E332.45177
G1 X160.08 Y136.89 E332.51388
G1 X158.62 Y137.21 E332.58893
G1 X157.28 Y137.81 E332.66194
G1 X157.00 Y138.01 E332.67914
G1 X156.05 Y138.69 E332.73742
G1 X155.81 Y138.96 E332.75521
G1 X155.05 Y139.80 E332.81180
G1 X154.88 Y140.08 E332.82804
G1 X154.30 Y141.09 E332.88642
G1 X154.18 Y141.41 E332.90358
G1 X153.81 Y142.54 E332.96251
G1 X153.76 Y142.88 E332.97955
G1 X153.63 Y144.10 E333.04111
G1 X153.79 Y145.61 E333.11677
G1 X154.26 Y147.06 E333.19256
G1 X155.02 Y148.37 E333.26820
G1 X156.04 Y149.50 E333.34401
G1 X157.27 Y150.39 E333.42001
G1 X158.65 Y151.01 E333.49552
G1 F2400 E332.29552
G0 F12000 X150.74 Y147.05
G1 F2400 E333.49552
G1 F2700 X151.20 Y145.61 E333.57106
G1 X151.36 Y144.10 E333.64701
G1 X151.21 Y142.66 E333.71899
G1 X151.12 Y142.31 E333.73713
G1 X150.74 Y141.16 E333.79767
G1 X150.56 Y140.84 E333.81624
G1 X149.95 Y139.80 E333.87623
G1 X148.97 Y138.72 E333.94901
G1 X148.69 Y138.50 E333.96670
G1 X148.69 Y138.50 E333.96675
G1 X147.74 Y137.82 E334.02496
G1 X147.40 Y137.66 E334.04352
G1 X146.30 Y137.18 E334.10371
G1 X144.90 Y136.89 E334.17475
G1 X144.53 Y136.88 E334.19337
G1 X143.29 Y136.89 E334.25543
G1 X141.81 Y137.21 E334.33063
G1 X140.48 Y137.81 E334.40361
G1 X140.20 Y138.01 E334.42078
G1 X140.19 Y138.01 E334.42139
G1 X139.25 Y138.69 E334.47902
G1 X139.01 Y138.96 E334.49681
G1 X138.25 Y139.80 E334.55340
G1 X138.08 Y140.08 E334.56964
G1 X137.50 Y141.09 E334.62802
G1 X137.38 Y141.41 E334.64518
G1 X137.01 Y142.54 E334.70411
G1 X136.97 Y142.87 E334.72110
G1 X136.84 Y144.10 E334.78271
G1 X137.00 Y145.61 E334.85847
G1 X137.47 Y147.06 E334.93415
G1 X138.22 Y148.37 E335.00979
G1 X139.24 Y149.50 E335.08564
G1 X140.47 Y150.39 E335.16131
G1 X141.86 Y151.01 E335.23732
G1 X144.11 Y151.49 E335.35192
G1 X146.34 Y151.01 E335.46603
G1 X147.74 Y150.39 E335.54200
G1 X148.96 Y149.50 E335.61767
G1 X149.98 Y148.37 E335.69351
G1 X150.74 Y147.05 E335.76924
G0 F12000 X149.99 Y148.24
G1 F2700 X149.99 Y156.78 E336.19565
G0 F12000 X149.91 Y156.65
G1 F2700 X155.09 Y156.65 E336.45433
G0 F12000 X154.96 Y156.57
G0 X155.92 Y155.34
G0 X156.56 Y155.00
G0 X156.65 Y155.14
G1 F2700 X156.65 Y149.87 E336.71715
G0 F12000 X156.81 Y149.99
G1 F2700 X148.19 Y149.99 E337.14726
G0 F12000 X148.28 Y150.11
G0 X146.40 Y151.20
G0 X144.11 Y151.69
G0 X143.28 Y151.41
G0 X143.32 Y151.26
G1 F2700 X143.32 Y153.74 E337.27118
G0 F12000 X143.28 Y153.58
G0 X139.92 Y150.11
G0 X140.01 Y149.99
G1 F2700 X133.81 Y149.99 E337.58045
G0 F12000 X133.97 Y149.99
G0 X133.97 Y156.65
G0 X133.81 Y156.65
G1 F2700 X138.29 Y156.65 E337.80406
G0 F12000 X138.16 Y156.57
G0 X137.19 Y158.15
G0 X136.64 Y160.90
G0 X137.20 Y163.37
G0 X137.35 Y163.32
G1 F2700 X133.81 Y163.32 E337.98082
G0 F12000 X133.97 Y163.32
G0 X133.97 Y169.98
G0 X133.81 Y169.98
G1 F2700 X171.23 Y169.98 E339.84771
G0 F12000 X171.07 Y169.98
G0 X171.07 Y176.65
G0 X171.23 Y176.65
G1 F2700 X167.82 Y176.65 E340.01804
G0 F12000 X167.97 Y176.60
G0 X166.91 Y174.12
G0 X164.64 Y172.08
G0 X163.38 Y171.64
G0 X163.32 Y171.78
G1 F2700 X163.32 Y167.66 E340.22353
G0 F12000 X163.38 Y167.81
G0 X164.63 Y167.36
G0 X166.94 Y165.28
G0 X167.80 Y163.37
G0 X167.65 Y163.32
G1 F2700 X171.23 Y163.32 E340.40234
G0 F12000 X171.07 Y163.32
G0 X171.07 Y156.65
G0 X171.23 Y156.65
G1 F2700 X166.71 Y156.65 E340.62809
G0 F12000 X166.84 Y156.57
G0 X165.61 Y155.15
G0 X164.28 Y154.28
G0 X163.38 Y154.00
G0 X163.32 Y154.15
G1 F2700 X163.32 Y150.87 E340.79173
G0 F12000 X163.38 Y151.01
G0 X165.08 Y150.11
G0 X164.99 Y149.99
G1 F2700 X171.23 Y149.99 E341.10320
G0 F12000 X171.07 Y149.99
G0 X171.07 Y143.32
G0 X171.23 Y143.32
G1 F2700 X168.02 Y143.32 E341.26360
G0 F12000 X168.18 Y143.30
G0 X171.07 Y136.65
G0 X171.23 Y136.65
G1 F2700 X133.81 Y136.65 E343.13049
G0 F12000 X133.97 Y136.65
G0 X136.65 Y134.07
G0 X136.65 Y133.91
G1 F2700 X136.65 Y205.63 E346.70861
G0 F12000 X136.65 Y205.47
G0 X133.97 Y203.31
G0 X133.81 Y203.31
G1 F2700 X171.23 Y203.31 E348.57550
G0 F12000 X171.07 Y203.31
G0 X169.98 Y205.47
G0 X169.98 Y205.63
G1 F2700 X169.98 Y133.91 E352.15363
G0 F12000 X169.98 Y134.07
G0 X163.32 Y134.07
G0 X163.32 Y133.91
G1 F2700 X163.32 Y137.34 E352.32495
G0 F12000 X163.38 Y137.20
G0 X161.33 Y136.68
G0 X158.55 Y137.02
G0 X156.56 Y138.21
G0 X156.65 Y138.34
G1 F2700 X156.65 Y133.91 E352.54572
G0 F12000 X156.65 Y134.07
G0 X149.99 Y134.07
G0 X149.99 Y133.91
G1 F2700 X149.99 Y139.98 E352.84865
G0 F12000 X150.12 Y139.90
G0 X151.31 Y142.26
G0 X151.38 Y143.30
G0 X151.22 Y143.32
G1 F2700 X153.78 Y143.32 E352.97637
G0 F12000 X153.62 Y143.30
G0 X148.86 Y138.41
G0 X146.36 Y136.99
G0 X144.53 Y136.68
G0 X143.32 Y136.79
G0 X143.32 Y136.95
G1 F2700 X143.32 Y133.91 E353.12784
G0 F12000 X143.32 Y134.07
G0 X137.91 Y139.97
G0 X136.77 Y142.85
G0 X136.82 Y143.30
G0 X136.98 Y143.32
G1 F2700 X133.81 Y143.32 E353.28589
G0 F12000 X133.97 Y143.32
G0 X138.06 Y148.49
G0 X142.73 Y153.63
G0 X144.07 Y153.31
G0 X147.84 Y154.44
G0 X150.11 Y156.48
G0 X151.41 Y159.43
G0 X151.40 Y162.45
G0 X151.00 Y163.37
G0 X150.85 Y163.32
G1 F2700 X154.15 Y163.32 E353.45077
G0 F12000 X154.00 Y163.37
G0 X154.86 Y165.28
G0 X156.56 Y166.80
G0 X156.65 Y166.67
G1 F2700 X156.65 Y172.77 E353.75530
G0 F12000 X156.56 Y172.64
G0 X154.71 Y174.41
G0 X153.83 Y176.60
G0 X153.98 Y176.65
G1 F2700 X151.02 Y176.65 E353.90318
G0 F12000 X151.17 Y176.60
G0 X150.92 Y175.52
G0 X150.12 Y174.34
G0 X149.99 Y174.42
G1 F2700 X149.99 Y165.03 E354.37155
G0 F12000 X150.12 Y165.12
G0 X149.09 Y166.44
G0 X146.41 Y168.00
G0 X144.44 Y168.32
G0 X143.29 Y168.21
G0 X143.32 Y168.06
G1 F2700 X143.32 Y171.39 E354.53768
G0 F12000 X143.32 Y171.23
G0 X141.75 Y171.46
G0 X139.12 Y172.98
G0 X137.32 Y175.45
G0 X137.03 Y176.60
G0 X137.18 Y176.65
G1 F2700 X133.81 Y176.65 E354.70591
G0 F12000 X133.97 Y176.65
G0 X133.97 Y183.31
G0 X133.81 Y183.31
G1 F2700 X138.76 Y183.31 E354.95282
G0 F12000 X138.64 Y183.42
G0 X140.37 Y185.00
G0 X141.80 Y185.64
G0 X143.28 Y185.85
G0 X143.32 Y185.70
G1 F2700 X143.32 Y188.18 E355.07680
G0 F12000 X143.28 Y188.03
G0 X141.75 Y188.26
G0 X140.07 Y189.09
G0 X139.18 Y189.87
G0 X139.29 Y189.98
G1 F2700 X133.81 Y189.98 E355.35024
G0 F12000 X133.97 Y189.98
G0 X133.97 Y196.65
G0 X133.81 Y196.65
G1 F2700 X137.04 Y196.65 E355.51114
G0 F12000 X136.88 Y196.66
G0 X137.28 Y198.38
G0 X139.11 Y200.89
G0 X141.80 Y202.44
G0 X143.29 Y202.65
G0 X143.32 Y202.50
G1 F2700 X143.32 Y205.63 E355.66745
G0 F12000 X143.32 Y205.47
G0 X149.99 Y205.47
G0 X149.99 Y205.63
G1 F2700 X149.99 Y199.48 E355.97452
G0 F12000 X150.12 Y199.56
G0 X150.92 Y198.37
G0 X151.32 Y196.66
G0 X151.17 Y196.65
G1 F2700 X153.83 Y196.65 E356.10763
G0 F12000 X153.68 Y196.66
G0 X154.08 Y198.38
G0 X155.91 Y200.89
G0 X156.56 Y201.24
G0 X156.65 Y201.11
G1 F2700 X156.65 Y205.63 E356.33318
G0 F12000 X156.65 Y205.47
G0 X163.32 Y205.47
G0 X163.32 Y205.63
G1 F2700 X163.32 Y202.11 E356.50904
G0 F12000 X163.38 Y202.25
G0 X164.63 Y201.80
G0 X166.94 Y199.72
G0 X168.20 Y196.89
G0 X168.12 Y196.66
G0 X167.97 Y196.65
G1 F2700 X171.23 Y196.65 E356.67194
G0 F12000 X171.07 Y196.65
G0 X171.07 Y189.98
G0 X171.23 Y189.98
G1 F2700 X165.71 Y189.98 E356.94763
G0 F12000 X165.80 Y189.85
G0 X164.28 Y188.72
G0 X163.38 Y188.44
G0 X163.32 Y188.59
G1 F2700 X163.32 Y185.30 E357.11137
G0 F12000 X163.38 Y185.45
G0 X164.63 Y185.00
G0 X165.89 Y184.09
G0 X166.36 Y183.42
G0 X166.24 Y183.31
G1 F2700 X171.23 Y183.31 E357.36032
G0 F12000 X171.07 Y183.31
G0 X160.90 Y186.12
G0 X157.16 Y185.00
G0 X156.56 Y184.44
G0 X156.65 Y184.31
G1 F2700 X156.65 Y189.58 E357.62304
G0 F12000 X156.09 Y189.98
G1 F2700 X148.91 Y189.98 E357.98155
G0 F12000 X149.00 Y189.85
G0 X150.12 Y191.14
G0 X149.99 Y191.22
G1 F2700 X149.99 Y182.68 E358.40801
G0 F12000 X149.44 Y183.31
G1 F2700 X155.56 Y183.31 E358.71319
;LAYER:1
G1 F2400 E357.51319
G0 F12000 X157.93 Y180.70 Z0.60
;TYPE:WALL-INNER
G1 F2400 E358.71319
G1 F3180 X157.54 Y180.04 E358.75135
G1 X157.30 Y179.31 E358.78980
G1 X157.22 Y178.54 E358.82817
G1 X157.30 Y177.82 E358.86419
G1 X157.30 Y177.78 E358.86635
G1 X157.53 Y177.09 E358.90268
G1 X157.90 Y176.42 E358.94093
G1 X157.93 Y176.38 E358.94314
G1 X158.41 Y175.84 E358.97939
G1 X158.44 Y175.81 E358.98137
G1 X159.03 Y175.38 E359.01776
G1 X159.06 Y175.36 E359.01973
G1 X159.73 Y175.06 E359.05629
G1 X159.76 Y175.04 E359.05810
G1 X160.48 Y174.89 E359.09456
G1 X161.24 Y174.88 E359.13253
G1 X161.28 Y174.88 E359.13468
G1 X161.99 Y175.03 E359.17088
G1 X162.70 Y175.34 E359.20927
G1 X162.74 Y175.36 E359.21135
G1 X163.33 Y175.79 E359.24782
G1 X163.35 Y175.81 E359.24947
G1 X163.85 Y176.35 E359.28607
G1 X163.87 Y176.38 E359.28794
G1 X164.24 Y177.01 E359.32431
G1 X164.26 Y177.05 E359.32654
G1 X164.48 Y177.73 E359.36234
G1 X164.57 Y178.50 E359.40112
G1 X164.57 Y178.54 E359.40287
G1 X164.50 Y179.31 E359.44140
G1 X164.26 Y180.04 E359.47984
G1 X163.87 Y180.70 E359.51800
G1 X163.36 Y181.27 E359.55637
G1 X162.74 Y181.72 E359.59470
G1 X162.04 Y182.04 E359.63298
G1 X161.29 Y182.19 E359.67128
G1 X160.51 Y182.20 E359.70974
G1 X159.76 Y182.03 E359.74826
G1 X159.06 Y181.73 E359.78634
G1 X158.44 Y181.27 E359.82473
G1 X157.93 Y180.70 E359.86313
G0 F12000 X157.60 Y180.94
;TYPE:WALL-OUTER
G1 F3180 X157.17 Y180.20 E359.90557
G1 X156.91 Y179.39 E359.94801
G1 X156.82 Y178.54 E359.99060
G1 X156.90 Y177.78 E360.02898
G1 X156.91 Y177.69 E360.03320
G1 X157.15 Y176.96 E360.07158
G1 X157.18 Y176.88 E360.07568
G1 X157.56 Y176.22 E360.11404
G1 X157.60 Y176.15 E360.11804
G1 X158.12 Y175.57 E360.15666
G1 X158.17 Y175.51 E360.16051
G1 X158.86 Y175.01 E360.20316
G1 X159.57 Y174.69 E360.24180
G1 X159.64 Y174.66 E360.24568
G1 X160.40 Y174.50 E360.28429
G1 X160.47 Y174.49 E360.28822
G1 X161.24 Y174.49 E360.32663
G1 X161.32 Y174.49 E360.33067
G1 X162.08 Y174.65 E360.36927
G1 X162.16 Y174.66 E360.37314
G1 X162.94 Y175.01 E360.41593
G1 X163.62 Y175.51 E360.45822
G1 X164.14 Y176.08 E360.49680
G1 X164.20 Y176.14 E360.50082
G1 X164.62 Y176.88 E360.54345
G1 X164.86 Y177.61 E360.58177
G1 X164.89 Y177.69 E360.58584
G1 X164.97 Y178.46 E360.62437
G1 X164.98 Y178.54 E360.62843
G1 X164.89 Y179.39 E360.67107
G1 X164.62 Y180.20 E360.71351
G1 X164.20 Y180.94 E360.75596
G1 X163.63 Y181.57 E360.79860
G1 X162.94 Y182.07 E360.84121
G1 X162.16 Y182.42 E360.88358
G1 X161.32 Y182.60 E360.92622
G1 X161.25 Y182.59 E360.93016
G1 X160.47 Y182.60 E360.96863
G1 X159.64 Y182.42 E361.01132
G1 X158.86 Y182.07 E361.05373
G1 X158.17 Y181.57 E361.09630
G1 X157.60 Y180.94 E361.13894
G0 F12000 X158.00 Y180.56
;TYPE:FILL
G1 F3180 X162.91 Y175.65 E361.48495
G0 F12000 X163.24 Y175.89
G1 F3180 X158.26 Y180.87 E361.83582
G0 F12000 X158.53 Y181.16
G1 F3180 X163.51 Y176.19 E362.18690
G0 F12000 X163.77 Y176.49
G1 F3180 X158.86 Y181.40 E362.53368
G0 F12000 X159.19 Y181.63
G1 F3180 X163.98 Y176.84 E362.87129
G0 F12000 X164.17 Y177.22
G1 F3180 X159.59 Y181.80 E363.19457
G0 F12000 X160.01 Y181.94
G1 F3180 X164.31 Y177.65 E363.49757
G0 F12000 X164.39 Y178.13
G1 F3180 X160.48 Y182.04 E363.77330
G0 F12000 X161.03 Y182.06
G1 F3180 X164.42 Y178.67 E364.01235
G0 F12000 X164.35 Y179.31
G1 F3180 X161.69 Y181.97 E364.19995
G0 F12000 X162.58 Y181.64
G1 F3180 X163.98 Y180.24 E364.29859
G0 F12000 X162.56 Y175.43
G1 F3180 X157.80 Y180.20 E364.63479
G0 F12000 X157.62 Y179.81
G1 F3180 X162.17 Y175.26 E364.95588
G0 F12000 X161.74 Y175.12
G1 F3180 X157.48 Y179.39 E365.25663
G0 F12000 X157.40 Y178.90
G1 F3180 X161.27 Y175.03 E365.52982
G0 F12000 X160.70 Y175.03
G1 F3180 X157.38 Y178.35 E365.76395
G0 F12000 X157.48 Y177.69
G1 F3180 X160.04 Y175.13 E365.94443
G0 F12000 X159.10 Y175.50
G1 F3180 X157.91 Y176.69 E366.02857
G1 F2400 E364.82857
G0 F12000 X147.68 Y177.73
;TYPE:WALL-INNER
G1 F2400 E366.02857
G1 F3180 X147.77 Y178.49 E366.06680
G1 X147.78 Y178.54 E366.06905
G1 X147.70 Y179.31 E366.10762
G1 X147.46 Y180.04 E366.14607
G1 X147.07 Y180.70 E366.18422
G1 X146.56 Y181.27 E366.22262
G1 X145.94 Y181.73 E366.26101
G1 X145.24 Y182.03 E366.29910
G1 X144.49 Y182.19 E366.33750
G1 X143.72 Y182.20 E366.37597
G1 X142.96 Y182.03 E366.41448
G1 X142.26 Y181.73 E366.45256
G1 X141.64 Y181.27 E366.49095
G1 X141.13 Y180.70 E366.52935
G1 X140.74 Y180.04 E366.56751
G1 X140.50 Y179.31 E366.60596
G1 X140.43 Y178.54 E366.64433
G1 X140.50 Y177.82 E366.68035
G1 X140.50 Y177.78 E366.68251
G1 X140.73 Y177.09 E366.71884
G1 X141.10 Y176.42 E366.75709
G1 X141.13 Y176.38 E366.75930
G1 X141.61 Y175.84 E366.79555
G1 X141.64 Y175.81 E366.79753
G1 X142.23 Y175.38 E366.83392
G1 X142.26 Y175.36 E366.83589
G1 X142.93 Y175.06 E366.87240
G1 X142.96 Y175.04 E366.87421
G1 X143.68 Y174.89 E366.91073
G1 X144.44 Y174.88 E366.94870
G1 X144.48 Y174.88 E366.95084
G1 X145.19 Y175.03 E366.98705
G1 X145.90 Y175.34 E367.02548
G1 X145.94 Y175.36 E367.02756
G1 X146.53 Y175.79 E367.06399
G1 X146.56 Y175.81 E367.06564
G1 X147.05 Y176.35 E367.10224
G1 X147.07 Y176.38 E367.10411
G1 X147.44 Y177.01 E367.14048
G1 X147.46 Y177.05 E367.14271
G1 X147.68 Y177.73 E367.17851
G0 F12000 X148.06 Y177.61
;TYPE:WALL-OUTER
G1 F3180 X148.09 Y177.69 E367.18258
G1 X148.17 Y178.46 E367.22101
G1 X148.18 Y178.54 E367.22507
G1 X148.09 Y179.39 E367.26785
G1 X147.83 Y180.20 E367.31024
G1 X147.40 Y180.94 E367.35269
G1 X146.83 Y181.57 E367.39533
G1 X146.14 Y182.07 E367.43790
G1 X145.36 Y182.42 E367.48031
G1 X144.53 Y182.60 E367.52296
G1 X144.45 Y182.59 E367.52690
G1 X143.68 Y182.60 E367.56536
G1 X142.84 Y182.42 E367.60805
G1 X142.06 Y182.07 E367.65047
G1 X141.37 Y181.57 E367.69304
G1 X140.80 Y180.94 E367.73568
G1 X140.38 Y180.20 E367.77812
G1 X140.11 Y179.39 E367.82056
G1 X140.02 Y178.54 E367.86316
G1 X140.10 Y177.78 E367.90154
G1 X140.11 Y177.69 E367.90576
G1 X140.35 Y176.96 E367.94414
G1 X140.38 Y176.88 E367.94824
G1 X140.76 Y176.22 E367.98660
G1 X140.80 Y176.15 E367.99060
G1 X141.32 Y175.57 E368.02922
G1 X141.37 Y175.51 E368.03307
G1 X142.06 Y175.01 E368.07572
G1 X142.77 Y174.69 E368.11431
G1 X142.84 Y174.66 E368.11813
G1 X143.60 Y174.50 E368.15685
G1 X143.67 Y174.49 E368.16077
G1 X144.44 Y174.49 E368.19919
G1 X144.52 Y174.49 E368.20323
G1 X145.28 Y174.65 E368.24182
G1 X145.36 Y174.66 E368.24570
G1 X146.07 Y174.98 E368.28442
G1 X146.14 Y175.01 E368.28835
G1 X146.83 Y175.51 E368.33079
G1 X147.34 Y176.08 E368.36936
G1 X147.40 Y176.14 E368.37339
G1 X147.82 Y176.88 E368.41601
G1 X148.06 Y177.61 E368.45433
G0 F12000 X147.47 Y177.52
;TYPE:FILL
G1 F3180 X143.07 Y181.91 E368.76435
G0 F12000 X142.67 Y181.75
G1 F3180 X147.32 Y177.09 E369.09286
G0 F12000 X147.12 Y176.74
G1 F3180 X142.29 Y181.57 E369.43371
G0 F12000 X141.96 Y181.33
G1 F3180 X146.90 Y176.39 E369.78205
G0 F12000 X146.63 Y176.10
G1 F3180 X141.65 Y181.07 E370.13313
G0 F12000 X141.38 Y180.77
G1 F3180 X146.34 Y175.82 E370.48270
G0 F12000 X146.01 Y175.58
G1 F3180 X141.14 Y180.45 E370.82602
G0 F12000 X140.94 Y180.09
G1 F3180 X145.64 Y175.38 E371.15819
G0 F12000 X145.25 Y175.21
G1 F3180 X140.78 Y179.68 E371.47375
G0 F12000 X140.64 Y179.25
G1 F3180 X144.80 Y175.09 E371.76726
G0 F12000 X144.30 Y175.03
G1 F3180 X140.59 Y178.74 E372.02955
G0 F12000 X140.61 Y178.16
G1 F3180 X143.73 Y175.03 E372.25011
G0 F12000 X143.02 Y175.18
G1 F3180 X140.76 Y177.43 E372.40949
G0 F12000 X143.54 Y182.01
G1 F3180 X147.57 Y177.98 E372.69397
G0 F12000 X147.63 Y178.49
G1 F3180 X144.06 Y182.06 E372.94564
G0 F12000 X144.67 Y182.01
G1 F3180 X147.57 Y179.11 E373.15054
G0 F12000 X147.36 Y179.89
G1 F3180 X145.47 Y181.78 E373.28374
G1 F2400 E372.08374
G0 F12000 X144.48 Y191.69
;TYPE:WALL-INNER
G1 F2400 E373.28374
G1 F3180 X145.19 Y191.84 E373.32001
G1 X145.90 Y192.14 E373.35842
G1 X145.94 Y192.16 E373.36050
G1 X146.53 Y192.59 E373.39693
G1 X146.56 Y192.61 E373.39858
G1 X147.05 Y193.15 E373.43518
G1 X147.07 Y193.18 E373.43705
G1 X147.44 Y193.81 E373.47342
G1 X147.46 Y193.85 E373.47565
G1 X147.68 Y194.53 E373.51145
G1 X147.77 Y195.29 E373.54968
G1 X147.78 Y195.34 E373.55188
G1 X147.69 Y196.11 E373.59050
G1 X147.46 Y196.84 E373.62894
G1 X147.07 Y197.50 E373.66709
G1 X146.56 Y198.07 E373.70549
G1 X145.94 Y198.53 E373.74381
G1 X145.24 Y198.84 E373.78214
G1 X144.49 Y199.00 E373.82033
G1 X143.72 Y199.00 E373.85889
G1 X142.96 Y198.84 E373.89719
G1 X142.26 Y198.53 E373.93552
G1 X141.64 Y198.07 E373.97384
G1 X141.13 Y197.50 E374.01224
G1 X140.74 Y196.84 E374.05039
G1 X140.50 Y196.11 E374.08884
G1 X140.43 Y195.34 E374.12727
G1 X140.50 Y194.62 E374.16323
G1 X140.50 Y194.58 E374.16539
G1 X140.73 Y193.89 E374.20173
G1 X141.10 Y193.22 E374.23997
G1 X141.13 Y193.18 E374.24219
G1 X141.61 Y192.64 E374.27844
G1 X141.64 Y192.61 E374.28041
G1 X142.23 Y192.18 E374.31681
G1 X142.26 Y192.16 E374.31884
G1 X142.93 Y191.86 E374.35500
G1 X142.96 Y191.85 E374.35701
G1 X143.68 Y191.69 E374.39365
G1 X144.44 Y191.69 E374.43157
G1 X144.48 Y191.69 E374.43366
G0 F12000 X144.52 Y191.29
;TYPE:WALL-OUTER
G1 F3180 X145.28 Y191.45 E374.47226
G1 X145.36 Y191.46 E374.47614
G1 X146.07 Y191.78 E374.51484
G1 X146.14 Y191.81 E374.51877
G1 X146.83 Y192.31 E374.56121
G1 X147.34 Y192.88 E374.59978
G1 X147.40 Y192.94 E374.60381
G1 X147.82 Y193.68 E374.64643
G1 X148.06 Y194.41 E374.68475
G1 X148.09 Y194.49 E374.68882
G1 X148.17 Y195.26 E374.72726
G1 X148.18 Y195.34 E374.73126
G1 X148.09 Y196.19 E374.77410
G1 X147.83 Y197.00 E374.81649
G1 X147.40 Y197.74 E374.85893
G1 X146.83 Y198.37 E374.90157
G1 X146.14 Y198.87 E374.94414
G1 X145.36 Y199.22 E374.98662
G1 X144.53 Y199.40 E375.02916
G1 X144.45 Y199.40 E375.03315
G1 X143.68 Y199.40 E375.07167
G1 X142.84 Y199.22 E375.11425
G1 X142.06 Y198.87 E375.15673
G1 X141.37 Y198.37 E375.19930
G1 X140.80 Y197.74 E375.24194
G1 X140.38 Y197.00 E375.28438
G1 X140.11 Y196.19 E375.32682
G1 X140.02 Y195.34 E375.36947
G1 X140.10 Y194.58 E375.40780
G1 X140.11 Y194.49 E375.41207
G1 X140.35 Y193.76 E375.45041
G1 X140.38 Y193.68 E375.45451
G1 X140.76 Y193.02 E375.49286
G1 X140.80 Y192.95 E375.49687
G1 X141.32 Y192.37 E375.53548
G1 X141.37 Y192.31 E375.53933
G1 X142.06 Y191.81 E375.58210
G1 X142.77 Y191.50 E375.62051
G1 X142.84 Y191.47 E375.62437
G1 X143.60 Y191.30 E375.66310
G1 X143.67 Y191.29 E375.66703
G1 X144.44 Y191.28 E375.70544
G1 X144.52 Y191.29 E375.70948
G0 F12000 X144.47 Y191.82
;TYPE:FILL
G1 F3180 X140.60 Y195.70 E375.98260
G0 F12000 X140.68 Y196.19
G1 F3180 X144.94 Y191.93 E376.28327
G0 F12000 X145.37 Y192.06
G1 F3180 X140.82 Y196.61 E376.60437
G0 F12000 X141.00 Y197.00
G1 F3180 X145.76 Y192.23 E376.94064
G0 F12000 X146.11 Y192.45
G1 F3180 X141.20 Y197.36 E377.28664
G0 F12000 X141.46 Y197.66
G1 F3180 X146.44 Y192.69 E377.63752
G0 F12000 X146.71 Y192.99
G1 F3180 X141.73 Y197.96 E377.98867
G0 F12000 X142.06 Y198.20
G1 F3180 X146.97 Y193.29 E378.33548
G0 F12000 X147.18 Y193.65
G1 F3180 X142.40 Y198.43 E378.67306
G0 F12000 X142.79 Y198.60
G1 F3180 X147.37 Y194.02 E378.99634
G0 F12000 X147.51 Y194.45
G1 F3180 X143.21 Y198.75 E379.29952
G0 F12000 X143.68 Y198.84
G1 F3180 X147.59 Y194.94 E379.57535
G0 F12000 X147.62 Y195.47
G1 F3180 X144.23 Y198.85 E379.81426
G0 F12000 X144.89 Y198.77
G1 F3180 X147.55 Y196.11 E380.00193
G0 F12000 X147.18 Y197.04
G1 F3180 X145.78 Y198.44 E380.10092
G0 F12000 X140.59 Y195.15
G1 F3180 X143.90 Y191.83 E380.33506
G0 F12000 X143.24 Y191.93
G1 F3180 X140.68 Y194.49 E380.51536
G0 F12000 X141.11 Y193.49
G1 F3180 X142.29 Y192.31 E380.59869
G1 F2400 E379.39869
G0 F12000 X157.30 Y194.58
;TYPE:WALL-INNER
G1 F2400 E380.59869
G1 F3180 X157.53 Y193.89 E380.63503
G1 X157.90 Y193.22 E380.67327
G1 X157.93 Y193.18 E380.67548
G1 X158.41 Y192.64 E380.71173
G1 X158.44 Y192.61 E380.71371
G1 X159.03 Y192.18 E380.75010
G1 X159.06 Y192.16 E380.75214
G1 X159.73 Y191.86 E380.78846
G1 X159.76 Y191.85 E380.79035
G1 X160.48 Y191.69 E380.82694
G1 X161.24 Y191.69 E380.86486
G1 X161.28 Y191.69 E380.86696
G1 X161.99 Y191.84 E380.90322
G1 X162.70 Y192.14 E380.94163
G1 X162.74 Y192.16 E380.94371
G1 X163.33 Y192.59 E380.98014
G1 X163.35 Y192.61 E380.98179
G1 X163.85 Y193.15 E381.01839
G1 X163.87 Y193.18 E381.02026
G1 X164.24 Y193.81 E381.05663
G1 X164.26 Y193.85 E381.05886
G1 X164.48 Y194.53 E381.09466
G1 X164.57 Y195.30 E381.13344
G1 X164.57 Y195.34 E381.13515
G1 X164.50 Y196.11 E381.17372
G1 X164.26 Y196.84 E381.21217
G1 X163.87 Y197.50 E381.25032
G1 X163.36 Y198.07 E381.28872
G1 X162.74 Y198.53 E381.32704
G1 X162.04 Y198.84 E381.36537
G1 X161.29 Y199.00 E381.40356
G1 X160.51 Y199.00 E381.44212
G1 X159.76 Y198.84 E381.48042
G1 X159.06 Y198.53 E381.51875
G1 X158.44 Y198.07 E381.55707
G1 X157.93 Y197.50 E381.59547
G1 X157.54 Y196.84 E381.63362
G1 X157.30 Y196.11 E381.67207
G1 X157.22 Y195.34 E381.71050
G1 X157.30 Y194.62 E381.74646
G1 X157.30 Y194.58 E381.74862
G0 F12000 X156.91 Y194.49
;TYPE:WALL-OUTER
G1 F3180 X157.15 Y193.76 E381.78696
G1 X157.18 Y193.68 E381.79106
G1 X157.56 Y193.02 E381.82942
G1 X157.60 Y192.95 E381.83342
G1 X158.12 Y192.37 E381.87204
G1 X158.17 Y192.31 E381.87589
G1 X158.86 Y191.81 E381.91865
G1 X159.64 Y191.46 E381.96109
G1 X160.40 Y191.30 E381.99966
G1 X160.47 Y191.29 E382.00358
G1 X161.24 Y191.28 E382.04200
G1 X161.32 Y191.29 E382.04604
G1 X162.08 Y191.45 E382.08464
G1 X162.16 Y191.46 E382.08852
G1 X162.87 Y191.78 E382.12722
G1 X162.94 Y191.81 E382.13115
G1 X163.62 Y192.31 E382.17358
G1 X164.14 Y192.88 E382.21216
G1 X164.20 Y192.94 E382.21619
G1 X164.62 Y193.68 E382.25881
G1 X164.86 Y194.41 E382.29713
G1 X164.89 Y194.49 E382.30120
G1 X164.97 Y195.26 E382.33974
G1 X164.98 Y195.34 E382.34375
G1 X164.89 Y196.19 E382.38644
G1 X164.62 Y197.00 E382.42888
G1 X164.20 Y197.74 E382.47132
G1 X163.63 Y198.37 E382.51396
G1 X162.94 Y198.87 E382.55653
G1 X162.16 Y199.22 E382.59901
G1 X161.33 Y199.40 E382.64155
G1 X161.25 Y199.40 E382.64554
G1 X160.47 Y199.40 E382.68405
G1 X159.64 Y199.22 E382.72664
G1 X158.86 Y198.87 E382.76912
G1 X158.17 Y198.37 E382.81169
G1 X157.60 Y197.74 E382.85432
G1 X157.17 Y197.00 E382.89677
G1 X156.91 Y196.19 E382.93921
G1 X156.82 Y195.34 E382.98185
G1 X156.90 Y194.58 E383.02017
G1 X156.91 Y194.49 E383.02444
G0 F12000 X157.43 Y194.71
;TYPE:FILL
G1 F3180 X160.25 Y191.88 E383.22366
G0 F12000 X160.88 Y191.83
G1 F3180 X157.37 Y195.34 E383.47138
G0 F12000 X157.42 Y195.85
G1 F3180 X161.41 Y191.85 E383.75332
G0 F12000 X161.88 Y191.96
G1 F3180 X157.52 Y196.32 E384.06097
G0 F12000 X157.66 Y196.74
G1 F3180 X162.29 Y192.12 E384.38743
G0 F12000 X162.68 Y192.29
G1 F3180 X157.86 Y197.11 E384.72744
G0 F12000 X158.07 Y197.46
G1 F3180 X163.01 Y192.53 E385.07538
G0 F12000 X163.32 Y192.78
G1 F3180 X158.34 Y197.75 E385.42654
G0 F12000 X158.63 Y198.03
G1 F3180 X163.59 Y193.08 E385.77646
G0 F12000 X163.83 Y193.40
G1 F3180 X158.96 Y198.27 E386.12066
G0 F12000 X159.31 Y198.48
G1 F3180 X164.04 Y193.75 E386.45432
G0 F12000 X164.21 Y194.15
G1 F3180 X159.71 Y198.66 E386.77213
G0 F12000 X160.15 Y198.78
G1 F3180 X164.34 Y194.58 E387.06804
G0 F12000 X164.40 Y195.09
G1 F3180 X160.64 Y198.85 E387.33383
G0 F12000 X161.20 Y198.85
G1 F3180 X164.40 Y195.66 E387.55932
G0 F12000 X164.26 Y196.36
G1 F3180 X161.90 Y198.72 E387.72590
G0 F12000 X163.11 Y198.08
G1 F3180 X163.63 Y197.56 E387.76266
G0 F12000 X159.42 Y192.15
G1 F3180 X157.69 Y193.88 E387.88500
G1 F2400 E386.68500
G0 F12000 X160.51 Y164.56
;TYPE:WALL-INNER
G1 F2400 E387.88500
G1 F3180 X159.76 Y164.40 E387.92330
G1 X159.06 Y164.08 E387.96163
G1 X158.44 Y163.63 E387.99995
G1 X157.93 Y163.06 E388.03835
G1 X157.54 Y162.40 E388.07650
G1 X157.30 Y161.66 E388.11495
G1 X157.22 Y160.90 E388.15338
G1 X157.30 Y160.18 E388.18934
G1 X157.30 Y160.14 E388.19150
G1 X157.53 Y159.45 E388.22784
G1 X157.90 Y158.78 E388.26608
G1 X157.93 Y158.74 E388.26830
G1 X158.41 Y158.20 E388.30455
G1 X158.44 Y158.17 E388.30652
G1 X159.03 Y157.74 E388.34292
G1 X159.06 Y157.72 E388.34495
G1 X159.73 Y157.42 E388.38127
G1 X159.76 Y157.41 E388.38317
G1 X160.48 Y157.25 E388.41975
G1 X161.24 Y157.24 E388.45767
G1 X161.28 Y157.24 E388.45977
G1 X161.99 Y157.40 E388.49603
G1 X162.70 Y157.70 E388.53445
G1 X162.74 Y157.72 E388.53652
G1 X163.33 Y158.15 E388.57296
G1 X163.35 Y158.16 E388.57460
G1 X163.85 Y158.71 E388.61120
G1 X163.87 Y158.74 E388.61307
G1 X164.24 Y159.37 E388.64944
G1 X164.26 Y159.41 E388.65168
G1 X164.48 Y160.09 E388.68747
G1 X164.57 Y160.86 E388.72625
G1 X164.57 Y160.90 E388.72796
G1 X164.50 Y161.66 E388.76653
G1 X164.26 Y162.40 E388.80498
G1 X163.87 Y163.06 E388.84314
G1 X163.36 Y163.63 E388.88154
G1 X162.74 Y164.08 E388.91986
G1 X162.04 Y164.40 E388.95818
G1 X161.29 Y164.55 E388.99637
G1 X160.51 Y164.56 E389.03494
G0 F12000 X160.47 Y164.96
;TYPE:WALL-OUTER
G1 F3180 X159.64 Y164.78 E389.07752
G1 X158.86 Y164.43 E389.12000
G1 X158.17 Y163.93 E389.16257
G1 X157.60 Y163.29 E389.20521
G1 X157.17 Y162.56 E389.24766
G1 X156.91 Y161.75 E389.29010
G1 X156.82 Y160.90 E389.33273
G1 X156.90 Y160.13 E389.37106
G1 X156.91 Y160.05 E389.37533
G1 X157.15 Y159.32 E389.41367
G1 X157.18 Y159.24 E389.41777
G1 X157.56 Y158.57 E389.45612
G1 X157.60 Y158.51 E389.46013
G1 X158.12 Y157.93 E389.49874
G1 X158.17 Y157.87 E389.50260
G1 X158.86 Y157.37 E389.54536
G1 X159.64 Y157.02 E389.58779
G1 X160.40 Y156.86 E389.62636
G1 X160.47 Y156.84 E389.63029
G1 X161.24 Y156.84 E389.66870
G1 X161.32 Y156.84 E389.67275
G1 X162.08 Y157.00 E389.71135
G1 X162.16 Y157.02 E389.71522
G1 X162.87 Y157.34 E389.75393
G1 X162.94 Y157.37 E389.75786
G1 X163.62 Y157.87 E389.80029
G1 X164.14 Y158.44 E389.83886
G1 X164.20 Y158.50 E389.84289
G1 X164.62 Y159.24 E389.88551
G1 X164.86 Y159.97 E389.92384
G1 X164.89 Y160.05 E389.92791
G1 X164.97 Y160.82 E389.96644
G1 X164.98 Y160.90 E389.97045
G1 X164.89 Y161.75 E390.01314
G1 X164.62 Y162.56 E390.05558
G1 X164.20 Y163.29 E390.09803
G1 X163.63 Y163.93 E390.14066
G1 X162.94 Y164.43 E390.18323
G1 X162.16 Y164.78 E390.22571
G1 X161.33 Y164.96 E390.26825
G1 X161.25 Y164.95 E390.27224
G1 X160.47 Y164.96 E390.31076
G0 F12000 X160.57 Y164.41
;TYPE:FILL
G1 F3180 X164.40 Y160.59 E390.58063
G0 F12000 X164.33 Y160.09
G1 F3180 X160.10 Y164.32 E390.87943
G0 F12000 X159.66 Y164.19
G1 F3180 X164.19 Y159.66 E391.19933
G0 F12000 X164.02 Y159.27
G1 F3180 X159.27 Y164.02 E391.53436
G0 F12000 X158.92 Y163.81
G1 F3180 X163.81 Y158.91 E391.87949
G0 F12000 X163.56 Y158.60
G1 F3180 X158.59 Y163.57 E392.22986
G0 F12000 X158.31 Y163.28
G1 F3180 X163.29 Y158.30 E392.58088
G0 F12000 X162.97 Y158.06
G1 F3180 X158.04 Y162.98 E392.92822
G0 F12000 X157.84 Y162.62
G1 F3180 X162.63 Y157.82 E393.26685
G0 F12000 X162.24 Y157.66
G1 F3180 X157.64 Y162.25 E393.59119
G0 F12000 X157.50 Y161.82
G1 F3180 X161.83 Y157.50 E393.89617
G0 F12000 X161.36 Y157.40
G1 F3180 X157.41 Y161.35 E394.17465
G0 F12000 X157.37 Y160.82
G1 F3180 X160.81 Y157.39 E394.41715
G0 F12000 X160.17 Y157.46
G1 F3180 X157.44 Y160.19 E394.60984
G0 F12000 X157.78 Y159.29
G1 F3180 X159.30 Y157.76 E394.71772
G0 F12000 X164.41 Y161.14
G1 F3180 X161.14 Y164.41 E394.94843
G0 F12000 X161.82 Y164.30
G1 F3180 X164.30 Y161.82 E395.12316
G0 F12000 X163.83 Y162.85
G1 F3180 X162.87 Y163.81 E395.19097
G1 F2400 E393.99097
G0 F12000 X147.69 Y161.66
;TYPE:WALL-INNER
G1 F2400 E395.19097
G1 F3180 X147.46 Y162.40 E395.22940
G1 X147.07 Y163.06 E395.26756
G1 X146.56 Y163.63 E395.30596
G1 X145.94 Y164.08 E395.34428
G1 X145.24 Y164.40 E395.38260
G1 X144.49 Y164.55 E395.42079
G1 X143.72 Y164.56 E395.45936
G1 X142.96 Y164.40 E395.49766
G1 X142.26 Y164.08 E395.53598
G1 X141.64 Y163.63 E395.57430
G1 X141.13 Y163.06 E395.61270
G1 X140.74 Y162.40 E395.65086
G1 X140.50 Y161.66 E395.68931
G1 X140.43 Y160.90 E395.72773
G1 X140.50 Y160.18 E395.76370
G1 X140.50 Y160.14 E395.76586
G1 X140.73 Y159.45 E395.80219
G1 X141.10 Y158.78 E395.84044
G1 X141.13 Y158.74 E395.84265
G1 X141.61 Y158.20 E395.87890
G1 X141.64 Y158.17 E395.88088
G1 X142.23 Y157.74 E395.91727
G1 X142.26 Y157.72 E395.91931
G1 X142.93 Y157.42 E395.95547
G1 X142.96 Y157.41 E395.95748
G1 X143.68 Y157.25 E395.99411
G1 X144.44 Y157.24 E396.03203
G1 X144.48 Y157.24 E396.03413
G1 X145.19 Y157.40 E396.07039
G1 X145.90 Y157.70 E396.10880
G1 X145.94 Y157.72 E396.11088
G1 X146.53 Y158.15 E396.14732
G1 X146.56 Y158.16 E396.14896
G1 X147.05 Y158.71 E396.18556
G1 X147.07 Y158.74 E396.18743
G1 X147.44 Y159.37 E396.22380
G1 X147.46 Y159.41 E396.22603
G1 X147.68 Y160.09 E396.26183
G1 X147.77 Y160.85 E396.30006
G1 X147.78 Y160.90 E396.30226
G1 X147.69 Y161.66 E396.34088
G0 F12000 X148.09 Y161.75
;TYPE:WALL-OUTER
G1 F3180 X147.83 Y162.56 E396.38328
G1 X147.40 Y163.29 E396.42572
G1 X146.83 Y163.93 E396.46836
G1 X146.14 Y164.43 E396.51093
G1 X145.36 Y164.78 E396.55341
G1 X144.53 Y164.96 E396.59595
G1 X144.45 Y164.95 E396.59994
G1 X143.68 Y164.96 E396.63845
G1 X142.84 Y164.78 E396.68104
G1 X142.06 Y164.43 E396.72352
G1 X141.37 Y163.93 E396.76609
G1 X140.80 Y163.29 E396.80873
G1 X140.38 Y162.56 E396.85117
G1 X140.11 Y161.75 E396.89361
G1 X140.02 Y160.90 E396.93625
G1 X140.10 Y160.13 E396.97458
G1 X140.11 Y160.05 E396.97885
G1 X140.35 Y159.32 E397.01719
G1 X140.38 Y159.24 E397.02129
G1 X140.76 Y158.57 E397.05965
G1 X140.80 Y158.51 E397.06365
G1 X141.32 Y157.93 E397.10227
G1 X141.37 Y157.87 E397.10612
G1 X142.06 Y157.37 E397.14888
G1 X142.77 Y157.06 E397.18729
G1 X142.84 Y157.02 E397.19116
G1 X143.60 Y156.86 E397.22989
G1 X143.67 Y156.84 E397.23381
G1 X144.44 Y156.84 E397.27223
G1 X144.52 Y156.84 E397.27627
G1 X145.28 Y157.00 E397.31487
G1 X145.36 Y157.02 E397.31875
G1 X146.07 Y157.34 E397.35745
G1 X146.14 Y157.37 E397.36138
G1 X146.83 Y157.87 E397.40381
G1 X147.34 Y158.44 E397.44239
G1 X147.40 Y158.50 E397.44642
G1 X147.82 Y159.24 E397.48904
G1 X148.06 Y159.97 E397.52736
G1 X148.09 Y160.05 E397.53143
G1 X148.17 Y160.82 E397.56987
G1 X148.18 Y160.90 E397.57387
G1 X148.09 Y161.75 E397.61671
G0 F12000 X147.56 Y161.59
;TYPE:FILL
G1 F3180 X144.80 Y164.34 E397.81130
G0 F12000 X144.17 Y164.41
G1 F3180 X147.63 Y160.95 E398.05538
G0 F12000 X147.58 Y160.44
G1 F3180 X143.62 Y164.39 E398.33454
G0 F12000 X143.16 Y164.29
G1 F3180 X147.49 Y159.96 E398.64032
G0 F12000 X147.35 Y159.53
G1 F3180 X142.74 Y164.14 E398.96558
G0 F12000 X142.35 Y163.97
G1 F3180 X147.16 Y159.16 E399.30467
G0 F12000 X146.94 Y158.81
G1 F3180 X142.02 Y163.73 E399.65223
G0 F12000 X141.70 Y163.49
G1 F3180 X146.68 Y158.51 E400.00335
G0 F12000 X146.40 Y158.22
G1 F3180 X141.43 Y163.19 E400.35366
G0 F12000 X141.18 Y162.87
G1 F3180 X146.07 Y157.99 E400.69860
G0 F12000 X145.72 Y157.77
G1 F3180 X140.97 Y162.51 E401.03321
G0 F12000 X140.80 Y162.12
G1 F3180 X145.32 Y157.60 E401.35212
G0 F12000 X144.89 Y157.47
G1 F3180 X140.66 Y161.69 E401.65008
G0 F12000 X140.60 Y161.19
G1 F3180 X144.41 Y157.38 E401.91903
G0 F12000 X143.84 Y157.39
G1 F3180 X140.59 Y160.63 E402.14792
G0 F12000 X140.71 Y159.95
G1 F3180 X143.15 Y157.51 E402.32014
G0 F12000 X142.05 Y158.04
G1 F3180 X141.20 Y158.90 E402.38061
G0 F12000 X145.66 Y164.06
G1 F3180 X147.27 Y162.44 E402.49427
G1 F2400 E401.29427
G0 F12000 X144.49 Y147.75
;TYPE:WALL-INNER
G1 F2400 E402.49427
G1 F3180 X143.72 Y147.76 E402.53274
G1 X142.96 Y147.59 E402.57125
G1 X142.26 Y147.29 E402.60933
G1 X141.64 Y146.83 E402.64772
G1 X141.13 Y146.26 E402.68612
G1 X140.74 Y145.60 E402.72428
G1 X140.50 Y144.87 E402.76273
G1 X140.43 Y144.10 E402.80110
G1 X140.50 Y143.38 E402.83712
G1 X140.50 Y143.34 E402.83928
G1 X140.73 Y142.65 E402.87561
G1 X141.10 Y141.98 E402.91386
G1 X141.13 Y141.94 E402.91607
G1 X141.61 Y141.40 E402.95232
G1 X141.64 Y141.37 E402.95434
G1 X142.23 Y140.94 E402.99073
G1 X142.26 Y140.92 E402.99276
G1 X142.93 Y140.62 E403.02892
G1 X142.96 Y140.60 E403.03100
G1 X143.68 Y140.45 E403.06752
G1 X144.44 Y140.44 E403.10549
G1 X144.48 Y140.44 E403.10763
G1 X145.19 Y140.59 E403.14384
G1 X145.90 Y140.90 E403.18225
G1 X145.94 Y140.92 E403.18433
G1 X146.53 Y141.34 E403.22065
G1 X147.05 Y141.91 E403.25900
G1 X147.07 Y141.94 E403.26087
G1 X147.44 Y142.57 E403.29724
G1 X147.46 Y142.61 E403.29947
G1 X147.68 Y143.29 E403.33527
G1 X147.77 Y144.05 E403.37349
G1 X147.78 Y144.10 E403.37575
G1 X147.70 Y144.87 E403.41432
G1 X147.46 Y145.60 E403.45276
G1 X147.07 Y146.26 E403.49092
G1 X146.56 Y146.83 E403.52932
G1 X145.94 Y147.29 E403.56771
G1 X145.24 Y147.59 E403.60579
G1 X144.49 Y147.75 E403.64420
G0 F12000 X144.45 Y148.16
;TYPE:WALL-OUTER
G1 F3180 X143.68 Y148.16 E403.68266
G1 X142.84 Y147.98 E403.72536
G1 X142.06 Y147.63 E403.76777
G1 X141.37 Y147.13 E403.81034
G1 X140.80 Y146.50 E403.85298
G1 X140.38 Y145.76 E403.89542
G1 X140.11 Y144.95 E403.93786
G1 X140.02 Y144.10 E403.98046
G1 X140.10 Y143.34 E404.01884
G1 X140.11 Y143.25 E404.02306
G1 X140.35 Y142.52 E404.06144
G1 X140.38 Y142.44 E404.06555
G1 X140.76 Y141.78 E404.10390
G1 X140.80 Y141.71 E404.10791
G1 X141.32 Y141.13 E404.14652
G1 X141.37 Y141.07 E404.15037
G1 X142.06 Y140.57 E404.19316
G1 X142.77 Y140.25 E404.23158
G1 X142.84 Y140.22 E404.23544
G1 X143.60 Y140.06 E404.27416
G1 X143.67 Y140.05 E404.27808
G1 X144.44 Y140.04 E404.31650
G1 X144.52 Y140.05 E404.32054
G1 X145.28 Y140.21 E404.35913
G1 X145.36 Y140.22 E404.36301
G1 X146.07 Y140.54 E404.40171
G1 X146.14 Y140.57 E404.40553
G1 X146.83 Y141.07 E404.44824
G1 X147.34 Y141.64 E404.48668
G1 X147.40 Y141.70 E404.49070
G1 X147.82 Y142.44 E404.53333
G1 X148.06 Y143.17 E404.57165
G1 X148.09 Y143.25 E404.57572
G1 X148.17 Y144.02 E404.61416
G1 X148.18 Y144.10 E404.61821
G1 X148.09 Y144.95 E404.66099
G1 X147.83 Y145.76 E404.70339
G1 X147.40 Y146.50 E404.74583
G1 X146.83 Y147.13 E404.78847
G1 X146.14 Y147.63 E404.83104
G1 X145.36 Y147.98 E404.87345
G1 X144.53 Y148.16 E404.91610
G1 X144.45 Y148.16 E404.92004
G0 F12000 X144.59 Y147.59
;TYPE:FILL
G1 F3180 X147.58 Y144.59 E405.13132
G0 F12000 X147.62 Y143.99
G1 F3180 X144.00 Y147.61 E405.38712
G0 F12000 X143.48 Y147.56
G1 F3180 X147.56 Y143.48 E405.67491
G0 F12000 X147.45 Y143.03
G1 F3180 X143.02 Y147.46 E405.98761
G0 F12000 X142.62 Y147.29
G1 F3180 X147.30 Y142.61 E406.31760
G0 F12000 X147.09 Y142.25
G1 F3180 X142.25 Y147.10 E406.65944
G0 F12000 X141.92 Y146.86
G1 F3180 X146.86 Y141.92 E407.00816
G0 F12000 X146.59 Y141.62
G1 F3180 X141.62 Y146.60 E407.35896
G0 F12000 X141.35 Y146.30
G1 F3180 X146.30 Y141.35 E407.70793
G0 F12000 X145.97 Y141.12
G1 F3180 X141.12 Y145.97 E408.05023
G0 F12000 X140.91 Y145.61
G1 F3180 X145.60 Y140.92 E408.38082
G0 F12000 X145.20 Y140.75
G1 F3180 X140.76 Y145.19 E408.69422
G0 F12000 X140.63 Y144.75
G1 F3180 X144.74 Y140.64 E408.98421
G0 F12000 X144.23 Y140.59
G1 F3180 X140.58 Y144.24 E409.24198
G0 F12000 X140.61 Y143.64
G1 F3180 X143.66 Y140.60 E409.45661
G0 F12000 X142.91 Y140.78
G1 F3180 X140.79 Y142.90 E409.60569
G0 F12000 X145.35 Y147.39
G1 F3180 X147.39 Y145.35 E409.74963
G1 F2400 E408.54963
G0 F12000 X157.22 Y144.10
;TYPE:WALL-INNER
G1 F2400 E409.74963
G1 F3180 X157.30 Y143.38 E409.78564
G1 X157.30 Y143.34 E409.78780
G1 X157.53 Y142.65 E409.82414
G1 X157.90 Y141.98 E409.86238
G1 X157.93 Y141.94 E409.86460
G1 X158.41 Y141.40 E409.90085
G1 X158.44 Y141.37 E409.90286
G1 X159.03 Y140.94 E409.93925
G1 X159.06 Y140.92 E409.94129
G1 X159.73 Y140.62 E409.97760
G1 X159.76 Y140.60 E409.97957
G1 X160.48 Y140.45 E410.01604
G1 X161.24 Y140.44 E410.05401
G1 X161.28 Y140.44 E410.05615
G1 X161.99 Y140.59 E410.09236
G1 X162.70 Y140.90 E410.13073
G1 X162.74 Y140.92 E410.13280
G1 X163.33 Y141.35 E410.16931
G1 X163.35 Y141.37 E410.17095
G1 X163.85 Y141.91 E410.20755
G1 X163.87 Y141.94 E410.20942
G1 X164.24 Y142.57 E410.24579
G1 X164.26 Y142.61 E410.24803
G1 X164.48 Y143.29 E410.28382
G1 X164.57 Y144.06 E410.32260
G1 X164.57 Y144.10 E410.32436
G1 X164.50 Y144.87 E410.36288
G1 X164.26 Y145.60 E410.40133
G1 X163.87 Y146.26 E410.43948
G1 X163.36 Y146.83 E410.47778
G1 X162.74 Y147.28 E410.51622
G1 X162.04 Y147.60 E410.55446
G1 X161.29 Y147.75 E410.59275
G1 X160.51 Y147.76 E410.63122
G1 X159.76 Y147.60 E410.66963
G1 X159.06 Y147.28 E410.70775
G1 X158.44 Y146.83 E410.74640
G1 X157.93 Y146.26 E410.78459
G1 X157.54 Y145.60 E410.82274
G1 X157.30 Y144.87 E410.86119
G1 X157.22 Y144.10 E410.89957
G0 F12000 X156.82 Y144.10
;TYPE:WALL-OUTER
G1 F3180 X156.90 Y143.34 E410.93794
G1 X156.91 Y143.25 E410.94216
G1 X157.15 Y142.52 E410.98055
G1 X157.18 Y142.44 E410.98465
G1 X157.56 Y141.78 E411.02300
G1 X157.60 Y141.71 E411.02701
G1 X158.12 Y141.13 E411.06562
G1 X158.17 Y141.07 E411.06948
G1 X158.86 Y140.57 E411.11227
G1 X159.64 Y140.22 E411.15470
G1 X160.40 Y140.06 E411.19326
G1 X160.47 Y140.05 E411.19719
G1 X161.24 Y140.04 E411.23560
G1 X161.32 Y140.05 E411.23964
G1 X162.08 Y140.21 E411.27824
G1 X162.16 Y140.22 E411.28211
G1 X162.86 Y140.54 E411.32077
G1 X162.94 Y140.57 E411.32470
G1 X163.62 Y141.07 E411.36720
G1 X164.14 Y141.64 E411.40578
G1 X164.20 Y141.70 E411.40980
G1 X164.62 Y142.44 E411.45243
G1 X164.86 Y143.17 E411.49075
G1 X164.89 Y143.25 E411.49482
G1 X164.97 Y144.02 E411.53335
G1 X164.98 Y144.10 E411.53742
G1 X164.89 Y144.95 E411.58005
G1 X164.62 Y145.76 E411.62249
G1 X164.20 Y146.50 E411.66494
G1 X163.63 Y147.13 E411.70772
G1 X162.94 Y147.63 E411.75001
G1 X162.16 Y147.98 E411.79256
G1 X161.32 Y148.16 E411.83520
G1 X161.25 Y148.16 E411.83914
G1 X160.47 Y148.16 E411.87761
G1 X159.64 Y147.98 E411.92030
G1 X158.86 Y147.63 E411.96273
G1 X158.17 Y147.13 E412.00527
G1 X157.60 Y146.50 E412.04791
G1 X157.17 Y145.76 E412.09036
G1 X156.91 Y144.95 E412.13280
G1 X156.82 Y144.10 E412.17539
G0 F12000 X157.39 Y143.83
;TYPE:FILL
G1 F3180 X160.64 Y140.59 E412.40423
G0 F12000 X161.21 Y140.58
G1 F3180 X157.40 Y144.40 E412.67326
G0 F12000 X157.46 Y144.90
G1 F3180 X161.69 Y140.67 E412.97129
G0 F12000 X162.12 Y140.80
G1 F3180 X157.60 Y145.32 E413.29023
G0 F12000 X157.77 Y145.72
G1 F3180 X162.51 Y140.97 E413.62484
G0 F12000 X162.87 Y141.19
G1 F3180 X157.98 Y146.08 E413.96979
G0 F12000 X158.23 Y146.39
G1 F3180 X163.20 Y141.42 E414.32016
G0 F12000 X163.48 Y141.71
G1 F3180 X158.50 Y146.69 E414.67135
G0 F12000 X158.82 Y146.93
G1 F3180 X163.74 Y142.01 E415.01891
G0 F12000 X163.95 Y142.36
G1 F3180 X159.15 Y147.17 E415.35803
G0 F12000 X159.54 Y147.34
G1 F3180 X164.15 Y142.73 E415.68337
G0 F12000 X164.29 Y143.16
G1 F3180 X159.96 Y147.49 E415.98908
G0 F12000 X160.42 Y147.59
G1 F3180 X164.38 Y143.64 E416.26823
G0 F12000 X164.43 Y144.15
G1 F3180 X160.97 Y147.62 E416.51250
G0 F12000 X161.60 Y147.54
G1 F3180 X164.36 Y144.78 E416.70716
G0 F12000 X164.07 Y145.65
G1 F3180 X162.46 Y147.25 E416.82068
G0 F12000 X157.51 Y143.15
G1 F3180 X159.95 Y140.71 E416.99298
G0 F12000 X158.85 Y141.24
G1 F3180 X158.00 Y142.10 E417.05359
G1 F2400 E415.85359
G0 F12000 X154.79 Y140.17
;TYPE:SUPPORT
G1 F2400 E417.05359
G1 F3180 X154.24 Y141.12 E417.10868
G1 X154.11 Y141.52 E417.12925
G1 X154.11 Y141.52 E417.12930
G1 X153.77 Y142.57 E417.18452
G1 X153.72 Y142.99 E417.20572
G1 X153.61 Y144.11 E417.26199
G1 X153.76 Y145.62 E417.33764
G1 X154.23 Y147.06 E417.41338
G1 X155.00 Y148.39 E417.48985
G1 X156.01 Y149.52 E417.56541
G1 X157.25 Y150.42 E417.64202
G1 X158.64 Y151.04 E417.71787
G1 X160.90 Y151.52 E417.83303
G1 X163.16 Y151.04 E417.94794
G1 X164.55 Y150.42 E418.02397
G1 X165.78 Y149.52 E418.10012
G1 X166.80 Y148.39 E418.17597
G1 X167.57 Y147.06 E418.25243
G1 X168.03 Y145.62 E418.32813
G1 X168.19 Y144.11 E418.40412
G1 X168.15 Y143.69 E418.42508
G1 X168.04 Y142.61 E418.47941
G1 X167.91 Y142.19 E418.50088
G1 X167.56 Y141.14 E418.55646
G1 X167.36 Y140.77 E418.57729
G1 X166.81 Y139.82 E418.63196
G1 X166.53 Y139.51 E418.65313
G1 X165.78 Y138.68 E418.70862
G1 X165.45 Y138.44 E418.72918
G1 X164.55 Y137.79 E418.78447
G1 X164.18 Y137.62 E418.80506
G1 X163.16 Y137.17 E418.86052
G1 X162.75 Y137.07 E418.88162
G1 X161.67 Y136.85 E418.93632
G1 X161.25 Y136.84 E418.95738
G1 X160.15 Y136.85 E419.01226
G1 X159.75 Y136.93 E419.03256
G1 X159.75 Y136.93 E419.03261
G1 X158.65 Y137.16 E419.08897
G1 X158.27 Y137.33 E419.10946
G1 X158.27 Y137.33 E419.10951
G1 X157.26 Y137.78 E419.16501
G1 X156.91 Y138.03 E419.18612
G1 X156.02 Y138.68 E419.24119
G1 X155.74 Y138.98 E419.26170
G1 X155.01 Y139.80 E419.31675
G1 X154.79 Y140.17 E419.33784
G0 F12000 X150.85 Y141.08
G0 X150.76 Y141.14
G1 F3180 X150.56 Y140.77 E419.35867
G1 X150.01 Y139.82 E419.41334
G1 X149.73 Y139.51 E419.43451
G1 X148.98 Y138.68 E419.49001
G1 X148.65 Y138.44 E419.51046
G1 X147.75 Y137.79 E419.56576
G1 X147.38 Y137.62 E419.58646
G1 X146.36 Y137.17 E419.64191
G1 X145.95 Y137.07 E419.66301
G1 X144.88 Y136.85 E419.71772
G1 X144.45 Y136.84 E419.73878
G1 X143.35 Y136.85 E419.79365
G1 X142.95 Y136.93 E419.81402
G1 X141.86 Y137.16 E419.86982
G1 X141.48 Y137.32 E419.89044
G1 X140.45 Y137.78 E419.94661
G1 X140.12 Y138.03 E419.96719
G1 X139.22 Y138.68 E420.02250
G1 X138.94 Y138.98 E420.04302
G1 X138.21 Y139.80 E420.09806
G1 X137.99 Y140.17 E420.11915
G1 X137.44 Y141.12 E420.17425
G1 X137.31 Y141.52 E420.19482
G1 X137.31 Y141.52 E420.19487
G1 X136.97 Y142.57 E420.25004
G1 X136.92 Y142.99 E420.27119
G1 X136.92 Y142.99 E420.27124
G1 X136.80 Y144.10 E420.32698
G1 X136.97 Y145.62 E420.40324
G1 X137.43 Y147.06 E420.47903
G1 X138.20 Y148.39 E420.55550
G1 X139.22 Y149.52 E420.63124
G1 X140.45 Y150.42 E420.70731
G1 X141.85 Y151.04 E420.78372
G1 X144.10 Y151.52 E420.89874
G1 X146.35 Y151.04 E421.01345
G1 X147.75 Y150.42 E421.08982
G1 X148.99 Y149.52 E421.16589
G1 X150.00 Y148.39 E421.24163
G1 X150.76 Y147.07 E421.31788
G1 X151.24 Y145.61 E421.39433
G1 X151.40 Y144.09 E421.47068
G1 X151.24 Y142.61 E421.54508
G1 X151.11 Y142.19 E421.56655
G1 X150.76 Y141.14 E421.62213
G0 F12000 X150.85 Y141.08
G0 X151.43 Y142.57
G0 X151.43 Y145.65
G0 X150.16 Y148.51
G0 X147.85 Y150.59
G0 X146.38 Y153.87
G0 X146.37 Y153.97
G1 F3180 X145.95 Y153.88 E421.64332
G1 X144.12 Y153.49 E421.73657
G1 X142.95 Y153.72 E421.79596
G1 X141.86 Y153.96 E421.85189
G1 X141.47 Y154.13 E421.87311
G1 X140.46 Y154.58 E421.92845
G1 X140.12 Y154.83 E421.94917
G1 X139.22 Y155.48 E422.00450
G1 X138.94 Y155.78 E422.02501
G1 X138.21 Y156.60 E422.08006
G1 X137.99 Y156.97 E422.10115
G1 X137.44 Y157.93 E422.15631
G1 X137.31 Y158.32 E422.17687
G1 X137.31 Y158.32 E422.17692
G1 X136.97 Y159.37 E422.23198
G1 X136.92 Y159.78 E422.25303
G1 X136.92 Y159.78 E422.25308
G1 X136.80 Y160.90 E422.30892
G1 X136.97 Y162.42 E422.38518
G1 X137.43 Y163.86 E422.46102
G1 X138.20 Y165.19 E422.53749
G1 X139.22 Y166.32 E422.61323
G1 X140.45 Y167.22 E422.68941
G1 X141.85 Y167.84 E422.76566
G1 X143.34 Y168.16 E422.84179
G1 X144.41 Y168.15 E422.89542
G1 X144.85 Y168.16 E422.91702
G1 X146.35 Y167.84 E422.99381
G1 X147.75 Y167.22 E423.07006
G1 X148.99 Y166.32 E423.14624
G1 X150.00 Y165.19 E423.22198
G1 X150.77 Y163.87 E423.29841
G1 X151.24 Y162.42 E423.37441
G1 X151.40 Y160.89 E423.45090
G1 X151.24 Y159.41 E423.52545
G1 X151.11 Y158.99 E423.54691
G1 X150.76 Y157.94 E423.60249
G1 X150.56 Y157.57 E423.62332
G1 X150.01 Y156.62 E423.67799
G1 X149.73 Y156.31 E423.69916
G1 X148.98 Y155.48 E423.75469
G1 X148.65 Y155.24 E423.77511
G1 X147.75 Y154.59 E423.83055
G1 X147.37 Y154.41 E423.85152
G1 X146.37 Y153.97 E423.90635
G0 F12000 X146.38 Y153.87
G0 X154.24 Y157.93
G1 F3180 X154.11 Y158.31 E423.92686
G1 X154.11 Y158.31 E423.92691
G1 X153.77 Y159.37 E423.98207
G1 X153.72 Y159.77 E424.00232
G1 X153.60 Y160.89 E424.05861
G1 X153.76 Y162.42 E424.13525
G1 X154.23 Y163.86 E424.21100
G1 X155.00 Y165.19 E424.28747
G1 X156.01 Y166.32 E424.36321
G1 X157.25 Y167.22 E424.43939
G1 X158.65 Y167.84 E424.51564
G1 X160.14 Y168.16 E424.59176
G1 X161.21 Y168.15 E424.64540
G1 X161.65 Y168.16 E424.66700
G1 X163.15 Y167.84 E424.74379
G1 X164.55 Y167.22 E424.82004
G1 X165.78 Y166.32 E424.89622
G1 X166.80 Y165.19 E424.97196
G1 X167.57 Y163.86 E425.04843
G1 X168.03 Y162.42 E425.12417
G1 X168.19 Y160.90 E425.20027
G1 X168.15 Y160.49 E425.22117
G1 X168.04 Y159.41 E425.27541
G1 X167.91 Y158.99 E425.29687
G1 X167.56 Y157.94 E425.35245
G1 X167.36 Y157.57 E425.37328
G1 X166.81 Y156.62 E425.42795
G1 X166.53 Y156.31 E425.44912
G1 X165.78 Y155.48 E425.50465
G1 X165.45 Y155.24 E425.52507
G1 X164.55 Y154.59 E425.58052
G1 X164.17 Y154.41 E425.60148
G1 X163.16 Y153.97 E425.65631
G1 X162.75 Y153.88 E425.67751
G1 X160.92 Y153.49 E425.77061
G1 X159.74 Y153.73 E425.83097
G1 X159.74 Y153.73 E425.83102
G1 X158.65 Y153.96 E425.88643
G1 X158.27 Y154.13 E425.90736
G1 X157.26 Y154.58 E425.96253
G1 X156.92 Y154.83 E425.98343
G1 X156.02 Y155.48 E426.03875
G1 X155.74 Y155.78 E426.05927
G1 X155.01 Y156.60 E426.11431
G1 X154.79 Y156.97 E426.13540
G1 X154.24 Y157.93 E426.19056
G1 F2400 E424.99056
G0 F12000 X158.65 Y171.60
G1 F2400 E426.19056
G1 F3180 X158.27 Y171.77 E426.21123
G1 X157.25 Y172.22 E426.26668
G1 X156.02 Y173.12 E426.34279
G1 X155.74 Y173.42 E426.36331
G1 X155.01 Y174.24 E426.41835
G1 X154.79 Y174.61 E426.43944
G1 X154.24 Y175.56 E426.49454
G1 X154.11 Y175.96 E426.51511
G1 X154.11 Y175.96 E426.51516
G1 X153.77 Y177.01 E426.57038
G1 X153.72 Y177.43 E426.59158
G1 X153.61 Y178.55 E426.64784
G1 X153.76 Y180.06 E426.72349
G1 X154.23 Y181.50 E426.79924
G1 X155.00 Y182.83 E426.87570
G1 X156.01 Y183.96 E426.95145
G1 X157.25 Y184.86 E427.02752
G1 X158.65 Y185.48 E427.10393
G1 X160.90 Y185.96 E427.21869
G1 X163.15 Y185.48 E427.33366
G1 X164.55 Y184.86 E427.40982
G1 X165.78 Y183.96 E427.48611
G1 X166.80 Y182.83 E427.56182
G1 X167.57 Y181.50 E427.63828
G1 X168.03 Y180.06 E427.71398
G1 X168.19 Y178.55 E427.78998
G1 X168.15 Y178.13 E427.81093
G1 X168.04 Y177.05 E427.86526
G1 X167.91 Y176.63 E427.88673
G1 X167.56 Y175.58 E427.94231
G1 X167.36 Y175.21 E427.96314
G1 X166.81 Y174.26 E428.01781
G1 X166.53 Y173.95 E428.03898
G1 X165.78 Y173.12 E428.09430
G1 X165.44 Y172.87 E428.11539
G1 X164.55 Y172.22 E428.17055
G1 X164.18 Y172.06 E428.19091
G1 X164.18 Y172.06 E428.19096
G1 X163.16 Y171.61 E428.24628
G1 X162.75 Y171.51 E428.26754
G1 X161.68 Y171.29 E428.32220
G1 X161.25 Y171.28 E428.34330
G1 X160.15 Y171.29 E428.39818
G1 X159.75 Y171.37 E428.41848
G1 X159.75 Y171.37 E428.41853
G1 X158.65 Y171.60 E428.47485
G1 F2400 E427.27485
G0 F12000 X150.76 Y175.58
G1 F2400 E428.47485
G1 F3180 X150.56 Y175.21 E428.49568
G1 X150.01 Y174.26 E428.55035
G1 X149.73 Y173.95 E428.57152
G1 X148.98 Y173.12 E428.62705
G1 X148.65 Y172.88 E428.64746
G1 X147.75 Y172.23 E428.70291
G1 X147.38 Y172.06 E428.72332
G1 X146.36 Y171.61 E428.77889
G1 X145.94 Y171.51 E428.80016
G1 X144.88 Y171.29 E428.85466
G1 X144.45 Y171.28 E428.87576
G1 X143.35 Y171.29 E428.93064
G1 X142.95 Y171.37 E428.95094
G1 X142.95 Y171.37 E428.95099
G1 X141.85 Y171.60 E429.00705
G1 X141.47 Y171.77 E429.02817
G1 X140.45 Y172.22 E429.08355
G1 X140.12 Y172.47 E429.10414
G1 X140.12 Y172.47 E429.10421
G1 X139.22 Y173.12 E429.15960
G1 X138.94 Y173.42 E429.18012
G1 X138.21 Y174.24 E429.23516
G1 X137.99 Y174.61 E429.25625
G1 X137.44 Y175.56 E429.31135
G1 X137.31 Y175.96 E429.33192
G1 X137.31 Y175.96 E429.33197
G1 X136.97 Y177.01 E429.38714
G1 X136.92 Y177.43 E429.40829
G1 X136.92 Y177.43 E429.40834
G1 X136.80 Y178.54 E429.46408
G1 X136.97 Y180.06 E429.54034
G1 X137.43 Y181.50 E429.61613
G1 X138.20 Y182.83 E429.69260
G1 X139.22 Y183.96 E429.76834
G1 X140.45 Y184.86 E429.84441
G1 X141.85 Y185.48 E429.92082
G1 X144.10 Y185.96 E430.03554
G1 X146.35 Y185.48 E430.15051
G1 X147.75 Y184.86 E430.22692
G1 X148.99 Y183.96 E430.30299
G1 X150.00 Y182.83 E430.37873
G1 X150.76 Y181.51 E430.45497
G1 X151.24 Y180.05 E430.53143
G1 X151.40 Y178.53 E430.60778
G1 X151.24 Y177.05 E430.68218
G1 X151.11 Y176.63 E430.70364
G1 X150.76 Y175.58 E430.75923
G0 F12000 X150.85 Y175.52
G0 X151.43 Y177.01
G0 X151.43 Y180.09
G0 X150.16 Y182.95
G0 X147.85 Y185.03
G0 X146.38 Y188.31
G0 X146.37 Y188.41
G1 F3180 X145.95 Y188.32 E430.78042
G1 X144.13 Y187.93 E430.87308
G1 X142.94 Y188.17 E430.93396
G1 X141.86 Y188.40 E430.98897
G1 X141.47 Y188.57 E431.01019
G1 X140.46 Y189.02 E431.06553
G1 X140.12 Y189.27 E431.08625
G1 X139.22 Y189.92 E431.14157
G1 X138.94 Y190.22 E431.16209
G1 X138.21 Y191.04 E431.21713
G1 X137.99 Y191.41 E431.23823
G1 X137.44 Y192.37 E431.29339
G1 X137.31 Y192.76 E431.31394
G1 X137.31 Y192.76 E431.31399
G1 X136.97 Y193.81 E431.36906
G1 X136.92 Y194.23 E431.39011
G1 X136.92 Y194.23 E431.39016
G1 X136.80 Y195.34 E431.44600
G1 X136.97 Y196.86 E431.52226
G1 X137.43 Y198.31 E431.59810
G1 X138.20 Y199.63 E431.67457
G1 X139.22 Y200.76 E431.75031
G1 X140.45 Y201.66 E431.82649
G1 X141.85 Y202.28 E431.90274
G1 X143.34 Y202.60 E431.97886
G1 X144.41 Y202.59 E432.03250
G1 X144.85 Y202.60 E432.05410
G1 X146.35 Y202.28 E432.13089
G1 X147.75 Y201.66 E432.20714
G1 X148.99 Y200.76 E432.28332
G1 X150.00 Y199.63 E432.35906
G1 X150.77 Y198.31 E432.43549
G1 X151.24 Y196.86 E432.51148
G1 X151.40 Y195.33 E432.58797
G1 X151.24 Y193.85 E432.66252
G1 X151.11 Y193.44 E432.68399
G1 X150.76 Y192.38 E432.73957
G1 X150.56 Y192.01 E432.76040
G1 X150.01 Y191.06 E432.81507
G1 X149.73 Y190.75 E432.83624
G1 X148.98 Y189.92 E432.89177
G1 X148.65 Y189.68 E432.91219
G1 X147.75 Y189.03 E432.96763
G1 X147.37 Y188.85 E432.98860
G1 X146.37 Y188.41 E433.04343
G0 F12000 X146.38 Y188.31
G0 X154.24 Y192.37
G1 F3180 X154.11 Y192.76 E433.06394
G1 X154.11 Y192.76 E433.06399
G1 X153.77 Y193.81 E433.11914
G1 X153.72 Y194.21 E433.13940
G1 X153.60 Y195.33 E433.19568
G1 X153.76 Y196.86 E433.27233
G1 X154.23 Y198.31 E433.34808
G1 X155.00 Y199.63 E433.42455
G1 X156.01 Y200.76 E433.50029
G1 X157.25 Y201.66 E433.57647
G1 X158.65 Y202.28 E433.65272
G1 X160.14 Y202.60 E433.72884
G1 X161.21 Y202.59 E433.78247
G1 X161.65 Y202.60 E433.80408
G1 X163.15 Y202.28 E433.88087
G1 X164.55 Y201.66 E433.95712
G1 X165.78 Y200.76 E434.03330
G1 X166.80 Y199.63 E434.10904
G1 X167.57 Y198.31 E434.18551
G1 X168.03 Y196.86 E434.26125
G1 X168.19 Y195.34 E434.33735
G1 X168.15 Y194.93 E434.35825
G1 X168.04 Y193.85 E434.41249
G1 X167.91 Y193.44 E434.43395
G1 X167.56 Y192.38 E434.48953
G1 X167.36 Y192.01 E434.51036
G1 X166.81 Y191.06 E434.56503
G1 X166.53 Y190.75 E434.58620
G1 X165.78 Y189.92 E434.64173
G1 X165.45 Y189.68 E434.66215
G1 X164.55 Y189.03 E434.71759
G1 X164.17 Y188.85 E434.73856
G1 X163.16 Y188.41 E434.79339
G1 X162.75 Y188.32 E434.81459
G1 X160.93 Y187.93 E434.90724
G1 X159.74 Y188.17 E434.96813
G1 X158.65 Y188.40 E435.02343
G1 X158.27 Y188.57 E435.04436
G1 X157.26 Y189.02 E435.09953
G1 X156.92 Y189.27 E435.12042
G1 X156.02 Y189.92 E435.17575
G1 X155.74 Y190.22 E435.19627
G1 X155.01 Y191.04 E435.25131
G1 X154.79 Y191.41 E435.27240
G1 X154.24 Y192.37 E435.32756
G1 F2400 E434.12756
G0 F12000 X171.17 Y205.57
G1 F2400 E435.32756
G1 F3180 X133.87 Y205.57 E437.18847
G1 X133.87 Y133.97 E440.76061
G1 X171.17 Y133.97 E442.62151
G1 X171.17 Y205.57 E446.19365
G0 F12000 X169.98 Y205.63
G1 F3180 X169.98 Y133.91 E449.77177
G0 F12000 X169.98 Y134.07
G0 X171.07 Y136.65
G0 X171.23 Y136.65
G1 F3180 X133.81 Y136.65 E451.63867
G0 F12000 X133.97 Y136.65
G0 X136.65 Y134.07
G0 X136.65 Y133.91
G1 F3180 X136.65 Y205.63 E455.21679
G0 F12000 X136.65 Y205.47
G0 X133.97 Y203.31
G0 X133.81 Y203.31
G1 F3180 X171.23 Y203.31 E457.08368
G0 F12000 X171.07 Y203.31
G0 X171.07 Y196.65
G0 X171.23 Y196.65
G1 F3180 X168.00 Y196.65 E457.24503
G0 F12000 X168.16 Y196.66
G0 X168.35 Y194.91
G0 X167.53 Y191.91
G0 X165.87 Y189.88
G0 X165.75 Y189.98
G1 F3180 X171.23 Y189.98 E457.51828
G0 F12000 X171.07 Y189.98
G0 X171.07 Y183.31
G0 X171.23 Y183.31
G1 F3180 X166.28 Y183.31 E457.76508
G0 F12000 X166.40 Y183.42
G0 X164.65 Y185.03
G0 X163.38 Y185.49
G0 X163.32 Y185.34
G1 F3180 X163.32 Y188.54 E457.92483
G0 F12000 X163.38 Y188.40
G0 X160.93 Y187.73
G0 X158.19 Y188.39
G0 X156.56 Y189.41
G0 X156.65 Y189.54
G1 F3180 X156.65 Y184.35 E458.18361
G0 F12000 X156.56 Y184.48
G0 X155.40 Y183.42
G0 X155.52 Y183.31
G1 F3180 X149.49 Y183.31 E458.48450
G0 F12000 X149.99 Y182.74
G1 F3180 X149.99 Y191.14 E458.90378
G0 F12000 X150.12 Y191.06
G0 X149.07 Y189.88
G0 X148.96 Y189.98
G1 F3180 X156.04 Y189.98 E459.25750
G0 F12000 X155.93 Y189.87
G0 X154.62 Y191.31
G0 X153.52 Y194.19
G0 X153.64 Y196.66
G0 X153.80 Y196.65
G1 F3180 X151.20 Y196.65 E459.38736
G0 F12000 X151.36 Y196.66
G0 X150.95 Y198.39
G0 X150.12 Y199.62
G0 X149.99 Y199.54
G1 F3180 X149.99 Y205.63 E459.69134
G0 F12000 X149.99 Y205.47
G0 X143.32 Y205.47
G0 X143.32 Y205.63
G1 F3180 X143.32 Y202.53 E459.84600
G0 F12000 X143.29 Y202.69
G0 X141.79 Y202.47
G0 X139.08 Y200.91
G0 X137.25 Y198.39
G0 X136.84 Y196.66
G0 X137.00 Y196.65
G1 F3180 X133.81 Y196.65 E460.00525
G0 F12000 X133.97 Y196.65
G0 X133.97 Y189.98
G0 X133.81 Y189.98
G1 F3180 X139.25 Y189.98 E460.27641
G0 F12000 X139.13 Y189.87
G0 X141.39 Y188.39
G0 X143.29 Y188.00
G0 X143.32 Y188.16
G1 F3180 X143.32 Y185.73 E460.39769
G0 F12000 X143.29 Y185.89
G0 X141.79 Y185.67
G0 X139.08 Y184.11
G0 X138.60 Y183.42
G0 X138.72 Y183.31
G1 F3180 X133.81 Y183.31 E460.64245
G0 F12000 X133.97 Y183.31
G0 X133.97 Y176.65
G0 X133.81 Y176.65
G1 F3180 X137.15 Y176.65 E460.80903
G0 F12000 X137.00 Y176.60
G0 X133.97 Y169.98
G0 X133.81 Y169.98
G1 F3180 X171.23 Y169.98 E462.67592
G0 F12000 X171.07 Y169.98
G0 X171.07 Y176.65
G0 X171.23 Y176.65
G1 F3180 X167.84 Y176.65 E462.84485
G0 F12000 X168.00 Y176.59
G0 X166.97 Y174.15
G0 X164.65 Y172.05
G0 X163.38 Y171.59
G0 X163.32 Y171.74
G1 F3180 X163.32 Y167.70 E463.04646
G0 F12000 X163.38 Y167.85
G0 X164.65 Y167.39
G0 X166.96 Y165.31
G0 X167.83 Y163.37
G0 X167.68 Y163.32
G1 F3180 X171.23 Y163.32 E463.22357
G0 F12000 X171.07 Y163.32
G0 X171.07 Y156.65
G0 X171.23 Y156.65
G1 F3180 X166.75 Y156.65 E463.44708
G0 F12000 X166.87 Y156.55
G0 X165.57 Y155.08
G0 X163.38 Y153.96
G0 X163.32 Y154.10
G1 F3180 X163.32 Y150.90 E463.60673
G0 F12000 X163.38 Y151.05
G0 X165.13 Y150.11
G0 X165.04 Y149.99
G1 F3180 X171.23 Y149.99 E463.91545
G0 F12000 X171.07 Y149.99
G0 X171.07 Y143.32
G0 X171.23 Y143.32
G1 F3180 X168.05 Y143.32 E464.07415
G0 F12000 X168.21 Y143.30
G0 X167.75 Y141.06
G0 X165.91 Y138.53
G0 X164.26 Y137.44
G0 X163.38 Y137.16
G0 X163.32 Y137.30
G1 F3180 X163.32 Y133.91 E464.24333
G0 F12000 X163.32 Y134.07
G0 X156.65 Y134.07
G0 X156.65 Y133.91
G1 F3180 X156.65 Y138.30 E464.46209
G0 F12000 X156.56 Y138.17
G0 X154.85 Y139.69
G0 X153.57 Y142.53
G0 X153.59 Y143.30
G0 X153.75 Y143.32
G1 F3180 X151.25 Y143.32 E464.58657
G0 F12000 X151.41 Y143.30
G0 X150.95 Y141.06
G0 X150.12 Y139.82
G0 X149.99 Y139.90
G1 F3180 X149.99 Y133.91 E464.88546
G0 F12000 X149.99 Y134.07
G0 X143.32 Y134.07
G0 X143.32 Y133.91
G1 F3180 X143.32 Y136.91 E465.03533
G0 F12000 X143.29 Y136.76
G0 X141.40 Y137.14
G0 X138.80 Y138.85
G0 X137.26 Y141.04
G0 X136.79 Y143.30
G0 X136.94 Y143.32
G1 F3180 X133.81 Y143.32 E465.19169
G0 F12000 X133.97 Y143.32
G0 X133.97 Y149.99
G0 X133.81 Y149.99
G1 F3180 X139.96 Y149.99 E465.49831
G0 F12000 X139.86 Y150.11
G0 X141.79 Y151.23
G0 X143.29 Y151.44
G0 X143.32 Y151.29
G1 F3180 X143.32 Y153.72 E465.61950
G0 F12000 X143.29 Y153.56
G0 X141.39 Y153.95
G0 X138.80 Y155.65
G0 X138.11 Y156.57
G0 X138.25 Y156.65
G1 F3180 X133.81 Y156.65 E465.84096
G0 F12000 X133.97 Y156.65
G0 X133.97 Y163.32
G0 X133.81 Y163.32
G1 F3180 X137.32 Y163.32 E466.01602
G0 F12000 X137.17 Y163.37
G0 X138.04 Y165.31
G0 X140.35 Y167.39
G0 X141.79 Y168.03
G0 X143.29 Y168.25
G0 X143.32 Y168.09
G1 F3180 X143.32 Y171.35 E466.17892
G0 F12000 X143.29 Y171.20
G0 X145.99 Y171.32
G0 X148.77 Y172.72
G0 X150.12 Y174.26
G0 X149.99 Y174.34
G1 F3180 X149.99 Y165.10 E466.64015
G0 F12000 X150.12 Y165.18
G0 X151.03 Y163.37
G0 X150.88 Y163.32
G1 F3180 X154.12 Y163.32 E466.80164
G0 F12000 X153.97 Y163.37
G0 X154.84 Y165.31
G0 X156.56 Y166.84
G0 X156.65 Y166.71
G1 F3180 X156.65 Y172.74 E467.10238
G0 F12000 X156.56 Y172.61
G0 X154.85 Y174.13
G0 X153.95 Y176.07
G0 X153.80 Y176.60
G0 X153.95 Y176.65
G1 F3180 X151.05 Y176.65 E467.24721
G0 F12000 X151.20 Y176.59
G0 X151.43 Y159.37
G0 X150.73 Y157.47
G0 X150.12 Y156.62
G0 X149.99 Y156.70
G1 F3180 X149.99 Y148.30 E467.66644
G0 F12000 X150.12 Y148.38
G0 X149.12 Y149.67
G0 X148.34 Y150.11
G0 X148.25 Y149.99
G1 F3180 X156.76 Y149.99 E468.09116
G0 F12000 X156.65 Y149.91
G1 F3180 X156.65 Y155.09 E468.34994
G0 F12000 X156.56 Y154.97
G0 X155.89 Y155.33
G0 X154.91 Y156.57
G0 X155.05 Y156.65
G1 F3180 X149.95 Y156.65 E468.60423
G0 F12000 X150.07 Y156.55
G0 X151.30 Y158.93
G0 X151.59 Y160.89
G0 X151.05 Y163.28
G0 X153.57 Y196.90
G0 X154.84 Y199.75
G0 X156.56 Y201.28
G0 X156.65 Y201.15
G1 F3180 X156.65 Y205.63 E468.82784
G0 F12000 X156.65 Y205.47
G0 X163.32 Y205.47
G0 X163.32 Y205.63
G1 F3180 X163.32 Y202.14 E469.00195
;LAYER:2
G1 F2400 E467.80195
G0 F12000 X162.05 Y198.87 Z0.90
;TYPE:WALL-INNER
G1 F2400 E469.00195
G1 F3720 X161.29 Y199.03 E469.04055
G1 X161.18 Y199.03 E469.04589
G1 X160.51 Y199.03 E469.07937
G1 X159.75 Y198.87 E469.11802
G1 X159.04 Y198.55 E469.15668
G1 X158.42 Y198.10 E469.19536
G1 X157.90 Y197.52 E469.23401
G1 X157.51 Y196.85 E469.27268
G1 X157.27 Y196.11 E469.31138
G1 X157.19 Y195.34 E469.35010
G1 X157.27 Y194.57 E469.38873
G1 X157.48 Y193.94 E469.42193
G1 X157.51 Y193.84 E469.42729
G1 X157.84 Y193.26 E469.46057
G1 X157.90 Y193.16 E469.46594
G1 X158.35 Y192.67 E469.49932
G1 X158.42 Y192.59 E469.50476
G1 X159.04 Y192.13 E469.54334
G1 X159.66 Y191.86 E469.57684
G1 X159.75 Y191.82 E469.58182
G1 X160.41 Y191.68 E469.61549
G1 X160.51 Y191.65 E469.62069
G1 X161.18 Y191.65 E469.65391
G1 X161.28 Y191.65 E469.65930
G1 X161.94 Y191.79 E469.69275
G1 X162.04 Y191.81 E469.69805
G1 X162.65 Y192.08 E469.73124
G1 X162.75 Y192.13 E469.73673
G1 X163.29 Y192.52 E469.77002
G1 X163.38 Y192.59 E469.77538
G1 X163.83 Y193.08 E469.80873
G1 X163.90 Y193.16 E469.81396
G1 X164.23 Y193.74 E469.84736
G1 X164.29 Y193.83 E469.85283
G1 X164.49 Y194.46 E469.88584
G1 X164.53 Y194.56 E469.89117
G1 X164.60 Y195.23 E469.92459
G1 X164.61 Y195.34 E469.92991
G1 X164.53 Y196.11 E469.96879
G1 X164.29 Y196.85 E470.00749
G1 X163.90 Y197.52 E470.04616
G1 X163.38 Y198.10 E470.08481
G1 X162.75 Y198.55 E470.12349
G1 X162.05 Y198.87 E470.16215
G0 F12000 X162.17 Y199.25
;TYPE:WALL-OUTER
G1 F3720 X161.33 Y199.43 E470.20504
G1 X161.18 Y199.43 E470.21242
G1 X160.47 Y199.43 E470.24784
G1 X159.63 Y199.25 E470.29078
G1 X158.84 Y198.90 E470.33359
G1 X158.15 Y198.40 E470.37652
G1 X157.57 Y197.75 E470.41952
G1 X157.14 Y197.01 E470.46223
G1 X156.88 Y196.20 E470.50509
G1 X156.79 Y195.34 E470.54803
G1 X156.88 Y194.49 E470.59087
G1 X157.10 Y193.81 E470.62622
G1 X157.15 Y193.67 E470.63372
G1 X157.50 Y193.06 E470.66911
G1 X157.57 Y192.93 E470.67655
G1 X158.15 Y192.28 E470.71958
G1 X158.84 Y191.78 E470.76212
G1 X159.50 Y191.49 E470.79781
G1 X159.63 Y191.43 E470.80496
G1 X160.32 Y191.28 E470.84062
G1 X160.47 Y191.25 E470.84801
G1 X161.18 Y191.25 E470.88338
G1 X161.33 Y191.25 E470.89072
G1 X162.02 Y191.40 E470.92631
G1 X162.17 Y191.43 E470.93355
G1 X162.82 Y191.72 E470.96919
G1 X162.95 Y191.78 E470.97652
G1 X163.65 Y192.28 E471.01931
G1 X164.12 Y192.81 E471.05484
G1 X164.22 Y192.92 E471.06223
G1 X164.65 Y193.67 E471.10521
G1 X164.87 Y194.34 E471.14054
G1 X164.92 Y194.49 E471.14806
G1 X165.00 Y195.19 E471.18339
G1 X165.01 Y195.34 E471.19081
G1 X164.92 Y196.20 E471.23380
G1 X164.66 Y197.01 E471.27665
G1 X164.23 Y197.75 E471.31937
G1 X163.65 Y198.40 E471.36236
G1 X162.95 Y198.90 E471.40529
G1 X162.17 Y199.25 E471.44811
G0 F12000 X162.17 Y198.66
;TYPE:FILL
G1 F3720 X157.58 Y194.07 E471.77185
G0 F12000 X157.76 Y193.68
G1 F3720 X162.56 Y198.48 E472.11059
G0 F12000 X162.91 Y198.26
G1 F3720 X157.97 Y193.32 E472.45927
G0 F12000 X158.22 Y193.01
G1 F3720 X163.24 Y198.03 E472.81307
G0 F12000 X163.51 Y197.74
G1 F3720 X158.49 Y192.71 E473.16754
G0 F12000 X158.81 Y192.47
G1 F3720 X163.78 Y197.44 E473.51817
G0 F12000 X163.99 Y197.08
G1 F3720 X159.15 Y192.24 E473.85990
G0 F12000 X159.54 Y192.06
G1 F3720 X164.18 Y196.71 E474.18770
G0 F12000 X164.32 Y196.28
G1 F3720 X159.95 Y191.91 E474.49596
G0 F12000 X160.42 Y191.82
G1 F3720 X164.42 Y195.81 E474.77794
G0 F12000 X164.46 Y195.29
G1 F3720 X160.96 Y191.79 E475.02481
G0 F12000 X161.60 Y191.86
G1 F3720 X164.39 Y194.66 E475.22198
G0 F12000 X164.11 Y193.81
G1 F3720 X162.45 Y192.15 E475.33949
G0 F12000 X157.44 Y194.50
G1 F3720 X161.74 Y198.79 E475.64238
G0 F12000 X161.27 Y198.89
G1 F3720 X157.37 Y194.99 E475.91755
G0 F12000 X157.35 Y195.54
G1 F3720 X160.70 Y198.89 E476.15394
G0 F12000 X160.03 Y198.78
G1 F3720 X157.45 Y196.20 E476.33636
G0 F12000 X157.87 Y197.18
G1 F3720 X159.11 Y198.43 E476.42428
G1 F2400 E475.22428
G0 F12000 X147.73 Y196.11
;TYPE:WALL-INNER
G1 F2400 E476.42428
G1 F3720 X147.49 Y196.85 E476.46299
G1 X147.10 Y197.52 E476.50166
G1 X146.58 Y198.10 E476.54031
G1 X145.96 Y198.55 E476.57899
G1 X145.25 Y198.87 E476.61765
G1 X144.49 Y199.03 E476.65625
G1 X144.38 Y199.03 E476.66159
G1 X143.71 Y199.03 E476.69507
G1 X142.95 Y198.87 E476.73372
G1 X142.25 Y198.55 E476.77238
G1 X141.62 Y198.10 E476.81106
G1 X141.10 Y197.52 E476.84970
G1 X140.71 Y196.85 E476.88837
G1 X140.47 Y196.11 E476.92709
G1 X140.39 Y195.34 E476.96582
G1 X140.46 Y194.68 E476.99913
G1 X140.47 Y194.57 E477.00420
G1 X140.68 Y193.94 E477.03765
G1 X140.71 Y193.84 E477.04301
G1 X141.05 Y193.26 E477.07629
G1 X141.10 Y193.16 E477.08165
G1 X141.55 Y192.67 E477.11504
G1 X141.62 Y192.59 E477.12048
G1 X142.25 Y192.13 E477.15906
G1 X142.86 Y191.86 E477.19251
G1 X142.95 Y191.82 E477.19763
G1 X143.61 Y191.68 E477.23120
G1 X143.71 Y191.65 E477.23640
G1 X144.38 Y191.65 E477.26963
G1 X144.49 Y191.65 E477.27501
G1 X145.14 Y191.79 E477.30846
G1 X145.25 Y191.81 E477.31376
G1 X145.85 Y192.08 E477.34695
G1 X145.95 Y192.13 E477.35244
G1 X146.49 Y192.52 E477.38573
G1 X146.58 Y192.59 E477.39109
G1 X147.03 Y193.08 E477.42444
G1 X147.10 Y193.16 E477.42967
G1 X147.43 Y193.74 E477.46307
G1 X147.49 Y193.83 E477.46854
G1 X147.69 Y194.46 E477.50155
G1 X147.73 Y194.56 E477.50688
G1 X147.80 Y195.23 E477.54030
G1 X147.81 Y195.34 E477.54567
G1 X147.73 Y196.11 E477.58449
G0 F12000 X148.12 Y196.20
;TYPE:WALL-OUTER
G1 F3720 X147.86 Y197.01 E477.62729
G1 X147.43 Y197.75 E477.67001
G1 X146.85 Y198.40 E477.71300
G1 X146.16 Y198.90 E477.75593
G1 X145.37 Y199.25 E477.79875
G1 X144.53 Y199.43 E477.84163
G1 X144.38 Y199.43 E477.84902
G1 X143.67 Y199.43 E477.88444
G1 X142.83 Y199.25 E477.92737
G1 X142.05 Y198.90 E477.97019
G1 X141.35 Y198.40 E478.01312
G1 X140.77 Y197.75 E478.05611
G1 X140.34 Y197.01 E478.09883
G1 X140.08 Y196.20 E478.14168
G1 X139.99 Y195.34 E478.18463
G1 X140.06 Y194.63 E478.22000
G1 X140.08 Y194.49 E478.22748
G1 X140.30 Y193.81 E478.26282
G1 X140.35 Y193.67 E478.27033
G1 X140.70 Y193.06 E478.30572
G1 X140.78 Y192.93 E478.31316
G1 X141.35 Y192.28 E478.35619
G1 X142.04 Y191.78 E478.39873
G1 X142.69 Y191.49 E478.43437
G1 X142.83 Y191.43 E478.44156
G1 X143.53 Y191.28 E478.47723
G1 X143.67 Y191.25 E478.48462
G1 X144.38 Y191.25 E478.51999
G1 X144.53 Y191.25 E478.52732
G1 X145.22 Y191.40 E478.56291
G1 X145.37 Y191.43 E478.57015
G1 X146.02 Y191.72 E478.60580
G1 X146.15 Y191.78 E478.61312
G1 X146.85 Y192.28 E478.65591
