;-- START GCODE --
;Sliced for Type A Machines Series 1
;Sliced at: Sun 02-08-2015 17:48:19
;Basic settings: Layer height: 0.3 Walls: 0.8 Fill: 8
;Print Speed: 80 Support: 0
;Retraction Speed: 40 Retraction Distance: 1.2
;Print time: #P_TIME#
;Filament used: #F_AMNT#m #F_WGHT#g
;Filament cost: #F_COST#
M106 S255	 ;start with the fan on
G21        ;metric values
G90        ;absolute positioning
M106 S255    ;start with the fan on
G28     ;move to endstops
G29		;allows for auto-levelling
G1 X150 Y5  Z15.0 F12000 ;center and move the platform down 15mm
M109 S220 ;Heat To temp
G92 E0                  ;zero the extruded length
G1 F200 E30              ;extrude 30mm of feed stock
G92 E0                  ;zero the extruded length again
G1 X175 Y25  Z0 F12000 ;remove bugger
G1 X220 F12000 ;remove bugger
G1 X150 Y150  Z15 F12000 ;recenter and begin
G1 F12000

;Layer count: 78
;LAYER:0
M106 S255
G0 F12000 X126.07 Y126.17 Z0.30
;TYPE:SKIRT
G1 F2700 X178.97 Y126.17 E2.63919
G1 X178.97 Y178.97 E5.27339
G1 X126.07 Y178.97 E7.91259
G1 X126.07 Y126.17 E10.54679
G0 F12000 X126.47 Y126.57
G1 F2700 X178.57 Y126.57 E13.14607
G1 X178.57 Y178.57 E15.74036
G1 X126.47 Y178.57 E18.33964
G1 X126.47 Y126.57 E20.93393
G0 F12000 X126.87 Y126.97
G1 F2700 X178.17 Y126.97 E23.49330
G1 X178.17 Y178.17 E26.04767
G1 X126.87 Y178.17 E28.60704
G1 X126.87 Y126.97 E31.16142
G0 F12000 X127.27 Y127.37
G1 F2700 X177.77 Y127.37 E33.68088
G1 X177.77 Y177.77 E36.19534
G1 X127.27 Y177.77 E38.71480
G1 X127.27 Y127.37 E41.22926
G0 F12000 X127.67 Y127.77
G1 F2700 X177.37 Y127.77 E43.70881
G1 X177.37 Y177.37 E46.18336
G1 X127.67 Y177.37 E48.66290
G1 X127.67 Y127.77 E51.13746
G0 F12000 X128.07 Y128.17
G1 F2700 X176.97 Y128.17 E53.57709
G1 X176.97 Y176.97 E56.01173
G1 X128.07 Y176.97 E58.45136
G1 X128.07 Y128.17 E60.88600
G0 F12000 X128.47 Y128.57
G1 F2700 X176.57 Y128.57 E63.28572
G1 X176.57 Y176.57 E65.68045
G1 X128.47 Y176.57 E68.08017
G1 X128.47 Y128.57 E70.47490
G0 F12000 X128.87 Y128.97
G1 F2700 X176.17 Y128.97 E72.83471
G1 X176.17 Y176.17 E75.18952
G1 X128.87 Y176.17 E77.54933
G1 X128.87 Y128.97 E79.90415
G0 F12000 X129.27 Y129.37
G1 F2700 X175.77 Y129.37 E82.22404
G1 X175.77 Y175.77 E84.53895
G1 X129.27 Y175.77 E86.85884
G1 X129.27 Y129.37 E89.17375
G0 F12000 X129.67 Y129.77
G1 F2700 X175.37 Y129.77 E91.45373
G1 X175.37 Y175.37 E93.72872
G1 X129.67 Y175.37 E96.00871
G1 X129.67 Y129.77 E98.28370
G0 F12000 X130.07 Y130.17
G1 F2700 X174.97 Y130.17 E100.52377
G1 X174.97 Y174.97 E102.75885
G1 X130.07 Y174.97 E104.99892
G1 X130.07 Y130.17 E107.23400
G0 F12000 X130.47 Y130.57
G1 F2700 X174.57 Y130.57 E109.43416
G1 X174.57 Y174.57 E111.62933
G1 X130.47 Y174.57 E113.82949
G1 X130.47 Y130.57 E116.02466
G0 F12000 X130.87 Y130.97
G1 F2700 X174.17 Y130.97 E118.18490
G1 X174.17 Y174.17 E120.34016
G1 X130.87 Y174.17 E122.50040
G1 X130.87 Y130.97 E124.65566
G0 F12000 X131.27 Y131.37
G1 F2700 X173.77 Y131.37 E126.77599
G1 X173.77 Y173.77 E128.89134
G1 X131.27 Y173.77 E131.01167
G1 X131.27 Y131.37 E133.12702
G0 F12000 X131.67 Y131.77
G1 F2700 X173.37 Y131.77 E135.20744
G1 X173.37 Y173.37 E137.28287
G1 X131.67 Y173.37 E139.36329
G1 X131.67 Y131.77 E141.43872
G0 F12000 X132.07 Y132.17
G1 F2700 X172.97 Y132.17 E143.47923
G1 X172.97 Y172.97 E145.51475
G1 X132.07 Y172.97 E147.55526
G1 X132.07 Y132.17 E149.59078
G0 F12000 X132.47 Y132.57
G1 F2700 X172.57 Y132.57 E151.59138
G1 X172.57 Y172.57 E153.58699
G1 X132.47 Y172.57 E155.58759
G1 X132.47 Y132.57 E157.58319
G0 F12000 X132.87 Y132.97
G1 F2700 X172.17 Y132.97 E159.54388
G1 X172.17 Y172.17 E161.49957
G1 X132.87 Y172.17 E163.46026
G1 X132.87 Y132.97 E165.41596
G0 F12000 X133.27 Y133.37
G1 F2700 X171.77 Y133.37 E167.33673
G1 X171.77 Y171.77 E169.25251
G1 X133.27 Y171.77 E171.17329
G1 X133.27 Y133.37 E173.08907
G0 F12000 X133.67 Y133.77
G1 F2700 X171.37 Y133.77 E174.96993
G1 X171.37 Y171.37 E176.84580
G1 X133.67 Y171.37 E178.72666
G1 X133.67 Y133.77 E180.60253
G1 F2400 E179.40253
G0 F12000 X141.66 Y141.39
;TYPE:WALL-INNER
G1 F2400 E180.60253
G1 F2700 X142.28 Y140.94 E180.64060
G1 X142.94 Y140.65 E180.67698
G1 X143.69 Y140.48 E180.71514
G1 X144.48 Y140.48 E180.75431
G1 X145.19 Y140.63 E180.79086
G1 X145.92 Y140.95 E180.83054
G1 X146.53 Y141.39 E180.86822
G1 X147.03 Y141.94 E180.90503
G1 X147.43 Y142.62 E180.94450
G1 X147.66 Y143.33 E180.98191
G1 X147.74 Y144.10 E181.02034
G1 X147.66 Y144.86 E181.05846
G1 X147.43 Y145.58 E181.09639
G1 X147.05 Y146.25 E181.13459
G1 X146.54 Y146.81 E181.17243
G1 X145.93 Y147.25 E181.21025
G1 X145.23 Y147.56 E181.24844
G1 X144.49 Y147.72 E181.28624
G1 X143.72 Y147.72 E181.32436
G1 X142.97 Y147.56 E181.36241
G1 X142.28 Y147.25 E181.40061
G1 X141.66 Y146.81 E181.43843
G1 X141.16 Y146.25 E181.47626
G1 X140.77 Y145.58 E181.51446
G1 X140.54 Y144.86 E181.55238
G1 X140.46 Y144.10 E181.59046
G1 X140.54 Y143.35 E181.62819
G1 X140.77 Y142.62 E181.66609
G1 X141.15 Y141.96 E181.70419
G1 X141.66 Y141.39 E181.74235
G0 F12000 X141.38 Y141.11
;TYPE:WALL-OUTER
G1 F2700 X142.07 Y140.60 E181.78468
G1 X142.08 Y140.60 E181.78528
G1 X142.82 Y140.26 E181.82600
G1 X143.65 Y140.08 E181.86804
G1 X144.50 Y140.08 E181.91094
G1 X144.52 Y140.08 E181.91159
G1 X145.32 Y140.25 E181.95244
G1 X146.11 Y140.59 E181.99553
G1 X146.79 Y141.09 E182.03766
G1 X146.81 Y141.09 E182.03827
G1 X147.35 Y141.70 E182.07914
G1 X147.79 Y142.44 E182.12203
G1 X148.05 Y143.24 E182.16379
G1 X148.14 Y144.09 E182.20631
G1 X148.15 Y144.10 E182.20696
G1 X148.06 Y144.94 E182.24934
G1 X147.80 Y145.75 E182.29147
G1 X147.38 Y146.48 E182.33355
G1 X146.81 Y147.11 E182.37587
G1 X146.12 Y147.60 E182.41808
G1 X145.35 Y147.95 E182.46016
G1 X144.52 Y148.12 E182.50239
G1 X143.68 Y148.12 E182.54450
G1 X142.85 Y147.95 E182.58689
G1 X142.08 Y147.60 E182.62897
G1 X141.39 Y147.11 E182.67118
G1 X140.83 Y146.48 E182.71350
G1 X140.41 Y145.75 E182.75559
G1 X140.14 Y144.94 E182.79771
G1 X140.05 Y144.10 E182.83996
G1 X140.14 Y143.28 E182.88110
G1 X140.14 Y143.26 E182.88216
G1 X140.40 Y142.48 E182.92326
G1 X140.40 Y142.46 E182.92411
G1 X140.82 Y141.74 E182.96561
G1 X140.82 Y141.73 E182.96626
G1 X141.38 Y141.11 E183.00791
G0 F12000 X141.77 Y141.49
;TYPE:FILL
G1 F2700 X146.70 Y146.42 E183.35575
G0 F12000 X146.43 Y146.71
G1 F2700 X141.50 Y141.78 E183.70352
G0 F12000 X141.24 Y142.09
G1 F2700 X146.10 Y146.95 E184.04660
G0 F12000 X145.76 Y147.17
G1 F2700 X141.03 Y142.45 E184.38004
G0 F12000 X140.85 Y142.83
G1 F2700 X145.37 Y147.35 E184.69877
G0 F12000 X144.94 Y147.48
G1 F2700 X140.71 Y143.26 E184.99684
G0 F12000 X140.63 Y143.75
G1 F2700 X144.47 Y147.58 E185.26742
G0 F12000 X143.91 Y147.58
G1 F2700 X140.62 Y144.29 E185.49933
G0 F12000 X140.72 Y144.96
G1 F2700 X143.23 Y147.47 E185.67678
G0 F12000 X142.26 Y147.07
G1 F2700 X141.15 Y145.96 E185.75509
G0 F12000 X142.10 Y141.25
G1 F2700 X146.96 Y146.11 E186.09814
G0 F12000 X147.17 Y145.75
G1 F2700 X142.44 Y141.03 E186.43165
G0 F12000 X142.83 Y140.85
G1 F2700 X147.35 Y145.37 E186.75042
G0 F12000 X147.49 Y144.94
G1 F2700 X143.27 Y140.72 E187.04838
G0 F12000 X143.74 Y140.62
G1 F2700 X147.56 Y144.45 E187.31857
G0 F12000 X147.58 Y143.90
G1 F2700 X144.29 Y140.62 E187.55034
G0 F12000 X144.97 Y140.72
G1 F2700 X147.48 Y143.24 E187.72786
G0 F12000 X147.03 Y142.23
G1 F2700 X145.94 Y141.13 E187.80494
G1 F2400 E186.60494
G0 F12000 X157.34 Y143.35
;TYPE:WALL-INNER
G1 F2400 E187.80494
G1 F2700 X157.57 Y142.62 E187.84279
G1 X157.95 Y141.96 E187.88090
G1 X158.46 Y141.39 E187.91905
G1 X159.08 Y140.94 E187.95712
G1 X159.75 Y140.65 E187.99355
G1 X160.49 Y140.48 E188.03166
G1 X161.28 Y140.48 E188.07082
G1 X161.99 Y140.63 E188.10738
G1 X162.72 Y140.95 E188.14701
G1 X163.33 Y141.39 E188.18476
G1 X163.83 Y141.94 E188.22153
G1 X164.23 Y142.62 E188.26100
G1 X164.46 Y143.33 E188.29836
G1 X164.54 Y144.10 E188.33685
G1 X164.46 Y144.86 E188.37498
G1 X164.23 Y145.58 E188.41291
G1 X163.84 Y146.25 E188.45111
G1 X163.34 Y146.81 E188.48887
G1 X162.72 Y147.26 E188.52695
G1 X162.03 Y147.56 E188.56486
G1 X161.28 Y147.72 E188.60275
G1 X160.52 Y147.72 E188.64087
G1 X159.77 Y147.56 E188.67902
G1 X159.08 Y147.26 E188.71701
G1 X158.46 Y146.81 E188.75494
G1 X157.95 Y146.25 E188.79278
G1 X157.57 Y145.58 E188.83098
G1 X157.34 Y144.86 E188.86891
G1 X157.26 Y144.10 E188.90693
G1 X157.34 Y143.35 E188.94475
G0 F12000 X156.94 Y143.28
;TYPE:WALL-OUTER
G1 F2700 X156.94 Y143.26 E188.94581
G1 X157.20 Y142.48 E188.98691
G1 X157.20 Y142.46 E188.98776
G1 X157.62 Y141.74 E189.02927
G1 X157.62 Y141.73 E189.02992
G1 X158.18 Y141.11 E189.07157
G1 X158.87 Y140.60 E189.11390
G1 X158.88 Y140.60 E189.11451
G1 X159.62 Y140.26 E189.15526
G1 X160.44 Y140.08 E189.19726
G1 X161.30 Y140.08 E189.24016
G1 X161.32 Y140.08 E189.24081
G1 X162.12 Y140.25 E189.28165
G1 X162.91 Y140.59 E189.32471
G1 X163.59 Y141.09 E189.36687
G1 X163.60 Y141.09 E189.36748
G1 X164.15 Y141.70 E189.40835
G1 X164.59 Y142.44 E189.45125
G1 X164.85 Y143.24 E189.49301
G1 X164.94 Y144.09 E189.53552
G1 X164.94 Y144.10 E189.53617
G1 X164.86 Y144.94 E189.57856
G1 X164.59 Y145.75 E189.62069
G1 X164.17 Y146.48 E189.66278
G1 X163.60 Y147.11 E189.70524
G1 X162.92 Y147.60 E189.74717
G1 X162.15 Y147.95 E189.78938
G1 X161.32 Y148.12 E189.83161
G1 X160.48 Y148.12 E189.87372
G1 X159.65 Y147.95 E189.91611
G1 X158.88 Y147.60 E189.95821
G1 X158.19 Y147.11 E190.00039
G1 X157.62 Y146.48 E190.04271
G1 X157.20 Y145.75 E190.08479
G1 X156.94 Y144.94 E190.12692
G1 X156.85 Y144.10 E190.16916
G1 X156.94 Y143.28 E190.21030
G0 F12000 X157.45 Y143.59
;TYPE:FILL
G1 F2700 X161.41 Y147.55 E190.48973
G0 F12000 X161.88 Y147.45
G1 F2700 X157.55 Y143.13 E190.79488
G0 F12000 X157.69 Y142.70
G1 F2700 X162.28 Y147.29 E191.11912
G0 F12000 X162.67 Y147.12
G1 F2700 X157.89 Y142.34 E191.45634
G0 F12000 X158.11 Y141.99
G1 F2700 X163.00 Y146.88 E191.80128
G0 F12000 X163.31 Y146.62
G1 F2700 X158.38 Y141.69 E192.14937
G0 F12000 X158.67 Y141.42
G1 F2700 X163.58 Y146.33 E192.49590
G0 F12000 X163.82 Y146.00
G1 F2700 X159.00 Y141.18 E192.83640
G0 F12000 X159.36 Y140.97
G1 F2700 X164.03 Y145.64 E193.16597
G0 F12000 X164.19 Y145.24
G1 F2700 X159.75 Y140.80 E193.47937
G0 F12000 X160.21 Y140.69
G1 F2700 X164.33 Y144.81 E193.77013
G0 F12000 X164.38 Y144.30
G1 F2700 X160.70 Y140.62 E194.02953
G0 F12000 X161.26 Y140.62
G1 F2700 X164.36 Y143.71 E194.24783
G0 F12000 X164.20 Y142.99
G1 F2700 X162.00 Y140.78 E194.40333
G0 F12000 X157.40 Y144.10
G1 F2700 X160.88 Y147.58 E194.64883
G0 F12000 X160.25 Y147.52
G1 F2700 X157.46 Y144.73 E194.84554
G0 F12000 X157.72 Y145.55
G1 F2700 X159.41 Y147.25 E194.96538
G1 F2400 E193.76538
G0 F12000 X160.49 Y157.28
;TYPE:WALL-INNER
G1 F2400 E194.96538
G1 F2700 X161.28 Y157.28 E195.00449
G1 X161.99 Y157.43 E195.04106
G1 X162.72 Y157.74 E195.08051
G1 X163.34 Y158.19 E195.11860
G1 X163.83 Y158.74 E195.15519
G1 X164.23 Y159.42 E195.19466
G1 X164.46 Y160.13 E195.23202
G1 X164.54 Y160.90 E195.27046
G1 X164.46 Y161.66 E195.30864
G1 X164.23 Y162.38 E195.34657
G1 X163.84 Y163.04 E195.38477
G1 X163.34 Y163.61 E195.42260
G1 X162.72 Y164.06 E195.46060
G1 X162.03 Y164.37 E195.49860
G1 X161.28 Y164.52 E195.53638
G1 X160.52 Y164.52 E195.57465
G1 X159.77 Y164.37 E195.61265
G1 X159.08 Y164.06 E195.65064
G1 X158.46 Y163.61 E195.68864
G1 X157.95 Y163.04 E195.72647
G1 X157.57 Y162.38 E195.76467
G1 X157.34 Y161.66 E195.80260
G1 X157.26 Y160.90 E195.84067
G1 X157.34 Y160.15 E195.87845
G1 X157.57 Y159.42 E195.91630
G1 X157.95 Y158.76 E195.95440
G1 X158.46 Y158.19 E195.99252
G1 X159.08 Y157.75 E196.03048
G1 X159.74 Y157.45 E196.06697
G1 X160.49 Y157.28 E196.10520
G0 F12000 X160.44 Y156.88
;TYPE:WALL-OUTER
G1 F2700 X161.30 Y156.88 E196.14811
G1 X161.32 Y156.88 E196.14875
G1 X162.12 Y157.05 E196.18961
G1 X162.91 Y157.39 E196.23271
G1 X163.59 Y157.88 E196.27480
G1 X163.60 Y157.89 E196.27541
G1 X164.15 Y158.50 E196.31628
G1 X164.59 Y159.24 E196.35918
G1 X164.85 Y160.04 E196.40094
G1 X164.94 Y160.88 E196.44340
G1 X164.94 Y160.90 E196.44405
G1 X164.86 Y161.74 E196.48649
G1 X164.59 Y162.54 E196.52862
G1 X164.17 Y163.28 E196.57070
G1 X163.61 Y163.91 E196.61302
G1 X162.92 Y164.40 E196.65524
G1 X162.15 Y164.75 E196.69738
G1 X161.32 Y164.92 E196.73950
G1 X160.48 Y164.92 E196.78171
G1 X159.65 Y164.75 E196.82399
G1 X158.88 Y164.40 E196.86614
G1 X158.19 Y163.91 E196.90835
G1 X157.62 Y163.28 E196.95067
G1 X157.20 Y162.54 E196.99275
G1 X156.94 Y161.74 E197.03488
G1 X156.85 Y160.90 E197.07717
G1 X156.94 Y160.08 E197.11826
G1 X156.94 Y160.06 E197.11931
G1 X157.20 Y159.28 E197.16041
G1 X157.20 Y159.26 E197.16127
G1 X157.62 Y158.54 E197.20277
G1 X157.62 Y158.53 E197.20342
G1 X158.18 Y157.91 E197.24507
G1 X158.87 Y157.41 E197.28737
G1 X158.88 Y157.40 E197.28798
G1 X159.62 Y157.06 E197.32874
G1 X160.44 Y156.88 E197.37074
G0 F12000 X160.53 Y157.42
;TYPE:FILL
G1 F2700 X164.36 Y161.25 E197.64100
G0 F12000 X164.29 Y161.74
G1 F2700 X160.07 Y157.52 E197.93885
G0 F12000 X159.63 Y157.65
G1 F2700 X164.15 Y162.17 E198.25755
G0 F12000 X163.97 Y162.55
G1 F2700 X159.24 Y157.83 E198.59096
G0 F12000 X158.90 Y158.05
G1 F2700 X163.76 Y162.91 E198.93400
G0 F12000 X163.50 Y163.22
G1 F2700 X158.57 Y158.29 E199.28184
G0 F12000 X158.30 Y158.58
G1 F2700 X163.23 Y163.51 E199.62968
G0 F12000 X162.90 Y163.75
G1 F2700 X158.04 Y158.89 E199.97279
G0 F12000 X157.83 Y159.25
G1 F2700 X162.56 Y163.97 E200.30631
G0 F12000 X162.17 Y164.15
G1 F2700 X157.65 Y159.63 E200.62507
G0 F12000 X157.51 Y160.06
G1 F2700 X161.74 Y164.28 E200.92317
G0 F12000 X161.27 Y164.38
G1 F2700 X157.43 Y160.54 E201.19379
G0 F12000 X157.42 Y161.09
G1 F2700 X160.70 Y164.38 E201.42563
G0 F12000 X160.03 Y164.28
G1 F2700 X157.51 Y161.76 E201.60325
G0 F12000 X157.95 Y162.76
G1 F2700 X159.06 Y163.87 E201.68147
G0 F12000 X164.38 Y160.70
G1 F2700 X161.09 Y157.42 E201.91338
G0 F12000 X161.77 Y157.52
G1 F2700 X164.28 Y160.04 E202.09086
G0 F12000 X163.83 Y159.03
G1 F2700 X162.75 Y157.94 E202.16766
G1 F2400 E200.96766
G0 F12000 X147.66 Y160.13
;TYPE:WALL-INNER
G1 F2400 E202.16766
G1 F2700 X147.74 Y160.90 E202.20605
G1 X147.66 Y161.66 E202.24422
G1 X147.43 Y162.38 E202.28215
G1 X147.05 Y163.04 E202.32035
G1 X146.54 Y163.61 E202.35818
G1 X145.92 Y164.06 E202.39618
G1 X145.23 Y164.37 E202.43417
G1 X144.49 Y164.52 E202.47196
G1 X143.72 Y164.52 E202.51023
G1 X142.97 Y164.37 E202.54822
G1 X142.28 Y164.06 E202.58622
G1 X141.66 Y163.61 E202.62422
G1 X141.16 Y163.04 E202.66205
G1 X140.77 Y162.38 E202.70025
G1 X140.54 Y161.66 E202.73818
G1 X140.46 Y160.90 E202.77626
G1 X140.54 Y160.15 E202.81399
G1 X140.77 Y159.42 E202.85188
G1 X141.15 Y158.76 E202.88999
G1 X141.66 Y158.19 E202.92811
G1 X142.28 Y157.75 E202.96611
G1 X142.94 Y157.45 E203.00251
G1 X143.69 Y157.28 E203.04078
G1 X144.48 Y157.28 E203.07990
G1 X145.19 Y157.43 E203.11646
G1 X145.92 Y157.74 E203.15592
G1 X146.54 Y158.19 E203.19400
G1 X147.03 Y158.74 E203.23060
G1 X147.43 Y159.42 E203.27007
G1 X147.66 Y160.13 E203.30748
G0 F12000 X148.05 Y160.04
;TYPE:WALL-OUTER
G1 F2700 X148.14 Y160.88 E203.34994
G1 X148.15 Y160.90 E203.35059
G1 X148.06 Y161.74 E203.39303
G1 X147.80 Y162.54 E203.43515
G1 X147.38 Y163.28 E203.47724
G1 X146.81 Y163.91 E203.51955
G1 X146.12 Y164.40 E203.56177
G1 X145.35 Y164.75 E203.60391
G1 X144.53 Y164.92 E203.64604
G1 X143.68 Y164.92 E203.68824
G1 X142.85 Y164.75 E203.73052
G1 X142.08 Y164.40 E203.77267
G1 X141.39 Y163.91 E203.81488
G1 X140.83 Y163.28 E203.85720
G1 X140.41 Y162.54 E203.89929
G1 X140.14 Y161.74 E203.94141
G1 X140.05 Y160.90 E203.98371
G1 X140.14 Y160.08 E204.02480
G1 X140.14 Y160.06 E204.02586
G1 X140.40 Y159.28 E204.06696
G1 X140.40 Y159.26 E204.06781
G1 X140.82 Y158.54 E204.10931
G1 X140.82 Y158.53 E204.10996
G1 X141.38 Y157.91 E204.15161
G1 X142.07 Y157.41 E204.19391
G1 X142.08 Y157.40 E204.19452
G1 X142.82 Y157.06 E204.23523
G1 X143.65 Y156.88 E204.27729
G1 X144.50 Y156.88 E204.32019
G1 X144.52 Y156.88 E204.32084
G1 X145.32 Y157.05 E204.36169
G1 X146.11 Y157.39 E204.40479
G1 X146.79 Y157.88 E204.44689
G1 X146.81 Y157.89 E204.44750
G1 X147.35 Y158.50 E204.48837
G1 X147.79 Y159.24 E204.53126
G1 X148.05 Y160.04 E204.57302
G0 F12000 X147.53 Y160.26
;TYPE:FILL
G1 F2700 X144.75 Y157.48 E204.76959
G0 F12000 X144.12 Y157.42
G1 F2700 X147.60 Y160.90 E205.01495
G0 F12000 X147.55 Y161.41
G1 F2700 X143.59 Y157.45 E205.29442
G0 F12000 X143.13 Y157.55
G1 F2700 X147.45 Y161.87 E205.59929
G0 F12000 X147.31 Y162.30
G1 F2700 X142.71 Y157.71 E205.92342
G0 F12000 X142.33 Y157.88
G1 F2700 X147.10 Y162.66 E206.26053
G0 F12000 X146.89 Y163.01
G1 F2700 X142.00 Y158.12 E206.60537
G0 F12000 X141.69 Y158.37
G1 F2700 X146.62 Y163.31 E206.95342
G0 F12000 X146.33 Y163.58
G1 F2700 X141.42 Y158.67 E207.30003
G0 F12000 X141.18 Y159.00
G1 F2700 X146.00 Y163.82 E207.64060
G0 F12000 X145.64 Y164.03
G1 F2700 X140.97 Y159.35 E207.97020
G0 F12000 X140.81 Y159.76
G1 F2700 X145.25 Y164.20 E208.28350
G0 F12000 X144.79 Y164.31
G1 F2700 X140.67 Y160.19 E208.57436
G0 F12000 X140.62 Y160.70
G1 F2700 X144.30 Y164.38 E208.83408
G0 F12000 X143.74 Y164.38
G1 F2700 X140.64 Y161.29 E209.05255
G0 F12000 X140.80 Y162.01
G1 F2700 X143.01 Y164.23 E209.20883
G0 F12000 X147.28 Y159.44
G1 F2700 X145.59 Y157.75 E209.32811
G1 F2400 E208.12811
G0 F12000 X147.40 Y154.47
;TYPE:SUPPORT
G1 F2400 E209.32811
G1 F2700 X146.30 Y153.98 E209.38836
G1 X144.07 Y153.51 E209.50183
G1 X141.81 Y154.01 E209.61753
G1 X140.48 Y154.60 E209.69005
G1 X140.19 Y154.81 E209.70779
G1 X139.26 Y155.49 E209.76537
G1 X139.01 Y155.75 E209.78331
G1 X138.25 Y156.60 E209.83997
G1 X138.08 Y156.88 E209.85621
G1 X137.50 Y157.89 E209.91459
G1 X137.38 Y158.21 E209.93175
G1 X137.01 Y159.34 E209.99068
G1 X136.97 Y159.67 E210.00767
G1 X136.84 Y160.90 E210.06918
G1 X137.00 Y162.41 E210.14504
G1 X137.47 Y163.85 E210.22072
G1 X138.22 Y165.17 E210.29636
G1 X139.24 Y166.30 E210.37224
G1 X140.47 Y167.19 E210.44791
G1 X141.86 Y167.81 E210.52382
G1 X143.34 Y168.12 E210.59964
G1 X144.44 Y168.12 E210.65442
G1 X144.82 Y168.13 E210.67309
G1 X146.34 Y167.81 E210.75101
G1 X147.73 Y167.19 E210.82692
G1 X148.96 Y166.30 E210.90259
G1 X149.98 Y165.17 E210.97847
G1 X150.74 Y163.85 E211.05419
G1 X151.20 Y162.41 E211.12973
G1 X151.36 Y160.90 E211.20573
G1 X151.21 Y159.46 E211.27772
G1 X151.12 Y159.11 E211.29586
G1 X150.74 Y157.96 E211.35633
G1 X150.56 Y157.63 E211.37492
G1 X149.95 Y156.60 E211.43492
G1 X148.97 Y155.51 E211.50794
G1 X148.69 Y155.31 E211.52492
G1 X147.74 Y154.62 E211.58375
G1 X147.40 Y154.47 E211.60206
G0 F12000 X147.44 Y154.37
G0 X146.39 Y151.09
G0 X146.34 Y151.01
G1 F2700 X147.74 Y150.39 E211.67802
G1 X148.96 Y149.50 E211.75369
G1 X149.98 Y148.37 E211.82954
G1 X150.74 Y147.05 E211.90526
G1 X151.20 Y145.61 E211.98081
G1 X151.36 Y144.10 E212.05675
G1 X151.21 Y142.66 E212.12874
G1 X151.12 Y142.31 E212.14688
G1 X150.74 Y141.16 E212.20741
G1 X150.56 Y140.84 E212.22598
G1 X149.95 Y139.80 E212.28598
G1 X148.97 Y138.72 E212.35875
G1 X148.69 Y138.50 E212.37644
G1 X148.69 Y138.50 E212.37649
G1 X147.74 Y137.82 E212.43471
G1 X147.40 Y137.66 E212.45326
G1 X146.30 Y137.18 E212.51346
G1 X144.90 Y136.89 E212.58449
G1 X144.53 Y136.88 E212.60311
G1 X143.29 Y136.89 E212.66517
G1 X141.81 Y137.21 E212.74037
G1 X140.48 Y137.81 E212.81336
G1 X140.20 Y138.01 E212.83052
G1 X140.19 Y138.01 E212.83113
G1 X139.25 Y138.69 E212.88876
G1 X139.01 Y138.96 E212.90655
G1 X138.25 Y139.80 E212.96315
G1 X138.08 Y140.08 E212.97939
G1 X137.50 Y141.09 E213.03777
G1 X137.38 Y141.41 E213.05493
G1 X137.01 Y142.54 E213.11386
G1 X136.97 Y142.87 E213.13085
G1 X136.84 Y144.10 E213.19245
G1 X137.00 Y145.61 E213.26821
G1 X137.47 Y147.06 E213.34390
G1 X138.22 Y148.37 E213.41954
G1 X139.24 Y149.50 E213.49538
G1 X140.47 Y150.39 E213.57105
G1 X141.86 Y151.01 E213.64706
G1 X144.11 Y151.49 E213.76166
G1 X146.34 Y151.01 E213.87578
G0 F12000 X146.39 Y151.09
G0 X154.26 Y147.06
G1 F2700 X155.02 Y148.37 E213.95141
G1 X156.04 Y149.50 E214.02722
G1 X157.27 Y150.39 E214.10322
G1 X158.65 Y151.01 E214.17874
G1 X160.90 Y151.49 E214.29334
G1 X163.15 Y151.01 E214.40784
G1 X164.53 Y150.39 E214.48338
G1 X165.76 Y149.50 E214.55914
G1 X166.78 Y148.37 E214.63513
G1 X167.53 Y147.06 E214.71076
G1 X168.00 Y145.61 E214.78656
G1 X168.16 Y144.13 E214.86091
G1 X168.13 Y143.76 E214.87909
G1 X168.01 Y142.66 E214.93454
G1 X167.92 Y142.32 E214.95227
G1 X167.54 Y141.16 E215.01301
G1 X167.35 Y140.84 E215.03158
G1 X166.75 Y139.80 E215.09157
G1 X165.77 Y138.71 E215.16445
G1 X165.48 Y138.50 E215.18214
G1 X164.54 Y137.81 E215.24043
G1 X164.20 Y137.66 E215.25874
G1 X163.09 Y137.18 E215.31905
G1 X161.70 Y136.89 E215.39009
G1 X161.33 Y136.88 E215.40870
G1 X160.08 Y136.89 E215.47082
G1 X158.62 Y137.21 E215.54587
G1 X157.28 Y137.81 E215.61888
G1 X157.00 Y138.01 E215.63607
G1 X156.05 Y138.69 E215.69435
G1 X155.81 Y138.96 E215.71214
G1 X155.05 Y139.80 E215.76874
G1 X154.88 Y140.08 E215.78498
G1 X154.30 Y141.09 E215.84336
G1 X154.18 Y141.41 E215.86052
G1 X153.81 Y142.54 E215.91945
G1 X153.76 Y142.88 E215.93649
G1 X153.63 Y144.10 E215.99804
G1 X153.79 Y145.61 E216.07370
G1 X154.26 Y147.06 E216.14949
G0 F12000 X157.28 Y154.60
G1 F2700 X157.00 Y154.81 E216.16681
G1 X156.99 Y154.81 E216.16742
G1 X156.05 Y155.49 E216.22510
G1 X155.81 Y155.75 E216.24286
G1 X155.05 Y156.60 E216.29952
G1 X154.88 Y156.88 E216.31576
G1 X154.30 Y157.89 E216.37414
G1 X154.18 Y158.21 E216.39130
G1 X153.81 Y159.34 E216.45023
G1 X153.76 Y159.67 E216.46722
G1 X153.63 Y160.90 E216.52873
G1 X153.79 Y162.41 E216.60449
G1 X154.26 Y163.85 E216.68028
G1 X155.02 Y165.17 E216.75592
G1 X156.04 Y166.30 E216.83180
G1 X157.27 Y167.19 E216.90747
G1 X158.66 Y167.81 E216.98338
G1 X160.14 Y168.12 E217.05920
G1 X161.24 Y168.12 E217.11398
G1 X161.62 Y168.13 E217.13265
G1 X163.14 Y167.81 E217.21057
G1 X164.53 Y167.19 E217.28648
G1 X165.76 Y166.30 E217.36215
G1 X166.78 Y165.17 E217.43803
G1 X167.53 Y163.85 E217.51367
G1 X168.00 Y162.41 E217.58946
G1 X168.16 Y160.93 E217.66386
G1 X168.13 Y160.56 E217.68200
G1 X168.01 Y159.46 E217.73744
G1 X167.92 Y159.12 E217.75517
G1 X167.54 Y157.96 E217.81591
G1 X167.35 Y157.63 E217.83448
G1 X166.75 Y156.60 E217.89448
G1 X165.77 Y155.51 E217.96750
G1 X165.49 Y155.31 E217.98448
G1 X164.54 Y154.62 E218.04331
G1 X164.20 Y154.47 E218.06162
G1 X163.09 Y153.98 E218.12192
G1 X160.88 Y153.51 E218.23515
G1 X158.61 Y154.01 E218.35075
G1 X157.28 Y154.60 E218.42345
G1 F2400 E217.22345
G0 F12000 X171.17 Y171.17
G1 F2400 E218.42345
G1 F2700 X133.87 Y171.17 E220.28435
G1 X133.87 Y133.97 E222.14027
G1 X171.17 Y133.97 E224.00117
G1 X171.17 Y171.17 E225.85709
G0 F12000 X169.98 Y171.23
G1 F2700 X169.98 Y133.91 E227.71899
G0 F12000 X169.98 Y134.07
G0 X171.07 Y136.65
G0 X171.23 Y136.65
G1 F2700 X133.81 Y136.65 E229.58588
G0 F12000 X133.97 Y136.65
G0 X136.65 Y134.07
G0 X136.65 Y133.91
G1 F2700 X136.65 Y171.23 E231.44778
G0 F12000 X136.65 Y171.07
G0 X133.97 Y169.98
G0 X133.81 Y169.98
G1 F2700 X171.23 Y169.98 E233.31468
G0 F12000 X171.07 Y169.98
G0 X171.07 Y163.32
G0 X171.23 Y163.32
G1 F2700 X167.65 Y163.32 E233.49348
G0 F12000 X167.80 Y163.37
G0 X166.94 Y165.28
G0 X164.63 Y167.36
G0 X163.38 Y167.81
G0 X163.32 Y167.66
G1 F2700 X163.32 Y171.23 E233.67139
G0 F12000 X163.32 Y171.07
G0 X156.65 Y171.07
G0 X156.65 Y171.23
G1 F2700 X156.65 Y166.67 E233.89899
G0 F12000 X156.56 Y166.80
G0 X154.86 Y165.28
G0 X154.00 Y163.37
G0 X154.15 Y163.32
G1 F2700 X150.85 Y163.32 E234.06388
G0 F12000 X151.00 Y163.37
G0 X150.12 Y165.12
G0 X149.99 Y165.03
G1 F2700 X149.99 Y171.23 E234.37300
G0 F12000 X149.99 Y171.07
G0 X143.32 Y171.07
G0 X143.32 Y171.23
G1 F2700 X143.32 Y168.06 E234.53135
G0 F12000 X143.29 Y168.21
G0 X141.80 Y168.00
G0 X139.11 Y166.44
G0 X137.28 Y163.94
G0 X137.20 Y163.37
G0 X137.35 Y163.32
G1 F2700 X133.81 Y163.32 E234.70811
G0 F12000 X133.97 Y163.32
G0 X133.97 Y156.65
G0 X133.81 Y156.65
G1 F2700 X138.29 Y156.65 E234.93172
G0 F12000 X138.16 Y156.57
G0 X140.07 Y154.65
G0 X141.75 Y153.82
G0 X143.28 Y153.58
G0 X143.32 Y153.74
G1 F2700 X143.32 Y151.26 E235.05564
G0 F12000 X143.28 Y151.41
G0 X141.80 Y151.20
G0 X139.92 Y150.11
G0 X140.01 Y149.99
G1 F2700 X133.81 Y149.99 E235.36491
G0 F12000 X133.97 Y149.99
G0 X133.97 Y143.32
G0 X133.81 Y143.32
G1 F2700 X136.98 Y143.32 E235.52297
G0 F12000 X136.82 Y143.30
G0 X137.32 Y141.01
G0 X139.12 Y138.55
G0 X141.75 Y137.02
G0 X143.32 Y136.79
G0 X143.32 Y136.95
G1 F2700 X143.32 Y133.91 E235.67443
G0 F12000 X143.32 Y134.07
G0 X149.99 Y134.07
G0 X149.99 Y133.91
G1 F2700 X149.99 Y139.98 E235.97737
G0 F12000 X150.12 Y139.90
G0 X151.31 Y142.26
G0 X151.38 Y143.30
G0 X151.22 Y143.32
G1 F2700 X153.78 Y143.32 E236.10508
G0 F12000 X153.62 Y143.30
G0 X154.12 Y141.01
G0 X155.92 Y138.55
G0 X156.56 Y138.21
G0 X156.65 Y138.34
G1 F2700 X156.65 Y133.91 E236.32585
G0 F12000 X156.65 Y134.07
G0 X163.32 Y134.07
G0 X163.32 Y133.91
G1 F2700 X163.32 Y137.34 E236.49717
G0 F12000 X163.38 Y137.20
G0 X165.60 Y138.34
G0 X167.53 Y140.74
G0 X168.18 Y143.30
G0 X168.02 Y143.32
G1 F2700 X171.23 Y143.32 E236.65757
G0 F12000 X171.07 Y143.32
G0 X171.07 Y149.99
G0 X171.23 Y149.99
G1 F2700 X164.99 Y149.99 E236.96903
G0 F12000 X165.08 Y150.11
G0 X163.38 Y151.01
G0 X163.32 Y150.87
G1 F2700 X163.32 Y154.15 E237.13267
G0 F12000 X163.38 Y154.00
G0 X165.61 Y155.15
G0 X166.84 Y156.57
G0 X166.71 Y156.65
G1 F2700 X171.23 Y156.65 E237.35843
G0 F12000 X171.07 Y156.65
G0 X163.16 Y153.79
G0 X160.88 Y153.31
G0 X157.18 Y154.43
G0 X156.56 Y155.00
G0 X156.65 Y155.14
G1 F2700 X156.65 Y149.87 E237.62125
G0 F12000 X156.81 Y149.99
G1 F2700 X148.19 Y149.99 E238.05135
G0 F12000 X148.28 Y150.11
G0 X149.09 Y149.65
G0 X150.12 Y148.32
G0 X149.99 Y148.24
G1 F2700 X149.99 Y156.78 E238.47776
G0 F12000 X149.91 Y156.65
G1 F2700 X155.09 Y156.65 E238.73644
;LAYER:1
G1 F2400 E237.53644
G0 F12000 X157.93 Y158.74 Z0.60
;TYPE:WALL-INNER
G1 F2400 E238.73644
G1 F3180 X158.41 Y158.20 E238.77269
G1 X158.44 Y158.17 E238.77467
G1 X159.03 Y157.74 E238.81106
G1 X159.06 Y157.72 E238.81310
G1 X159.73 Y157.42 E238.84941
G1 X159.76 Y157.41 E238.85131
G1 X160.48 Y157.25 E238.88790
G1 X161.24 Y157.24 E238.92582
G1 X161.28 Y157.24 E238.92791
G1 X161.99 Y157.40 E238.96418
G1 X162.70 Y157.70 E239.00259
G1 X162.74 Y157.72 E239.00467
G1 X163.33 Y158.15 E239.04110
G1 X163.35 Y158.16 E239.04275
G1 X163.85 Y158.71 E239.07935
G1 X163.87 Y158.74 E239.08122
G1 X164.24 Y159.37 E239.11759
G1 X164.26 Y159.41 E239.11982
G1 X164.48 Y160.09 E239.15562
G1 X164.57 Y160.86 E239.19440
G1 X164.57 Y160.90 E239.19610
G1 X164.50 Y161.66 E239.23468
G1 X164.26 Y162.40 E239.27313
G1 X163.87 Y163.06 E239.31128
G1 X163.36 Y163.63 E239.34968
G1 X162.74 Y164.08 E239.38800
G1 X162.04 Y164.40 E239.42633
G1 X161.29 Y164.55 E239.46452
G1 X160.51 Y164.56 E239.50308
G1 X159.76 Y164.40 E239.54138
G1 X159.06 Y164.08 E239.57971
G1 X158.44 Y163.63 E239.61803
G1 X157.93 Y163.06 E239.65643
G1 X157.54 Y162.40 E239.69458
G1 X157.30 Y161.66 E239.73303
G1 X157.22 Y160.90 E239.77146
G1 X157.30 Y160.18 E239.80742
G1 X157.30 Y160.14 E239.80958
G1 X157.53 Y159.45 E239.84592
G1 X157.90 Y158.78 E239.88416
G1 X157.93 Y158.74 E239.88638
G0 F12000 X157.60 Y158.51
;TYPE:WALL-OUTER
G1 F3180 X158.12 Y157.93 E239.92499
G1 X158.17 Y157.87 E239.92884
G1 X158.86 Y157.37 E239.97161
G1 X159.64 Y157.02 E240.01404
G1 X160.40 Y156.86 E240.05261
G1 X160.47 Y156.84 E240.05654
G1 X161.24 Y156.84 E240.09495
G1 X161.32 Y156.84 E240.09899
G1 X162.08 Y157.00 E240.13760
G1 X162.16 Y157.02 E240.14147
G1 X162.87 Y157.34 E240.18018
G1 X162.94 Y157.37 E240.18411
G1 X163.62 Y157.87 E240.22654
G1 X164.14 Y158.44 E240.26511
G1 X164.20 Y158.50 E240.26914
G1 X164.62 Y159.24 E240.31176
G1 X164.86 Y159.97 E240.35009
G1 X164.89 Y160.05 E240.35416
G1 X164.97 Y160.82 E240.39269
G1 X164.98 Y160.90 E240.39670
G1 X164.89 Y161.75 E240.43939
G1 X164.62 Y162.56 E240.48183
G1 X164.20 Y163.29 E240.52428
G1 X163.63 Y163.93 E240.56691
G1 X162.94 Y164.43 E240.60948
G1 X162.16 Y164.78 E240.65196
G1 X161.33 Y164.96 E240.69450
G1 X161.25 Y164.95 E240.69849
G1 X160.47 Y164.96 E240.73701
G1 X159.64 Y164.78 E240.77959
G1 X158.86 Y164.43 E240.82207
G1 X158.17 Y163.93 E240.86464
G1 X157.60 Y163.29 E240.90728
G1 X157.17 Y162.56 E240.94972
G1 X156.91 Y161.75 E240.99216
G1 X156.82 Y160.90 E241.03480
G1 X156.90 Y160.13 E241.07313
G1 X156.91 Y160.05 E241.07740
G1 X157.15 Y159.32 E241.11574
G1 X157.18 Y159.24 E241.11984
G1 X157.56 Y158.57 E241.15819
G1 X157.60 Y158.51 E241.16220
G0 F12000 X157.78 Y159.29
;TYPE:FILL
G1 F3180 X159.30 Y157.76 E241.27008
G0 F12000 X160.17 Y157.46
G1 F3180 X157.44 Y160.19 E241.46276
G0 F12000 X157.37 Y160.82
G1 F3180 X160.81 Y157.39 E241.70526
G0 F12000 X161.36 Y157.40
G1 F3180 X157.41 Y161.35 E241.98374
G0 F12000 X157.50 Y161.82
G1 F3180 X161.83 Y157.50 E242.28872
G0 F12000 X162.24 Y157.66
G1 F3180 X157.64 Y162.25 E242.61306
G0 F12000 X157.84 Y162.62
G1 F3180 X162.63 Y157.82 E242.95169
G0 F12000 X162.97 Y158.06
G1 F3180 X158.04 Y162.98 E243.29904
G0 F12000 X158.31 Y163.28
G1 F3180 X163.29 Y158.30 E243.65005
G0 F12000 X163.56 Y158.60
G1 F3180 X158.59 Y163.57 E244.00043
G0 F12000 X158.92 Y163.81
G1 F3180 X163.81 Y158.91 E244.34555
G0 F12000 X164.02 Y159.27
G1 F3180 X159.27 Y164.02 E244.68058
G0 F12000 X159.66 Y164.19
G1 F3180 X164.19 Y159.66 E245.00048
G0 F12000 X164.33 Y160.09
G1 F3180 X160.10 Y164.32 E245.29928
G0 F12000 X160.57 Y164.41
G1 F3180 X164.40 Y160.59 E245.56916
G0 F12000 X164.41 Y161.14
G1 F3180 X161.14 Y164.41 E245.79987
G0 F12000 X161.82 Y164.30
G1 F3180 X164.30 Y161.82 E245.97460
G0 F12000 X163.83 Y162.85
G1 F3180 X162.87 Y163.81 E246.04241
G1 F2400 E244.84241
G0 F12000 X147.69 Y161.66
;TYPE:WALL-INNER
G1 F2400 E246.04241
G1 F3180 X147.46 Y162.40 E246.08084
G1 X147.07 Y163.06 E246.11900
G1 X146.56 Y163.63 E246.15740
G1 X145.94 Y164.08 E246.19572
G1 X145.24 Y164.40 E246.23404
G1 X144.49 Y164.55 E246.27223
G1 X143.72 Y164.56 E246.31080
G1 X142.96 Y164.40 E246.34910
G1 X142.26 Y164.08 E246.38742
G1 X141.64 Y163.63 E246.42574
G1 X141.13 Y163.06 E246.46414
G1 X140.74 Y162.40 E246.50230
G1 X140.50 Y161.66 E246.54075
G1 X140.43 Y160.90 E246.57917
G1 X140.50 Y160.18 E246.61514
G1 X140.50 Y160.14 E246.61730
G1 X140.73 Y159.45 E246.65363
G1 X141.10 Y158.78 E246.69188
G1 X141.13 Y158.74 E246.69409
G1 X141.61 Y158.20 E246.73034
G1 X141.64 Y158.17 E246.73232
G1 X142.23 Y157.74 E246.76871
G1 X142.26 Y157.72 E246.77075
G1 X142.93 Y157.42 E246.80690
G1 X142.96 Y157.41 E246.80892
G1 X143.68 Y157.25 E246.84555
G1 X144.44 Y157.24 E246.88347
G1 X144.48 Y157.24 E246.88557
G1 X145.19 Y157.40 E246.92183
G1 X145.90 Y157.70 E246.96024
G1 X145.94 Y157.72 E246.96232
G1 X146.53 Y158.15 E246.99875
G1 X146.56 Y158.16 E247.00040
G1 X147.05 Y158.71 E247.03700
G1 X147.07 Y158.74 E247.03887
G1 X147.44 Y159.37 E247.07524
G1 X147.46 Y159.41 E247.07747
G1 X147.68 Y160.09 E247.11327
G1 X147.77 Y160.85 E247.15150
G1 X147.78 Y160.90 E247.15370
G1 X147.69 Y161.66 E247.19232
G0 F12000 X148.09 Y161.75
;TYPE:WALL-OUTER
G1 F3180 X147.83 Y162.56 E247.23472
G1 X147.40 Y163.29 E247.27716
G1 X146.83 Y163.93 E247.31980
G1 X146.14 Y164.43 E247.36237
G1 X145.36 Y164.78 E247.40485
G1 X144.53 Y164.96 E247.44739
G1 X144.45 Y164.95 E247.45138
G1 X143.68 Y164.96 E247.48989
G1 X142.84 Y164.78 E247.53248
G1 X142.06 Y164.43 E247.57496
G1 X141.37 Y163.93 E247.61753
G1 X140.80 Y163.29 E247.66016
G1 X140.38 Y162.56 E247.70261
G1 X140.11 Y161.75 E247.74505
G1 X140.02 Y160.90 E247.78769
G1 X140.10 Y160.13 E247.82602
G1 X140.11 Y160.05 E247.83029
G1 X140.35 Y159.32 E247.86863
G1 X140.38 Y159.24 E247.87273
G1 X140.76 Y158.57 E247.91109
G1 X140.80 Y158.51 E247.91509
G1 X141.32 Y157.93 E247.95371
G1 X141.37 Y157.87 E247.95756
G1 X142.06 Y157.37 E248.00032
G1 X142.77 Y157.06 E248.03873
G1 X142.84 Y157.02 E248.04260
G1 X143.60 Y156.86 E248.08133
G1 X143.67 Y156.84 E248.08525
G1 X144.44 Y156.84 E248.12367
G1 X144.52 Y156.84 E248.12771
G1 X145.28 Y157.00 E248.16631
G1 X145.36 Y157.02 E248.17019
G1 X146.07 Y157.34 E248.20889
G1 X146.14 Y157.37 E248.21282
G1 X146.83 Y157.87 E248.25525
G1 X147.34 Y158.44 E248.29383
G1 X147.40 Y158.50 E248.29786
G1 X147.82 Y159.24 E248.34048
G1 X148.06 Y159.97 E248.37880
G1 X148.09 Y160.05 E248.38287
G1 X148.17 Y160.82 E248.42131
G1 X148.18 Y160.90 E248.42531
G1 X148.09 Y161.75 E248.46815
G0 F12000 X147.56 Y161.59
;TYPE:FILL
G1 F3180 X144.80 Y164.34 E248.66274
G0 F12000 X144.17 Y164.41
G1 F3180 X147.63 Y160.95 E248.90682
G0 F12000 X147.58 Y160.44
G1 F3180 X143.62 Y164.39 E249.18598
G0 F12000 X143.16 Y164.29
G1 F3180 X147.49 Y159.96 E249.49176
G0 F12000 X147.35 Y159.53
G1 F3180 X142.74 Y164.14 E249.81702
G0 F12000 X142.35 Y163.97
G1 F3180 X147.16 Y159.16 E250.15611
G0 F12000 X146.94 Y158.81
G1 F3180 X142.02 Y163.73 E250.50367
G0 F12000 X141.70 Y163.49
G1 F3180 X146.68 Y158.51 E250.85479
G0 F12000 X146.40 Y158.22
G1 F3180 X141.43 Y163.19 E251.20510
G0 F12000 X141.18 Y162.87
G1 F3180 X146.07 Y157.99 E251.55004
G0 F12000 X145.72 Y157.77
G1 F3180 X140.97 Y162.51 E251.88465
G0 F12000 X140.80 Y162.12
G1 F3180 X145.32 Y157.60 E252.20356
G0 F12000 X144.89 Y157.47
G1 F3180 X140.66 Y161.69 E252.50152
G0 F12000 X140.60 Y161.19
G1 F3180 X144.41 Y157.38 E252.77047
G0 F12000 X143.84 Y157.39
G1 F3180 X140.59 Y160.63 E252.99935
G0 F12000 X140.71 Y159.95
G1 F3180 X143.15 Y157.51 E253.17158
G0 F12000 X142.05 Y158.04
G1 F3180 X141.20 Y158.90 E253.23205
G0 F12000 X145.66 Y164.06
G1 F3180 X147.27 Y162.44 E253.34571
G1 F2400 E252.14571
G0 F12000 X144.49 Y147.75
;TYPE:WALL-INNER
G1 F2400 E253.34571
G1 F3180 X143.72 Y147.76 E253.38418
G1 X142.96 Y147.59 E253.42269
G1 X142.26 Y147.29 E253.46077
G1 X141.64 Y146.83 E253.49916
G1 X141.13 Y146.26 E253.53756
G1 X140.74 Y145.60 E253.57572
G1 X140.50 Y144.87 E253.61417
G1 X140.43 Y144.10 E253.65254
G1 X140.50 Y143.38 E253.68856
G1 X140.50 Y143.34 E253.69072
G1 X140.73 Y142.65 E253.72705
G1 X141.10 Y141.98 E253.76530
G1 X141.13 Y141.94 E253.76751
G1 X141.61 Y141.40 E253.80376
G1 X141.64 Y141.37 E253.80577
G1 X142.23 Y140.94 E253.84217
G1 X142.26 Y140.92 E253.84420
G1 X142.93 Y140.62 E253.88036
G1 X142.96 Y140.60 E253.88244
G1 X143.68 Y140.45 E253.91896
G1 X144.44 Y140.44 E253.95693
G1 X144.48 Y140.44 E253.95907
G1 X145.19 Y140.59 E253.99527
G1 X145.90 Y140.90 E254.03369
G1 X145.94 Y140.92 E254.03577
G1 X146.53 Y141.34 E254.07209
G1 X147.05 Y141.91 E254.11044
G1 X147.07 Y141.94 E254.11231
G1 X147.44 Y142.57 E254.14868
G1 X147.46 Y142.61 E254.15091
G1 X147.68 Y143.29 E254.18671
G1 X147.77 Y144.05 E254.22493
G1 X147.78 Y144.10 E254.22719
G1 X147.70 Y144.87 E254.26576
G1 X147.46 Y145.60 E254.30420
G1 X147.07 Y146.26 E254.34236
G1 X146.56 Y146.83 E254.38076
G1 X145.94 Y147.29 E254.41915
G1 X145.24 Y147.59 E254.45723
G1 X144.49 Y147.75 E254.49564
G0 F12000 X144.45 Y148.16
;TYPE:WALL-OUTER
G1 F3180 X143.68 Y148.16 E254.53410
G1 X142.84 Y147.98 E254.57680
G1 X142.06 Y147.63 E254.61921
G1 X141.37 Y147.13 E254.66178
G1 X140.80 Y146.50 E254.70442
G1 X140.38 Y145.76 E254.74686
G1 X140.11 Y144.95 E254.78930
G1 X140.02 Y144.10 E254.83190
G1 X140.10 Y143.34 E254.87028
G1 X140.11 Y143.25 E254.87450
G1 X140.35 Y142.52 E254.91288
G1 X140.38 Y142.44 E254.91699
G1 X140.76 Y141.78 E254.95534
G1 X140.80 Y141.71 E254.95934
G1 X141.32 Y141.13 E254.99796
G1 X141.37 Y141.07 E255.00181
G1 X142.06 Y140.57 E255.04460
G1 X142.77 Y140.25 E255.08302
G1 X142.84 Y140.22 E255.08688
G1 X143.60 Y140.06 E255.12560
G1 X143.67 Y140.05 E255.12952
G1 X144.44 Y140.04 E255.16794
G1 X144.52 Y140.05 E255.17198
G1 X145.28 Y140.21 E255.21057
G1 X145.36 Y140.22 E255.21445
G1 X146.07 Y140.54 E255.25315
G1 X146.14 Y140.57 E255.25697
G1 X146.83 Y141.07 E255.29968
G1 X147.34 Y141.64 E255.33812
G1 X147.40 Y141.70 E255.34214
G1 X147.82 Y142.44 E255.38477
G1 X148.06 Y143.17 E255.42309
G1 X148.09 Y143.25 E255.42716
G1 X148.17 Y144.02 E255.46559
G1 X148.18 Y144.10 E255.46965
G1 X148.09 Y144.95 E255.51243
G1 X147.83 Y145.76 E255.55483
G1 X147.40 Y146.50 E255.59727
G1 X146.83 Y147.13 E255.63991
G1 X146.14 Y147.63 E255.68248
G1 X145.36 Y147.98 E255.72489
G1 X144.53 Y148.16 E255.76754
G1 X144.45 Y148.16 E255.77148
G0 F12000 X144.59 Y147.59
;TYPE:FILL
G1 F3180 X147.58 Y144.59 E255.98276
G0 F12000 X147.62 Y143.99
G1 F3180 X144.00 Y147.61 E256.23856
G0 F12000 X143.48 Y147.56
G1 F3180 X147.56 Y143.48 E256.52635
G0 F12000 X147.45 Y143.03
G1 F3180 X143.02 Y147.46 E256.83905
G0 F12000 X142.62 Y147.29
G1 F3180 X147.30 Y142.61 E257.16904
G0 F12000 X147.09 Y142.25
G1 F3180 X142.25 Y147.10 E257.51088
G0 F12000 X141.92 Y146.86
G1 F3180 X146.86 Y141.92 E257.85960
G0 F12000 X146.59 Y141.62
G1 F3180 X141.62 Y146.60 E258.21040
G0 F12000 X141.35 Y146.30
G1 F3180 X146.30 Y141.35 E258.55937
G0 F12000 X145.97 Y141.12
G1 F3180 X141.12 Y145.97 E258.90167
G0 F12000 X140.91 Y145.61
G1 F3180 X145.60 Y140.92 E259.23226
G0 F12000 X145.20 Y140.75
G1 F3180 X140.76 Y145.19 E259.54566
G0 F12000 X140.63 Y144.75
G1 F3180 X144.74 Y140.64 E259.83565
G0 F12000 X144.23 Y140.59
G1 F3180 X140.58 Y144.24 E260.09342
G0 F12000 X140.61 Y143.64
G1 F3180 X143.66 Y140.60 E260.30805
G0 F12000 X142.91 Y140.78
G1 F3180 X140.79 Y142.90 E260.45713
G0 F12000 X145.35 Y147.39
G1 F3180 X147.39 Y145.35 E260.60107
G1 F2400 E259.40107
G0 F12000 X157.22 Y144.10
;TYPE:WALL-INNER
G1 F2400 E260.60107
G1 F3180 X157.30 Y143.38 E260.63708
G1 X157.30 Y143.34 E260.63924
G1 X157.53 Y142.65 E260.67558
G1 X157.90 Y141.98 E260.71382
G1 X157.93 Y141.94 E260.71604
G1 X158.41 Y141.40 E260.75229
G1 X158.44 Y141.37 E260.75430
G1 X159.03 Y140.94 E260.79069
G1 X159.06 Y140.92 E260.79273
G1 X159.73 Y140.62 E260.82904
G1 X159.76 Y140.60 E260.83101
G1 X160.48 Y140.45 E260.86748
G1 X161.24 Y140.44 E260.90545
G1 X161.28 Y140.44 E260.90759
G1 X161.99 Y140.59 E260.94380
G1 X162.70 Y140.90 E260.98216
G1 X162.74 Y140.92 E260.98424
G1 X163.33 Y141.35 E261.02075
G1 X163.35 Y141.37 E261.02239
G1 X163.85 Y141.91 E261.05899
G1 X163.87 Y141.94 E261.06086
G1 X164.24 Y142.57 E261.09723
G1 X164.26 Y142.61 E261.09946
G1 X164.48 Y143.29 E261.13526
G1 X164.57 Y144.06 E261.17404
G1 X164.57 Y144.10 E261.17580
G1 X164.50 Y144.87 E261.21432
G1 X164.26 Y145.60 E261.25277
G1 X163.87 Y146.26 E261.29092
G1 X163.36 Y146.83 E261.32922
G1 X162.74 Y147.28 E261.36766
G1 X162.04 Y147.60 E261.40590
G1 X161.29 Y147.75 E261.44419
G1 X160.51 Y147.76 E261.48266
G1 X159.76 Y147.60 E261.52107
G1 X159.06 Y147.28 E261.55919
G1 X158.44 Y146.83 E261.59784
G1 X157.93 Y146.26 E261.63603
G1 X157.54 Y145.60 E261.67418
G1 X157.30 Y144.87 E261.71263
G1 X157.22 Y144.10 E261.75101
G0 F12000 X156.82 Y144.10
;TYPE:WALL-OUTER
G1 F3180 X156.90 Y143.34 E261.78938
G1 X156.91 Y143.25 E261.79360
G1 X157.15 Y142.52 E261.83199
G1 X157.18 Y142.44 E261.83609
G1 X157.56 Y141.78 E261.87444
G1 X157.60 Y141.71 E261.87845
G1 X158.12 Y141.13 E261.91706
G1 X158.17 Y141.07 E261.92092
G1 X158.86 Y140.57 E261.96371
G1 X159.64 Y140.22 E262.00614
G1 X160.40 Y140.06 E262.04470
G1 X160.47 Y140.05 E262.04863
G1 X161.24 Y140.04 E262.08704
G1 X161.32 Y140.05 E262.09108
G1 X162.08 Y140.21 E262.12967
G1 X162.16 Y140.22 E262.13355
G1 X162.86 Y140.54 E262.17221
G1 X162.94 Y140.57 E262.17614
G1 X163.62 Y141.07 E262.21864
G1 X164.14 Y141.64 E262.25722
G1 X164.20 Y141.70 E262.26124
G1 X164.62 Y142.44 E262.30387
G1 X164.86 Y143.17 E262.34219
G1 X164.89 Y143.25 E262.34626
G1 X164.97 Y144.02 E262.38479
G1 X164.98 Y144.10 E262.38885
G1 X164.89 Y144.95 E262.43149
G1 X164.62 Y145.76 E262.47393
G1 X164.20 Y146.50 E262.51638
G1 X163.63 Y147.13 E262.55916
G1 X162.94 Y147.63 E262.60145
G1 X162.16 Y147.98 E262.64400
G1 X161.32 Y148.16 E262.68664
G1 X161.25 Y148.16 E262.69058
G1 X160.47 Y148.16 E262.72905
G1 X159.64 Y147.98 E262.77174
G1 X158.86 Y147.63 E262.81417
G1 X158.17 Y147.13 E262.85671
G1 X157.60 Y146.50 E262.89935
G1 X157.17 Y145.76 E262.94180
G1 X156.91 Y144.95 E262.98424
G1 X156.82 Y144.10 E263.02683
G0 F12000 X157.39 Y143.83
;TYPE:FILL
G1 F3180 X160.64 Y140.59 E263.25567
G0 F12000 X161.21 Y140.58
G1 F3180 X157.40 Y144.40 E263.52470
G0 F12000 X157.46 Y144.90
G1 F3180 X161.69 Y140.67 E263.82273
G0 F12000 X162.12 Y140.80
G1 F3180 X157.60 Y145.32 E264.14167
G0 F12000 X157.77 Y145.72
G1 F3180 X162.51 Y140.97 E264.47628
G0 F12000 X162.87 Y141.19
G1 F3180 X157.98 Y146.08 E264.82123
G0 F12000 X158.23 Y146.39
G1 F3180 X163.20 Y141.42 E265.17160
G0 F12000 X163.48 Y141.71
G1 F3180 X158.50 Y146.69 E265.52279
G0 F12000 X158.82 Y146.93
G1 F3180 X163.74 Y142.01 E265.87035
G0 F12000 X163.95 Y142.36
G1 F3180 X159.15 Y147.17 E266.20947
G0 F12000 X159.54 Y147.34
G1 F3180 X164.15 Y142.73 E266.53480
G0 F12000 X164.29 Y143.16
G1 F3180 X159.96 Y147.49 E266.84052
G0 F12000 X160.42 Y147.59
G1 F3180 X164.38 Y143.64 E267.11967
G0 F12000 X164.43 Y144.15
G1 F3180 X160.97 Y147.62 E267.36394
G0 F12000 X161.60 Y147.54
G1 F3180 X164.36 Y144.78 E267.55860
G0 F12000 X164.07 Y145.65
G1 F3180 X162.46 Y147.25 E267.67212
G0 F12000 X157.51 Y143.15
G1 F3180 X159.95 Y140.71 E267.84442
G0 F12000 X158.85 Y141.24
G1 F3180 X158.00 Y142.10 E267.90503
G1 F2400 E266.70503
G0 F12000 X154.79 Y140.17
;TYPE:SUPPORT
G1 F2400 E267.90503
G1 F3180 X154.24 Y141.12 E267.96012
G1 X154.11 Y141.52 E267.98069
G1 X154.11 Y141.52 E267.98074
G1 X153.77 Y142.57 E268.03596
G1 X153.72 Y142.99 E268.05716
G1 X153.61 Y144.11 E268.11343
G1 X153.76 Y145.62 E268.18907
G1 X154.23 Y147.06 E268.26482
G1 X155.00 Y148.39 E268.34129
G1 X156.01 Y149.52 E268.41685
G1 X157.25 Y150.42 E268.49346
G1 X158.64 Y151.04 E268.56931
G1 X160.90 Y151.52 E268.68447
G1 X163.16 Y151.04 E268.79938
G1 X164.55 Y150.42 E268.87541
G1 X165.78 Y149.52 E268.95156
G1 X166.80 Y148.39 E269.02740
G1 X167.57 Y147.06 E269.10387
G1 X168.03 Y145.62 E269.17957
G1 X168.19 Y144.11 E269.25556
G1 X168.15 Y143.69 E269.27652
G1 X168.04 Y142.61 E269.33085
G1 X167.91 Y142.19 E269.35231
G1 X167.56 Y141.14 E269.40790
G1 X167.36 Y140.77 E269.42873
G1 X166.81 Y139.82 E269.48340
G1 X166.53 Y139.51 E269.50457
G1 X165.78 Y138.68 E269.56006
G1 X165.45 Y138.44 E269.58062
G1 X164.55 Y137.79 E269.63591
G1 X164.18 Y137.62 E269.65650
G1 X163.16 Y137.17 E269.71196
G1 X162.75 Y137.07 E269.73306
G1 X161.67 Y136.85 E269.78776
G1 X161.25 Y136.84 E269.80882
G1 X160.15 Y136.85 E269.86370
G1 X159.75 Y136.93 E269.88400
G1 X159.75 Y136.93 E269.88405
G1 X158.65 Y137.16 E269.94041
G1 X158.27 Y137.33 E269.96090
G1 X158.27 Y137.33 E269.96095
G1 X157.26 Y137.78 E270.01644
G1 X156.91 Y138.03 E270.03756
G1 X156.02 Y138.68 E270.09263
G1 X155.74 Y138.98 E270.11314
G1 X155.01 Y139.80 E270.16819
G1 X154.79 Y140.17 E270.18928
G0 F12000 X150.85 Y141.08
G0 X150.76 Y141.14
G1 F3180 X150.56 Y140.77 E270.21011
G1 X150.01 Y139.82 E270.26478
G1 X149.73 Y139.51 E270.28595
G1 X148.98 Y138.68 E270.34145
G1 X148.65 Y138.44 E270.36190
G1 X147.75 Y137.79 E270.41720
G1 X147.38 Y137.62 E270.43790
G1 X146.36 Y137.17 E270.49335
G1 X145.95 Y137.07 E270.51445
G1 X144.88 Y136.85 E270.56916
G1 X144.45 Y136.84 E270.59021
G1 X143.35 Y136.85 E270.64509
G1 X142.95 Y136.93 E270.66545
G1 X141.86 Y137.16 E270.72126
G1 X141.48 Y137.32 E270.74188
G1 X140.45 Y137.78 E270.79805
G1 X140.12 Y138.03 E270.81863
G1 X139.22 Y138.68 E270.87394
G1 X138.94 Y138.98 E270.89446
G1 X138.21 Y139.80 E270.94950
G1 X137.99 Y140.17 E270.97059
G1 X137.44 Y141.12 E271.02568
G1 X137.31 Y141.52 E271.04626
G1 X137.31 Y141.52 E271.04631
G1 X136.97 Y142.57 E271.10148
G1 X136.92 Y142.99 E271.12263
G1 X136.92 Y142.99 E271.12268
G1 X136.80 Y144.10 E271.17842
G1 X136.97 Y145.62 E271.25468
G1 X137.43 Y147.06 E271.33047
G1 X138.20 Y148.39 E271.40694
G1 X139.22 Y149.52 E271.48268
G1 X140.45 Y150.42 E271.55875
G1 X141.85 Y151.04 E271.63516
G1 X144.10 Y151.52 E271.75017
G1 X146.35 Y151.04 E271.86489
G1 X147.75 Y150.42 E271.94126
G1 X148.99 Y149.52 E272.01733
G1 X150.00 Y148.39 E272.09307
G1 X150.76 Y147.07 E272.16932
G1 X151.24 Y145.61 E272.24577
G1 X151.40 Y144.09 E272.32212
G1 X151.24 Y142.61 E272.39652
G1 X151.11 Y142.19 E272.41799
G1 X150.76 Y141.14 E272.47357
G0 F12000 X150.85 Y141.08
G0 X151.43 Y142.57
G0 X151.43 Y145.65
G0 X150.16 Y148.51
G0 X147.85 Y150.59
G0 X146.38 Y153.87
G0 X146.37 Y153.97
G1 F3180 X145.95 Y153.88 E272.49476
G1 X144.12 Y153.49 E272.58801
G1 X142.95 Y153.72 E272.64740
G1 X141.86 Y153.96 E272.70333
G1 X141.47 Y154.13 E272.72455
G1 X140.46 Y154.58 E272.77989
G1 X140.12 Y154.83 E272.80061
G1 X139.22 Y155.48 E272.85593
G1 X138.94 Y155.78 E272.87645
G1 X138.21 Y156.60 E272.93150
G1 X137.99 Y156.97 E272.95259
G1 X137.44 Y157.93 E273.00775
G1 X137.31 Y158.32 E273.02830
G1 X137.31 Y158.32 E273.02835
G1 X136.97 Y159.37 E273.08342
G1 X136.92 Y159.78 E273.10447
G1 X136.92 Y159.78 E273.10452
G1 X136.80 Y160.90 E273.16036
G1 X136.97 Y162.42 E273.23662
G1 X137.43 Y163.86 E273.31246
G1 X138.20 Y165.19 E273.38893
G1 X139.22 Y166.32 E273.46467
G1 X140.45 Y167.22 E273.54085
G1 X141.85 Y167.84 E273.61710
G1 X143.34 Y168.16 E273.69323
G1 X144.41 Y168.15 E273.74686
G1 X144.85 Y168.16 E273.76846
G1 X146.35 Y167.84 E273.84525
G1 X147.75 Y167.22 E273.92150
G1 X148.99 Y166.32 E273.99768
G1 X150.00 Y165.19 E274.07342
G1 X150.77 Y163.87 E274.14985
G1 X151.24 Y162.42 E274.22585
G1 X151.40 Y160.89 E274.30234
G1 X151.24 Y159.41 E274.37688
G1 X151.11 Y158.99 E274.39835
G1 X150.76 Y157.94 E274.45393
G1 X150.56 Y157.57 E274.47476
G1 X150.01 Y156.62 E274.52943
G1 X149.73 Y156.31 E274.55060
G1 X148.98 Y155.48 E274.60613
G1 X148.65 Y155.24 E274.62655
G1 X147.75 Y154.59 E274.68199
G1 X147.37 Y154.41 E274.70296
G1 X146.37 Y153.97 E274.75779
G0 F12000 X146.38 Y153.87
G0 X154.24 Y157.93
G1 F3180 X154.11 Y158.31 E274.77830
G1 X154.11 Y158.31 E274.77835
G1 X153.77 Y159.37 E274.83351
G1 X153.72 Y159.77 E274.85376
G1 X153.60 Y160.89 E274.91005
G1 X153.76 Y162.42 E274.98669
G1 X154.23 Y163.86 E275.06244
G1 X155.00 Y165.19 E275.13891
G1 X156.01 Y166.32 E275.21465
G1 X157.25 Y167.22 E275.29083
G1 X158.65 Y167.84 E275.36708
G1 X160.14 Y168.16 E275.44320
G1 X161.21 Y168.15 E275.49684
G1 X161.65 Y168.16 E275.51844
G1 X163.15 Y167.84 E275.59523
G1 X164.55 Y167.22 E275.67148
G1 X165.78 Y166.32 E275.74766
G1 X166.80 Y165.19 E275.82340
G1 X167.57 Y163.86 E275.89987
G1 X168.03 Y162.42 E275.97561
G1 X168.19 Y160.90 E276.05171
G1 X168.15 Y160.49 E276.07261
G1 X168.04 Y159.41 E276.12685
G1 X167.91 Y158.99 E276.14831
G1 X167.56 Y157.94 E276.20389
G1 X167.36 Y157.57 E276.22472
G1 X166.81 Y156.62 E276.27939
G1 X166.53 Y156.31 E276.30056
G1 X165.78 Y155.48 E276.35609
G1 X165.45 Y155.24 E276.37651
G1 X164.55 Y154.59 E276.43195
G1 X164.17 Y154.41 E276.45292
G1 X163.16 Y153.97 E276.50775
G1 X162.75 Y153.88 E276.52895
G1 X160.92 Y153.49 E276.62205
G1 X159.74 Y153.73 E276.68241
G1 X159.74 Y153.73 E276.68246
G1 X158.65 Y153.96 E276.73787
G1 X158.27 Y154.13 E276.75880
G1 X157.26 Y154.58 E276.81397
G1 X156.92 Y154.83 E276.83486
G1 X156.02 Y155.48 E276.89019
G1 X155.74 Y155.78 E276.91071
G1 X155.01 Y156.60 E276.96575
G1 X154.79 Y156.97 E276.98684
G1 X154.24 Y157.93 E277.04200
G1 F2400 E275.84200
G0 F12000 X171.17 Y171.17
G1 F2400 E277.04200
G1 F3180 X133.87 Y171.17 E278.90291
G1 X133.87 Y133.97 E280.75882
G1 X171.17 Y133.97 E282.61973
G1 X171.17 Y171.17 E284.47564
G0 F12000 X169.98 Y171.23
G1 F3180 X169.98 Y133.91 E286.33755
G0 F12000 X169.98 Y134.07
G0 X171.07 Y136.65
G0 X171.23 Y136.65
G1 F3180 X133.81 Y136.65 E288.20444
G0 F12000 X133.97 Y136.65
G0 X136.65 Y134.07
G0 X136.65 Y133.91
G1 F3180 X136.65 Y171.23 E290.06634
G0 F12000 X136.65 Y171.07
G0 X133.97 Y169.98
G0 X133.81 Y169.98
G1 F3180 X171.23 Y169.98 E291.93323
G0 F12000 X171.07 Y169.98
G0 X171.07 Y163.32
G0 X171.23 Y163.32
G1 F3180 X167.68 Y163.32 E292.11034
G0 F12000 X167.83 Y163.37
G0 X166.96 Y165.31
G0 X164.65 Y167.39
G0 X163.38 Y167.85
G0 X163.32 Y167.70
G1 F3180 X163.32 Y171.23 E292.28650
G0 F12000 X163.32 Y171.07
G0 X156.65 Y171.07
G0 X156.65 Y171.23
G1 F3180 X156.65 Y166.71 E292.51216
G0 F12000 X156.56 Y166.84
G0 X154.84 Y165.31
G0 X153.97 Y163.37
G0 X154.12 Y163.32
G1 F3180 X150.88 Y163.32 E292.67365
G0 F12000 X151.03 Y163.37
G0 X150.12 Y165.18
G0 X149.99 Y165.10
G1 F3180 X149.99 Y171.23 E292.97968
G0 F12000 X149.99 Y171.07
G0 X143.32 Y171.07
G0 X143.32 Y171.23
G1 F3180 X143.32 Y168.09 E293.13638
G0 F12000 X143.29 Y168.25
G0 X141.79 Y168.03
G0 X139.08 Y166.47
G0 X137.25 Y163.94
G0 X137.17 Y163.37
G0 X137.32 Y163.32
G1 F3180 X133.81 Y163.32 E293.31145
G0 F12000 X133.97 Y163.32
G0 X133.97 Y156.65
G0 X133.81 Y156.65
G1 F3180 X138.25 Y156.65 E293.53291
G0 F12000 X138.11 Y156.57
G0 X140.00 Y154.66
G0 X142.91 Y153.53
G0 X143.29 Y153.56
G0 X143.32 Y153.72
G1 F3180 X143.32 Y151.29 E293.65409
G0 F12000 X143.29 Y151.44
G0 X141.79 Y151.23
G0 X139.86 Y150.11
G0 X139.96 Y149.99
G1 F3180 X133.81 Y149.99 E293.96072
G0 F12000 X133.97 Y149.99
G0 X133.97 Y143.32
G0 X133.81 Y143.32
G1 F3180 X136.94 Y143.32 E294.11707
G0 F12000 X136.79 Y143.30
G0 X137.26 Y141.04
G0 X139.09 Y138.53
G0 X141.80 Y136.97
G0 X143.29 Y136.76
G0 X143.32 Y136.91
G1 F3180 X143.32 Y133.91 E294.26694
G0 F12000 X143.32 Y134.07
G0 X149.99 Y134.07
G0 X149.99 Y133.91
G1 F3180 X149.99 Y139.90 E294.56584
G0 F12000 X150.12 Y139.82
G0 X151.30 Y142.13
G0 X151.41 Y143.30
G0 X151.25 Y143.32
G1 F3180 X153.75 Y143.32 E294.69031
G0 F12000 X153.59 Y143.30
G0 X154.06 Y141.04
G0 X155.89 Y138.53
G0 X156.56 Y138.17
G0 X156.65 Y138.30
G1 F3180 X156.65 Y133.91 E294.90908
G0 F12000 X156.65 Y134.07
G0 X163.32 Y134.07
G0 X163.32 Y133.91
G1 F3180 X163.32 Y137.30 E295.07826
G0 F12000 X163.38 Y137.16
G0 X165.57 Y138.28
G0 X167.53 Y140.68
G0 X168.23 Y142.57
G0 X168.21 Y143.30
G0 X168.05 Y143.32
G1 F3180 X171.23 Y143.32 E295.23696
G0 F12000 X171.07 Y143.32
G0 X171.07 Y149.99
G0 X171.23 Y149.99
G1 F3180 X165.04 Y149.99 E295.54568
G0 F12000 X165.13 Y150.11
G0 X163.38 Y151.05
G0 X163.32 Y150.90
G1 F3180 X163.32 Y154.10 E295.70533
G0 F12000 X163.38 Y153.96
G0 X165.57 Y155.08
G0 X166.87 Y156.55
G0 X166.75 Y156.65
G1 F3180 X171.23 Y156.65 E295.92884
G0 F12000 X171.07 Y156.65
G0 X162.79 Y153.68
G0 X160.92 Y153.29
G0 X158.19 Y153.95
G0 X156.56 Y154.97
G0 X156.65 Y155.09
G1 F3180 X156.65 Y149.91 E296.18762
G0 F12000 X156.76 Y149.99
G1 F3180 X148.25 Y149.99 E296.61233
G0 F12000 X148.34 Y150.11
G0 X149.12 Y149.67
G0 X150.12 Y148.38
G0 X149.99 Y148.30
G1 F3180 X149.99 Y156.70 E297.03156
G0 F12000 X149.95 Y156.65
G1 F3180 X155.05 Y156.65 E297.28585
;LAYER:2
G1 F2400 E296.08585
G0 F12000 X157.90 Y158.72 Z0.90
;TYPE:WALL-INNER
G1 F2400 E297.28585
G1 F3720 X158.35 Y158.22 E297.31924
G1 X158.42 Y158.14 E297.32468
G1 X159.04 Y157.69 E297.36326
G1 X159.66 Y157.42 E297.39676
G1 X159.75 Y157.38 E297.40173
G1 X160.41 Y157.23 E297.43541
G1 X160.51 Y157.21 E297.44060
G1 X161.18 Y157.21 E297.47383
G1 X161.28 Y157.21 E297.47922
G1 X161.94 Y157.35 E297.51266
G1 X162.04 Y157.37 E297.51796
G1 X162.65 Y157.64 E297.55115
G1 X162.75 Y157.69 E297.55665
G1 X163.29 Y158.08 E297.58994
G1 X163.38 Y158.14 E297.59529
G1 X163.83 Y158.64 E297.62864
G1 X163.90 Y158.72 E297.63387
G1 X164.29 Y159.39 E297.67279
G1 X164.49 Y160.02 E297.70565
G1 X164.53 Y160.13 E297.71118
G1 X164.60 Y160.79 E297.74450
G1 X164.61 Y160.90 E297.74982
G1 X164.53 Y161.67 E297.78870
G1 X164.29 Y162.41 E297.82740
G1 X163.90 Y163.08 E297.86607
G1 X163.38 Y163.66 E297.90472
G1 X162.75 Y164.11 E297.94335
G1 X162.05 Y164.43 E297.98204
G1 X161.29 Y164.59 E298.02065
G1 X161.18 Y164.59 E298.02599
G1 X160.51 Y164.59 E298.05947
G1 X159.75 Y164.43 E298.09813
G1 X159.04 Y164.11 E298.13681
G1 X158.42 Y163.66 E298.17545
G1 X157.90 Y163.08 E298.21410
G1 X157.51 Y162.41 E298.25277
G1 X157.27 Y161.67 E298.29147
G1 X157.19 Y160.90 E298.33020
G1 X157.27 Y160.13 E298.36883
G1 X157.48 Y159.50 E298.40207
G1 X157.51 Y159.39 E298.40737
G1 X157.84 Y158.82 E298.44061
G1 X157.90 Y158.72 E298.44604
G0 F12000 X157.57 Y158.49
;TYPE:WALL-OUTER
G1 F3720 X158.15 Y157.84 E298.48917
G1 X158.84 Y157.34 E298.53172
G1 X159.50 Y157.05 E298.56740
G1 X159.63 Y156.99 E298.57455
G1 X160.32 Y156.84 E298.61022
G1 X160.47 Y156.81 E298.61761
G1 X161.18 Y156.81 E298.65298
G1 X161.33 Y156.81 E298.66031
G1 X162.02 Y156.96 E298.69590
G1 X162.17 Y156.99 E298.70314
G1 X162.82 Y157.28 E298.73879
G1 X162.95 Y157.34 E298.74611
G1 X163.65 Y157.84 E298.78890
G1 X164.12 Y158.37 E298.82444
G1 X164.22 Y158.48 E298.83182
G1 X164.65 Y159.23 E298.87476
G1 X164.87 Y159.90 E298.91009
G1 X164.92 Y160.04 E298.91761
G1 X165.00 Y160.75 E298.95299
G1 X165.01 Y160.90 E298.96041
G1 X164.92 Y161.75 E299.00340
G1 X164.66 Y162.57 E299.04625
G1 X164.23 Y163.31 E299.08897
G1 X163.65 Y163.95 E299.13196
G1 X162.95 Y164.46 E299.17489
G1 X162.17 Y164.81 E299.21769
G1 X161.33 Y164.99 E299.26064
G1 X161.18 Y164.99 E299.26797
G1 X160.47 Y164.99 E299.30339
G1 X159.63 Y164.81 E299.34634
G1 X158.84 Y164.46 E299.38913
G1 X158.15 Y163.95 E299.43206
G1 X157.57 Y163.31 E299.47506
G1 X157.14 Y162.57 E299.51777
G1 X156.88 Y161.75 E299.56062
G1 X156.79 Y160.90 E299.60357
G1 X156.88 Y160.04 E299.64641
G1 X157.15 Y159.23 E299.68931
G1 X157.50 Y158.61 E299.72463
G1 X157.57 Y158.49 E299.73199
G0 F12000 X157.99 Y158.84
;TYPE:FILL
G1 F3720 X162.95 Y163.79 E300.08162
G0 F12000 X163.27 Y163.56
G1 F3720 X158.25 Y158.54 E300.43585
G0 F12000 X158.52 Y158.24
G1 F3720 X163.54 Y163.26 E300.79010
G0 F12000 X163.81 Y162.96
G1 F3720 X158.85 Y158.00 E301.13974
G0 F12000 X159.19 Y157.78
G1 F3720 X164.01 Y162.60 E301.47993
G0 F12000 X164.20 Y162.22
G1 F3720 X159.58 Y157.60 E301.80561
G0 F12000 X160.01 Y157.46
G1 F3720 X164.34 Y161.79 E302.11104
G0 F12000 X164.42 Y161.31
G1 F3720 X160.47 Y157.36 E302.38953
G0 F12000 X161.03 Y157.35
G1 F3720 X164.45 Y160.78 E302.63104
G0 F12000 X164.38 Y160.14
G1 F3720 X161.68 Y157.44 E302.82157
G0 F12000 X162.57 Y157.76
G1 F3720 X164.02 Y159.21 E302.92405
G0 F12000 X162.61 Y164.02
G1 F3720 X157.78 Y159.20 E303.26434
G0 F12000 X157.60 Y159.58
G1 F3720 X162.22 Y164.19 E303.59017
G0 F12000 X161.79 Y164.34
G1 F3720 X157.46 Y160.00 E303.89571
G0 F12000 X157.38 Y160.49
G1 F3720 X161.32 Y164.43 E304.17422
G0 F12000 X160.77 Y164.45
G1 F3720 X157.35 Y161.02 E304.41574
G0 F12000 X157.42 Y161.66
G1 F3720 X160.12 Y164.36 E304.60620
G0 F12000 X159.23 Y164.04
G1 F3720 X157.77 Y162.58 E304.70910
G1 F2400 E303.50910
G0 F12000 X147.73 Y161.67
;TYPE:WALL-INNER
G1 F2400 E304.70910
G1 F3720 X147.49 Y162.41 E304.74782
G1 X147.10 Y163.08 E304.78649
G1 X146.58 Y163.66 E304.82514
G1 X145.96 Y164.11 E304.86378
G1 X145.25 Y164.43 E304.90246
G1 X144.49 Y164.59 E304.94108
G1 X144.38 Y164.59 E304.94641
G1 X143.71 Y164.59 E304.97989
G1 X142.95 Y164.43 E305.01855
G1 X142.25 Y164.11 E305.05724
G1 X141.62 Y163.66 E305.09588
G1 X141.10 Y163.08 E305.13452
G1 X140.71 Y162.41 E305.17319
G1 X140.47 Y161.67 E305.21191
G1 X140.39 Y160.90 E305.25064
G1 X140.46 Y160.24 E305.28395
G1 X140.47 Y160.13 E305.28902
G1 X140.68 Y159.50 E305.32251
G1 X140.71 Y159.39 E305.32781
G1 X141.04 Y158.82 E305.36105
G1 X141.10 Y158.72 E305.36648
G1 X141.55 Y158.22 E305.39987
G1 X141.62 Y158.14 E305.40531
G1 X142.25 Y157.69 E305.44389
G1 X142.86 Y157.42 E305.47734
G1 X142.95 Y157.38 E305.48246
G1 X143.61 Y157.23 E305.51603
G1 X143.71 Y157.21 E305.52123
G1 X144.38 Y157.21 E305.55445
G1 X144.49 Y157.21 E305.55984
G1 X145.14 Y157.35 E305.59329
G1 X145.25 Y157.37 E305.59859
G1 X145.85 Y157.64 E305.63178
G1 X145.95 Y157.69 E305.63727
G1 X146.49 Y158.08 E305.67056
G1 X146.58 Y158.14 E305.67592
G1 X147.03 Y158.64 E305.70927
G1 X147.10 Y158.72 E305.71450
G1 X147.49 Y159.39 E305.75342
G1 X147.69 Y160.02 E305.78628
G1 X147.73 Y160.13 E305.79180
G1 X147.80 Y160.79 E305.82512
G1 X147.81 Y160.90 E305.83049
G1 X147.73 Y161.67 E305.86931
G0 F12000 X148.12 Y161.76
;TYPE:WALL-OUTER
G1 F3720 X147.86 Y162.57 E305.91211
G1 X147.43 Y163.31 E305.95483
G1 X146.85 Y163.95 E305.99782
G1 X146.16 Y164.46 E306.04075
G1 X145.37 Y164.81 E306.08355
G1 X144.53 Y164.99 E306.12649
G1 X144.38 Y164.99 E306.13383
G1 X143.67 Y164.99 E306.16925
G1 X142.83 Y164.81 E306.21220
G1 X142.05 Y164.46 E306.25499
G1 X141.35 Y163.95 E306.29792
G1 X140.77 Y163.31 E306.34091
G1 X140.34 Y162.57 E306.38363
G1 X140.08 Y161.75 E306.42648
G1 X139.99 Y160.90 E306.46943
G1 X140.06 Y160.19 E306.50480
G1 X140.08 Y160.04 E306.51228
G1 X140.35 Y159.23 E306.55518
G1 X140.70 Y158.61 E306.59050
G1 X140.78 Y158.49 E306.59785
G1 X141.35 Y157.84 E306.64099
G1 X142.04 Y157.34 E306.68353
G1 X142.69 Y157.05 E306.71917
G1 X142.83 Y156.99 E306.72637
G1 X143.53 Y156.84 E306.76203
G1 X143.67 Y156.81 E306.76942
G1 X144.38 Y156.81 E306.80479
G1 X144.53 Y156.81 E306.81213
G1 X145.22 Y156.96 E306.84771
G1 X145.37 Y156.99 E306.85495
G1 X146.02 Y157.28 E306.89060
G1 X146.15 Y157.34 E306.89793
G1 X146.85 Y157.84 E306.94072
G1 X147.32 Y158.37 E306.97625
G1 X147.42 Y158.48 E306.98364
G1 X147.85 Y159.23 E307.02658
G1 X148.07 Y159.90 E307.06190
G1 X148.12 Y160.04 E307.06943
G1 X148.19 Y160.75 E307.10480
G1 X148.21 Y160.90 E307.11222
G1 X148.12 Y161.76 E307.15526
G0 F12000 X147.61 Y161.47
;TYPE:FILL
G1 F3720 X143.53 Y157.39 E307.44266
G0 F12000 X143.07 Y157.49
G1 F3720 X147.50 Y161.92 E307.75522
G0 F12000 X147.36 Y162.35
G1 F3720 X142.66 Y157.66 E308.08641
G0 F12000 X142.28 Y157.84
G1 F3720 X147.15 Y162.71 E308.43016
G0 F12000 X146.93 Y163.06
G1 F3720 X141.95 Y158.07 E308.78152
G0 F12000 X141.64 Y158.33
G1 F3720 X146.66 Y163.35 E309.13599
G0 F12000 X146.38 Y163.63
G1 F3720 X141.37 Y158.63 E309.48898
G0 F12000 X141.13 Y158.95
G1 F3720 X146.05 Y163.87 E309.83604
G0 F12000 X145.69 Y164.07
G1 F3720 X140.92 Y159.31 E310.17242
G0 F12000 X140.76 Y159.71
G1 F3720 X145.30 Y164.25 E310.49281
G0 F12000 X144.85 Y164.37
G1 F3720 X140.62 Y160.13 E310.79133
G0 F12000 X140.56 Y160.64
G1 F3720 X144.36 Y164.45 E311.05976
G0 F12000 X143.80 Y164.45
G1 F3720 X140.56 Y161.21 E311.28786
G0 F12000 X140.70 Y161.91
G1 F3720 X143.10 Y164.31 E311.45716
G0 F12000 X141.93 Y163.71
G1 F3720 X141.21 Y162.99 E311.50782
G0 F12000 X144.06 Y157.35
G1 F3720 X147.66 Y160.95 E311.76196
G0 F12000 X147.61 Y160.34
G1 F3720 X144.67 Y157.39 E311.96946
G0 F12000 X145.46 Y157.62
G1 F3720 X147.40 Y159.56 E312.10620
G1 F2400 E310.90620
G0 F12000 X145.25 Y147.63
;TYPE:WALL-INNER
G1 F2400 E312.10620
G1 F3720 X144.49 Y147.79 E312.14481
G1 X144.38 Y147.79 E312.15015
G1 X143.71 Y147.79 E312.18363
G1 X142.95 Y147.63 E312.22229
G1 X142.25 Y147.31 E312.26097
G1 X141.62 Y146.86 E312.29961
G1 X141.10 Y146.28 E312.33826
G1 X140.71 Y145.61 E312.37693
G1 X140.47 Y144.87 E312.41565
G1 X140.39 Y144.10 E312.45432
G1 X140.46 Y143.44 E312.48768
G1 X140.47 Y143.34 E312.49275
G1 X140.68 Y142.70 E312.52625
G1 X140.71 Y142.59 E312.53155
G1 X141.04 Y142.02 E312.56478
G1 X141.10 Y141.92 E312.57022
G1 X141.55 Y141.43 E312.60360
G1 X141.62 Y141.34 E312.60911
G1 X142.16 Y140.95 E312.64230
G1 X142.25 Y140.89 E312.64765
G1 X142.86 Y140.62 E312.68111
G1 X142.95 Y140.58 E312.68607
G1 X143.61 Y140.44 E312.71979
G1 X143.71 Y140.41 E312.72498
G1 X144.38 Y140.41 E312.75821
G1 X144.49 Y140.41 E312.76365
G1 X145.13 Y140.55 E312.79667
G1 X145.25 Y140.57 E312.80245
G1 X145.95 Y140.89 E312.84094
G1 X146.49 Y141.28 E312.87433
G1 X146.58 Y141.34 E312.87969
G1 X147.03 Y141.84 E312.91304
G1 X147.10 Y141.92 E312.91826
G1 X147.49 Y142.59 E312.95718
G1 X147.69 Y143.22 E312.99005
G1 X147.73 Y143.33 E312.99557
G1 X147.80 Y143.99 E313.02894
G1 X147.81 Y144.10 E313.03430
G1 X147.73 Y144.87 E313.07307
G1 X147.49 Y145.61 E313.11179
G1 X147.10 Y146.28 E313.15046
G1 X146.58 Y146.86 E313.18911
G1 X145.96 Y147.31 E313.22775
G1 X145.25 Y147.63 E313.26643
G0 F12000 X145.37 Y148.01
;TYPE:WALL-OUTER
G1 F3720 X144.53 Y148.19 E313.30938
G1 X144.38 Y148.19 E313.31671
G1 X143.67 Y148.19 E313.35213
G1 X142.83 Y148.01 E313.39508
G1 X142.05 Y147.66 E313.43787
G1 X141.35 Y147.16 E313.48081
G1 X140.77 Y146.51 E313.52380
G1 X140.34 Y145.77 E313.56652
G1 X140.08 Y144.96 E313.60937
G1 X139.99 Y144.10 E313.65226
G1 X140.06 Y143.40 E313.68769
G1 X140.08 Y143.25 E313.69517
G1 X140.35 Y142.43 E313.73807
G1 X140.70 Y141.81 E313.77338
G1 X140.78 Y141.69 E313.78074
G1 X141.35 Y141.05 E313.82373
G1 X142.05 Y140.54 E313.86659
G1 X142.69 Y140.25 E313.90208
G1 X142.83 Y140.19 E313.90936
G1 X143.53 Y140.04 E313.94492
G1 X143.67 Y140.01 E313.95231
G1 X144.38 Y140.01 E313.98768
G1 X144.53 Y140.01 E313.99502
G1 X145.22 Y140.16 E314.03059
G1 X145.37 Y140.19 E314.03790
G1 X146.15 Y140.54 E314.08081
G1 X146.85 Y141.05 E314.12374
G1 X147.32 Y141.57 E314.15914
G1 X147.42 Y141.68 E314.16652
G1 X147.85 Y142.43 E314.20946
G1 X148.07 Y143.10 E314.24478
G1 X148.12 Y143.25 E314.25231
G1 X148.19 Y143.95 E314.28773
G1 X148.21 Y144.10 E314.29515
G1 X148.12 Y144.96 E314.33814
G1 X147.86 Y145.77 E314.38094
G1 X147.43 Y146.51 E314.42366
G1 X146.85 Y147.16 E314.46665
G1 X146.16 Y147.66 E314.50958
G1 X145.37 Y148.01 E314.55238
G0 F12000 X144.99 Y147.54
;TYPE:FILL
G1 F3720 X140.66 Y143.21 E314.85795
G0 F12000 X140.80 Y142.78
G1 F3720 X145.42 Y147.40 E315.18385
G0 F12000 X145.81 Y147.22
G1 F3720 X140.99 Y142.40 E315.52417
G0 F12000 X141.19 Y142.04
G1 F3720 X146.15 Y147.00 E315.87381
G0 F12000 X146.47 Y146.76
G1 F3720 X141.45 Y141.74 E316.22807
G0 F12000 X141.72 Y141.44
G1 F3720 X146.75 Y146.46 E316.58240
G0 F12000 X147.01 Y146.16
G1 F3720 X142.05 Y141.20 E316.93207
G0 F12000 X142.39 Y140.98
G1 F3720 X147.22 Y145.80 E317.27239
G0 F12000 X147.40 Y145.42
G1 F3720 X142.78 Y140.80 E317.59829
G0 F12000 X143.21 Y140.66
G1 F3720 X147.54 Y145.00 E317.90383
G0 F12000 X147.62 Y144.51
G1 F3720 X143.68 Y140.56 E318.18231
G0 F12000 X144.23 Y140.55
G1 F3720 X147.65 Y143.98 E318.42375
G0 F12000 X147.58 Y143.34
G1 F3720 X144.88 Y140.64 E318.61436
G0 F12000 X145.77 Y140.96
G1 F3720 X147.22 Y142.41 E318.71695
G0 F12000 X144.52 Y147.64
G1 F3720 X140.58 Y143.69 E318.99553
G0 F12000 X140.54 Y144.22
G1 F3720 X143.97 Y147.65 E319.23712
G0 F12000 X143.32 Y147.56
G1 F3720 X140.62 Y144.86 E319.42776
G0 F12000 X140.97 Y145.78
G1 F3720 X142.43 Y147.24 E319.53073
G1 F2400 E318.33073
G0 F12000 X157.27 Y144.87
;TYPE:WALL-INNER
G1 F2400 E319.53073
G1 F3720 X157.19 Y144.10 E319.56941
G1 X157.27 Y143.33 E319.60809
G1 X157.48 Y142.70 E319.64133
G1 X157.51 Y142.59 E319.64663
G1 X157.84 Y142.02 E319.67987
G1 X157.90 Y141.92 E319.68530
G1 X158.35 Y141.43 E319.71869
G1 X158.42 Y141.34 E319.72420
G1 X158.96 Y140.95 E319.75738
G1 X159.04 Y140.89 E319.76274
G1 X159.65 Y140.62 E319.79585
G1 X159.75 Y140.58 E319.80129
G1 X160.41 Y140.44 E319.83486
G1 X160.51 Y140.41 E319.84005
G1 X161.18 Y140.41 E319.87328
G1 X161.29 Y140.41 E319.87872
G1 X161.93 Y140.55 E319.91174
G1 X162.04 Y140.57 E319.91743
G1 X162.75 Y140.89 E319.95602
G1 X163.29 Y141.28 E319.98938
G1 X163.38 Y141.34 E319.99474
G1 X163.83 Y141.84 E320.02809
G1 X163.90 Y141.92 E320.03332
G1 X164.29 Y142.59 E320.07224
G1 X164.49 Y143.22 E320.10510
G1 X164.53 Y143.33 E320.11063
G1 X164.60 Y143.99 E320.14400
G1 X164.61 Y144.10 E320.14931
G1 X164.53 Y144.87 E320.18815
G1 X164.29 Y145.61 E320.22685
G1 X163.90 Y146.28 E320.26552
G1 X163.38 Y146.86 E320.30409
G1 X162.75 Y147.31 E320.34285
G1 X162.05 Y147.63 E320.38147
G1 X161.29 Y147.79 E320.42008
G1 X161.18 Y147.79 E320.42542
G1 X160.51 Y147.79 E320.45890
G1 X159.75 Y147.63 E320.49756
G1 X159.04 Y147.31 E320.53622
G1 X158.42 Y146.86 E320.57494
G1 X157.90 Y146.28 E320.61351
G1 X157.51 Y145.61 E320.65218
G1 X157.27 Y144.87 E320.69089
G0 F12000 X156.88 Y144.96
;TYPE:WALL-OUTER
G1 F3720 X156.79 Y144.10 E320.73378
G1 X156.88 Y143.25 E320.77667
G1 X157.15 Y142.43 E320.81957
G1 X157.50 Y141.81 E320.85489
G1 X157.57 Y141.69 E320.86225
G1 X158.15 Y141.05 E320.90524
G1 X158.84 Y140.54 E320.94806
G1 X159.50 Y140.25 E320.98364
G1 X159.63 Y140.19 E320.99088
G1 X160.32 Y140.04 E321.02643
G1 X160.47 Y140.01 E321.03382
G1 X161.18 Y140.01 E321.06919
G1 X161.33 Y140.01 E321.07653
G1 X162.02 Y140.16 E321.11211
G1 X162.17 Y140.19 E321.11942
G1 X162.96 Y140.54 E321.16243
G1 X163.65 Y141.04 E321.20511
G1 X164.12 Y141.57 E321.24065
G1 X164.22 Y141.68 E321.24803
G1 X164.65 Y142.43 E321.29097
G1 X164.87 Y143.10 E321.32630
G1 X164.92 Y143.25 E321.33382
G1 X165.00 Y143.95 E321.36925
G1 X165.01 Y144.10 E321.37667
G1 X164.92 Y144.96 E321.41961
G1 X164.66 Y145.77 E321.46246
G1 X164.23 Y146.51 E321.50518
G1 X163.65 Y147.16 E321.54832
G1 X162.96 Y147.66 E321.59097
G1 X162.17 Y148.01 E321.63389
G1 X161.33 Y148.19 E321.67684
G1 X161.18 Y148.19 E321.68417
G1 X160.47 Y148.19 E321.71960
G1 X159.63 Y148.01 E321.76254
G1 X158.84 Y147.66 E321.80551
G1 X158.15 Y147.16 E321.84813
G1 X157.57 Y146.51 E321.89126
G1 X157.14 Y145.77 E321.93398
G1 X156.88 Y144.96 E321.97683
G0 F12000 X157.39 Y144.66
;TYPE:FILL
G1 F3720 X160.34 Y147.61 E322.18454
G0 F12000 X160.94 Y147.65
G1 F3720 X157.34 Y144.04 E322.43879
G0 F12000 X157.39 Y143.53
G1 F3720 X161.47 Y147.61 E322.72623
G0 F12000 X161.93 Y147.51
G1 F3720 X157.50 Y143.07 E323.03886
G0 F12000 X157.64 Y142.65
G1 F3720 X162.33 Y147.34 E323.37016
G0 F12000 X162.72 Y147.16
G1 F3720 X157.85 Y142.29 E323.71383
G0 F12000 X158.07 Y141.94
G1 F3720 X163.05 Y146.92 E324.06513
G0 F12000 X163.36 Y146.67
G1 F3720 X158.34 Y141.65 E324.41953
G0 F12000 X158.62 Y141.37
G1 F3720 X163.63 Y146.37 E324.77255
G0 F12000 X163.87 Y146.05
G1 F3720 X158.95 Y141.13 E325.11961
G0 F12000 X159.31 Y140.93
G1 F3720 X164.08 Y145.69 E325.45595
G0 F12000 X164.24 Y145.29
G1 F3720 X159.70 Y140.75 E325.77634
G0 F12000 X160.15 Y140.63
G1 F3720 X164.38 Y144.86 E326.07483
G0 F12000 X164.44 Y144.36
G1 F3720 X160.63 Y140.55 E326.34322
G0 F12000 X161.20 Y140.55
G1 F3720 X164.43 Y143.78 E326.57126
G0 F12000 X164.30 Y143.09
G1 F3720 X161.90 Y140.69 E326.74087
G0 F12000 X163.08 Y141.30
G1 F3720 X163.78 Y142.00 E326.79040
G0 F12000 X159.54 Y147.38
G1 F3720 X157.60 Y145.44 E326.92710
G1 F2400 E325.72710
G0 F12000 X154.21 Y147.09
;TYPE:SUPPORT
G1 F2400 E326.92710
G1 F3720 X154.97 Y148.41 E327.00312
G1 X156.00 Y149.55 E327.07967
G1 X157.24 Y150.45 E327.15617
G1 X158.63 Y151.07 E327.23251
G1 X160.80 Y151.53 E327.34292
G1 X160.79 Y153.48 E327.44030
G1 X159.67 Y153.71 E327.49770
G1 X159.67 Y153.71 E327.49775
G1 X158.64 Y153.93 E327.54999
G1 X158.20 Y154.12 E327.57403
G1 X158.20 Y154.12 E327.57408
G1 X157.24 Y154.56 E327.62680
G1 X156.00 Y155.45 E327.70293
G1 X155.67 Y155.82 E327.72747
G1 X154.98 Y156.58 E327.77888
G1 X154.73 Y157.01 E327.80339
G1 X154.73 Y157.01 E327.80344
G1 X154.21 Y157.91 E327.85577
G1 X154.06 Y158.38 E327.88027
G1 X153.73 Y159.38 E327.93254
G1 X153.58 Y160.82 E328.00495
G1 X151.42 Y160.82 E328.11261
G1 X151.27 Y159.39 E328.18420
G1 X151.12 Y158.92 E328.20887
G1 X150.79 Y157.92 E328.26142
G1 X150.03 Y156.60 E328.33765
G1 X149.71 Y156.24 E328.36175
G1 X149.00 Y155.46 E328.41410
G1 X148.62 Y155.17 E328.43813
G1 X147.77 Y154.56 E328.49044
G1 X147.32 Y154.36 E328.51471
G1 X146.37 Y153.93 E328.56668
G1 X145.90 Y153.83 E328.59084
G1 X144.21 Y153.48 E328.67714
G1 X144.20 Y151.53 E328.77422
G1 X146.36 Y151.07 E328.88440
G1 X147.77 Y150.45 E328.96104
G1 X149.01 Y149.54 E329.03756
G1 X150.03 Y148.41 E329.11380
G1 X150.79 Y147.09 E329.19000
G1 X151.27 Y145.62 E329.26698
G1 X151.42 Y144.19 E329.33882
G1 X153.58 Y144.19 E329.44663
G1 X153.73 Y145.62 E329.51851
G1 X154.21 Y147.09 E329.59549
G1 F2400 E328.39549
G0 F12000 X156.65 Y149.95
G1 F2400 E329.59549
G1 F3720 X156.65 Y155.05 E329.85018
G0 F12000 X156.56 Y154.93
G0 X155.87 Y155.30
G0 X154.88 Y156.57
G0 X155.01 Y156.65
G1 F3720 X149.99 Y156.65 E330.10078
G0 F12000 X149.99 Y156.64
G1 F3720 X149.99 Y148.37 E330.51367
G0 F12000 X150.12 Y148.45
G0 X149.14 Y149.69
G0 X148.39 Y150.11
G0 X148.30 Y149.99
G1 F3720 X156.70 Y149.99 E330.93290
G1 F2400 E329.73290
G0 F12000 X161.00 Y151.53
G1 F2400 E330.93290
G1 F3720 X163.16 Y151.07 E331.04312
G1 X164.56 Y150.45 E331.11952
G1 X165.80 Y149.55 E331.19589
G1 X166.83 Y148.41 E331.27255
G1 X167.59 Y147.09 E331.34857
G1 X168.07 Y145.62 E331.42556
G1 X168.23 Y144.11 E331.50136
G1 X168.18 Y143.62 E331.52603
G1 X168.07 Y142.59 E331.57751
G1 X167.92 Y142.12 E331.60202
G1 X167.59 Y141.12 E331.65457
G1 X166.83 Y139.80 E331.73080
G1 X166.51 Y139.44 E331.75490
G1 X165.81 Y138.66 E331.80718
G1 X165.41 Y138.37 E331.83150
G1 X164.56 Y137.75 E331.88390
G1 X163.18 Y137.14 E331.95953
G1 X162.69 Y137.03 E331.98432
G1 X161.67 Y136.82 E332.03631
G1 X161.18 Y136.81 E332.06066
G1 X160.15 Y136.81 E332.11244
G1 X159.66 Y136.91 E332.13698
G1 X158.65 Y137.13 E332.18868
G1 X158.20 Y137.32 E332.21324
G1 X157.24 Y137.75 E332.26574
G1 X156.84 Y138.04 E332.28989
G1 X156.00 Y138.66 E332.34213
G1 X155.67 Y139.02 E332.36650
G1 X154.98 Y139.78 E332.41791
G1 X154.73 Y140.21 E332.44242
G1 X154.73 Y140.21 E332.44247
G1 X154.21 Y141.12 E332.49480
G1 X154.06 Y141.58 E332.51930
G1 X153.73 Y142.58 E332.57157
G1 X153.58 Y144.02 E332.64402
G1 X151.42 Y144.02 E332.75174
G1 X151.27 Y142.59 E332.82338
G1 X151.12 Y142.12 E332.84804
G1 X150.79 Y141.12 E332.90059
G1 X150.03 Y139.80 E332.97682
G1 X149.71 Y139.44 E333.00092
G1 X149.01 Y138.66 E333.05320
G1 X148.61 Y138.37 E333.07745
G1 X147.76 Y137.75 E333.12988
G1 X146.37 Y137.14 E333.20569
G1 X145.91 Y137.03 E333.22951
G1 X144.87 Y136.82 E333.28252
G1 X144.38 Y136.81 E333.30667
G1 X143.35 Y136.81 E333.35846
G1 X142.86 Y136.91 E333.38300
G1 X141.85 Y137.13 E333.43449
G1 X141.42 Y137.32 E333.45820
G1 X140.44 Y137.75 E333.51177
G1 X140.04 Y138.04 E333.53614
G1 X139.20 Y138.66 E333.58813
G1 X138.87 Y139.02 E333.61251
G1 X138.18 Y139.78 E333.66391
G1 X137.93 Y140.21 E333.68842
G1 X137.93 Y140.21 E333.68847
G1 X137.41 Y141.12 E333.74080
G1 X137.26 Y141.58 E333.76530
G1 X136.94 Y142.57 E333.81721
G1 X136.88 Y143.05 E333.84126
G1 X136.77 Y144.10 E333.89394
G1 X136.93 Y145.62 E333.97019
G1 X137.41 Y147.09 E334.04708
G1 X138.17 Y148.41 E334.12323
G1 X139.19 Y149.54 E334.19947
G1 X140.43 Y150.45 E334.27600
G1 X141.84 Y151.07 E334.35263
G1 X144.00 Y151.53 E334.46289
G1 X143.99 Y153.48 E334.56027
G1 X142.87 Y153.71 E334.61767
G1 X142.87 Y153.71 E334.61772
G1 X141.85 Y153.93 E334.66976
G1 X141.40 Y154.13 E334.69433
G1 X140.44 Y154.56 E334.74685
G1 X140.05 Y154.84 E334.77076
G1 X139.20 Y155.45 E334.82287
G1 X138.87 Y155.82 E334.84742
G1 X138.18 Y156.58 E334.89882
G1 X137.93 Y157.01 E334.92333
G1 X137.93 Y157.01 E334.92338
G1 X137.41 Y157.91 E334.97571
G1 X137.26 Y158.38 E335.00021
G1 X136.94 Y159.37 E335.05212
G1 X136.88 Y159.85 E335.07612
G1 X136.77 Y160.90 E335.12880
G1 X136.93 Y162.42 E335.20510
G1 X137.41 Y163.89 E335.28199
G1 X138.17 Y165.21 E335.35814
G1 X139.19 Y166.34 E335.43438
G1 X140.43 Y167.25 E335.51091
G1 X141.84 Y167.87 E335.58759
G1 X143.34 Y168.19 E335.66404
G1 X144.36 Y168.19 E335.71522
G1 X144.86 Y168.19 E335.73977
G1 X146.36 Y167.87 E335.81658
G1 X147.77 Y167.25 E335.89326
G1 X149.01 Y166.34 E335.96979
G1 X150.03 Y165.21 E336.04602
G1 X150.79 Y163.88 E336.12223
G1 X151.27 Y162.42 E336.19920
G1 X151.42 Y160.98 E336.27109
G1 X153.58 Y160.98 E336.37895
G1 X153.73 Y162.42 E336.45083
G1 X154.21 Y163.89 E336.52786
G1 X154.97 Y165.21 E336.60402
G1 X155.99 Y166.34 E336.68025
G1 X157.23 Y167.25 E336.75678
G1 X158.64 Y167.87 E336.83346
G1 X160.14 Y168.19 E336.90991
G1 X161.16 Y168.19 E336.96110
G1 X161.66 Y168.19 E336.98564
G1 X163.16 Y167.87 E337.06245
G1 X164.57 Y167.25 E337.13913
G1 X165.81 Y166.34 E337.21566
G1 X166.83 Y165.21 E337.29190
G1 X167.59 Y163.89 E337.36805
G1 X168.07 Y162.42 E337.44509
G1 X168.23 Y160.91 E337.52089
G1 X168.18 Y160.41 E337.54556
G1 X168.07 Y159.39 E337.59699
G1 X167.92 Y158.92 E337.62150
G1 X167.59 Y157.92 E337.67405
G1 X166.83 Y156.60 E337.75028
G1 X166.51 Y156.24 E337.77438
G1 X165.80 Y155.46 E337.82673
G1 X165.41 Y155.17 E337.85076
G1 X164.56 Y154.56 E337.90308
G1 X164.12 Y154.36 E337.92735
G1 X163.17 Y153.93 E337.97932
G1 X162.69 Y153.83 E338.00393
G1 X162.69 Y153.83 E338.00398
G1 X161.00 Y153.48 E338.08976
G1 X161.00 Y151.53 E338.18690
G0 F12000 X161.03 Y151.62
G0 X163.22 Y151.26
G0 X165.94 Y149.70
G0 X167.78 Y147.17
G0 X168.43 Y144.11
G0 X167.78 Y141.04
G0 X171.17 Y133.97
G1 F3720 X171.17 Y171.17 E340.04281
G1 X133.87 Y171.17 E341.90372
G1 X133.87 Y133.97 E343.75963
G1 X171.17 Y133.97 E345.62054
G0 F12000 X169.98 Y133.91
G1 F3720 X169.98 Y171.23 E347.48244
G0 F12000 X169.98 Y171.07
G0 X171.07 Y169.98
G0 X171.23 Y169.98
G1 F3720 X133.81 Y169.98 E349.34933
G0 F12000 X133.97 Y169.98
G0 X136.65 Y171.07
G0 X136.65 Y171.23
G1 F3720 X136.65 Y133.91 E351.21123
G0 F12000 X136.65 Y134.07
G0 X133.97 Y136.65
G0 X133.81 Y136.65
G1 F3720 X171.23 Y136.65 E353.07813
G0 F12000 X171.07 Y136.65
G0 X171.07 Y143.32
G0 X171.23 Y143.32
G1 F3720 X168.08 Y143.32 E353.23523
G0 F12000 X168.25 Y143.30
G0 X168.26 Y145.66
G0 X166.99 Y148.52
G0 X165.19 Y150.11
G0 X165.10 Y149.99
G1 F3720 X171.23 Y149.99 E353.54121
G0 F12000 X171.07 Y149.99
G0 X171.07 Y156.65
G0 X171.23 Y156.65
G1 F3720 X166.79 Y156.65 E353.76282
G0 F12000 X166.93 Y156.57
G0 X165.53 Y155.01
G0 X163.38 Y153.92
G0 X163.32 Y154.07
G1 F3720 X163.32 Y150.94 E353.91903
G0 F12000 X163.38 Y151.08
G0 X164.66 Y150.62
G0 X166.99 Y148.52
G0 X168.26 Y145.66
G0 X168.26 Y142.55
G0 X166.99 Y139.68
G0 X164.66 Y137.58
G0 X161.69 Y136.62
G0 X158.59 Y136.94
G0 X155.87 Y138.51
G0 X154.03 Y141.03
G0 X153.56 Y143.30
G0 X153.71 Y143.32
G1 F3720 X151.28 Y143.32 E354.04021
G0 F12000 X151.44 Y143.30
G0 X150.98 Y141.04
G0 X150.12 Y139.76
G0 X149.99 Y139.84
G1 F3720 X149.99 Y133.91 E354.33611
G0 F12000 X149.99 Y134.07
G0 X143.32 Y134.07
G0 X143.32 Y133.91
G1 F3720 X143.32 Y136.88 E354.48433
G0 F12000 X143.29 Y136.72
G0 X141.34 Y137.13
G0 X138.72 Y138.88
G0 X137.07 Y141.52
G0 X136.76 Y143.30
G0 X136.92 Y143.32
G1 F3720 X133.81 Y143.32 E354.63924
G0 F12000 X133.97 Y143.32
G0 X133.97 Y149.99
G0 X133.81 Y149.99
G1 F3720 X139.90 Y149.99 E354.94317
G0 F12000 X139.81 Y150.11
G0 X141.78 Y151.26
G0 X143.29 Y151.48
G0 X143.32 Y151.32
G1 F3720 X143.32 Y153.68 E355.06081
G0 F12000 X143.29 Y153.52
G0 X141.31 Y153.94
G0 X138.72 Y155.68
G0 X138.08 Y156.57
G0 X138.21 Y156.65
G1 F3720 X133.81 Y156.65 E355.28048
G0 F12000 X133.97 Y156.65
G0 X133.97 Y163.32
G0 X133.81 Y163.32
G1 F3720 X137.29 Y163.32 E355.45385
G0 F12000 X137.13 Y163.37
G0 X138.01 Y165.32
G0 X140.33 Y167.42
G0 X141.78 Y168.06
G0 X143.29 Y168.28
G0 X143.32 Y168.12
G1 F3720 X143.32 Y171.23 E355.60896
G0 F12000 X143.32 Y171.07
G0 X149.99 Y171.07
G0 X149.99 Y171.23
G1 F3720 X149.99 Y165.16 E355.91164
G0 F12000 X150.12 Y165.25
G0 X151.07 Y163.37
G0 X150.92 Y163.32
G1 F3720 X154.09 Y163.32 E356.06979
G0 F12000 X153.93 Y163.37
G0 X154.81 Y165.32
G0 X156.56 Y166.88
G0 X156.65 Y166.75
G1 F3720 X156.65 Y171.23 E356.29345
G0 F12000 X156.65 Y171.07
G0 X163.32 Y171.07
G0 X163.32 Y171.23
G1 F3720 X163.32 Y167.73 E356.46797
G0 F12000 X163.38 Y167.88
G0 X164.67 Y167.42
G0 X166.99 Y165.32
G0 X167.87 Y163.37
G0 X167.72 Y163.32
G1 F3720 X171.23 Y163.32 E356.64338
G0 F12000 X171.07 Y163.32
G0 X168.11 Y142.06
G0 X166.66 Y139.30
G0 X164.66 Y137.58
G0 X163.38 Y137.12
G0 X163.32 Y137.27
G1 F3720 X163.32 Y133.91 E356.81076
G0 F12000 X163.32 Y134.07
G0 X156.65 Y134.07
G0 X156.65 Y133.91
G1 F3720 X156.65 Y138.26 E357.02753
;LAYER:3
G1 F2400 E355.82753
G0 F12000 X158.89 Y140.97 Z1.20
;TYPE:WALL-INNER
G1 F2400 E357.02753
G1 F4260 X159.03 Y140.86 E357.03629
G1 X159.58 Y140.62 E357.06650
G1 X159.74 Y140.54 E357.07533
G1 X160.34 Y140.42 E357.10552
G1 X160.51 Y140.38 E357.11439
G1 X161.11 Y140.38 E357.14447
G1 X161.29 Y140.38 E357.15330
G1 X161.88 Y140.50 E357.18337
G1 X162.06 Y140.54 E357.19230
G1 X162.61 Y140.79 E357.22250
G1 X162.77 Y140.86 E357.23119
G1 X163.26 Y141.22 E357.26158
G1 X163.40 Y141.32 E357.27048
G1 X163.81 Y141.77 E357.30050
G1 X163.93 Y141.90 E357.30941
G1 X164.32 Y142.58 E357.34848
G1 X164.50 Y143.16 E357.37855
G1 X164.56 Y143.32 E357.38725
G1 X164.62 Y143.93 E357.41760
G1 X164.64 Y144.10 E357.42633
G1 X164.56 Y144.88 E357.46531
G1 X164.32 Y145.62 E357.50454
G1 X163.92 Y146.30 E357.54349
G1 X163.40 Y146.88 E357.58235
G1 X162.77 Y147.34 E357.62147
G1 X162.06 Y147.66 E357.66035
G1 X161.29 Y147.82 E357.69947
G1 X161.12 Y147.82 E357.70810
G1 X160.51 Y147.82 E357.73849
G1 X159.74 Y147.66 E357.77756
G1 X159.03 Y147.34 E357.81653
G1 X158.40 Y146.88 E357.85550
G1 X157.87 Y146.30 E357.89447
G1 X157.48 Y145.62 E357.93339
G1 X157.24 Y144.88 E357.97262
G1 X157.16 Y144.10 E358.01150
G1 X157.24 Y143.32 E358.05057
G1 X157.43 Y142.75 E358.08078
G1 X157.48 Y142.58 E358.08944
G1 X157.78 Y142.06 E358.11973
G1 X157.88 Y141.90 E358.12863
G1 X158.28 Y141.45 E358.15873
G1 X158.40 Y141.32 E358.16763
G1 X158.89 Y140.97 E358.19780
G0 F12000 X158.83 Y140.51
;TYPE:WALL-OUTER
G1 F4260 X159.42 Y140.25 E358.23028
G1 X159.62 Y140.16 E358.24080
G1 X160.26 Y140.03 E358.27345
G1 X160.47 Y139.98 E358.28425
G1 X161.11 Y139.98 E358.31648
G1 X161.33 Y139.98 E358.32726
G1 X161.97 Y140.12 E358.35972
G1 X162.18 Y140.16 E358.37039
G1 X162.97 Y140.51 E358.41381
G1 X163.67 Y141.02 E358.45685
G1 X164.25 Y141.67 E358.50026
G1 X164.68 Y142.42 E358.54336
G1 X164.95 Y143.24 E358.58654
G1 X165.04 Y144.10 E358.62978
G1 X164.95 Y144.96 E358.67302
G1 X164.68 Y145.79 E358.71620
G1 X164.25 Y146.53 E358.75930
G1 X163.67 Y147.18 E358.80272
G1 X162.97 Y147.69 E358.84573
G1 X162.18 Y148.04 E358.88892
G1 X161.33 Y148.22 E358.93233
G1 X161.12 Y148.22 E358.94300
G1 X160.47 Y148.22 E358.97533
G1 X159.62 Y148.04 E359.01869
G1 X158.83 Y147.69 E359.06177
G1 X158.13 Y147.18 E359.10499
G1 X157.55 Y146.53 E359.14834
G1 X157.12 Y145.79 E359.19139
G1 X156.85 Y144.96 E359.23457
G1 X156.76 Y144.10 E359.27781
G1 X156.85 Y143.24 E359.32106
G1 X157.12 Y142.42 E359.36424
G1 X157.44 Y141.85 E359.39660
G1 X157.55 Y141.66 E359.40758
G1 X157.98 Y141.18 E359.43976
G1 X158.13 Y141.02 E359.45061
G1 X158.83 Y140.51 E359.49383
G0 F12000 X158.98 Y140.77
G0 X161.85 Y140.64
;TYPE:FILL
G1 F4260 X164.35 Y143.14 E359.66993
G0 F12000 X162.91 Y141.14
G1 F4260 X157.93 Y146.12 E360.02137
G1 F2400 E358.82137
G0 F12000 X147.76 Y144.88
;TYPE:WALL-INNER
G1 F2400 E360.02137
G1 F4260 X147.52 Y145.62 E360.06061
G1 X147.13 Y146.30 E360.09953
G1 X146.60 Y146.88 E360.13853
G1 X145.97 Y147.34 E360.17734
G1 X145.26 Y147.66 E360.21652
G1 X144.49 Y147.82 E360.25550
G1 X144.32 Y147.82 E360.26418
G1 X143.71 Y147.82 E360.29451
G1 X142.94 Y147.66 E360.33353
G1 X142.23 Y147.34 E360.37271
G1 X141.60 Y146.88 E360.41157
G1 X141.08 Y146.30 E360.45050
G1 X140.68 Y145.62 E360.48945
G1 X140.44 Y144.88 E360.52868
G1 X140.36 Y144.10 E360.56761
G1 X140.44 Y143.32 E360.60664
G1 X140.63 Y142.75 E360.63684
G1 X140.68 Y142.58 E360.64550
G1 X140.99 Y142.06 E360.67579
G1 X141.08 Y141.90 E360.68469
G1 X141.48 Y141.45 E360.71489
G1 X141.60 Y141.32 E360.72358
G1 X142.23 Y140.86 E360.76258
G1 X142.79 Y140.61 E360.79302
G1 X142.94 Y140.54 E360.80158
G1 X143.53 Y140.42 E360.83177
G1 X143.71 Y140.38 E360.84074
G1 X144.31 Y140.38 E360.87082
G1 X144.49 Y140.38 E360.87970
G1 X145.08 Y140.50 E360.90972
G1 X145.26 Y140.54 E360.91871
G1 X145.81 Y140.79 E360.94889
G1 X145.97 Y140.86 E360.95771
G1 X146.60 Y141.32 E360.99653
G1 X147.01 Y141.77 E361.02683
G1 X147.13 Y141.90 E361.03574
G1 X147.52 Y142.58 E361.07481
G1 X147.71 Y143.16 E361.10488
G1 X147.76 Y143.32 E361.11357
G1 X147.82 Y143.93 E361.14393
G1 X147.84 Y144.10 E361.15270
G1 X147.76 Y144.88 E361.19162
G0 F12000 X148.15 Y144.96
;TYPE:WALL-OUTER
G1 F4260 X147.88 Y145.79 E361.23481
G1 X147.45 Y146.53 E361.27786
G1 X146.87 Y147.18 E361.32120
G1 X146.17 Y147.69 E361.36445
G1 X145.38 Y148.04 E361.40752
G1 X144.53 Y148.22 E361.45087
G1 X144.32 Y148.22 E361.46160
G1 X143.67 Y148.22 E361.49388
G1 X142.82 Y148.04 E361.53728
G1 X142.03 Y147.69 E361.58035
G1 X141.33 Y147.18 E361.62364
G1 X140.75 Y146.53 E361.66691
G1 X140.32 Y145.79 E361.71001
G1 X140.05 Y144.96 E361.75319
G1 X139.96 Y144.10 E361.79643
G1 X140.05 Y143.24 E361.83968
G1 X140.32 Y142.42 E361.88286
G1 X140.64 Y141.85 E361.91523
G1 X140.75 Y141.66 E361.92621
G1 X141.33 Y141.03 E361.96906
G1 X142.03 Y140.51 E362.01242
G1 X142.62 Y140.25 E362.04489
G1 X142.82 Y140.16 E362.05546
G1 X143.46 Y140.03 E362.08806
G1 X143.67 Y139.98 E362.09891
G1 X144.31 Y139.98 E362.13114
G1 X144.53 Y139.98 E362.14197
G1 X145.17 Y140.12 E362.17443
G1 X145.38 Y140.16 E362.18505
G1 X146.17 Y140.51 E362.22836
G1 X146.87 Y141.02 E362.27161
G1 X147.45 Y141.67 E362.31495
G1 X147.88 Y142.42 E362.35800
G1 X148.15 Y143.24 E362.40118
G1 X148.24 Y144.10 E362.44442
G1 X148.15 Y144.96 E362.48766
G0 F12000 X147.86 Y144.90
G0 X147.35 Y142.57
;TYPE:FILL
G1 F4260 X142.57 Y147.34 E362.82435
G1 F2400 E361.62435
G0 F12000 X143.71 Y157.18
;TYPE:WALL-INNER
G1 F2400 E362.82435
G1 F4260 X144.31 Y157.18 E362.85443
G1 X144.49 Y157.18 E362.86326
G1 X145.08 Y157.31 E362.89334
G1 X145.26 Y157.34 E362.90233
G1 X145.81 Y157.59 E362.93251
G1 X145.97 Y157.66 E362.94133
G1 X146.46 Y158.02 E362.97148
G1 X146.60 Y158.12 E362.98023
G1 X147.01 Y158.57 E363.01043
G1 X147.13 Y158.70 E363.01934
G1 X147.52 Y159.38 E363.05841
G1 X147.71 Y159.95 E363.08848
G1 X147.76 Y160.12 E363.09717
G1 X147.82 Y160.72 E363.12748
G1 X147.84 Y160.90 E363.13625
G1 X147.76 Y161.68 E363.17522
G1 X147.52 Y162.42 E363.21446
G1 X147.13 Y163.10 E363.25338
G1 X146.60 Y163.68 E363.29238
G1 X145.97 Y164.14 E363.33138
G1 X145.26 Y164.46 E363.37035
G1 X144.49 Y164.62 E363.40927
G1 X144.32 Y164.62 E363.41805
G1 X143.71 Y164.62 E363.44843
G1 X142.94 Y164.46 E363.48744
G1 X142.23 Y164.14 E363.52646
G1 X141.60 Y163.68 E363.56546
G1 X141.08 Y163.10 E363.60439
G1 X140.68 Y162.42 E363.64334
G1 X140.44 Y161.68 E363.68257
G1 X140.36 Y160.90 E363.72155
G1 X140.44 Y160.12 E363.76053
G1 X140.63 Y159.55 E363.79073
G1 X140.68 Y159.38 E363.79939
G1 X140.99 Y158.85 E363.82968
G1 X141.08 Y158.70 E363.83858
G1 X141.48 Y158.25 E363.86879
G1 X141.60 Y158.12 E363.87740
G1 X142.23 Y157.66 E363.91648
G1 X142.79 Y157.41 E363.94688
G1 X142.94 Y157.34 E363.95537
G1 X143.53 Y157.22 E363.98563
G1 X143.71 Y157.18 E363.99460
G0 F12000 X143.67 Y156.78
;TYPE:WALL-OUTER
G1 F4260 X144.31 Y156.78 E364.02682
G1 X144.53 Y156.78 E364.03765
G1 X145.17 Y156.91 E364.07013
G1 X145.38 Y156.96 E364.08074
G1 X146.17 Y157.31 E364.12421
G1 X146.87 Y157.82 E364.16714
G1 X147.45 Y158.47 E364.21062
G1 X147.88 Y159.22 E364.25368
G1 X148.15 Y160.04 E364.29686
G1 X148.24 Y160.90 E364.34005
G1 X148.15 Y161.76 E364.38333
G1 X147.88 Y162.59 E364.42651
G1 X147.45 Y163.33 E364.46956
G1 X146.87 Y163.98 E364.51291
G1 X146.17 Y164.49 E364.55616
G1 X145.38 Y164.84 E364.59929
G1 X144.53 Y165.02 E364.64254
G1 X144.32 Y165.02 E364.65331
G1 X143.67 Y165.02 E364.68564
G1 X142.82 Y164.84 E364.72894
G1 X142.03 Y164.49 E364.77207
G1 X141.33 Y163.98 E364.81536
G1 X140.75 Y163.33 E364.85863
G1 X140.32 Y162.59 E364.90173
G1 X140.05 Y161.76 E364.94491
G1 X139.96 Y160.90 E364.98821
G1 X140.05 Y160.04 E365.03140
G1 X140.32 Y159.22 E365.07459
G1 X140.64 Y158.65 E365.10695
G1 X140.75 Y158.46 E365.11793
G1 X141.33 Y157.82 E365.16092
G1 X142.03 Y157.31 E365.20400
G1 X142.62 Y157.05 E365.23659
G1 X142.82 Y156.96 E365.24715
G1 X143.46 Y156.82 E365.27977
G1 X143.67 Y156.78 E365.29062
G0 F12000 X143.70 Y157.08
G0 X146.12 Y157.94
;TYPE:FILL
G1 F4260 X141.13 Y162.92 E365.64206
G0 F12000 X140.65 Y161.86
G1 F4260 X143.14 Y164.35 E365.81788
G1 F2400 E364.61788
G0 F12000 X157.24 Y161.68
;TYPE:WALL-INNER
G1 F2400 E365.81788
G1 F4260 X157.16 Y160.90 E365.85680
G1 X157.24 Y160.12 E365.89582
G1 X157.43 Y159.55 E365.92604
G1 X157.48 Y159.38 E365.93470
G1 X157.78 Y158.85 E365.96498
G1 X157.88 Y158.70 E365.97388
G1 X158.28 Y158.25 E366.00398
G1 X158.40 Y158.12 E366.01288
G1 X159.03 Y157.66 E366.05174
G1 X159.58 Y157.41 E366.08200
G1 X159.74 Y157.34 E366.09083
G1 X160.34 Y157.22 E366.12103
G1 X160.51 Y157.18 E366.12990
G1 X161.11 Y157.18 E366.15998
G1 X161.29 Y157.18 E366.16876
G1 X161.88 Y157.31 E366.19910
G1 X162.06 Y157.34 E366.20783
G1 X162.61 Y157.59 E366.23807
G1 X162.77 Y157.66 E366.24689
G1 X163.26 Y158.02 E366.27707
G1 X163.40 Y158.12 E366.28597
G1 X163.81 Y158.57 E366.31599
G1 X163.93 Y158.70 E366.32490
G1 X164.32 Y159.38 E366.36397
G1 X164.50 Y159.95 E366.39404
G1 X164.56 Y160.12 E366.40274
G1 X164.62 Y160.72 E366.43304
G1 X164.64 Y160.90 E366.44177
G1 X164.56 Y161.68 E366.48080
G1 X164.32 Y162.42 E366.52003
G1 X163.92 Y163.10 E366.55898
G1 X163.40 Y163.68 E366.59791
G1 X162.77 Y164.14 E366.63691
G1 X162.06 Y164.46 E366.67593
G1 X161.29 Y164.62 E366.71489
G1 X161.12 Y164.62 E366.72362
G1 X160.51 Y164.62 E366.75406
G1 X159.74 Y164.46 E366.79302
G1 X159.03 Y164.14 E366.83199
G1 X158.40 Y163.68 E366.87099
G1 X157.87 Y163.10 E366.90999
G1 X157.48 Y162.42 E366.94891
G1 X157.24 Y161.68 E366.98815
G0 F12000 X156.85 Y161.76
;TYPE:WALL-OUTER
G1 F4260 X156.76 Y160.90 E367.03144
G1 X156.85 Y160.04 E367.07463
G1 X157.12 Y159.22 E367.11781
G1 X157.44 Y158.65 E367.15018
G1 X157.55 Y158.46 E367.16115
G1 X157.98 Y157.98 E367.19334
G1 X158.13 Y157.82 E367.20418
G1 X158.83 Y157.31 E367.24733
G1 X159.42 Y157.05 E367.27985
G1 X159.62 Y156.96 E367.29039
G1 X160.26 Y156.82 E367.32304
G1 X160.47 Y156.78 E367.33385
G1 X161.11 Y156.78 E367.36607
G1 X161.33 Y156.78 E367.37685
G1 X161.97 Y156.91 E367.40933
G1 X162.18 Y156.96 E367.41999
G1 X162.97 Y157.31 E367.46346
G1 X163.67 Y157.82 E367.50643
G1 X164.25 Y158.47 E367.54984
G1 X164.68 Y159.22 E367.59294
G1 X164.95 Y160.04 E367.63612
G1 X165.04 Y160.90 E367.67931
G1 X164.95 Y161.76 E367.72260
G1 X164.68 Y162.59 E367.76578
G1 X164.25 Y163.33 E367.80888
G1 X163.67 Y163.98 E367.85216
G1 X162.97 Y164.49 E367.89544
G1 X162.18 Y164.84 E367.93857
G1 X161.33 Y165.02 E367.98187
G1 X161.12 Y165.02 E367.99260
G1 X160.47 Y165.02 E368.02498
G1 X159.62 Y164.84 E368.06823
G1 X158.83 Y164.49 E368.11135
G1 X158.13 Y163.98 E368.15460
G1 X157.55 Y163.33 E368.19795
G1 X157.12 Y162.59 E368.24100
G1 X156.85 Y161.76 E368.28418
G0 F12000 X157.30 Y160.90
;TYPE:FILL
G1 F4260 X160.88 Y157.32 E368.53656
G1 F2400 E367.33656
G0 F12000 X159.59 Y153.69
;TYPE:SUPPORT
G1 F2400 E368.53656
G1 F4260 X158.63 Y153.90 E368.58570
G1 X158.13 Y154.12 E368.61274
G1 X158.13 Y154.12 E368.61279
G1 X157.22 Y154.53 E368.66274
G1 X155.98 Y155.43 E368.73904
G1 X155.61 Y155.84 E368.76666
G1 X154.95 Y156.57 E368.81601
G1 X154.67 Y157.05 E368.84354
G1 X154.18 Y157.90 E368.89262
G1 X154.01 Y158.43 E368.92039
G1 X153.70 Y159.37 E368.96981
G1 X153.58 Y160.52 E369.02720
G1 X151.42 Y160.51 E369.13491
G1 X151.30 Y159.38 E369.19200
G1 X151.13 Y158.84 E369.22002
G1 X150.82 Y157.90 E369.26925
G1 X150.55 Y157.43 E369.29681
G1 X150.05 Y156.58 E369.34576
G1 X149.69 Y156.17 E369.37301
G1 X149.03 Y155.43 E369.42246
G1 X148.58 Y155.11 E369.45017
G1 X147.78 Y154.53 E369.49935
G1 X147.28 Y154.30 E369.52677
G1 X146.38 Y153.91 E369.57562
G1 X145.84 Y153.78 E369.60356
G1 X144.36 Y153.47 E369.67886
G1 X144.36 Y151.53 E369.77595
G1 X146.37 Y151.10 E369.87872
G1 X147.78 Y150.47 E369.95567
G1 X149.03 Y149.57 E370.03242
G1 X150.05 Y148.43 E370.10904
G1 X150.82 Y147.10 E370.18584
G1 X151.30 Y145.63 E370.26277
G1 X151.42 Y144.51 E370.31915
G1 X153.58 Y144.51 E370.42711
G1 X153.70 Y145.63 E370.48359
G1 X154.18 Y147.09 E370.56033
G1 X154.95 Y148.43 E370.63720
G1 X155.97 Y149.57 E370.71389
G1 X157.22 Y150.48 E370.79072
G1 X158.62 Y151.10 E370.86728
G1 X160.64 Y151.53 E370.97025
G1 X160.64 Y153.47 E371.06733
G1 X159.59 Y153.69 E371.12071
G1 F2400 E369.92071
G0 F12000 X156.65 Y155.01
G1 F2400 E371.12071
G1 F4260 X156.65 Y149.99 E371.37151
G0 F12000 X156.65 Y149.99
G1 F4260 X148.35 Y149.99 E371.78530
G0 F12000 X148.45 Y150.11
G0 X149.16 Y149.72
G0 X150.10 Y148.52
G0 X149.99 Y148.42
G1 F4260 X149.99 Y156.59 E372.19300
G0 F12000 X150.03 Y156.65
G1 F4260 X154.97 Y156.65 E372.43971
G1 F2400 E371.23971
G0 F12000 X153.58 Y161.31
G1 F2400 E372.43971
G1 F4260 X153.70 Y162.43 E372.49623
G1 X154.18 Y163.89 E372.57292
G1 X154.95 Y165.23 E372.64979
G1 X155.97 Y166.37 E372.72641
G1 X157.22 Y167.27 E372.80316
G1 X158.63 Y167.90 E372.88006
G1 X160.13 Y168.22 E372.95685
G1 X161.10 Y168.22 E373.00539
G1 X161.66 Y168.22 E373.03313
G1 X163.17 Y167.90 E373.11018
G1 X164.58 Y167.28 E373.18705
G1 X165.82 Y166.37 E373.26384
G1 X166.85 Y165.22 E373.34072
G1 X167.62 Y163.90 E373.41724
G1 X168.10 Y162.43 E373.49404
G1 X168.26 Y160.90 E373.57094
G1 X168.20 Y160.35 E373.59862
G1 X168.10 Y159.37 E373.64749
G1 X167.93 Y158.84 E373.67531
G1 X167.62 Y157.90 E373.72458
G1 X167.34 Y157.43 E373.75214
G1 X166.85 Y156.58 E373.80110
G1 X166.49 Y156.17 E373.82827
G1 X165.83 Y155.43 E373.87769
G1 X165.38 Y155.10 E373.90561
G1 X164.58 Y154.53 E373.95459
G1 X164.07 Y154.30 E373.98237
G1 X163.18 Y153.90 E374.03106
G1 X162.63 Y153.79 E374.05888
G1 X161.16 Y153.47 E374.13431
G1 X161.16 Y151.53 E374.23135
G1 X163.17 Y151.10 E374.33420
G1 X164.58 Y150.47 E374.41102
G1 X165.82 Y149.57 E374.48767
G1 X166.85 Y148.42 E374.56465
G1 X167.62 Y147.10 E374.64117
G1 X168.10 Y145.63 E374.71797
G1 X168.26 Y144.10 E374.79472
G1 X168.20 Y143.55 E374.82250
G1 X168.10 Y142.57 E374.87142
G1 X167.93 Y142.04 E374.89924
G1 X167.62 Y141.10 E374.94851
G1 X167.34 Y140.63 E374.97607
G1 X166.85 Y139.78 E375.02503
G1 X166.49 Y139.37 E375.05220
G1 X165.83 Y138.63 E375.10166
G1 X165.38 Y138.30 E375.12958
G1 X164.58 Y137.73 E375.17846
G1 X164.08 Y137.50 E375.20588
G1 X163.18 Y137.10 E375.25513
G1 X162.64 Y136.99 E375.28255
G1 X161.67 Y136.78 E375.33218
G1 X161.12 Y136.78 E375.35957
G1 X160.14 Y136.78 E375.40846
G1 X159.59 Y136.90 E375.43614
G1 X159.59 Y136.89 E375.43619
G1 X158.63 Y137.10 E375.48522
G1 X158.13 Y137.32 E375.51252
G1 X158.13 Y137.32 E375.51257
G1 X157.22 Y137.73 E375.56262
G1 X156.77 Y138.05 E375.59001
G1 X155.98 Y138.63 E375.63890
G1 X155.61 Y139.04 E375.66670
G1 X154.95 Y139.77 E375.71577
G1 X154.67 Y140.25 E375.74330
G1 X154.18 Y141.10 E375.79239
G1 X154.01 Y141.63 E375.82015
G1 X153.70 Y142.57 E375.86935
G1 X153.58 Y143.71 E375.92662
G1 X151.42 Y143.72 E376.03444
G1 X151.30 Y142.58 E376.09159
G1 X151.13 Y142.05 E376.11920
G1 X151.13 Y142.05 E376.11925
G1 X150.82 Y141.10 E376.16884
G1 X150.55 Y140.63 E376.19640
G1 X150.05 Y139.78 E376.24535
G1 X149.69 Y139.37 E376.27259
G1 X149.03 Y138.63 E376.32212
G1 X148.58 Y138.31 E376.34968
G1 X147.78 Y137.73 E376.39879
G1 X147.27 Y137.50 E376.42661
G1 X146.38 Y137.10 E376.47528
G1 X145.83 Y136.99 E376.50332
G1 X144.87 Y136.78 E376.55231
G1 X144.32 Y136.78 E376.57990
G1 X143.34 Y136.78 E376.62864
G1 X142.80 Y136.89 E376.65611
G1 X141.84 Y137.10 E376.70544
G1 X141.32 Y137.32 E376.73330
G1 X140.42 Y137.73 E376.78276
G1 X139.18 Y138.63 E376.85930
G1 X138.80 Y139.04 E376.88721
G1 X138.15 Y139.77 E376.93582
G1 X137.87 Y140.25 E376.96353
G1 X137.38 Y141.10 E377.01261
G1 X137.21 Y141.63 E377.04038
G1 X136.90 Y142.57 E377.08984
G1 X136.74 Y144.10 E377.16636
G1 X136.90 Y145.63 E377.24322
G1 X137.38 Y147.10 E377.32012
G1 X138.15 Y148.42 E377.39666
G1 X139.18 Y149.57 E377.47353
G1 X140.42 Y150.48 E377.55039
G1 X141.83 Y151.10 E377.62707
G1 X143.85 Y151.53 E377.73015
G1 X143.84 Y153.48 E377.82748
G1 X142.79 Y153.69 E377.88091
G1 X141.84 Y153.90 E377.92964
G1 X141.32 Y154.12 E377.95741
G1 X140.42 Y154.53 E378.00676
G1 X139.18 Y155.43 E378.08335
G1 X138.80 Y155.84 E378.11133
G1 X138.15 Y156.57 E378.15994
G1 X137.87 Y157.05 E378.18765
G1 X137.38 Y157.90 E378.23673
G1 X137.21 Y158.43 E378.26450
G1 X136.90 Y159.37 E378.31392
G1 X136.74 Y160.90 E378.39048
G1 X136.90 Y162.43 E378.46734
G1 X137.38 Y163.90 E378.54424
G1 X138.15 Y165.22 E378.62078
G1 X139.18 Y166.37 E378.69766
G1 X140.42 Y167.28 E378.77445
G1 X141.83 Y167.90 E378.85128
G1 X143.33 Y168.22 E378.92812
G1 X144.31 Y168.22 E378.97661
G1 X144.86 Y168.22 E379.00440
G1 X146.37 Y167.90 E379.08144
G1 X147.78 Y167.27 E379.15834
G1 X149.03 Y166.37 E379.23509
G1 X150.05 Y165.23 E379.31171
G1 X150.82 Y163.90 E379.38851
G1 X151.30 Y162.43 E379.46549
G1 X151.42 Y161.30 E379.52192
G1 X153.58 Y161.31 E379.62993
G1 F2400 E378.42993
G0 F12000 X171.17 Y171.17
G1 F2400 E379.62993
G1 F4260 X133.87 Y171.17 E381.49083
G1 X133.87 Y133.97 E383.34675
G1 X171.17 Y133.97 E385.20765
G1 X171.17 Y171.17 E387.06357
G0 F12000 X169.98 Y171.23
G1 F4260 X169.98 Y133.91 E388.92547
G0 F12000 X169.98 Y134.07
G0 X171.07 Y136.65
G0 X171.23 Y136.65
G1 F4260 X133.81 Y136.65 E390.79236
G0 F12000 X133.97 Y136.65
G0 X136.65 Y134.07
G0 X136.65 Y133.91
G1 F4260 X136.65 Y171.23 E392.65427
G0 F12000 X136.65 Y171.07
G0 X133.97 Y169.98
G0 X133.81 Y169.98
G1 F4260 X171.23 Y169.98 E394.52116
G0 F12000 X171.07 Y169.98
G0 X171.07 Y163.32
G0 X171.23 Y163.32
G1 F4260 X167.75 Y163.32 E394.69487
G0 F12000 X167.90 Y163.37
G0 X167.01 Y165.34
G0 X164.68 Y167.45
G0 X163.38 Y167.92
G0 X163.32 Y167.77
G1 F4260 X163.32 Y171.23 E394.86754
G0 F12000 X163.32 Y171.07
G0 X156.65 Y171.07
G0 X156.65 Y171.23
G1 F4260 X156.65 Y166.79 E395.08921
G0 F12000 X156.56 Y166.92
G0 X154.78 Y165.34
G0 X153.90 Y163.37
G0 X154.05 Y163.32
G1 F4260 X150.95 Y163.32 E395.24392
G0 F12000 X151.10 Y163.37
G0 X150.10 Y165.32
G0 X149.99 Y165.22
G1 F4260 X149.99 Y171.23 E395.54406
G0 F12000 X149.99 Y171.07
G0 X143.32 Y171.07
G0 X143.32 Y171.23
G1 F4260 X143.32 Y168.16 E395.69752
G0 F12000 X143.29 Y168.31
G0 X141.77 Y168.09
G0 X139.04 Y166.52
G0 X137.19 Y163.98
G0 X137.10 Y163.37
G0 X137.25 Y163.32
G1 F4260 X133.81 Y163.32 E395.86914
G0 F12000 X133.97 Y163.32
G0 X133.97 Y156.65
G0 X133.81 Y156.65
G1 F4260 X138.17 Y156.65 E396.08681
G0 F12000 X138.04 Y156.57
G0 X139.05 Y155.28
G0 X141.77 Y153.71
G0 X143.29 Y153.49
G0 X143.32 Y153.65
G1 F4260 X143.32 Y151.36 E396.20131
G0 F12000 X143.29 Y151.51
G0 X141.76 Y151.29
G0 X139.75 Y150.11
G0 X139.85 Y149.99
G1 F4260 X133.81 Y149.99 E396.50245
G0 F12000 X133.97 Y149.99
G0 X133.97 Y143.32
G0 X133.81 Y143.32
G1 F4260 X136.88 Y143.32 E396.65566
G0 F12000 X136.72 Y143.30
G0 X137.20 Y141.02
G0 X139.04 Y138.48
G0 X141.78 Y136.91
G0 X143.29 Y136.69
G0 X143.32 Y136.85
G1 F4260 X143.32 Y133.91 E396.80224
G0 F12000 X143.32 Y134.07
G0 X149.99 Y134.07
G0 X149.99 Y133.91
G1 F4260 X149.99 Y139.79 E397.09549
G0 F12000 X150.10 Y139.68
G0 X151.25 Y141.89
G0 X151.48 Y143.30
G0 X151.32 Y143.32
G1 F4260 X153.68 Y143.32 E397.21348
G0 F12000 X153.53 Y143.30
G0 X154.00 Y141.02
G0 X155.85 Y138.48
G0 X156.56 Y138.08
G0 X156.65 Y138.21
G1 F4260 X156.65 Y133.91 E397.42816
G0 F12000 X156.65 Y134.07
G0 X163.32 Y134.07
G0 X163.32 Y133.91
G1 F4260 X163.32 Y137.23 E397.59379
G0 F12000 X163.38 Y137.09
G0 X165.49 Y138.14
G0 X167.52 Y140.53
G0 X168.29 Y142.53
G0 X168.28 Y143.30
G0 X168.12 Y143.32
G1 F4260 X171.23 Y143.32 E397.74925
G0 F12000 X171.07 Y143.32
G0 X171.07 Y149.99
G0 X171.23 Y149.99
G1 F4260 X165.15 Y149.99 E398.05254
G0 F12000 X165.24 Y150.12
G0 X163.38 Y151.12
G0 X163.32 Y150.97
G1 F4260 X163.32 Y154.03 E398.20525
G0 F12000 X163.38 Y153.88
G0 X165.49 Y154.94
G0 X166.97 Y156.57
G0 X166.83 Y156.65
G1 F4260 X171.23 Y156.65 E398.42502
;LAYER:4
G1 F2400 E397.22502
G0 F12000 X164.35 Y159.37 Z1.50
;TYPE:WALL-INNER
G1 F2400 E398.42502
G1 F4800 X164.51 Y159.88 E398.45193
G1 X164.59 Y160.12 E398.46413
G1 X164.65 Y160.66 E398.49132
G1 X164.67 Y160.90 E398.50341
G1 X164.59 Y161.69 E398.54289
G1 X164.35 Y162.44 E398.58223
G1 X163.95 Y163.12 E398.62160
G1 X163.42 Y163.70 E398.66092
G1 X162.79 Y164.17 E398.70027
G1 X162.07 Y164.49 E398.73954
G1 X161.29 Y164.65 E398.77896
G1 X161.05 Y164.65 E398.79104
G1 X160.50 Y164.65 E398.81833
G1 X159.73 Y164.49 E398.85775
G1 X159.01 Y164.17 E398.89701
G1 X158.38 Y163.70 E398.93637
G1 X157.85 Y163.12 E398.97569
G1 X157.45 Y162.44 E399.01505
G1 X157.21 Y161.69 E399.05440
G1 X157.13 Y160.90 E399.09383
G1 X157.18 Y160.35 E399.12112
G1 X157.21 Y160.12 E399.13300
G1 X157.38 Y159.60 E399.16032
G1 X157.45 Y159.37 E399.17234
G1 X157.73 Y158.89 E399.19976
G1 X157.85 Y158.68 E399.21177
G1 X158.21 Y158.28 E399.23901
G1 X158.38 Y158.10 E399.25113
G1 X158.81 Y157.78 E399.27827
G1 X159.01 Y157.63 E399.29045
G1 X159.51 Y157.41 E399.31783
G1 X159.73 Y157.31 E399.32972
G1 X160.27 Y157.20 E399.35697
G1 X160.51 Y157.15 E399.36930
G1 X161.05 Y157.15 E399.39634
G1 X161.29 Y157.15 E399.40851
G1 X161.83 Y157.26 E399.43578
G1 X162.06 Y157.31 E399.44757
G1 X162.57 Y157.53 E399.47518
G1 X162.79 Y157.63 E399.48720
G1 X163.23 Y157.95 E399.51435
G1 X163.42 Y158.09 E399.52645
G1 X163.79 Y158.50 E399.55358
G1 X163.95 Y158.68 E399.56574
G1 X164.22 Y159.16 E399.59308
G1 X164.35 Y159.37 E399.60542
G0 F12000 X164.71 Y159.20
;TYPE:WALL-OUTER
G1 F4800 X164.90 Y159.76 E399.63472
G1 X164.98 Y160.03 E399.64900
G1 X165.07 Y160.90 E399.69245
G1 X164.98 Y161.77 E399.73609
G1 X164.71 Y162.60 E399.77957
G1 X164.28 Y163.35 E399.82298
G1 X163.69 Y164.00 E399.86664
G1 X162.99 Y164.52 E399.91025
G1 X162.19 Y164.87 E399.95367
G1 X161.33 Y165.05 E399.99738
G1 X160.47 Y165.05 E400.04073
G1 X159.61 Y164.87 E400.08444
G1 X158.81 Y164.52 E400.12786
G1 X158.11 Y164.00 E400.17147
G1 X157.52 Y163.35 E400.21513
G1 X157.09 Y162.60 E400.25855
G1 X156.82 Y161.77 E400.30203
G1 X156.72 Y160.90 E400.34567
G1 X156.82 Y160.03 E400.38931
G1 X157.09 Y159.20 E400.43264
G1 X157.52 Y158.45 E400.47630
G1 X158.10 Y157.80 E400.51961
G1 X158.81 Y157.29 E400.56326
G1 X159.35 Y157.04 E400.59272
G1 X159.61 Y156.93 E400.60679
G1 X160.19 Y156.81 E400.63623
G1 X160.47 Y156.75 E400.65045
G1 X161.33 Y156.75 E400.69380
G1 X161.91 Y156.87 E400.72322
G1 X162.19 Y156.93 E400.73725
G1 X162.73 Y157.17 E400.76682
G1 X162.99 Y157.28 E400.78091
G1 X163.46 Y157.63 E400.81028
G1 X163.69 Y157.80 E400.82445
G1 X164.09 Y158.23 E400.85377
G1 X164.28 Y158.44 E400.86794
G1 X164.71 Y159.20 E400.91157
G0 F12000 X164.44 Y159.32
G0 X160.91 Y157.29
;TYPE:FILL
G1 F4800 X157.27 Y160.93 E401.16825
G1 F2400 E399.96825
G0 F12000 X159.73 Y147.69
;TYPE:WALL-INNER
G1 F2400 E401.16825
G1 F4800 X159.01 Y147.37 E401.20752
G1 X158.37 Y146.90 E401.24692
G1 X157.85 Y146.32 E401.28616
G1 X157.45 Y145.64 E401.32553
G1 X157.21 Y144.89 E401.36488
G1 X157.13 Y144.10 E401.40425
G1 X157.18 Y143.56 E401.43154
G1 X157.21 Y143.32 E401.44348
G1 X157.38 Y142.80 E401.47079
G1 X157.45 Y142.57 E401.48281
G1 X157.73 Y142.09 E401.51024
G1 X157.85 Y141.88 E401.52224
G1 X158.21 Y141.48 E401.54945
G1 X158.37 Y141.30 E401.56153
G1 X159.01 Y140.83 E401.60092
G1 X159.51 Y140.61 E401.62834
G1 X159.73 Y140.51 E401.64029
G1 X160.27 Y140.40 E401.66763
G1 X160.51 Y140.35 E401.67972
G1 X161.05 Y140.35 E401.70686
G1 X161.29 Y140.35 E401.71903
G1 X161.83 Y140.46 E401.74630
G1 X162.06 Y140.51 E401.75835
G1 X162.56 Y140.73 E401.78553
G1 X162.79 Y140.83 E401.79774
G1 X163.23 Y141.16 E401.82503
G1 X163.42 Y141.30 E401.83700
G1 X163.79 Y141.70 E401.86413
G1 X163.95 Y141.88 E401.87629
G1 X164.22 Y142.36 E401.90363
G1 X164.35 Y142.57 E401.91596
G1 X164.51 Y143.08 E401.94288
G1 X164.59 Y143.32 E401.95508
G1 X164.65 Y143.86 E401.98227
G1 X164.67 Y144.10 E401.99441
G1 X164.59 Y144.89 E402.03384
G1 X164.35 Y145.64 E402.07318
G1 X163.95 Y146.32 E402.11255
G1 X163.43 Y146.90 E402.15180
G1 X162.79 Y147.37 E402.19119
G1 X162.07 Y147.69 E402.23046
G1 X161.29 Y147.85 E402.26988
G1 X161.05 Y147.85 E402.28195
G1 X160.50 Y147.85 E402.30924
G1 X159.73 Y147.69 E402.34867
G0 F12000 X159.61 Y148.07
;TYPE:WALL-OUTER
G1 F4800 X158.81 Y147.72 E402.39224
G1 X158.11 Y147.21 E402.43553
G1 X157.52 Y146.55 E402.47934
G1 X157.09 Y145.80 E402.52275
G1 X156.82 Y144.97 E402.56623
G1 X156.72 Y144.10 E402.60982
G1 X156.82 Y143.23 E402.65352
G1 X157.09 Y142.40 E402.69684
G1 X157.52 Y141.65 E402.74050
G1 X157.91 Y141.21 E402.76979
G1 X158.10 Y141.00 E402.78381
G1 X158.81 Y140.49 E402.82749
G1 X159.35 Y140.25 E402.85695
G1 X159.61 Y140.13 E402.87098
G1 X160.47 Y139.95 E402.91473
G1 X161.33 Y139.95 E402.95804
G1 X161.91 Y140.07 E402.98745
G1 X162.19 Y140.13 E403.00143
G1 X162.99 Y140.49 E403.04528
G1 X163.69 Y141.00 E403.08878
G1 X164.09 Y141.43 E403.11802
G1 X164.28 Y141.65 E403.13219
G1 X164.71 Y142.40 E403.17583
G1 X164.90 Y142.96 E403.20512
G1 X164.98 Y143.24 E403.21945
G1 X165.04 Y143.82 E403.24866
G1 X165.07 Y144.10 E403.26285
G1 X164.98 Y144.97 E403.30649
G1 X164.71 Y145.80 E403.34997
G1 X164.28 Y146.55 E403.39338
G1 X163.69 Y147.21 E403.43719
G1 X162.99 Y147.72 E403.48048
G1 X162.19 Y148.07 E403.52405
G1 X161.33 Y148.25 E403.56776
G1 X160.47 Y148.25 E403.61112
G1 X159.61 Y148.07 E403.65483
G0 F12000 X159.70 Y147.79
G0 X157.91 Y146.15
;TYPE:FILL
G1 F4800 X162.94 Y141.12 E404.00965
G0 F12000 X161.81 Y140.60
G1 F4800 X164.40 Y143.19 E404.19228
G1 F2400 E402.99228
G0 F12000 X147.87 Y144.10
;TYPE:WALL-INNER
G1 F2400 E404.19228
G1 F4800 X147.79 Y144.89 E404.23181
G1 X147.55 Y145.64 E404.27114
G1 X147.15 Y146.32 E404.31050
G1 X146.62 Y146.91 E404.34982
G1 X145.99 Y147.37 E404.38925
G1 X145.27 Y147.69 E404.42832
G1 X144.50 Y147.85 E404.46785
G1 X144.25 Y147.85 E404.47992
G1 X143.71 Y147.85 E404.50721
G1 X142.93 Y147.69 E404.54674
G1 X142.22 Y147.37 E404.58581
G1 X141.58 Y146.91 E404.62524
G1 X141.05 Y146.32 E404.66455
G1 X140.65 Y145.64 E404.70392
G1 X140.41 Y144.89 E404.74327
G1 X140.33 Y144.10 E404.78264
G1 X140.38 Y143.56 E404.80988
G1 X140.41 Y143.32 E404.82187
G1 X140.58 Y142.80 E404.84918
G1 X140.65 Y142.57 E404.86120
G1 X140.93 Y142.09 E404.88863
G1 X141.05 Y141.88 E404.90064
G1 X141.41 Y141.48 E404.92784
G1 X141.57 Y141.30 E404.93992
G1 X142.21 Y140.83 E404.97935
G1 X142.71 Y140.61 E405.00668
G1 X142.93 Y140.51 E405.01852
G1 X143.47 Y140.40 E405.04602
G1 X143.71 Y140.35 E405.05810
G1 X144.25 Y140.35 E405.08524
G1 X144.50 Y140.35 E405.09742
G1 X145.03 Y140.46 E405.12448
G1 X145.27 Y140.51 E405.13673
G1 X145.76 Y140.73 E405.16391
G1 X145.99 Y140.83 E405.17617
G1 X146.43 Y141.15 E405.20331
G1 X146.62 Y141.30 E405.21549
G1 X146.99 Y141.70 E405.24251
G1 X147.15 Y141.88 E405.25467
G1 X147.43 Y142.36 E405.28201
G1 X147.55 Y142.57 E405.29435
G1 X147.72 Y143.08 E405.32126
G1 X147.79 Y143.32 E405.33346
G1 X147.85 Y143.86 E405.36080
G1 X147.87 Y144.10 E405.37269
G0 F12000 X148.27 Y144.10
;TYPE:WALL-OUTER
