;-- START GCODE --
;Sliced for Type A Machines Series 1
;Sliced at: Sun 02-08-2015 22:22:18
;Basic settings: Layer height: 0.3 Walls: 0.8 Fill: 8
;Print Speed: 80 Support: 0
;Retraction Speed: 40 Retraction Distance: 1.2
;Print time: #P_TIME#
;Filament used: #F_AMNT#m #F_WGHT#g
;Filament cost: #F_COST#
M106 S255	 ;start with the fan on
G21        ;metric values
G90        ;absolute positioning
M106 S255    ;start with the fan on
G28     ;move to endstops
G29		;allows for auto-levelling
G1 X150 Y5  Z15.0 F12000 ;center and move the platform down 15mm
M109 S220 ;Heat To temp
G92 E0                  ;zero the extruded length
G1 F200 E30              ;extrude 30mm of feed stock
G92 E0                  ;zero the extruded length again
G1 X175 Y25  Z0 F12000 ;remove bugger
G1 X220 F12000 ;remove bugger
G1 X150 Y150  Z15 F12000 ;recenter and begin
G1 F12000

;Layer count: 79
;LAYER:0
M106 S255
G0 F12000 X31.57 Y127.67 Z0.30
;TYPE:SKIRT
G1 F2700 X273.47 Y127.67 E12.06844
G1 X273.47 Y177.47 E14.55297
G1 X31.57 Y177.47 E26.62141
G1 X31.57 Y127.67 E29.10594
G0 F12000 X31.97 Y128.07
G1 F2700 X273.07 Y128.07 E41.13447
G1 X273.07 Y177.07 E43.57909
G1 X31.97 Y177.07 E55.60762
G1 X31.97 Y128.07 E58.05224
G0 F12000 X32.37 Y128.47
G1 F2700 X272.67 Y128.47 E70.04086
G1 X272.67 Y176.67 E72.44556
G1 X32.37 Y176.67 E84.43418
G1 X32.37 Y128.47 E86.83889
G0 F12000 X32.77 Y128.87
G1 F2700 X80.27 Y128.87 E89.20867
G1 X80.27 Y176.27 E91.57347
G1 X32.77 Y176.27 E93.94325
G1 X32.77 Y128.87 E96.30805
G0 F12000 X33.17 Y129.27
G1 F2700 X79.87 Y129.27 E98.63792
G1 X79.87 Y175.87 E100.96280
G1 X33.17 Y175.87 E103.29268
G1 X33.17 Y129.27 E105.61756
G0 F12000 X33.57 Y129.67
G1 F2700 X79.47 Y129.67 E107.90752
G1 X79.47 Y175.47 E110.19249
G1 X33.57 Y175.47 E112.48245
G1 X33.57 Y129.67 E114.76742
G0 F12000 X33.97 Y130.07
G1 F2700 X79.07 Y130.07 E117.01747
G1 X79.07 Y175.07 E119.26253
G1 X33.97 Y175.07 E121.51258
G1 X33.97 Y130.07 E123.75764
G0 F12000 X34.37 Y130.47
G1 F2700 X78.67 Y130.47 E125.96777
G1 X78.67 Y174.67 E128.17292
G1 X34.37 Y174.67 E130.38306
G1 X34.37 Y130.47 E132.58820
G0 F12000 X34.77 Y130.87
G1 F2700 X78.27 Y130.87 E134.75843
G1 X78.27 Y174.27 E136.92366
G1 X34.77 Y174.27 E139.09388
G1 X34.77 Y130.87 E141.25912
G0 F12000 X35.17 Y131.27
G1 F2700 X77.87 Y131.27 E143.38943
G1 X77.87 Y173.87 E145.51475
G1 X35.17 Y173.87 E147.64507
G1 X35.17 Y131.27 E149.77039
G0 F12000 X35.57 Y131.67
G1 F2700 X77.47 Y131.67 E151.86079
G1 X77.47 Y173.47 E153.94620
G1 X35.57 Y173.47 E156.03660
G1 X35.57 Y131.67 E158.12201
G0 F12000 X35.97 Y132.07
G1 F2700 X77.07 Y132.07 E160.17250
G1 X77.07 Y173.07 E162.21799
G1 X35.97 Y173.07 E164.26848
G1 X35.97 Y132.07 E166.31398
G0 F12000 X36.37 Y132.47
G1 F2700 X76.67 Y132.47 E168.32455
G1 X76.67 Y172.67 E170.33014
G1 X36.37 Y172.67 E172.34072
G1 X36.37 Y132.47 E174.34630
G0 F12000 X36.77 Y132.87
G1 F2700 X76.27 Y132.87 E176.31696
G1 X76.27 Y172.27 E178.28264
G1 X36.77 Y172.27 E180.25330
G1 X36.77 Y132.87 E182.21898
G0 F12000 X37.17 Y133.27
G1 F2700 X75.87 Y133.27 E184.14973
G1 X75.87 Y171.87 E186.07549
G1 X37.17 Y171.87 E188.00624
G1 X37.17 Y133.27 E189.93200
G0 F12000 X37.57 Y133.67
G1 F2700 X75.47 Y133.67 E191.82284
G1 X75.47 Y171.47 E193.70869
G1 X37.57 Y171.47 E195.59953
G1 X37.57 Y133.67 E197.48538
G0 F12000 X37.97 Y134.07
G1 F2700 X75.07 Y134.07 E199.33630
G1 X75.07 Y171.07 E201.18224
G1 X37.97 Y171.07 E203.03317
G1 X37.97 Y134.07 E204.87911
G0 F12000 X38.37 Y134.47
G1 F2700 X74.67 Y134.47 E206.69012
G1 X74.67 Y170.67 E208.49615
G1 X38.37 Y170.67 E210.30716
G1 X38.37 Y134.47 E212.11319
G0 F12000 X38.77 Y134.87
G1 F2700 X74.27 Y134.87 E213.88429
G1 X74.27 Y170.27 E215.65040
G1 X38.77 Y170.27 E217.42150
G1 X38.77 Y134.87 E219.18762
G0 F12000 X39.17 Y135.27
G1 F2700 X73.87 Y135.27 E220.91881
G1 X73.87 Y169.87 E222.64501
G1 X39.17 Y169.87 E224.37620
G1 X39.17 Y135.27 E226.10240
G0 F12000 X80.57 Y128.87
G1 F2700 X128.27 Y128.87 E228.48216
G1 X128.27 Y176.27 E230.84696
G1 X80.57 Y176.27 E233.22672
G1 X80.57 Y128.87 E235.59151
G0 F12000 X80.97 Y129.27
G1 F2700 X127.87 Y129.27 E237.93137
G1 X127.87 Y175.87 E240.25625
G1 X80.97 Y175.87 E242.59610
G1 X80.97 Y129.27 E244.92098
G0 F12000 X81.37 Y129.67
G1 F2700 X127.47 Y129.67 E247.22092
G1 X127.47 Y175.47 E249.50589
G1 X81.37 Y175.47 E251.80583
G1 X81.37 Y129.67 E254.09080
G0 F12000 X81.77 Y130.07
G1 F2700 X127.07 Y130.07 E256.35083
G1 X127.07 Y175.07 E258.59589
G1 X81.77 Y175.07 E260.85591
G1 X81.77 Y130.07 E263.10097
G0 F12000 X82.17 Y130.47
G1 F2700 X126.67 Y130.47 E265.32109
G1 X126.67 Y174.67 E267.52623
G1 X82.17 Y174.67 E269.74635
G1 X82.17 Y130.47 E271.95149
G0 F12000 X82.57 Y130.87
G1 F2700 X126.27 Y130.87 E274.13170
G1 X126.27 Y174.27 E276.29693
G1 X82.57 Y174.27 E278.47713
G1 X82.57 Y130.87 E280.64237
G0 F12000 X82.97 Y131.27
G1 F2700 X125.87 Y131.27 E282.78266
G1 X125.87 Y173.87 E284.90798
G1 X82.97 Y173.87 E287.04827
G1 X82.97 Y131.27 E289.17359
G0 F12000 X83.37 Y131.67
G1 F2700 X125.47 Y131.67 E291.27397
G1 X125.47 Y173.47 E293.35938
G1 X83.37 Y173.47 E295.45976
G1 X83.37 Y131.67 E297.54517
G0 F12000 X83.77 Y132.07
G1 F2700 X125.07 Y132.07 E299.60563
G1 X125.07 Y173.07 E301.65113
G1 X83.77 Y173.07 E303.71160
G1 X83.77 Y132.07 E305.75710
G0 F12000 X84.17 Y132.47
G1 F2700 X124.67 Y132.47 E307.77765
G1 X124.67 Y172.67 E309.78323
G1 X84.17 Y172.67 E311.80379
G1 X84.17 Y132.47 E313.80937
G0 F12000 X84.57 Y132.87
G1 F2700 X124.27 Y132.87 E315.79002
G1 X124.27 Y172.27 E317.75569
G1 X84.57 Y172.27 E319.73633
G1 X84.57 Y132.87 E321.70200
G0 F12000 X84.97 Y133.27
G1 F2700 X123.87 Y133.27 E323.64273
G1 X123.87 Y171.87 E325.56849
G1 X84.97 Y171.87 E327.50922
G1 X84.97 Y133.27 E329.43499
G0 F12000 X85.37 Y133.67
G1 F2700 X123.47 Y133.67 E331.33580
G1 X123.47 Y171.47 E333.22165
G1 X85.37 Y171.47 E335.12247
G1 X85.37 Y133.67 E337.00832
G0 F12000 X85.77 Y134.07
G1 F2700 X123.07 Y134.07 E338.86922
G1 X123.07 Y171.07 E340.71516
G1 X85.77 Y171.07 E342.57606
G1 X85.77 Y134.07 E344.42200
G0 F12000 X86.17 Y134.47
G1 F2700 X122.67 Y134.47 E346.24299
G1 X122.67 Y170.67 E348.04902
G1 X86.17 Y170.67 E349.87001
G1 X86.17 Y134.47 E351.67604
G0 F12000 X86.57 Y134.87
G1 F2700 X122.27 Y134.87 E353.45712
G1 X122.27 Y170.27 E355.22323
G1 X86.57 Y170.27 E357.00431
G1 X86.57 Y134.87 E358.77042
G0 F12000 X86.97 Y135.27
G1 F2700 X121.87 Y135.27 E360.51159
G1 X121.87 Y169.87 E362.23779
G1 X86.97 Y169.87 E363.97896
G1 X86.97 Y135.27 E365.70516
G0 F12000 X128.57 Y128.87
G1 F2700 X176.27 Y128.87 E368.08493
G1 X176.27 Y176.27 E370.44972
G1 X128.57 Y176.27 E372.82948
G1 X128.57 Y128.87 E375.19428
G0 F12000 X128.97 Y129.27
G1 F2700 X175.87 Y129.27 E377.53413
G1 X175.87 Y175.87 E379.85901
G1 X128.97 Y175.87 E382.19886
G1 X128.97 Y129.27 E384.52375
G0 F12000 X129.37 Y129.67
G1 F2700 X175.47 Y129.67 E386.82369
G1 X175.47 Y175.47 E389.10866
G1 X129.37 Y175.47 E391.40860
G1 X129.37 Y129.67 E393.69357
G0 F12000 X129.77 Y130.07
G1 F2700 X175.07 Y130.07 E395.95359
G1 X175.07 Y175.07 E398.19865
G1 X129.77 Y175.07 E400.45868
G1 X129.77 Y130.07 E402.70374
G0 F12000 X130.17 Y130.47
G1 F2700 X174.67 Y130.47 E404.92385
G1 X174.67 Y174.67 E407.12900
G1 X130.17 Y174.67 E409.34911
G1 X130.17 Y130.47 E411.55426
G0 F12000 X130.57 Y130.87
G1 F2700 X174.27 Y130.87 E413.73446
G1 X174.27 Y174.27 E415.89970
G1 X130.57 Y174.27 E418.07990
G1 X130.57 Y130.87 E420.24513
G0 F12000 X130.97 Y131.27
G1 F2700 X173.87 Y131.27 E422.38542
G1 X173.87 Y173.87 E424.51074
G1 X130.97 Y173.87 E426.65103
G1 X130.97 Y131.27 E428.77636
G0 F12000 X131.37 Y131.67
G1 F2700 X173.47 Y131.67 E430.87673
G1 X173.47 Y173.47 E432.96214
G1 X131.37 Y173.47 E435.06252
G1 X131.37 Y131.67 E437.14793
G0 F12000 X131.77 Y132.07
G1 F2700 X173.07 Y132.07 E439.20840
G1 X173.07 Y173.07 E441.25390
G1 X131.77 Y173.07 E443.31436
G1 X131.77 Y132.07 E445.35986
G0 F12000 X132.17 Y132.47
G1 F2700 X172.67 Y132.47 E447.38041
G1 X172.67 Y172.67 E449.38600
G1 X132.17 Y172.67 E451.40655
G1 X132.17 Y132.47 E453.41214
G0 F12000 X132.57 Y132.87
G1 F2700 X172.27 Y132.87 E455.39278
G1 X172.27 Y172.27 E457.35845
G1 X132.57 Y172.27 E459.33910
G1 X132.57 Y132.87 E461.30477
G0 F12000 X132.97 Y133.27
G1 F2700 X171.87 Y133.27 E463.24550
G1 X171.87 Y171.87 E465.17126
G1 X132.97 Y171.87 E467.11199
G1 X132.97 Y133.27 E469.03775
G0 F12000 X133.37 Y133.67
G1 F2700 X171.47 Y133.67 E470.93857
G1 X171.47 Y171.47 E472.82442
G1 X133.37 Y171.47 E474.72523
G1 X133.37 Y133.67 E476.61108
G0 F12000 X133.77 Y134.07
G1 F2700 X171.07 Y134.07 E478.47199
G1 X171.07 Y171.07 E480.31793
G1 X133.77 Y171.07 E482.17883
G1 X133.77 Y134.07 E484.02477
G0 F12000 X134.17 Y134.47
G1 F2700 X170.67 Y134.47 E485.84576
G1 X170.67 Y170.67 E487.65179
G1 X134.17 Y170.67 E489.47278
G1 X134.17 Y134.47 E491.27880
G0 F12000 X134.57 Y134.87
G1 F2700 X170.27 Y134.87 E493.05988
G1 X170.27 Y170.27 E494.82600
G1 X134.57 Y170.27 E496.60708
G1 X134.57 Y134.87 E498.37319
G0 F12000 X134.97 Y135.27
G1 F2700 X169.87 Y135.27 E500.11436
G1 X169.87 Y169.87 E501.84056
G1 X134.97 Y169.87 E503.58173
G1 X134.97 Y135.27 E505.30793
G0 F12000 X176.57 Y128.87
G1 F2700 X224.27 Y128.87 E507.68769
G1 X224.27 Y176.27 E510.05249
G1 X176.57 Y176.27 E512.43225
G1 X176.57 Y128.87 E514.79704
G0 F12000 X176.97 Y129.27
G1 F2700 X223.87 Y129.27 E517.13689
G1 X223.87 Y175.87 E519.46178
G1 X176.97 Y175.87 E521.80163
G1 X176.97 Y129.27 E524.12651
G0 F12000 X177.37 Y129.67
G1 F2700 X223.47 Y129.67 E526.42645
G1 X223.47 Y175.47 E528.71142
G1 X177.37 Y175.47 E531.01136
G1 X177.37 Y129.67 E533.29633
G0 F12000 X177.77 Y130.07
G1 F2700 X223.07 Y130.07 E535.55636
G1 X223.07 Y175.07 E537.80142
G1 X177.77 Y175.07 E540.06144
G1 X177.77 Y130.07 E542.30650
G0 F12000 X178.17 Y130.47
G1 F2700 X222.67 Y130.47 E544.52662
G1 X222.67 Y174.67 E546.73176
G1 X178.17 Y174.67 E548.95188
G1 X178.17 Y130.47 E551.15702
G0 F12000 X178.57 Y130.87
G1 F2700 X222.27 Y130.87 E553.33723
G1 X222.27 Y174.27 E555.50246
G1 X178.57 Y174.27 E557.68266
G1 X178.57 Y130.87 E559.84790
G0 F12000 X178.97 Y131.27
G1 F2700 X221.87 Y131.27 E561.98819
G1 X221.87 Y173.87 E564.11351
G1 X178.97 Y173.87 E566.25380
G1 X178.97 Y131.27 E568.37912
G0 F12000 X179.37 Y131.67
G1 F2700 X221.47 Y131.67 E570.47950
G1 X221.47 Y173.47 E572.56491
G1 X179.37 Y173.47 E574.66529
G1 X179.37 Y131.67 E576.75070
G0 F12000 X179.77 Y132.07
G1 F2700 X221.07 Y132.07 E578.81116
G1 X221.07 Y173.07 E580.85666
G1 X179.77 Y173.07 E582.91713
G1 X179.77 Y132.07 E584.96263
G0 F12000 X180.17 Y132.47
G1 F2700 X220.67 Y132.47 E586.98318
G1 X220.67 Y172.67 E588.98876
G1 X180.17 Y172.67 E591.00932
G1 X180.17 Y132.47 E593.01490
G0 F12000 X180.57 Y132.87
G1 F2700 X220.27 Y132.87 E594.99554
G1 X220.27 Y172.27 E596.96122
G1 X180.57 Y172.27 E598.94186
G1 X180.57 Y132.87 E600.90753
G0 F12000 X180.97 Y133.27
G1 F2700 X219.87 Y133.27 E602.84826
G1 X219.87 Y171.87 E604.77402
G1 X180.97 Y171.87 E606.71475
G1 X180.97 Y133.27 E608.64052
G0 F12000 X181.37 Y133.67
G1 F2700 X219.47 Y133.67 E610.54133
G1 X219.47 Y171.47 E612.42718
G1 X181.37 Y171.47 E614.32800
G1 X181.37 Y133.67 E616.21385
G0 F12000 X181.77 Y134.07
G1 F2700 X219.07 Y134.07 E618.07475
G1 X219.07 Y171.07 E619.92069
G1 X181.77 Y171.07 E621.78159
G1 X181.77 Y134.07 E623.62753
G0 F12000 X182.17 Y134.47
G1 F2700 X218.67 Y134.47 E625.44852
G1 X218.67 Y170.67 E627.25455
G1 X182.17 Y170.67 E629.07554
G1 X182.17 Y134.47 E630.88157
G0 F12000 X182.57 Y134.87
G1 F2700 X218.27 Y134.87 E632.66265
G1 X218.27 Y170.27 E634.42876
G1 X182.57 Y170.27 E636.20984
G1 X182.57 Y134.87 E637.97595
G0 F12000 X182.97 Y135.27
G1 F2700 X217.87 Y135.27 E639.71712
G1 X217.87 Y169.87 E641.44332
G1 X182.97 Y169.87 E643.18449
G1 X182.97 Y135.27 E644.91069
G0 F12000 X224.57 Y128.87
G1 F2700 X272.27 Y128.87 E647.29046
G1 X272.27 Y176.27 E649.65525
G1 X224.57 Y176.27 E652.03501
G1 X224.57 Y128.87 E654.39981
G0 F12000 X224.97 Y129.27
G1 F2700 X271.87 Y129.27 E656.73966
G1 X271.87 Y175.87 E659.06454
G1 X224.97 Y175.87 E661.40439
G1 X224.97 Y129.27 E663.72928
G0 F12000 X225.37 Y129.67
G1 F2700 X271.47 Y129.67 E666.02922
G1 X271.47 Y175.47 E668.31419
G1 X225.37 Y175.47 E670.61412
G1 X225.37 Y129.67 E672.89910
G0 F12000 X225.77 Y130.07
G1 F2700 X271.07 Y130.07 E675.15912
G1 X271.07 Y175.07 E677.40418
G1 X225.77 Y175.07 E679.66421
G1 X225.77 Y130.07 E681.90927
G0 F12000 X226.17 Y130.47
G1 F2700 X270.67 Y130.47 E684.12938
G1 X270.67 Y174.67 E686.33453
G1 X226.17 Y174.67 E688.55464
G1 X226.17 Y130.47 E690.75979
G0 F12000 X226.57 Y130.87
G1 F2700 X270.27 Y130.87 E692.93999
G1 X270.27 Y174.27 E695.10523
G1 X226.57 Y174.27 E697.28543
G1 X226.57 Y130.87 E699.45066
G0 F12000 X226.97 Y131.27
G1 F2700 X269.87 Y131.27 E701.59095
G1 X269.87 Y173.87 E703.71627
G1 X226.97 Y173.87 E705.85656
G1 X226.97 Y131.27 E707.98189
G0 F12000 X227.37 Y131.67
G1 F2700 X269.47 Y131.67 E710.08226
G1 X269.47 Y173.47 E712.16767
G1 X227.37 Y173.47 E714.26805
G1 X227.37 Y131.67 E716.35346
G0 F12000 X227.77 Y132.07
G1 F2700 X269.07 Y132.07 E718.41393
G1 X269.07 Y173.07 E720.45943
G1 X227.77 Y173.07 E722.51989
G1 X227.77 Y132.07 E724.56539
G0 F12000 X228.17 Y132.47
G1 F2700 X268.67 Y132.47 E726.58594
G1 X268.67 Y172.67 E728.59153
G1 X228.17 Y172.67 E730.61208
G1 X228.17 Y132.47 E732.61767
G0 F12000 X228.57 Y132.87
G1 F2700 X268.27 Y132.87 E734.59831
G1 X268.27 Y172.27 E736.56398
G1 X228.57 Y172.27 E738.54462
G1 X228.57 Y132.87 E740.51030
G0 F12000 X228.97 Y133.27
G1 F2700 X267.87 Y133.27 E742.45103
G1 X267.87 Y171.87 E744.37679
G1 X228.97 Y171.87 E746.31752
G1 X228.97 Y133.27 E748.24328
G0 F12000 X229.37 Y133.67
G1 F2700 X267.47 Y133.67 E750.14410
G1 X267.47 Y171.47 E752.02995
G1 X229.37 Y171.47 E753.93076
G1 X229.37 Y133.67 E755.81661
G0 F12000 X229.77 Y134.07
G1 F2700 X267.07 Y134.07 E757.67752
G1 X267.07 Y171.07 E759.52345
G1 X229.77 Y171.07 E761.38436
G1 X229.77 Y134.07 E763.23030
G0 F12000 X230.17 Y134.47
G1 F2700 X266.67 Y134.47 E765.05129
G1 X266.67 Y170.67 E766.85731
G1 X230.17 Y170.67 E768.67831
G1 X230.17 Y134.47 E770.48433
G0 F12000 X230.57 Y134.87
G1 F2700 X266.27 Y134.87 E772.26541
G1 X266.27 Y170.27 E774.03153
G1 X230.57 Y170.27 E775.81261
G1 X230.57 Y134.87 E777.57872
G0 F12000 X230.97 Y135.27
G1 F2700 X265.87 Y135.27 E779.31989
G1 X265.87 Y169.87 E781.04609
G1 X230.97 Y169.87 E782.78726
G1 X230.97 Y135.27 E784.51346
G1 F2400 E783.31346
G0 F12000 X67.95 Y140.18
;TYPE:WALL-INNER
G1 F2400 E784.51346
G1 F2700 X67.95 Y164.82 E785.74305
G1 X65.44 Y164.82 E785.86848
G1 X65.44 Y144.70 E786.87242
G1 X64.47 Y144.70 E786.92056
G1 X56.51 Y154.70 E787.55835
G1 X56.49 Y154.70 E787.55969
G1 X48.53 Y144.70 E788.19748
G1 X47.56 Y144.70 E788.24562
G1 X47.56 Y164.82 E789.24956
G1 X45.05 Y164.82 E789.37499
G1 X45.05 Y140.18 E790.60458
G1 X47.65 Y140.18 E790.73430
G1 X56.50 Y151.14 E791.43737
G1 X65.39 Y140.18 E792.14163
G1 X67.95 Y140.18 E792.26950
G0 F12000 X68.35 Y139.78
;TYPE:WALL-OUTER
G1 F2700 X68.35 Y165.22 E793.53900
G1 X65.04 Y165.22 E793.70434
G1 X65.04 Y145.10 E794.70828
G1 X64.67 Y145.10 E794.72684
G1 X56.71 Y155.10 E795.36462
G1 X56.29 Y155.10 E795.38523
G1 X48.34 Y145.10 E796.02301
G1 X47.96 Y145.10 E796.04157
G1 X47.96 Y165.22 E797.04551
G1 X44.65 Y165.22 E797.21085
G1 X44.65 Y139.78 E798.48036
G1 X47.84 Y139.78 E798.63956
G1 X56.50 Y150.51 E799.32751
G1 X65.20 Y139.78 E800.01659
G1 X68.35 Y139.78 E800.17395
G0 F12000 X67.81 Y140.50
;TYPE:FILL
G1 F2700 X67.62 Y140.32 E800.18710
G0 F12000 X67.06 Y140.32
G1 F2700 X67.81 Y141.07 E800.24020
G0 F12000 X67.81 Y141.63
G1 F2700 X66.49 Y140.32 E800.33319
G0 F12000 X65.93 Y140.32
G1 F2700 X67.81 Y142.20 E800.46608
G0 F12000 X67.81 Y142.76
G1 F2700 X65.41 Y140.37 E800.63534
G0 F12000 X65.16 Y140.68
G1 F2700 X67.81 Y143.33 E800.82253
G0 F12000 X67.81 Y143.90
G1 F2700 X64.91 Y140.99 E801.02752
G0 F12000 X64.65 Y141.30
G1 F2700 X67.81 Y144.46 E801.25041
G0 F12000 X67.81 Y145.03
G1 F2700 X64.40 Y141.62 E801.49114
G0 F12000 X64.15 Y141.93
G1 F2700 X67.81 Y145.59 E801.74969
G0 F12000 X67.81 Y146.16
G1 F2700 X63.89 Y142.24 E802.02620
G0 F12000 X63.64 Y142.55
G1 F2700 X67.81 Y146.72 E802.32056
G0 F12000 X67.81 Y147.29
G1 F2700 X65.58 Y145.06 E802.47818
G0 F12000 X65.58 Y145.62
G1 F2700 X67.81 Y147.86 E802.63580
G0 F12000 X67.81 Y148.42
G1 F2700 X65.58 Y146.19 E802.79342
G0 F12000 X65.58 Y146.75
G1 F2700 X67.81 Y148.99 E802.95104
G0 F12000 X67.81 Y149.55
G1 F2700 X65.58 Y147.32 E803.10863
G0 F12000 X65.58 Y147.88
G1 F2700 X67.81 Y150.12 E803.26625
G0 F12000 X67.81 Y150.69
G1 F2700 X65.58 Y148.45 E803.42387
G0 F12000 X65.58 Y149.02
G1 F2700 X67.81 Y151.25 E803.58145
G0 F12000 X67.81 Y151.82
G1 F2700 X65.58 Y149.58 E803.73907
G0 F12000 X65.58 Y150.15
G1 F2700 X67.81 Y152.38 E803.89670
G0 F12000 X67.81 Y152.95
G1 F2700 X65.58 Y150.71 E804.05428
G0 F12000 X65.58 Y151.28
G1 F2700 X67.81 Y153.51 E804.21190
G0 F12000 X67.81 Y154.08
G1 F2700 X65.58 Y151.84 E804.36952
G0 F12000 X65.58 Y152.41
G1 F2700 X67.81 Y154.64 E804.52711
G0 F12000 X67.81 Y155.21
G1 F2700 X65.58 Y152.98 E804.68473
G0 F12000 X65.58 Y153.54
G1 F2700 X67.81 Y155.78 E804.84235
G0 F12000 X67.81 Y156.34
G1 F2700 X65.58 Y154.11 E804.99997
G0 F12000 X65.58 Y154.67
G1 F2700 X67.81 Y156.91 E805.15759
G0 F12000 X67.81 Y157.47
G1 F2700 X65.58 Y155.24 E805.31521
G0 F12000 X65.58 Y155.81
G1 F2700 X67.81 Y158.04 E805.47283
G0 F12000 X67.81 Y158.60
G1 F2700 X65.58 Y156.37 E805.63042
G0 F12000 X65.58 Y156.94
G1 F2700 X67.81 Y159.17 E805.78804
G0 F12000 X67.81 Y159.74
G1 F2700 X65.58 Y157.50 E805.94566
G0 F12000 X65.58 Y158.07
G1 F2700 X67.81 Y160.30 E806.10325
G0 F12000 X67.81 Y160.87
G1 F2700 X65.58 Y158.63 E806.26087
G0 F12000 X65.58 Y159.20
G1 F2700 X67.81 Y161.43 E806.41849
G0 F12000 X67.81 Y162.00
G1 F2700 X65.58 Y159.76 E806.57607
G0 F12000 X65.58 Y160.33
G1 F2700 X67.81 Y162.56 E806.73369
G0 F12000 X67.81 Y163.13
G1 F2700 X65.58 Y160.90 E806.89131
G0 F12000 X65.58 Y161.46
G1 F2700 X67.81 Y163.69 E807.04890
G0 F12000 X67.81 Y164.26
G1 F2700 X65.58 Y162.03 E807.20652
G0 F12000 X65.58 Y162.59
G1 F2700 X67.67 Y164.68 E807.35391
G0 F12000 X67.10 Y164.68
G1 F2700 X65.58 Y163.16 E807.46137
G0 F12000 X65.58 Y163.72
G1 F2700 X66.53 Y164.68 E807.52892
G0 F12000 X65.97 Y164.68
G1 F2700 X65.58 Y164.29 E807.55658
G0 F12000 X65.38 Y144.76
G0 X64.48 Y144.72
G0 X56.68 Y154.26
G1 F2700 X54.89 Y152.47 E807.68302
G0 F12000 X56.55 Y151.30
G1 F2700 X57.94 Y152.69 E807.78095
G0 F12000 X58.19 Y152.37
G1 F2700 X56.80 Y150.99 E807.87867
G0 F12000 X57.06 Y150.68
G1 F2700 X58.44 Y152.06 E807.97617
G0 F12000 X58.69 Y151.74
G1 F2700 X57.31 Y150.36 E808.07354
G0 F12000 X57.56 Y150.05
G1 F2700 X58.94 Y151.43 E808.17073
G0 F12000 X59.19 Y151.11
G1 F2700 X57.81 Y149.74 E808.26774
G0 F12000 X58.07 Y149.43
G1 F2700 X59.44 Y150.80 E808.36455
G0 F12000 X59.69 Y150.48
G1 F2700 X58.32 Y149.11 E808.46117
G0 F12000 X58.58 Y148.80
G1 F2700 X59.94 Y150.17 E808.55762
G0 F12000 X60.19 Y149.85
G1 F2700 X58.83 Y148.49 E808.65386
G0 F12000 X59.08 Y148.18
G1 F2700 X60.44 Y149.54 E808.74995
G0 F12000 X60.69 Y149.22
G1 F2700 X59.34 Y147.87 E808.84584
G0 F12000 X59.59 Y147.55
G1 F2700 X60.95 Y148.91 E808.94158
G0 F12000 X61.20 Y148.59
G1 F2700 X59.84 Y147.24 E809.03712
G0 F12000 X60.09 Y146.93
G1 F2700 X61.45 Y148.28 E809.13251
G0 F12000 X61.70 Y147.96
G1 F2700 X60.35 Y146.62 E809.22769
G0 F12000 X60.60 Y146.30
G1 F2700 X61.95 Y147.65 E809.32269
G0 F12000 X62.20 Y147.33
G1 F2700 X60.85 Y145.99 E809.41748
G0 F12000 X61.11 Y145.68
G1 F2700 X62.45 Y147.02 E809.51209
G0 F12000 X62.70 Y146.70
G1 F2700 X61.36 Y145.37 E809.60653
G0 F12000 X61.61 Y145.05
G1 F2700 X62.95 Y146.39 E809.70079
G0 F12000 X63.20 Y146.07
G1 F2700 X61.87 Y144.74 E809.79492
G0 F12000 X62.12 Y144.43
G1 F2700 X63.45 Y145.76 E809.88890
G0 F12000 X63.70 Y145.44
G1 F2700 X62.37 Y144.12 E809.98259
G0 F12000 X62.63 Y143.80
G1 F2700 X63.95 Y145.13 E810.07615
G0 F12000 X64.20 Y144.81
G1 F2700 X62.88 Y143.49 E810.16949
G0 F12000 X63.13 Y143.18
G1 F2700 X64.52 Y144.56 E810.26693
G0 F12000 X65.08 Y144.56
G1 F2700 X63.39 Y142.87 E810.38642
G0 F12000 X56.50 Y151.03
G0 X56.03 Y150.78
G1 F2700 X45.56 Y140.32 E811.12503
G0 F12000 X45.19 Y140.51
G1 F2700 X57.69 Y153.00 E812.00683
G0 F12000 X57.44 Y153.32
G1 F2700 X45.19 Y141.07 E812.87095
G0 F12000 X45.19 Y141.64
G1 F2700 X48.11 Y144.56 E813.07712
G0 F12000 X47.54 Y144.56
G1 F2700 X45.19 Y142.20 E813.24335
G0 F12000 X45.19 Y142.77
G1 F2700 X47.42 Y145.00 E813.40097
G0 F12000 X47.42 Y145.57
G1 F2700 X45.19 Y143.33 E813.55862
G0 F12000 X45.19 Y143.90
G1 F2700 X47.42 Y146.13 E813.71624
G0 F12000 X47.42 Y146.70
G1 F2700 X45.19 Y144.47 E813.87386
G0 F12000 X45.19 Y145.03
G1 F2700 X47.42 Y147.27 E814.03152
G0 F12000 X47.42 Y147.83
G1 F2700 X45.19 Y145.60 E814.18914
G0 F12000 X45.19 Y146.16
G1 F2700 X47.42 Y148.40 E814.34676
G0 F12000 X47.42 Y148.96
G1 F2700 X45.19 Y146.73 E814.50442
G0 F12000 X45.19 Y147.29
G1 F2700 X47.42 Y149.53 E814.66207
G0 F12000 X47.42 Y150.09
G1 F2700 X45.19 Y147.86 E814.81969
G0 F12000 X45.19 Y148.43
G1 F2700 X47.42 Y150.66 E814.97735
G0 F12000 X47.42 Y151.23
G1 F2700 X45.19 Y148.99 E815.13501
G0 F12000 X45.19 Y149.56
G1 F2700 X47.42 Y151.79 E815.29263
G0 F12000 X47.42 Y152.36
G1 F2700 X45.19 Y150.12 E815.45025
G0 F12000 X45.19 Y150.69
G1 F2700 X47.42 Y152.92 E815.60790
G0 F12000 X47.42 Y153.49
G1 F2700 X45.19 Y151.25 E815.76553
G0 F12000 X45.19 Y151.82
G1 F2700 X47.42 Y154.05 E815.92315
G0 F12000 X47.42 Y154.62
G1 F2700 X45.19 Y152.38 E816.08080
G0 F12000 X45.19 Y152.95
G1 F2700 X47.42 Y155.19 E816.23842
G0 F12000 X47.42 Y155.75
G1 F2700 X45.19 Y153.52 E816.39604
G0 F12000 X45.19 Y154.08
G1 F2700 X47.42 Y156.32 E816.55370
G0 F12000 X47.42 Y156.88
G1 F2700 X45.19 Y154.65 E816.71132
G0 F12000 X45.19 Y155.21
G1 F2700 X47.42 Y157.45 E816.86894
G0 F12000 X47.42 Y158.01
G1 F2700 X45.19 Y155.78 E817.02660
G0 F12000 X45.19 Y156.34
G1 F2700 X47.42 Y158.58 E817.18425
G0 F12000 X47.42 Y159.15
G1 F2700 X45.19 Y156.91 E817.34187
G0 F12000 X45.19 Y157.48
G1 F2700 X47.42 Y159.71 E817.49953
G0 F12000 X47.42 Y160.28
G1 F2700 X45.19 Y158.04 E817.65719
G0 F12000 X45.19 Y158.61
G1 F2700 X47.42 Y160.84 E817.81481
G0 F12000 X47.42 Y161.41
G1 F2700 X45.19 Y159.17 E817.97246
G0 F12000 X45.19 Y159.74
G1 F2700 X47.42 Y161.97 E818.13012
G0 F12000 X47.42 Y162.54
G1 F2700 X45.19 Y160.31 E818.28774
G0 F12000 X45.19 Y160.87
G1 F2700 X47.42 Y163.10 E818.44536
G0 F12000 X47.42 Y163.67
G1 F2700 X45.19 Y161.44 E818.60302
G0 F12000 X45.19 Y162.00
G1 F2700 X47.42 Y164.24 E818.76064
G0 F12000 X47.30 Y164.68
G1 F2700 X45.19 Y162.57 E818.90979
G0 F12000 X45.19 Y163.13
G1 F2700 X46.74 Y164.68 E819.01905
G0 F12000 X46.17 Y164.68
G1 F2700 X45.19 Y163.70 E819.08840
G0 F12000 X45.19 Y164.26
G1 F2700 X45.60 Y164.68 E819.11782
G0 F12000 X47.62 Y144.76
G0 X48.52 Y144.72
G0 X56.93 Y153.95
G1 F2700 X52.69 Y149.70 E819.41747
G0 F12000 X53.66 Y147.85
G1 F2700 X46.13 Y140.32 E819.94904
G0 F12000 X46.70 Y140.32
G1 F2700 X51.29 Y144.91 E820.27352
G0 F12000 X50.48 Y146.93
G1 F2700 X57.19 Y153.63 E820.74631
G0 F12000 X48.93 Y141.98
G1 F2700 X47.26 Y140.32 E820.86386
G1 F2400 E819.66386
G0 F12000 X92.88 Y164.82
;TYPE:WALL-INNER
G1 F2400 E820.86386
G1 F2700 X103.47 Y140.03 E822.20912
G1 X105.30 Y140.03 E822.30032
G1 X116.33 Y164.82 E823.65423
G1 X113.84 Y164.82 E823.77796
G1 X110.67 Y157.81 E824.16178
G1 X110.40 Y157.21 E824.19516
G1 X98.62 Y157.21 E824.78252
G1 X95.36 Y164.82 E825.19590
G1 X92.88 Y164.82 E825.31988
G0 F12000 X99.56 Y155.07
G1 F2700 X109.42 Y155.07 E825.81160
G1 X104.71 Y144.50 E826.38861
G1 X103.92 Y144.51 E826.42808
G1 X99.56 Y155.07 E826.99781
G0 F12000 X100.16 Y154.67
;TYPE:WALL-OUTER
G1 F2700 X108.80 Y154.67 E827.42896
G1 X104.45 Y144.91 E827.96211
G1 X104.19 Y144.91 E827.97528
G1 X100.16 Y154.67 E828.50200
G0 F12000 X99.88 Y154.56
G0 X98.61 Y157.49
G0 X98.89 Y157.60
G1 F2700 X95.63 Y165.22 E828.91538
G1 X92.27 Y165.22 E829.08276
G1 X103.21 Y139.63 E830.47141
G1 X105.56 Y139.63 E830.58880
G1 X116.94 Y165.22 E831.98638
G1 X113.59 Y165.22 E832.15366
G1 X110.14 Y157.60 E832.57084
G1 X98.89 Y157.60 E833.13221
G0 F12000 X98.36 Y157.47
;TYPE:FILL
G1 F2700 X96.82 Y155.94 E833.24037
G0 F12000 X96.99 Y155.54
G1 F2700 X98.53 Y157.07 E833.34853
G0 F12000 X99.08 Y157.06
G1 F2700 X97.16 Y155.15 E833.48382
G0 F12000 X97.33 Y154.75
G1 F2700 X99.65 Y157.06 E833.64709
G0 F12000 X100.21 Y157.06
G1 F2700 X97.50 Y154.35 E833.83829
G0 F12000 X97.67 Y153.96
G1 F2700 X100.78 Y157.06 E834.05751
G0 F12000 X101.34 Y157.06
G1 F2700 X99.49 Y155.21 E834.18832
G0 F12000 X99.39 Y155.11
G1 F2700 X97.84 Y153.56 E834.29782
G0 F12000 X98.01 Y153.16
G1 F2700 X99.56 Y154.71 E834.40704
G0 F12000 X99.72 Y154.31
G1 F2700 X98.18 Y152.77 E834.51601
G0 F12000 X98.35 Y152.37
G1 F2700 X99.89 Y153.91 E834.62467
G0 F12000 X100.05 Y153.51
G1 F2700 X98.52 Y151.97 E834.73311
G0 F12000 X98.69 Y151.58
G1 F2700 X100.22 Y153.11 E834.84124
G0 F12000 X100.38 Y152.71
G1 F2700 X98.86 Y151.18 E834.94904
G0 F12000 X99.03 Y150.79
G1 F2700 X100.55 Y152.31 E835.05654
G0 F12000 X100.72 Y151.91
G1 F2700 X99.19 Y150.39 E835.16378
G0 F12000 X99.36 Y149.99
G1 F2700 X100.88 Y151.51 E835.27074
G0 F12000 X101.05 Y151.11
G1 F2700 X99.53 Y149.60 E835.37749
G0 F12000 X99.70 Y149.20
G1 F2700 X101.21 Y150.71 E835.48396
G0 F12000 X101.38 Y150.31
G1 F2700 X99.87 Y148.80 E835.59011
G0 F12000 X100.04 Y148.41
G1 F2700 X101.54 Y149.91 E835.69598
G0 F12000 X101.71 Y149.51
G1 F2700 X100.21 Y148.01 E835.80153
G0 F12000 X100.38 Y147.61
G1 F2700 X101.87 Y149.11 E835.90683
G0 F12000 X102.04 Y148.71
G1 F2700 X100.55 Y147.22 E836.01189
G0 F12000 X100.72 Y146.82
G1 F2700 X102.20 Y148.31 E836.11667
G0 F12000 X102.37 Y147.91
G1 F2700 X100.89 Y146.43 E836.22112
G0 F12000 X101.06 Y146.03
G1 F2700 X102.53 Y147.51 E836.32533
G0 F12000 X102.70 Y147.11
G1 F2700 X101.23 Y145.63 E836.42933
G0 F12000 X101.40 Y145.24
G1 F2700 X102.86 Y146.71 E836.53294
G0 F12000 X103.03 Y146.31
G1 F2700 X101.56 Y144.84 E836.63631
G0 F12000 X101.73 Y144.44
G1 F2700 X103.19 Y145.91 E836.73939
G0 F12000 X103.36 Y145.50
G1 F2700 X101.90 Y144.05 E836.84222
G0 F12000 X102.07 Y143.65
G1 F2700 X103.53 Y145.10 E836.94474
G0 F12000 X103.69 Y144.70
G1 F2700 X102.24 Y143.25 E837.04704
G0 F12000 X102.41 Y142.86
G1 F2700 X103.93 Y144.37 E837.15397
G0 F12000 X104.48 Y144.37
G1 F2700 X102.58 Y142.46 E837.28831
G0 F12000 X102.75 Y142.06
G1 F2700 X108.70 Y148.01 E837.70783
G0 F12000 X109.15 Y149.03
G1 F2700 X105.06 Y144.94 E837.99644
G0 F12000 X105.51 Y145.96
G1 F2700 X109.60 Y150.05 E838.28501
G0 F12000 X110.05 Y151.07
G1 F2700 X105.97 Y146.98 E838.57337
G0 F12000 X106.42 Y148.00
G1 F2700 X110.51 Y152.09 E838.86169
G0 F12000 X110.96 Y153.10
G1 F2700 X106.88 Y149.02 E839.14991
G0 F12000 X107.33 Y150.04
G1 F2700 X111.41 Y154.12 E839.43799
G0 F12000 X111.87 Y155.14
G1 F2700 X107.78 Y151.06 E839.72600
G0 F12000 X108.24 Y152.08
G1 F2700 X112.32 Y156.16 E840.01386
G0 F12000 X112.77 Y157.18
G1 F2700 X108.69 Y153.10 E840.30166
G0 F12000 X109.15 Y154.12
G1 F2700 X113.22 Y158.20 E840.58931
G0 F12000 X113.68 Y159.22
G1 F2700 X109.60 Y155.14 E840.87690
G0 F12000 X109.11 Y155.21
G1 F2700 X114.13 Y160.23 E841.23140
G0 F12000 X114.58 Y161.25
G1 F2700 X110.56 Y157.23 E841.51525
G0 F12000 X110.39 Y157.06
G1 F2700 X108.54 Y155.21 E841.64606
G0 F12000 X107.97 Y155.21
G1 F2700 X109.83 Y157.06 E841.77690
G0 F12000 X109.26 Y157.06
G1 F2700 X107.41 Y155.21 E841.90775
G0 F12000 X106.84 Y155.21
G1 F2700 X108.70 Y157.06 E842.03856
G0 F12000 X108.13 Y157.06
G1 F2700 X106.28 Y155.21 E842.16940
G0 F12000 X105.71 Y155.21
G1 F2700 X107.57 Y157.06 E842.30025
G0 F12000 X107.00 Y157.06
G1 F2700 X105.15 Y155.21 E842.43106
G0 F12000 X104.58 Y155.21
G1 F2700 X106.44 Y157.06 E842.56190
G0 F12000 X105.87 Y157.06
G1 F2700 X104.01 Y155.21 E842.69275
G0 F12000 X103.45 Y155.21
G1 F2700 X105.30 Y157.06 E842.82356
G0 F12000 X104.74 Y157.06
G1 F2700 X102.88 Y155.21 E842.95440
G0 F12000 X102.32 Y155.21
G1 F2700 X104.17 Y157.06 E843.08525
G0 F12000 X103.61 Y157.06
G1 F2700 X101.75 Y155.21 E843.21609
G0 F12000 X101.19 Y155.21
G1 F2700 X103.04 Y157.06 E843.34694
G0 F12000 X102.47 Y157.06
G1 F2700 X100.62 Y155.21 E843.47778
G0 F12000 X100.05 Y155.21
G1 F2700 X101.91 Y157.06 E843.60863
G0 F12000 X98.64 Y157.24
G0 X98.19 Y157.87
G1 F2700 X96.66 Y156.34 E843.71672
G0 F12000 X96.49 Y156.73
G1 F2700 X98.02 Y158.26 E843.82481
G0 F12000 X97.85 Y158.66
G1 F2700 X96.32 Y157.13 E843.93283
G0 F12000 X96.15 Y157.52
G1 F2700 X97.68 Y159.06 E844.04088
G0 F12000 X97.51 Y159.45
G1 F2700 X95.98 Y157.92 E844.14897
G0 F12000 X95.81 Y158.32
G1 F2700 X97.34 Y159.85 E844.25707
G0 F12000 X97.17 Y160.24
G1 F2700 X95.64 Y158.71 E844.36509
G0 F12000 X95.47 Y159.11
G1 F2700 X97.00 Y160.64 E844.47314
G0 F12000 X96.83 Y161.04
G1 F2700 X95.30 Y159.51 E844.58113
G0 F12000 X95.13 Y159.90
G1 F2700 X96.66 Y161.43 E844.68908
G0 F12000 X96.49 Y161.83
G1 F2700 X94.96 Y160.30 E844.79706
G0 F12000 X94.79 Y160.69
G1 F2700 X96.32 Y162.22 E844.90501
G0 F12000 X96.15 Y162.62
G1 F2700 X94.62 Y161.09 E845.01296
G0 F12000 X94.45 Y161.49
G1 F2700 X95.98 Y163.02 E845.12088
G0 F12000 X95.81 Y163.41
G1 F2700 X94.28 Y161.88 E845.22886
G0 F12000 X94.11 Y162.28
G1 F2700 X95.64 Y163.81 E845.33677
G0 F12000 X95.47 Y164.21
G1 F2700 X93.95 Y162.68 E845.44469
G0 F12000 X93.78 Y163.07
G1 F2700 X95.31 Y164.60 E845.55253
G0 F12000 X94.82 Y164.68
G1 F2700 X93.61 Y163.47 E845.63798
G0 F12000 X93.44 Y163.87
G1 F2700 X94.25 Y164.68 E845.69548
G0 F12000 X93.69 Y164.68
G1 F2700 X93.27 Y164.26 E845.72501
G0 F12000 X98.64 Y157.24
G0 X110.38 Y157.24
G0 X111.03 Y158.26
G1 F2700 X115.04 Y162.27 E846.00779
G0 F12000 X115.49 Y163.29
G1 F2700 X111.50 Y159.30 E846.28952
G0 F12000 X111.96 Y160.33
G1 F2700 X115.94 Y164.31 E846.57019
G0 F12000 X115.75 Y164.68
G1 F2700 X112.43 Y161.36 E846.80433
G0 F12000 X112.90 Y162.40
G1 F2700 X115.18 Y164.68 E846.96551
G0 F12000 X114.62 Y164.68
G1 F2700 X113.37 Y163.43 E847.05378
G0 F12000 X113.84 Y164.47
G1 F2700 X114.05 Y164.68 E847.06909
G0 F12000 X108.24 Y146.99
G1 F2700 X102.92 Y141.67 E847.44465
G0 F12000 X103.09 Y141.27
G1 F2700 X107.79 Y145.97 E847.77637
G0 F12000 X107.34 Y144.96
G1 F2700 X103.26 Y140.88 E848.06416
G0 F12000 X103.43 Y140.48
G1 F2700 X106.88 Y143.94 E848.30807
G0 F12000 X106.43 Y142.92
G1 F2700 X103.68 Y140.16 E848.50231
G0 F12000 X104.24 Y140.16
G1 F2700 X105.98 Y141.90 E848.62473
G0 F12000 X105.53 Y140.88
G1 F2700 X104.81 Y140.16 E848.67521
G1 F2400 E847.47521
G0 F12000 X145.93 Y145.20
;TYPE:WALL-INNER
G1 F2400 E848.67521
G1 F2700 X146.10 Y144.35 E848.71834
G1 X146.37 Y143.55 E848.76084
G1 X146.75 Y142.82 E848.80170
G1 X147.22 Y142.16 E848.84201
G1 X147.81 Y141.56 E848.88410
G1 X148.46 Y141.07 E848.92453
G1 X149.24 Y140.63 E848.96923
G1 X150.05 Y140.31 E849.01298
G1 X151.01 Y140.04 E849.06242
G1 X151.99 Y139.90 E849.11187
G1 X153.12 Y139.84 E849.16823
G1 X153.57 Y139.85 E849.19083
G1 X154.49 Y139.94 E849.23672
G1 X155.40 Y140.13 E849.28337
G1 X156.31 Y140.41 E849.33093
G1 X157.22 Y140.80 E849.38020
G1 X158.10 Y141.28 E849.43029
G1 X158.28 Y141.39 E849.44045
G1 X158.28 Y143.96 E849.56907
G1 X157.59 Y143.47 E849.61095
G1 X157.03 Y143.13 E849.64405
G1 X156.47 Y142.83 E849.67556
G1 X155.92 Y142.59 E849.70576
G1 X155.37 Y142.39 E849.73467
G1 X154.84 Y142.23 E849.76254
G1 X154.29 Y142.11 E849.79056
G1 X153.32 Y141.99 E849.83932
G1 X152.81 Y141.97 E849.86483
G1 X152.22 Y142.00 E849.89404
G1 X152.18 Y142.00 E849.89639
G1 X151.59 Y142.08 E849.92584
G1 X151.02 Y142.21 E849.95531
G1 X150.48 Y142.40 E849.98376
G1 X150.00 Y142.63 E850.01009
G1 X149.51 Y142.94 E850.03911
G1 X149.11 Y143.29 E850.06543
G1 X148.77 Y143.68 E850.09135
G1 X148.49 Y144.11 E850.11712
G1 X148.29 Y144.59 E850.14307
G1 X148.16 Y145.10 E850.16932
G1 X148.12 Y145.67 E850.19795
G1 X148.34 Y146.86 E850.25835
G1 X148.37 Y147.01 E850.26585
G1 X149.02 Y148.05 E850.32695
G1 X149.08 Y148.15 E850.33284
G1 X150.02 Y149.03 E850.39690
G1 X150.09 Y149.09 E850.40156
G1 X151.26 Y149.90 E850.47246
G1 X152.58 Y150.68 E850.54910
G1 X153.95 Y151.46 E850.62760
G1 X155.31 Y152.30 E850.70771
G1 X156.57 Y153.23 E850.78553
G1 X157.69 Y154.32 E850.86350
G1 X158.53 Y155.55 E850.93791
G1 X159.09 Y157.01 E851.01594
G1 X159.29 Y158.76 E851.10398
G1 X159.30 Y158.77 E851.10453
G1 X159.24 Y159.66 E851.14867
G1 X159.08 Y160.50 E851.19146
G1 X158.81 Y161.30 E851.23381
G1 X158.44 Y162.04 E851.27486
G1 X157.99 Y162.72 E851.31588
G1 X157.43 Y163.34 E851.35749
G1 X156.82 Y163.86 E851.39725
G1 X156.10 Y164.32 E851.44003
G1 X155.33 Y164.68 E851.48224
G1 X154.53 Y164.93 E851.52422
G1 X153.64 Y165.10 E851.56955
G1 X152.65 Y165.16 E851.61874
G1 X152.03 Y165.15 E851.64983
G1 X151.38 Y165.10 E851.68234
G1 X150.76 Y165.03 E851.71344
G1 X150.15 Y164.92 E851.74414
G1 X149.57 Y164.78 E851.77393
G1 X149.01 Y164.62 E851.80311
G1 X148.45 Y164.41 E851.83304
G1 X147.91 Y164.19 E851.86202
G1 X147.37 Y163.92 E851.89217
G1 X146.86 Y163.62 E851.92173
G1 X146.32 Y163.28 E851.95386
G1 X146.02 Y163.07 E851.97182
G1 X146.02 Y160.25 E852.11216
G1 X146.52 Y160.72 E852.14597
G1 X147.09 Y161.19 E852.18286
G1 X147.68 Y161.61 E852.21889
G1 X148.28 Y161.97 E852.25424
G1 X148.91 Y162.29 E852.28911
G1 X149.54 Y162.55 E852.32355
G1 X150.20 Y162.76 E852.35771
G1 X150.86 Y162.91 E852.39170
G1 X151.54 Y163.00 E852.42568
G1 X152.19 Y163.03 E852.45854
G1 X152.25 Y163.03 E852.46114
G1 X152.97 Y162.99 E852.49736
G1 X153.66 Y162.88 E852.53240
G1 X154.30 Y162.69 E852.56537
G1 X154.87 Y162.45 E852.59641
G1 X155.38 Y162.14 E852.62588
G1 X155.83 Y161.78 E852.65481
G1 X156.21 Y161.39 E852.68174
G1 X156.51 Y160.97 E852.70752
G1 X156.75 Y160.53 E852.73246
G1 X156.91 Y160.08 E852.75653
G1 X157.02 Y159.62 E852.78000
G1 X157.05 Y159.14 E852.80427
G1 X156.83 Y157.86 E852.86906
G1 X156.80 Y157.72 E852.87627
G1 X156.17 Y156.58 E852.94116
G1 X156.11 Y156.48 E852.94704
G1 X155.17 Y155.49 E853.01497
G1 X155.11 Y155.43 E853.01945
G1 X153.94 Y154.53 E853.09302
G1 X152.61 Y153.67 E853.17208
G1 X151.22 Y152.82 E853.25322
G1 X149.86 Y151.96 E853.33346
G1 X148.60 Y151.04 E853.41141
G1 X147.46 Y150.00 E853.48817
G1 X146.62 Y148.89 E853.55775
G1 X146.07 Y147.62 E853.62691
G1 X145.87 Y146.11 E853.70256
G1 X145.93 Y145.20 E853.74820
G0 F12000 X145.53 Y145.16
;TYPE:WALL-OUTER
G1 F2700 X145.53 Y145.14 E853.74910
G1 X145.71 Y144.25 E853.79466
G1 X146.00 Y143.39 E853.83971
G1 X146.41 Y142.61 E853.88393
G1 X146.92 Y141.91 E853.92702
G1 X147.54 Y141.27 E853.97141
G1 X148.24 Y140.74 E854.01542
G1 X149.06 Y140.27 E854.06225
G1 X149.93 Y139.92 E854.10903
G1 X150.91 Y139.66 E854.15976
G1 X151.95 Y139.50 E854.21230
G1 X153.12 Y139.44 E854.27075
G1 X153.60 Y139.45 E854.29451
G1 X154.54 Y139.54 E854.34210
G1 X155.04 Y139.63 E854.36714
G1 X155.52 Y139.75 E854.39193
G1 X156.00 Y139.88 E854.41654
G1 X156.46 Y140.04 E854.44094
G1 X156.94 Y140.23 E854.46661
G1 X157.84 Y140.66 E854.51650
G1 X158.30 Y140.93 E854.54316
G1 X158.68 Y141.16 E854.56515
G1 X158.68 Y144.81 E854.74720
G1 X157.92 Y144.19 E854.79587
G1 X157.38 Y143.81 E854.82931
G1 X156.83 Y143.47 E854.86113
G1 X156.29 Y143.19 E854.89134
G1 X155.77 Y142.96 E854.92022
G1 X155.25 Y142.77 E854.94777
G1 X154.74 Y142.62 E854.97434
G1 X154.22 Y142.50 E855.00076
G1 X153.29 Y142.39 E855.04762
G1 X152.81 Y142.37 E855.07143
G1 X152.24 Y142.40 E855.09984
G1 X151.66 Y142.47 E855.12893
G1 X151.13 Y142.60 E855.15640
G1 X150.63 Y142.77 E855.18267
G1 X150.16 Y143.00 E855.20898
G1 X149.75 Y143.26 E855.23304
G1 X149.39 Y143.57 E855.25660
G1 X149.09 Y143.92 E855.27955
G1 X148.85 Y144.30 E855.30218
G1 X148.67 Y144.72 E855.32486
G1 X148.56 Y145.17 E855.34789
G1 X148.52 Y145.65 E855.37221
G1 X148.74 Y146.78 E855.42978
G1 X148.75 Y146.86 E855.43359
G1 X149.36 Y147.84 E855.49102
G1 X149.39 Y147.89 E855.49431
G1 X150.30 Y148.74 E855.55615
G1 X150.34 Y148.78 E855.55911
G1 X151.47 Y149.56 E855.62767
G1 X152.78 Y150.33 E855.70349
G1 X154.16 Y151.12 E855.78286
G1 X155.53 Y151.97 E855.86305
G1 X156.83 Y152.92 E855.94362
G1 X157.97 Y154.03 E856.02307
G1 X158.87 Y155.34 E856.10209
G1 X158.89 Y155.37 E856.10378
G1 X159.47 Y156.88 E856.18468
G1 X159.48 Y156.91 E856.18624
G1 X159.69 Y158.71 E856.27685
G1 X159.70 Y158.75 E856.27887
G1 X159.64 Y159.69 E856.32595
G1 X159.64 Y159.72 E856.32700
G1 X159.47 Y160.59 E856.37159
G1 X159.18 Y161.46 E856.41707
G1 X158.79 Y162.24 E856.46052
G1 X158.30 Y162.97 E856.50448
G1 X157.72 Y163.62 E856.54814
G1 X157.70 Y163.63 E856.54909
G1 X157.06 Y164.18 E856.59119
G1 X156.31 Y164.66 E856.63574
G1 X155.49 Y165.04 E856.68058
G1 X154.62 Y165.32 E856.72605
G1 X153.69 Y165.50 E856.77367
G1 X152.68 Y165.56 E856.82396
G1 X152.66 Y165.56 E856.82511
G1 X152.01 Y165.55 E856.85750
G1 X151.34 Y165.50 E856.89081
G1 X150.70 Y165.42 E856.92327
G1 X150.09 Y165.32 E856.95428
G1 X149.47 Y165.17 E856.98565
G1 X148.88 Y165.00 E857.01655
G1 X148.31 Y164.79 E857.04663
G1 X147.74 Y164.54 E857.07790
G1 X147.19 Y164.27 E857.10831
G1 X146.63 Y163.96 E857.14029
G1 X146.10 Y163.61 E857.17184
G1 X145.62 Y163.27 E857.20113
G1 X145.62 Y159.23 E857.40279
G1 X146.25 Y159.92 E857.44926
G1 X146.78 Y160.42 E857.48561
G1 X147.33 Y160.87 E857.52109
G1 X147.90 Y161.27 E857.55569
G1 X148.47 Y161.62 E857.58954
G1 X149.07 Y161.93 E857.62285
G1 X149.68 Y162.17 E857.65566
G1 X150.30 Y162.37 E857.68815
G1 X150.93 Y162.51 E857.72045
G1 X151.57 Y162.60 E857.75267
G1 X152.25 Y162.63 E857.78628
G1 X152.93 Y162.59 E857.82041
G1 X153.58 Y162.49 E857.85317
G1 X154.16 Y162.32 E857.88370
G1 X154.69 Y162.09 E857.91214
G1 X155.15 Y161.81 E857.93899
G1 X155.56 Y161.49 E857.96523
G1 X155.90 Y161.14 E857.98944
G1 X156.17 Y160.76 E858.01254
G1 X156.38 Y160.37 E858.03479
G1 X156.53 Y159.97 E858.05615
G1 X156.62 Y159.56 E858.07675
G1 X156.65 Y159.16 E858.09701
G1 X156.44 Y157.93 E858.15922
G1 X156.42 Y157.86 E858.16304
G1 X155.82 Y156.78 E858.22462
G1 X155.78 Y156.72 E858.22799
G1 X154.88 Y155.77 E858.29348
G1 X154.84 Y155.73 E858.29649
G1 X153.71 Y154.86 E858.36764
G1 X152.40 Y154.01 E858.44562
G1 X151.01 Y153.16 E858.52647
G1 X149.63 Y152.29 E858.60801
G1 X148.34 Y151.35 E858.68756
G1 X147.17 Y150.28 E858.76697
G1 X146.29 Y149.11 E858.83972
G1 X146.28 Y149.09 E858.84108
G1 X145.69 Y147.75 E858.91411
G1 X145.69 Y147.72 E858.91531
G1 X145.48 Y146.16 E858.99383
G1 X145.47 Y146.13 E858.99560
G1 X145.53 Y145.16 E859.04393
G0 F12000 X146.07 Y145.22
;TYPE:FILL
G1 F2700 X148.78 Y147.93 E859.23542
G0 F12000 X148.18 Y146.77
G1 F2700 X146.16 Y144.75 E859.37801
G0 F12000 X146.27 Y144.29
G1 F2700 X148.05 Y146.07 E859.50367
G0 F12000 X147.99 Y145.45
G1 F2700 X146.41 Y143.87 E859.61525
G0 F12000 X146.57 Y143.46
G1 F2700 X148.05 Y144.94 E859.71971
G0 F12000 X148.17 Y144.50
G1 F2700 X146.77 Y143.09 E859.81898
G0 F12000 X146.98 Y142.74
G1 F2700 X148.34 Y144.10 E859.91522
G0 F12000 X148.56 Y143.75
G1 F2700 X147.22 Y142.41 E860.00973
G0 F12000 X147.48 Y142.10
G1 F2700 X148.80 Y143.43 E860.10315
G0 F12000 X149.07 Y143.13
G1 F2700 X147.76 Y141.82 E860.19600
G0 F12000 X148.06 Y141.55
G1 F2700 X149.38 Y142.87 E860.28916
G0 F12000 X149.72 Y142.65
G1 F2700 X148.38 Y141.31 E860.38350
G0 F12000 X148.72 Y141.08
G1 F2700 X150.07 Y142.44 E860.47903
G0 F12000 X150.46 Y142.26
G1 F2700 X149.08 Y140.88 E860.57633
G0 F12000 X149.46 Y140.69
G1 F2700 X150.88 Y142.11 E860.67644
G0 F12000 X151.33 Y141.99
G1 F2700 X149.87 Y140.53 E860.77967
G0 F12000 X150.29 Y140.39
G1 F2700 X151.81 Y141.91 E860.88695
G0 F12000 X152.32 Y141.85
G1 F2700 X150.73 Y140.26 E860.99892
G0 F12000 X151.19 Y140.16
G1 F2700 X152.86 Y141.83 E861.11703
G0 F12000 X153.46 Y141.86
G1 F2700 X151.68 Y140.08 E861.24258
G0 F12000 X152.19 Y140.02
G1 F2700 X154.11 Y141.94 E861.37798
G0 F12000 X154.81 Y142.08
G1 F2700 X152.72 Y140.00 E861.52501
G0 F12000 X153.27 Y139.98
G1 F2700 X155.62 Y142.33 E861.69085
G0 F12000 X156.61 Y142.75
G1 F2700 X153.88 Y140.02 E861.88326
G0 F12000 X154.51 Y140.09
G1 F2700 X158.06 Y143.63 E862.13338
G0 F12000 X158.13 Y143.14
G1 F2700 X155.23 Y140.24 E862.33855
G0 F12000 X156.03 Y140.47
G1 F2700 X158.13 Y142.58 E862.48721
G0 F12000 X158.13 Y142.01
G1 F2700 X156.96 Y140.84 E862.56983
G0 F12000 X149.95 Y142.66
G0 X148.49 Y144.11
G0 X148.12 Y145.67
G0 X148.38 Y147.01
G0 X149.09 Y148.15
G0 X151.78 Y150.36
G1 F2700 X159.02 Y157.60 E863.08072
G0 F12000 X159.09 Y158.25
G1 F2700 X150.17 Y149.32 E863.71029
G0 F12000 X149.67 Y151.65
G1 F2700 X146.68 Y148.66 E863.92153
G0 F12000 X146.25 Y147.66
G1 F2700 X151.28 Y152.69 E864.27629
G0 F12000 X152.73 Y153.57
G1 F2700 X146.13 Y146.98 E864.74167
G0 F12000 X146.04 Y146.33
G1 F2700 X154.51 Y154.79 E865.33913
G0 F12000 X156.36 Y153.25
G1 F2700 X157.72 Y154.60 E865.43495
G0 F12000 X158.56 Y156.02
G1 F2700 X154.53 Y151.98 E865.71964
G0 F12000 X153.12 Y151.14
G1 F2700 X158.91 Y156.93 E866.12808
G0 F12000 X159.15 Y158.87
G1 F2700 X146.03 Y145.75 E867.05324
G0 F12000 X156.16 Y156.59
G0 X156.83 Y157.86
G0 X156.91 Y160.08
G0 X155.83 Y161.78
G0 X153.66 Y162.88
G0 X150.86 Y162.90
G0 X147.68 Y161.61
G0 X146.22 Y160.65
G1 F2700 X150.40 Y164.82 E867.34760
G0 F12000 X151.06 Y164.92
G1 F2700 X148.26 Y162.12 E867.54529
G0 F12000 X149.31 Y162.61
G1 F2700 X151.69 Y164.98 E867.71297
G0 F12000 X152.29 Y165.01
G1 F2700 X150.16 Y162.89 E867.86269
G0 F12000 X150.89 Y163.05
G1 F2700 X152.85 Y165.01 E868.00094
G0 F12000 X153.38 Y164.97
G1 F2700 X151.54 Y163.13 E868.13073
G0 F12000 X152.13 Y163.16
G1 F2700 X153.88 Y164.91 E868.25392
G0 F12000 X154.35 Y164.82
G1 F2700 X152.68 Y163.15 E868.37203
G0 F12000 X153.20 Y163.09
G1 F2700 X154.80 Y164.70 E868.48513
G0 F12000 X155.23 Y164.56
G1 F2700 X153.68 Y163.01 E868.59431
G0 F12000 X154.12 Y162.89
G1 F2700 X155.62 Y164.39 E868.70000
G0 F12000 X156.01 Y164.21
G1 F2700 X154.54 Y162.74 E868.80344
G0 F12000 X154.93 Y162.57
G1 F2700 X156.35 Y163.99 E868.90352
G0 F12000 X156.70 Y163.77
G1 F2700 X155.29 Y162.36 E869.00286
G0 F12000 X155.62 Y162.13
G1 F2700 X157.01 Y163.51 E869.10055
G0 F12000 X157.31 Y163.25
G1 F2700 X155.94 Y161.88 E869.19781
G0 F12000 X156.21 Y161.59
G1 F2700 X157.58 Y162.96 E869.29461
G0 F12000 X157.85 Y162.66
G1 F2700 X156.46 Y161.27 E869.39251
G0 F12000 X156.69 Y160.93
G1 F2700 X158.08 Y162.32 E869.49072
G0 F12000 X158.31 Y161.99
G1 F2700 X156.88 Y160.56 E869.59126
G0 F12000 X157.04 Y160.15
G1 F2700 X158.50 Y161.61 E869.69445
G0 F12000 X158.68 Y161.23
G1 F2700 X157.15 Y159.69 E869.80307
G0 F12000 X157.19 Y159.17
G1 F2700 X158.83 Y160.81 E869.91839
G0 F12000 X158.96 Y160.37
G1 F2700 X157.08 Y158.50 E870.05075
G0 F12000 X156.96 Y157.81
G1 F2700 X159.05 Y159.90 E870.19825
G0 F12000 X159.12 Y159.40
G1 F2700 X156.36 Y156.64 E870.39298
G0 F12000 X157.02 Y159.62
G0 X156.20 Y161.39
G0 X154.30 Y162.69
G0 X151.54 Y163.00
G0 X149.67 Y164.66
G1 F2700 X146.16 Y161.15 E870.64063
G0 F12000 X146.16 Y161.72
G1 F2700 X148.86 Y164.41 E870.83078
G0 F12000 X147.90 Y164.02
G1 F2700 X146.16 Y162.28 E870.95319
G0 F12000 X146.16 Y162.85
G1 F2700 X146.61 Y163.30 E870.98480
G1 F2400 E869.78480
G0 F12000 X187.65 Y155.82
;TYPE:WALL-INNER
G1 F2400 E870.98480
G1 F2700 X187.32 Y154.17 E871.06850
G1 X187.22 Y152.52 E871.15119
G1 X187.21 Y152.50 E871.15229
G1 X187.32 Y150.84 E871.23543
G1 X187.32 Y150.81 E871.23663
G1 X187.63 Y149.21 E871.31796
G1 X188.15 Y147.66 E871.39965
G1 X188.86 Y146.20 E871.48056
G1 X188.87 Y146.18 E871.48161
G1 X189.73 Y144.87 E871.55981
G1 X190.82 Y143.62 E871.64267
G1 X190.83 Y143.61 E871.64352
G1 X192.03 Y142.56 E871.72252
G1 X193.42 Y141.64 E871.80586
G1 X194.99 Y140.87 E871.89330
G1 X195.01 Y140.86 E871.89430
G1 X196.68 Y140.31 E871.98185
G1 X196.70 Y140.30 E871.98295
G1 X198.50 Y139.96 E872.07456
G1 X200.45 Y139.84 E872.17218
G1 X200.49 Y139.84 E872.17379
G1 X202.44 Y139.95 E872.27155
G1 X202.47 Y139.96 E872.27275
G1 X204.30 Y140.30 E872.36576
G1 X206.01 Y140.85 E872.45540
G1 X207.56 Y141.59 E872.54113
G1 X208.93 Y142.48 E872.62261
G1 X210.17 Y143.56 E872.70463
G1 X211.26 Y144.80 E872.78714
G1 X212.13 Y146.11 E872.86554
G1 X212.84 Y147.56 E872.94615
G1 X213.37 Y149.16 E873.02988
G1 X213.68 Y150.79 E873.11270
G1 X213.79 Y152.48 E873.19734
G1 X213.79 Y152.50 E873.19849
G1 X213.69 Y154.12 E873.27962
G1 X213.69 Y154.16 E873.28112
G1 X213.39 Y155.73 E873.36122
G1 X212.90 Y157.23 E873.43989
G1 X212.21 Y158.69 E873.52047
G1 X211.32 Y160.08 E873.60282
G1 X210.27 Y161.31 E873.68356
G1 X210.25 Y161.32 E873.68441
G1 X209.07 Y162.38 E873.76372
G1 X207.64 Y163.34 E873.84972
G1 X206.08 Y164.10 E873.93615
G1 X206.06 Y164.11 E873.93720
G1 X204.34 Y164.68 E874.02786
G1 X202.47 Y165.03 E874.12235
G1 X200.44 Y165.16 E874.22407
G1 X200.40 Y165.16 E874.22592
G1 X198.47 Y165.04 E874.32274
G1 X198.44 Y165.04 E874.32394
G1 X196.63 Y164.69 E874.41601
G1 X194.91 Y164.12 E874.50635
G1 X193.38 Y163.36 E874.59167
G1 X191.99 Y162.43 E874.67504
G1 X190.82 Y161.38 E874.75366
G1 X189.71 Y160.11 E874.83780
G1 X188.87 Y158.81 E874.91507
G1 X188.16 Y157.35 E874.99582
G1 X187.65 Y155.82 E875.07643
G0 F12000 X190.19 Y155.30
G1 F2700 X190.64 Y156.65 E875.14747
G1 X191.22 Y157.83 E875.21293
G1 X191.99 Y158.98 E875.28195
G1 X192.83 Y159.91 E875.34454
G1 X192.88 Y159.97 E875.34870
G1 X193.83 Y160.79 E875.41119
G1 X194.95 Y161.53 E875.47798
G1 X195.02 Y161.58 E875.48230
G1 X196.26 Y162.17 E875.55076
G1 X197.59 Y162.60 E875.62048
G1 X198.96 Y162.85 E875.68977
G1 X200.40 Y162.95 E875.76187
G1 X200.48 Y162.95 E875.76611
G1 X201.89 Y162.87 E875.83639
G1 X201.97 Y162.86 E875.84064
G1 X203.34 Y162.61 E875.91023
G1 X204.65 Y162.19 E875.97836
G1 X204.73 Y162.17 E875.98260
G1 X205.97 Y161.58 E876.05111
G1 X207.03 Y160.89 E876.11451
G1 X207.10 Y160.84 E876.11871
G1 X208.05 Y160.03 E876.18099
G1 X208.12 Y159.97 E876.18524
G1 X208.95 Y159.04 E876.24757
G1 X209.01 Y158.98 E876.25184
G1 X209.71 Y157.93 E876.31476
G1 X209.76 Y157.86 E876.31897
G1 X210.34 Y156.69 E876.38423
G1 X210.78 Y155.39 E876.45289
G1 X211.06 Y154.00 E876.52332
G1 X211.16 Y152.59 E876.59423
G1 X211.16 Y152.50 E876.59858
G1 X211.07 Y151.03 E876.67182
G1 X210.81 Y149.69 E876.74017
G1 X210.38 Y148.38 E876.80913
G1 X209.78 Y147.16 E876.87687
G1 X209.06 Y146.08 E876.94174
G1 X209.01 Y146.01 E876.94592
G1 X208.17 Y145.07 E877.00852
G1 X208.12 Y145.01 E877.01269
G1 X207.16 Y144.20 E877.07526
G1 X206.04 Y143.46 E877.14207
G1 X205.97 Y143.41 E877.14645
G1 X204.80 Y142.86 E877.21097
G1 X203.47 Y142.43 E877.28072
G1 X203.39 Y142.40 E877.28498
G1 X202.02 Y142.15 E877.35459
G1 X200.57 Y142.05 E877.42709
G1 X200.48 Y142.05 E877.43134
G1 X199.09 Y142.13 E877.50121
G1 X199.00 Y142.13 E877.50546
G1 X197.64 Y142.39 E877.57468
G1 X196.34 Y142.80 E877.64244
G1 X196.26 Y142.83 E877.64668
G1 X195.10 Y143.38 E877.71071
G1 X195.03 Y143.41 E877.71490
G1 X193.96 Y144.10 E877.77809
G1 X193.89 Y144.15 E877.78230
G1 X192.95 Y144.96 E877.84440
G1 X192.05 Y145.94 E877.91076
G1 X192.00 Y146.00 E877.91504
G1 X191.29 Y147.05 E877.97789
G1 X191.24 Y147.12 E877.98209
G1 X190.66 Y148.29 E878.04740
G1 X190.23 Y149.56 E878.11436
G1 X190.20 Y149.64 E878.11863
G1 X189.94 Y150.99 E878.18699
G1 X189.84 Y152.41 E878.25825
G1 X189.84 Y152.50 E878.26254
G1 X189.93 Y153.96 E878.33538
G1 X190.19 Y155.30 E878.40354
G0 F12000 X190.58 Y155.20
;TYPE:WALL-OUTER
G1 F2700 X191.01 Y156.50 E878.47195
G1 X191.57 Y157.62 E878.53469
G1 X192.31 Y158.73 E878.60105
G1 X193.12 Y159.65 E878.66215
G1 X194.09 Y160.49 E878.72613
G1 X195.17 Y161.20 E878.79072
G1 X196.41 Y161.79 E878.85918
G1 X197.69 Y162.21 E878.92628
G1 X199.00 Y162.46 E878.99309
G1 X200.48 Y162.55 E879.06698
G1 X201.92 Y162.47 E879.13901
G1 X203.25 Y162.22 E879.20611
G1 X204.52 Y161.81 E879.27293
G1 X205.77 Y161.23 E879.34174
G1 X206.81 Y160.55 E879.40373
G1 X206.86 Y160.52 E879.40654
G1 X207.84 Y159.69 E879.47062
G1 X208.65 Y158.77 E879.53167
G1 X208.69 Y158.73 E879.53453
G1 X209.38 Y157.71 E879.59599
G1 X209.97 Y156.54 E879.66149
G1 X210.40 Y155.28 E879.72757
G1 X210.67 Y153.95 E879.79535
G1 X210.76 Y152.50 E879.86796
G1 X210.68 Y151.09 E879.93864
G1 X210.42 Y149.79 E880.00446
G1 X210.00 Y148.53 E880.07079
G1 X209.43 Y147.36 E880.13581
G1 X208.69 Y146.25 E880.20218
G1 X207.88 Y145.34 E880.26327
G1 X206.86 Y144.47 E880.33013
G1 X205.82 Y143.79 E880.39201
G1 X205.77 Y143.76 E880.39473
G1 X204.58 Y143.20 E880.46066
G1 X203.29 Y142.79 E880.52800
G1 X201.97 Y142.54 E880.59508
G1 X200.48 Y142.45 E880.66942
G1 X199.05 Y142.53 E880.74099
G1 X197.74 Y142.78 E880.80779
G1 X196.47 Y143.18 E880.87423
G1 X195.22 Y143.76 E880.94271
G1 X194.18 Y144.44 E881.00452
G1 X194.13 Y144.47 E881.00733
G1 X193.16 Y145.30 E881.07123
G1 X192.35 Y146.21 E881.13212
G1 X192.31 Y146.25 E881.13498
G1 X191.62 Y147.27 E881.19636
G1 X191.03 Y148.45 E881.26191
G1 X190.61 Y149.69 E881.32750
G1 X190.59 Y149.75 E881.33040
G1 X190.34 Y151.04 E881.39622
G1 X190.24 Y152.50 E881.46917
G1 X190.33 Y153.91 E881.53946
G1 X190.58 Y155.20 E881.60503
G0 F12000 X190.30 Y155.29
G0 X187.55 Y155.84
G0 X187.26 Y155.92
G1 F2700 X186.92 Y154.21 E881.69179
G1 X186.81 Y152.50 E881.77732
G1 X186.93 Y150.75 E881.86456
G1 X187.24 Y149.13 E881.94715
G1 X187.77 Y147.53 E882.03145
G1 X188.50 Y146.02 E882.11501
G1 X189.42 Y144.63 E882.19795
G1 X190.55 Y143.33 E882.28400
G1 X191.79 Y142.24 E882.36614
G1 X193.21 Y141.29 E882.45163
G1 X194.86 Y140.49 E882.54314
G1 X196.59 Y139.92 E882.63431
G1 X198.42 Y139.57 E882.72719
G1 X198.47 Y139.56 E882.72968
G1 X200.43 Y139.44 E882.82735
G1 X200.48 Y139.44 E882.82995
G1 X202.47 Y139.56 E882.92926
G1 X202.51 Y139.56 E882.93166
G1 X204.37 Y139.90 E883.02594
G1 X206.13 Y140.47 E883.11808
G1 X207.74 Y141.23 E883.20670
G1 X209.17 Y142.16 E883.29227
G1 X210.45 Y143.27 E883.37662
G1 X211.56 Y144.53 E883.46054
G1 X212.47 Y145.91 E883.54283
G1 X213.21 Y147.41 E883.62639
G1 X213.75 Y149.03 E883.71118
G1 X214.07 Y150.71 E883.79662
G1 X214.19 Y152.50 E883.88622
G1 X214.09 Y154.15 E883.96880
G1 X214.08 Y154.21 E883.97160
G1 X213.77 Y155.85 E884.05499
G1 X213.27 Y157.38 E884.13550
G1 X212.56 Y158.89 E884.21862
G1 X211.63 Y160.33 E884.30421
G1 X210.54 Y161.60 E884.38774
G1 X209.31 Y162.70 E884.46980
G1 X207.82 Y163.70 E884.55931
G1 X206.21 Y164.49 E884.64905
G1 X204.44 Y165.07 E884.74201
G1 X202.50 Y165.44 E884.84056
G1 X200.47 Y165.56 E884.94202
G1 X200.41 Y165.56 E884.94507
G1 X198.44 Y165.44 E885.04324
G1 X198.39 Y165.44 E885.04589
G1 X196.56 Y165.09 E885.13903
G1 X194.75 Y164.49 E885.23363
G1 X193.18 Y163.71 E885.32118
G1 X191.74 Y162.74 E885.40768
G1 X190.53 Y161.66 E885.48888
G1 X189.40 Y160.35 E885.57521
G1 X188.52 Y159.00 E885.65565
G1 X187.79 Y157.51 E885.73848
G1 X187.26 Y155.92 E885.82217
G0 F12000 X187.80 Y155.84
;TYPE:FILL
G1 F2700 X196.44 Y164.48 E886.43184
G0 F12000 X197.18 Y164.66
G1 F2700 X187.65 Y155.12 E887.10438
G0 F12000 X187.51 Y154.42
G1 F2700 X191.32 Y158.23 E887.37347
G0 F12000 X190.66 Y157.00
G1 F2700 X187.44 Y153.78 E887.60098
G0 F12000 X187.40 Y153.17
G1 F2700 X190.31 Y156.08 E887.80623
G0 F12000 X190.04 Y155.25
G1 F2700 X187.36 Y152.57 E887.99542
G0 F12000 X187.38 Y152.03
G1 F2700 X189.90 Y154.55 E888.17318
G0 F12000 X189.78 Y153.86
G1 F2700 X187.42 Y151.50 E888.34026
G0 F12000 X187.45 Y150.96
G1 F2700 X189.75 Y153.26 E888.50225
G0 F12000 X189.71 Y152.66
G1 F2700 X187.53 Y150.48 E888.65603
G0 F12000 X187.62 Y150.00
G1 F2700 X189.72 Y152.10 E888.80434
G0 F12000 X189.76 Y151.58
G1 F2700 X187.71 Y149.53 E888.94876
G0 F12000 X187.82 Y149.08
G1 F2700 X189.80 Y151.05 E889.08783
G0 F12000 X189.88 Y150.56
G1 F2700 X187.97 Y148.65 E889.22284
G0 F12000 X188.11 Y148.23
G1 F2700 X189.97 Y150.09 E889.35442
G0 F12000 X190.06 Y149.62
G1 F2700 X188.25 Y147.80 E889.48252
G0 F12000 X188.42 Y147.41
G1 F2700 X190.21 Y149.19 E889.60846
G0 F12000 X190.35 Y148.77
G1 F2700 X188.61 Y147.03 E889.73144
G0 F12000 X188.79 Y146.65
G1 F2700 X190.50 Y148.35 E889.85152
G0 F12000 X190.67 Y147.96
G1 F2700 X188.98 Y146.27 E889.97104
G0 F12000 X189.20 Y145.93
G1 F2700 X190.86 Y147.58 E890.08792
G0 F12000 X191.04 Y147.20
G1 F2700 X189.43 Y145.59 E890.20207
G0 F12000 X189.65 Y145.25
G1 F2700 X191.26 Y146.85 E890.31518
G0 F12000 X191.48 Y146.51
G1 F2700 X189.88 Y144.91 E890.42799
G0 F12000 X190.15 Y144.61
G1 F2700 X191.71 Y146.17 E890.53841
G0 F12000 X191.95 Y145.85
G1 F2700 X190.41 Y144.31 E890.64700
G0 F12000 X190.67 Y144.00
G1 F2700 X192.22 Y145.55 E890.75601
G0 F12000 X192.49 Y145.25
G1 F2700 X190.94 Y143.70 E890.86547
G0 F12000 X191.24 Y143.44
G1 F2700 X192.76 Y144.96 E890.97258
G0 F12000 X193.05 Y144.68
G1 F2700 X191.54 Y143.17 E891.07904
G0 F12000 X191.84 Y142.91
G1 F2700 X193.35 Y144.42 E891.18572
G0 F12000 X193.66 Y144.16
G1 F2700 X192.15 Y142.65 E891.29226
G0 F12000 X192.49 Y142.42
G1 F2700 X193.98 Y143.92 E891.39781
G0 F12000 X194.33 Y143.70
G1 F2700 X192.83 Y142.20 E891.50365
G0 F12000 X193.17 Y141.97
G1 F2700 X194.67 Y143.48 E891.60980
G0 F12000 X195.02 Y143.26
G1 F2700 X193.51 Y141.75 E891.71648
G0 F12000 X193.89 Y141.56
G1 F2700 X195.40 Y143.08 E891.82347
G0 F12000 X195.79 Y142.90
G1 F2700 X194.27 Y141.38 E891.93068
G0 F12000 X194.65 Y141.19
G1 F2700 X196.17 Y142.71 E892.03817
G0 F12000 X196.60 Y142.57
G1 F2700 X195.03 Y141.00 E892.14887
G0 F12000 X195.45 Y140.86
G1 F2700 X197.03 Y142.44 E892.26003
G0 F12000 X197.46 Y142.30
G1 F2700 X195.88 Y140.72 E892.37148
G0 F12000 X196.30 Y140.58
G1 F2700 X197.91 Y142.19 E892.48535
G0 F12000 X198.39 Y142.11
G1 F2700 X196.73 Y140.44 E892.60283
G0 F12000 X197.20 Y140.35
G1 F2700 X198.87 Y142.02 E892.72034
G0 F12000 X199.39 Y141.97
G1 F2700 X197.68 Y140.26 E892.84102
G0 F12000 X198.15 Y140.17
G1 F2700 X199.92 Y141.94 E892.96580
G0 F12000 X200.46 Y141.91
G1 F2700 X198.64 Y140.09 E893.09375
G0 F12000 X199.17 Y140.06
G1 F2700 X201.06 Y141.94 E893.22654
G0 F12000 X201.66 Y141.98
G1 F2700 X199.71 Y140.03 E893.36447
G0 F12000 X200.24 Y139.99
G1 F2700 X202.30 Y142.05 E893.50982
G0 F12000 X202.99 Y142.18
G1 F2700 X200.81 Y140.00 E893.66398
G0 F12000 X201.41 Y140.03
G1 F2700 X203.75 Y142.37 E893.82873
G0 F12000 X204.59 Y142.65
G1 F2700 X202.01 Y140.07 E894.01055
G0 F12000 X202.64 Y140.13
G1 F2700 X205.59 Y143.08 E894.21858
G0 F12000 X206.99 Y143.92
G1 F2700 X203.33 Y140.26 E894.47667
G0 F12000 X204.03 Y140.39
G1 F2700 X213.32 Y149.69 E895.13263
G0 F12000 X213.46 Y150.39
G1 F2700 X209.37 Y146.30 E895.42106
G0 F12000 X210.19 Y147.68
G1 F2700 X213.56 Y151.05 E895.65834
G0 F12000 X213.59 Y151.65
G1 F2700 X210.62 Y148.68 E895.86806
G0 F12000 X210.90 Y149.53
G1 F2700 X213.63 Y152.26 E896.06075
G0 F12000 X213.63 Y152.82
G1 F2700 X211.06 Y150.25 E896.24193
G0 F12000 X211.20 Y150.95
G1 F2700 X213.60 Y153.35 E896.41116
G0 F12000 X213.56 Y153.88
G1 F2700 X211.24 Y151.56 E896.57478
G0 F12000 X211.28 Y152.17
G1 F2700 X213.50 Y154.39 E896.73120
G0 F12000 X213.41 Y154.86
G1 F2700 X211.29 Y152.74 E896.88081
G0 F12000 X211.25 Y153.27
G1 F2700 X213.32 Y155.34 E897.02651
G0 F12000 X213.22 Y155.80
G1 F2700 X211.22 Y153.80 E897.16759
G0 F12000 X211.15 Y154.29
G1 F2700 X213.08 Y156.23 E897.30390
G0 F12000 X212.94 Y156.65
G1 F2700 X211.05 Y154.76 E897.43711
G0 F12000 X210.96 Y155.24
G1 F2700 X212.80 Y157.08 E897.56728
G0 F12000 X212.63 Y157.47
G1 F2700 X210.83 Y155.68 E897.69407
G0 F12000 X210.69 Y156.10
G1 F2700 X212.45 Y157.86 E897.81828
G0 F12000 X212.27 Y158.24
G1 F2700 X210.54 Y156.52 E897.93985
G0 F12000 X210.38 Y156.92
G1 F2700 X212.09 Y158.63 E898.06029
G0 F12000 X211.87 Y158.97
G1 F2700 X210.19 Y157.30 E898.17833
G0 F12000 X210.00 Y157.68
G1 F2700 X211.64 Y159.32 E898.29390
G0 F12000 X211.42 Y159.66
G1 F2700 X209.80 Y158.04 E898.40802
G0 F12000 X209.58 Y158.38
G1 F2700 X211.20 Y160.00 E898.52250
G0 F12000 X210.94 Y160.31
G1 F2700 X209.35 Y158.72 E898.63468
G0 F12000 X209.12 Y159.06
G1 F2700 X210.68 Y160.61 E898.74453
G0 F12000 X210.42 Y160.92
G1 F2700 X208.85 Y159.36 E898.85478
G0 F12000 X208.59 Y159.66
G1 F2700 X210.15 Y161.22 E898.96530
G0 F12000 X209.85 Y161.49
G1 F2700 X208.32 Y159.95 E899.07361
G0 F12000 X208.03 Y160.23
G1 F2700 X209.56 Y161.75 E899.18113
G0 F12000 X209.26 Y162.02
G1 F2700 X207.73 Y160.49 E899.28901
G0 F12000 X207.42 Y160.75
G1 F2700 X208.95 Y162.28 E899.39703
G0 F12000 X208.62 Y162.51
G1 F2700 X207.11 Y161.00 E899.50336
G0 F12000 X206.76 Y161.23
G1 F2700 X208.28 Y162.74 E899.61000
G0 F12000 X207.94 Y162.97
G1 F2700 X206.42 Y161.45 E899.71711
G0 F12000 X206.08 Y161.67
G1 F2700 X207.60 Y163.20 E899.82463
G0 F12000 X207.23 Y163.39
G1 F2700 X205.70 Y161.86 E899.93234
G0 F12000 X205.32 Y162.04
G1 F2700 X206.85 Y163.57 E900.04036
G0 F12000 X206.47 Y163.76
G1 F2700 X204.93 Y162.22 E900.14866
G0 F12000 X204.52 Y162.38
G1 F2700 X206.09 Y163.94 E900.25911
G0 F12000 X205.67 Y164.09
G1 F2700 X204.09 Y162.51 E900.37048
G0 F12000 X203.66 Y162.65
G1 F2700 X205.25 Y164.23 E900.48210
G0 F12000 X204.82 Y164.37
G1 F2700 X203.22 Y162.77 E900.59506
G0 F12000 X202.74 Y162.86
G1 F2700 X204.39 Y164.51 E900.71155
G0 F12000 X203.93 Y164.61
G1 F2700 X202.27 Y162.95 E900.82888
G0 F12000 X201.77 Y163.02
G1 F2700 X203.45 Y164.70 E900.94794
G0 F12000 X202.98 Y164.79
G1 F2700 X201.23 Y163.05 E901.07121
G0 F12000 X200.70 Y163.08
G1 F2700 X202.50 Y164.88 E901.19849
G0 F12000 X201.98 Y164.92
G1 F2700 X200.12 Y163.07 E901.32926
G0 F12000 X199.52 Y163.03
G1 F2700 X201.44 Y164.96 E901.46512
G0 F12000 X200.91 Y164.99
G1 F2700 X198.91 Y162.99 E901.60630
G0 F12000 X198.21 Y162.86
G1 F2700 X200.37 Y165.02 E901.75880
G0 F12000 X199.77 Y164.98
G1 F2700 X197.51 Y162.72 E901.91850
G0 F12000 X196.67 Y162.45
G1 F2700 X199.17 Y164.94 E902.09482
G0 F12000 X198.57 Y164.91
G1 F2700 X195.72 Y162.07 E902.29531
G0 F12000 X194.48 Y161.39
G1 F2700 X197.88 Y164.79 E902.53555
G0 F12000 X195.60 Y164.20
G1 F2700 X188.08 Y156.69 E903.06552
G0 F12000 X188.44 Y157.61
G1 F2700 X194.68 Y163.85 E903.50607
G0 F12000 X193.56 Y163.30
G1 F2700 X188.97 Y158.71 E903.82999
G0 F12000 X190.49 Y160.80
G1 F2700 X191.51 Y161.81 E903.90154
G0 F12000 X189.84 Y152.41
G0 X190.66 Y148.29
G0 X192.95 Y144.96
G0 X196.34 Y142.80
G0 X200.48 Y142.05
G0 X204.81 Y140.61
G1 F2700 X213.15 Y148.94 E904.48937
G0 F12000 X212.86 Y148.09
G1 F2700 X205.65 Y140.88 E904.99835
G0 F12000 X206.64 Y141.31
G1 F2700 X212.47 Y147.13 E905.40930
G0 F12000 X211.84 Y145.94
G1 F2700 X207.84 Y141.94 E905.69163
G1 F2400 E904.49163
G0 F12000 X237.15 Y140.18
;TYPE:WALL-INNER
G1 F2400 E905.69163
G1 F2700 X239.23 Y140.18 E905.79555
G1 X256.83 Y160.29 E907.12918
G1 X257.61 Y160.00 E907.17064
G1 X257.61 Y140.18 E908.15971
G1 X259.90 Y140.18 E908.27381
G1 X259.90 Y164.82 E909.50340
G1 X257.59 Y164.82 E909.61865
G1 X240.21 Y144.82 E910.94055
G1 X239.43 Y145.11 E910.98211
G1 X239.43 Y164.82 E911.96554
G1 X237.15 Y164.82 E912.07959
G1 X237.15 Y140.18 E913.30918
G0 F12000 X236.75 Y139.78
;TYPE:WALL-OUTER
G1 F2700 X239.41 Y139.78 E913.44214
G1 X256.95 Y159.82 E914.77100
G1 X257.21 Y159.72 E914.78479
G1 X257.21 Y139.78 E915.78000
G1 X260.30 Y139.78 E915.93401
G1 X260.30 Y165.22 E917.20352
G1 X257.41 Y165.22 E917.34780
G1 X240.09 Y145.29 E918.66496
G1 X239.83 Y145.39 E918.67881
G1 X239.83 Y165.22 E919.66838
G1 X236.75 Y165.22 E919.82234
G1 X236.75 Y139.78 E921.09185
G0 F12000 X237.33 Y140.32
;TYPE:FILL
G1 F2700 X252.01 Y154.99 E922.12718
G0 F12000 X249.60 Y155.41
G1 F2700 X258.87 Y164.68 E922.78098
G0 F12000 X258.30 Y164.68
G1 F2700 X253.34 Y159.72 E923.13108
G0 F12000 X255.97 Y159.52
G1 F2700 X237.28 Y140.84 E924.44933
G0 F12000 X237.28 Y141.40
G1 F2700 X259.76 Y163.87 E926.03485
G0 F12000 X259.76 Y164.44
G1 F2700 X242.12 Y146.81 E927.27903
G0 F12000 X244.08 Y145.93
G1 F2700 X238.46 Y140.32 E927.67527
G0 F12000 X237.90 Y140.32
G1 F2700 X248.04 Y150.46 E928.39105
G0 F12000 X245.86 Y151.11
G1 F2700 X259.43 Y164.68 E929.34859
G0 F12000 X259.76 Y163.31
G1 F2700 X256.88 Y160.43 E929.55183
G0 F12000 X257.29 Y160.27
G1 F2700 X259.76 Y162.74 E929.72603
G0 F12000 X259.76 Y162.18
G1 F2700 X257.70 Y160.12 E929.87120
G0 F12000 X257.75 Y159.60
G1 F2700 X259.76 Y161.61 E930.01284
G0 F12000 X259.76 Y161.04
G1 F2700 X257.75 Y159.04 E930.15444
G0 F12000 X257.75 Y158.47
G1 F2700 X259.76 Y160.48 E930.29608
G0 F12000 X259.76 Y159.91
G1 F2700 X257.75 Y157.91 E930.43772
G0 F12000 X257.75 Y157.34
G1 F2700 X259.76 Y159.35 E930.57933
G0 F12000 X259.76 Y158.78
G1 F2700 X257.75 Y156.78 E930.72093
G0 F12000 X257.75 Y156.21
G1 F2700 X259.76 Y158.22 E930.86257
G0 F12000 X259.76 Y157.65
G1 F2700 X257.75 Y155.64 E931.00418
G0 F12000 X257.75 Y155.08
G1 F2700 X259.76 Y157.09 E931.14578
G0 F12000 X259.76 Y156.52
G1 F2700 X257.75 Y154.51 E931.28742
G0 F12000 X257.75 Y153.95
G1 F2700 X259.76 Y155.95 E931.42903
G0 F12000 X259.76 Y155.39
G1 F2700 X257.75 Y153.38 E931.57063
G0 F12000 X257.75 Y152.81
G1 F2700 X259.76 Y154.82 E931.71227
G0 F12000 X259.76 Y154.26
G1 F2700 X257.75 Y152.25 E931.85391
G0 F12000 X257.75 Y151.68
G1 F2700 X259.76 Y153.69 E931.99552
G0 F12000 X259.76 Y153.13
G1 F2700 X257.75 Y151.12 E932.13716
G0 F12000 X257.75 Y150.55
G1 F2700 X259.76 Y152.56 E932.27880
G0 F12000 X259.76 Y151.99
G1 F2700 X257.75 Y149.99 E932.42040
G0 F12000 X257.75 Y149.42
G1 F2700 X259.76 Y151.43 E932.56204
G0 F12000 X259.76 Y150.86
G1 F2700 X257.75 Y148.85 E932.70368
G0 F12000 X257.75 Y148.29
G1 F2700 X259.76 Y150.30 E932.84529
G0 F12000 X259.76 Y149.73
G1 F2700 X257.75 Y147.72 E932.98689
G0 F12000 X257.75 Y147.16
G1 F2700 X259.76 Y149.17 E933.12853
G0 F12000 X259.76 Y148.60
G1 F2700 X257.75 Y146.59 E933.27013
G0 F12000 X257.75 Y146.03
G1 F2700 X259.76 Y148.03 E933.41174
G0 F12000 X259.76 Y147.47
G1 F2700 X257.75 Y145.46 E933.55338
G0 F12000 X257.75 Y144.90
G1 F2700 X259.76 Y146.90 E933.69498
G0 F12000 X259.76 Y146.34
G1 F2700 X257.75 Y144.33 E933.83659
G0 F12000 X257.75 Y143.76
G1 F2700 X259.76 Y145.77 E933.97823
G0 F12000 X259.76 Y145.21
G1 F2700 X257.75 Y143.20 E934.11983
G0 F12000 X257.75 Y142.63
G1 F2700 X259.76 Y144.64 E934.26144
G0 F12000 X259.76 Y144.07
G1 F2700 X257.75 Y142.07 E934.40308
G0 F12000 X257.75 Y141.50
G1 F2700 X259.76 Y143.51 E934.54472
G0 F12000 X259.76 Y142.94
G1 F2700 X257.75 Y140.94 E934.68632
G0 F12000 X257.75 Y140.37
G1 F2700 X259.76 Y142.38 E934.82796
G0 F12000 X259.76 Y141.81
G1 F2700 X258.26 Y140.32 E934.93348
G0 F12000 X258.83 Y140.32
G1 F2700 X259.76 Y141.25 E934.99909
G0 F12000 X259.76 Y140.68
G1 F2700 X259.39 Y140.32 E935.02481
G0 F12000 X257.57 Y159.98
G0 X256.84 Y160.25
G0 X240.12 Y141.41
G1 F2700 X239.03 Y140.32 E935.10158
G0 F12000 X237.28 Y141.97
G1 F2700 X240.05 Y144.73 E935.29645
G0 F12000 X239.64 Y144.88
G1 F2700 X237.28 Y142.53 E935.46233
G0 F12000 X237.28 Y143.10
G1 F2700 X239.29 Y145.11 E935.60393
G0 F12000 X239.29 Y145.67
G1 F2700 X237.28 Y143.66 E935.74550
G0 F12000 X237.28 Y144.23
G1 F2700 X239.29 Y146.24 E935.88711
G0 F12000 X239.29 Y146.80
G1 F2700 X237.28 Y144.80 E936.02871
G0 F12000 X237.28 Y145.36
G1 F2700 X239.29 Y147.37 E936.17028
G0 F12000 X239.29 Y147.93
G1 F2700 X237.28 Y145.93 E936.31188
G0 F12000 X237.28 Y146.49
G1 F2700 X239.29 Y148.50 E936.45349
G0 F12000 X239.29 Y149.06
G1 F2700 X237.28 Y147.06 E936.59506
G0 F12000 X237.28 Y147.62
G1 F2700 X239.29 Y149.63 E936.73666
G0 F12000 X239.29 Y150.20
G1 F2700 X237.28 Y148.19 E936.87827
G0 F12000 X237.28 Y148.76
G1 F2700 X239.29 Y150.76 E937.01984
G0 F12000 X239.29 Y151.33
G1 F2700 X237.28 Y149.32 E937.16144
G0 F12000 X237.28 Y149.89
G1 F2700 X239.29 Y151.89 E937.30305
G0 F12000 X239.29 Y152.46
G1 F2700 X237.28 Y150.45 E937.44465
G0 F12000 X237.28 Y151.02
G1 F2700 X239.29 Y153.03 E937.58626
G0 F12000 X239.29 Y153.59
G1 F2700 X237.28 Y151.58 E937.72786
G0 F12000 X237.28 Y152.15
G1 F2700 X239.29 Y154.16 E937.86947
G0 F12000 X239.29 Y154.72
G1 F2700 X237.28 Y152.72 E938.01107
G0 F12000 X237.28 Y153.28
G1 F2700 X239.29 Y155.29 E938.15267
G0 F12000 X239.29 Y155.85
G1 F2700 X237.28 Y153.85 E938.29428
G0 F12000 X237.28 Y154.41
G1 F2700 X239.29 Y156.42 E938.43585
G0 F12000 X239.29 Y156.99
G1 F2700 X237.28 Y154.98 E938.57745
G0 F12000 X237.28 Y155.54
G1 F2700 X239.29 Y157.55 E938.71906
G0 F12000 X239.29 Y158.12
G1 F2700 X237.28 Y156.11 E938.86063
G0 F12000 X237.28 Y156.68
G1 F2700 X239.29 Y158.68 E939.00223
G0 F12000 X239.29 Y159.25
G1 F2700 X237.28 Y157.24 E939.14384
G0 F12000 X237.28 Y157.81
G1 F2700 X239.29 Y159.81 E939.28541
G0 F12000 X239.29 Y160.38
G1 F2700 X237.28 Y158.37 E939.42701
G0 F12000 X237.28 Y158.94
G1 F2700 X239.29 Y160.94 E939.56862
G0 F12000 X239.29 Y161.51
G1 F2700 X237.28 Y159.50 E939.71018
G0 F12000 X237.28 Y160.07
G1 F2700 X239.29 Y162.08 E939.85179
G0 F12000 X239.29 Y162.64
G1 F2700 X237.28 Y160.63 E939.99339
G0 F12000 X237.28 Y161.20
G1 F2700 X239.29 Y163.21 E940.13500
G0 F12000 X239.29 Y163.77
G1 F2700 X237.28 Y161.77 E940.27660
G0 F12000 X237.28 Y162.33
G1 F2700 X239.29 Y164.34 E940.41821
G0 F12000 X239.07 Y164.68
G1 F2700 X237.28 Y162.90 E940.54415
G0 F12000 X237.28 Y163.46
G1 F2700 X238.50 Y164.68 E940.63019
G0 F12000 X237.94 Y164.68
G1 F2700 X237.28 Y164.03 E940.67634
G0 F12000 X237.28 Y164.59
G1 F2700 X237.37 Y164.68 E940.68254
G0 F12000 X239.47 Y145.13
G0 X240.20 Y144.86
G0 X257.08 Y164.03
G1 F2700 X257.74 Y164.68 E940.72890
G1 F2400 E939.52890
G0 F12000 X73.67 Y169.67
;TYPE:SUPPORT
G1 F2400 E940.72890
G1 F2700 X39.37 Y169.67 E942.44013
G1 X39.37 Y135.47 E944.14638
G1 X73.67 Y135.47 E945.85761
G1 X73.67 Y169.67 E947.56386
G0 F12000 X73.57 Y169.66
G0 X70.04 Y167.02
G0 X70.05 Y166.92
G1 F2700 X70.05 Y138.08 E949.00299
G1 X64.39 Y138.08 E949.28557
G1 X56.50 Y147.80 E949.91023
G1 X48.65 Y138.08 E950.53379
G1 X42.95 Y138.08 E950.81837
G1 X42.95 Y166.92 E952.25750
G1 X49.66 Y166.92 E952.59246
G1 X49.66 Y152.08 E953.33278
G1 X51.27 Y151.52 E953.41781
G1 X55.47 Y156.80 E953.75455
G1 X57.53 Y156.80 E953.85697
G1 X61.73 Y151.52 E954.19371
G1 X63.34 Y152.08 E954.27874
G1 X63.34 Y166.92 E955.01906
G1 X70.05 Y166.92 E955.35402
G0 F12000 X69.99 Y165.60
G1 F2700 X73.73 Y165.60 E955.54051
G0 F12000 X73.57 Y165.60
G0 X73.57 Y167.20
G0 X73.73 Y167.20
G1 F2700 X39.31 Y167.20 E957.25773
G0 F12000 X39.47 Y167.20
G0 X39.47 Y168.80
G0 X39.31 Y168.80
G1 F2700 X73.73 Y168.80 E958.97495
G0 F12000 X73.57 Y168.80
G0 X73.57 Y164.00
G0 X73.73 Y164.00
G1 F2700 X69.99 Y164.00 E959.16144
G0 F12000 X70.15 Y164.00
G0 X70.15 Y162.40
G0 X69.99 Y162.40
G1 F2700 X73.73 Y162.40 E959.34793
G0 F12000 X73.57 Y162.40
G0 X73.57 Y160.80
G0 X73.73 Y160.80
G1 F2700 X69.99 Y160.80 E959.53442
G0 F12000 X70.15 Y160.80
G0 X70.15 Y159.20
G0 X69.99 Y159.20
G1 F2700 X73.73 Y159.20 E959.72091
G0 F12000 X73.57 Y159.20
G0 X73.57 Y157.60
G0 X73.73 Y157.60
G1 F2700 X69.99 Y157.60 E959.90740
G0 F12000 X70.15 Y157.60
G0 X70.15 Y156.00
G0 X69.99 Y156.00
G1 F2700 X73.73 Y156.00 E960.09389
G0 F12000 X73.57 Y156.00
G0 X73.57 Y154.40
G0 X73.73 Y154.40
G1 F2700 X69.99 Y154.40 E960.28038
G0 F12000 X70.15 Y154.40
G0 X70.15 Y152.80
G0 X69.99 Y152.80
G1 F2700 X73.73 Y152.80 E960.46687
G0 F12000 X73.57 Y152.80
G0 X73.57 Y151.20
G0 X73.73 Y151.20
G1 F2700 X69.99 Y151.20 E960.65336
G0 F12000 X70.15 Y151.20
G0 X70.15 Y149.60
G0 X69.99 Y149.60
G1 F2700 X73.73 Y149.60 E960.83985
G0 F12000 X73.57 Y149.60
G0 X73.57 Y148.00
G0 X73.73 Y148.00
G1 F2700 X69.99 Y148.00 E961.02634
G0 F12000 X70.15 Y148.00
G0 X70.15 Y146.40
G0 X69.99 Y146.40
G1 F2700 X73.73 Y146.40 E961.21283
G0 F12000 X73.57 Y146.40
G0 X73.57 Y144.80
G0 X73.73 Y144.80
G1 F2700 X69.99 Y144.80 E961.39932
G0 F12000 X70.15 Y144.80
G0 X70.15 Y143.20
G0 X69.99 Y143.20
G1 F2700 X73.73 Y143.20 E961.58581
G0 F12000 X73.57 Y143.20
G0 X73.57 Y141.60
G0 X73.73 Y141.60
G1 F2700 X69.99 Y141.60 E961.77229
G0 F12000 X70.15 Y141.60
G0 X70.15 Y140.00
G0 X69.99 Y140.00
G1 F2700 X73.73 Y140.00 E961.95878
G0 F12000 X73.57 Y140.00
G0 X73.57 Y138.40
G0 X73.73 Y138.40
G1 F2700 X69.99 Y138.40 E962.14527
G0 F12000 X70.15 Y138.40
G0 X73.57 Y136.80
G0 X73.73 Y136.80
G1 F2700 X39.31 Y136.80 E963.86249
G0 F12000 X39.47 Y136.80
G0 X39.47 Y138.40
G0 X39.31 Y138.40
G1 F2700 X43.01 Y138.40 E964.04704
G0 F12000 X42.85 Y138.40
G0 X42.85 Y140.00
G0 X43.01 Y140.00
G1 F2700 X39.31 Y140.00 E964.23158
G0 F12000 X39.47 Y140.00
G0 X39.47 Y141.60
G0 X39.31 Y141.60
G1 F2700 X43.01 Y141.60 E964.41613
G0 F12000 X42.85 Y141.60
G0 X42.85 Y143.20
G0 X43.01 Y143.20
G1 F2700 X39.31 Y143.20 E964.60067
G0 F12000 X39.47 Y143.20
G0 X39.47 Y144.80
G0 X39.31 Y144.80
G1 F2700 X43.01 Y144.80 E964.78521
G0 F12000 X42.85 Y144.80
G0 X42.85 Y146.40
G0 X43.01 Y146.40
G1 F2700 X39.31 Y146.40 E964.96976
G0 F12000 X39.47 Y146.40
G0 X39.47 Y148.00
G0 X39.31 Y148.00
G1 F2700 X43.01 Y148.00 E965.15430
G0 F12000 X42.85 Y148.00
G0 X42.85 Y149.60
G0 X43.01 Y149.60
G1 F2700 X39.31 Y149.60 E965.33885
G0 F12000 X39.47 Y149.60
G0 X39.47 Y151.20
G0 X39.31 Y151.20
G1 F2700 X43.01 Y151.20 E965.52339
G0 F12000 X42.85 Y151.20
G0 X42.85 Y152.80
G0 X43.01 Y152.80
G1 F2700 X39.31 Y152.80 E965.70793
G0 F12000 X39.47 Y152.80
G0 X39.47 Y154.40
G0 X39.31 Y154.40
G1 F2700 X43.01 Y154.40 E965.89248
G0 F12000 X42.85 Y154.40
G0 X42.85 Y156.00
G0 X43.01 Y156.00
G1 F2700 X39.31 Y156.00 E966.07702
G0 F12000 X39.47 Y156.00
G0 X39.47 Y157.60
G0 X39.31 Y157.60
G1 F2700 X43.01 Y157.60 E966.26157
G0 F12000 X42.85 Y157.60
G0 X42.85 Y159.20
G0 X43.01 Y159.20
G1 F2700 X39.31 Y159.20 E966.44611
G0 F12000 X39.47 Y159.20
G0 X39.47 Y160.80
G0 X39.31 Y160.80
G1 F2700 X43.01 Y160.80 E966.63065
G0 F12000 X42.85 Y160.80
G0 X42.85 Y162.40
G0 X43.01 Y162.40
G1 F2700 X39.31 Y162.40 E966.81520
G0 F12000 X39.47 Y162.40
G0 X39.47 Y164.00
G0 X39.31 Y164.00
G1 F2700 X43.01 Y164.00 E966.99974
G0 F12000 X42.85 Y164.00
G0 X42.85 Y165.60
G0 X43.01 Y165.60
G1 F2700 X39.31 Y165.60 E967.18428
G0 F12000 X39.47 Y165.60
G0 X42.81 Y167.06
G0 X49.80 Y167.06
G0 X49.76 Y165.60
G0 X49.60 Y165.60
G1 F2700 X63.40 Y165.60 E967.87252
G0 F12000 X63.24 Y165.60
G0 X63.24 Y164.00
G0 X63.40 Y164.00
G1 F2700 X49.60 Y164.00 E968.56075
G0 F12000 X49.76 Y164.00
G0 X49.76 Y162.40
G0 X49.60 Y162.40
G1 F2700 X63.40 Y162.40 E969.24899
G0 F12000 X63.24 Y162.40
G0 X63.24 Y160.80
G0 X63.40 Y160.80
G1 F2700 X49.60 Y160.80 E969.93723
G0 F12000 X49.76 Y160.80
G0 X49.76 Y159.20
G0 X49.60 Y159.20
G1 F2700 X63.40 Y159.20 E970.62546
G0 F12000 X63.24 Y159.20
G0 X63.24 Y157.60
G0 X63.40 Y157.60
G1 F2700 X49.60 Y157.60 E971.31370
G0 F12000 X49.76 Y157.60
G0 X49.76 Y156.00
G0 X49.60 Y156.00
G1 F2700 X54.91 Y156.00 E971.57856
G0 F12000 X54.79 Y156.10
G0 X53.51 Y154.50
G0 X53.64 Y154.40
G1 F2700 X49.60 Y154.40 E971.77992
G0 F12000 X49.76 Y154.40
G0 X49.76 Y152.80
G0 X49.60 Y152.80
G1 F2700 X52.37 Y152.80 E971.91777
G0 F12000 X52.24 Y152.90
G0 X55.39 Y156.98
G0 X57.61 Y156.98
G0 X58.21 Y156.10
G0 X58.09 Y156.00
G1 F2700 X63.40 Y156.00 E972.18258
G0 F12000 X63.24 Y156.00
G0 X63.24 Y154.40
G0 X63.40 Y154.40
G1 F2700 X59.36 Y154.40 E972.38389
G0 F12000 X59.49 Y154.50
G0 X60.76 Y152.90
G0 X60.63 Y152.80
G1 F2700 X63.40 Y152.80 E972.52169
G0 F12000 X63.24 Y152.80
G0 X63.20 Y167.06
G0 X70.19 Y167.06
G0 X70.19 Y137.94
G0 X64.30 Y137.90
G0 X57.59 Y146.30
G0 X57.72 Y146.40
G1 F2700 X55.29 Y146.40 E972.64262
G0 F12000 X55.42 Y146.30
G0 X54.13 Y144.70
G0 X54.00 Y144.80
G1 F2700 X59.01 Y144.80 E972.89267
G0 F12000 X58.89 Y144.70
G0 X60.19 Y143.10
G0 X60.31 Y143.20
G1 F2700 X52.71 Y143.20 E973.27194
G0 F12000 X52.83 Y143.10
G0 X51.54 Y141.50
G0 X51.42 Y141.60
G1 F2700 X61.61 Y141.60 E973.78032
G0 F12000 X61.49 Y141.50
G0 X62.78 Y139.90
G0 X62.91 Y140.00
G1 F2700 X50.13 Y140.00 E974.41786
G0 F12000 X50.25 Y139.90
G0 X48.96 Y138.30
G0 X48.84 Y138.40
G1 F2700 X64.20 Y138.40 E975.18453
G1 F2400 E973.98453
G0 F12000 X87.17 Y135.47
G1 F2400 E975.18453
G1 F2700 X121.67 Y135.47 E976.90574
G1 X121.67 Y169.67 E978.61198
G1 X87.17 Y169.67 E980.33320
G1 X87.17 Y135.47 E982.03944
G0 F12000 X101.99 Y137.90
G0 X102.08 Y137.93
G1 F2700 X89.70 Y166.92 E983.61256
G1 X96.75 Y166.92 E983.96433
G1 X100.01 Y159.31 E984.37771
G1 X109.04 Y159.31 E984.82842
G1 X112.49 Y166.92 E985.24558
G1 X119.56 Y166.92 E985.59811
G1 X106.66 Y137.93 E987.18131
G1 X102.08 Y137.93 E987.40976
G0 F12000 X101.95 Y138.40
G1 F2700 X87.11 Y138.40 E988.15003
G0 F12000 X87.27 Y138.40
G0 X87.27 Y140.00
G0 X87.11 Y140.00
G1 F2700 X101.26 Y140.00 E988.85617
G0 F12000 X101.12 Y139.94
G0 X100.44 Y141.54
G0 X100.58 Y141.60
G1 F2700 X87.11 Y141.60 E989.52824
G0 F12000 X87.27 Y141.60
G0 X87.27 Y143.20
G0 X87.11 Y143.20
G1 F2700 X99.90 Y143.20 E990.16619
G0 F12000 X99.75 Y143.14
G0 X99.07 Y144.74
G0 X99.21 Y144.80
G1 F2700 X87.11 Y144.80 E990.77006
G0 F12000 X87.27 Y144.80
G0 X87.27 Y146.40
G0 X87.11 Y146.40
G1 F2700 X98.53 Y146.40 E991.33981
G0 F12000 X98.39 Y146.34
G0 X97.70 Y147.94
G0 X97.85 Y148.00
G1 F2700 X87.11 Y148.00 E991.87548
G0 F12000 X87.27 Y148.00
G0 X87.27 Y149.60
G0 X87.11 Y149.60
G1 F2700 X97.16 Y149.60 E992.37707
G0 F12000 X97.02 Y149.54
G0 X96.33 Y151.14
G0 X96.48 Y151.20
G1 F2700 X87.11 Y151.20 E992.84455
G0 F12000 X87.27 Y151.20
G0 X87.27 Y152.80
G0 X87.11 Y152.80
G1 F2700 X95.80 Y152.80 E993.27794
G0 F12000 X95.65 Y152.74
G0 X94.97 Y154.34
G0 X95.11 Y154.40
G1 F2700 X87.11 Y154.40 E993.67721
G0 F12000 X87.27 Y154.40
G0 X87.27 Y156.00
G0 X87.11 Y156.00
G1 F2700 X94.43 Y156.00 E994.04241
G0 F12000 X94.28 Y155.94
G0 X93.60 Y157.54
G0 X93.75 Y157.60
G1 F2700 X87.11 Y157.60 E994.37348
G0 F12000 X87.27 Y157.60
G0 X87.27 Y159.20
G0 X87.11 Y159.20
G1 F2700 X93.06 Y159.20 E994.67048
G0 F12000 X92.92 Y159.14
G0 X92.23 Y160.74
G0 X92.38 Y160.80
G1 F2700 X87.11 Y160.80 E994.93335
G0 F12000 X87.27 Y160.80
G0 X87.27 Y162.40
G0 X87.11 Y162.40
G1 F2700 X91.69 Y162.40 E995.16215
G0 F12000 X91.55 Y162.34
G0 X90.87 Y163.94
G0 X91.01 Y164.00
G1 F2700 X87.11 Y164.00 E995.35682
G0 F12000 X87.27 Y164.00
G0 X87.27 Y165.60
G0 X87.11 Y165.60
G1 F2700 X90.33 Y165.60 E995.51741
G0 F12000 X90.18 Y165.54
G0 X87.27 Y167.20
G0 X87.11 Y167.20
G1 F2700 X121.73 Y167.20 E997.24461
G0 F12000 X121.57 Y167.20
G0 X121.57 Y168.80
G0 X121.73 Y168.80
G1 F2700 X87.11 Y168.80 E998.97181
G0 F12000 X87.27 Y168.80
G0 X96.86 Y167.09
G0 X97.40 Y165.66
G0 X97.25 Y165.60
G1 F2700 X111.96 Y165.60 E999.70555
G0 F12000 X111.81 Y165.66
G0 X111.09 Y164.06
G0 X111.23 Y164.00
G1 F2700 X97.93 Y164.00 E1000.36904
G0 F12000 X98.08 Y164.06
G0 X98.77 Y162.46
G0 X98.62 Y162.40
G1 F2700 X110.51 Y162.40 E1000.96223
G0 F12000 X110.36 Y162.47
G0 X109.64 Y160.87
G0 X109.78 Y160.80
G1 F2700 X99.30 Y160.80 E1001.48518
G0 F12000 X99.45 Y160.86
G0 X112.38 Y167.09
G0 X119.72 Y167.03
G0 X114.07 Y154.34
G0 X113.92 Y154.40
G1 F2700 X121.73 Y154.40 E1001.87472
G0 F12000 X121.57 Y154.40
G0 X121.57 Y156.00
G0 X121.73 Y156.00
G1 F2700 X114.63 Y156.00 E1002.22874
G0 F12000 X114.78 Y155.94
G0 X115.49 Y157.54
G0 X115.34 Y157.60
G1 F2700 X121.73 Y157.60 E1002.54729
G0 F12000 X121.57 Y157.60
G0 X121.57 Y159.20
G0 X121.73 Y159.20
G1 F2700 X116.06 Y159.20 E1002.83037
G0 F12000 X116.20 Y159.14
G0 X116.91 Y160.74
G0 X116.77 Y160.80
G1 F2700 X121.73 Y160.80 E1003.07792
G0 F12000 X121.57 Y160.80
G0 X121.57 Y162.40
G0 X121.73 Y162.40
G1 F2700 X117.48 Y162.40 E1003.29001
G0 F12000 X117.63 Y162.34
G0 X118.34 Y163.94
G0 X118.19 Y164.00
G1 F2700 X121.73 Y164.00 E1003.46657
G0 F12000 X121.57 Y164.00
G0 X121.57 Y165.60
G0 X121.73 Y165.60
G1 F2700 X118.90 Y165.60 E1003.60766
G0 F12000 X119.05 Y165.54
G0 X121.57 Y152.80
G0 X121.73 Y152.80
G1 F2700 X113.21 Y152.80 E1004.03267
G0 F12000 X113.36 Y152.74
G0 X112.65 Y151.13
G0 X112.50 Y151.20
G1 F2700 X121.73 Y151.20 E1004.49316
G0 F12000 X121.57 Y151.20
G0 X121.57 Y149.60
G0 X121.73 Y149.60
G1 F2700 X111.79 Y149.60 E1004.98917
G0 F12000 X111.94 Y149.53
G0 X111.22 Y147.94
G0 X111.08 Y148.00
G1 F2700 X121.73 Y148.00 E1005.52065
G0 F12000 X121.57 Y148.00
G0 X121.57 Y146.40
G0 X121.73 Y146.40
G1 F2700 X110.36 Y146.40 E1006.08765
G0 F12000 X110.51 Y146.34
G0 X109.80 Y144.74
G0 X109.65 Y144.80
G1 F2700 X121.73 Y144.80 E1006.69012
G0 F12000 X121.57 Y144.80
G0 X121.57 Y143.20
G0 X121.73 Y143.20
G1 F2700 X108.94 Y143.20 E1007.32807
G0 F12000 X109.09 Y143.13
G0 X108.38 Y141.53
G0 X108.23 Y141.60
G1 F2700 X121.73 Y141.60 E1008.00154
G0 F12000 X121.57 Y141.60
G0 X121.57 Y140.00
G0 X121.73 Y140.00
G1 F2700 X107.52 Y140.00 E1008.71048
G0 F12000 X107.67 Y139.94
G0 X106.95 Y138.34
G0 X106.81 Y138.40
G1 F2700 X121.73 Y138.40 E1009.45489
G0 F12000 X121.57 Y138.40
G0 X121.57 Y136.80
G0 X121.73 Y136.80
G1 F2700 X87.11 Y136.80 E1011.18209
G1 F2400 E1009.98209
G0 F12000 X135.17 Y135.47
G1 F2400 E1011.18209
G1 F2700 X152.36 Y135.47 E1012.03965
G1 X152.53 Y137.69 E1012.15077
G1 X150.58 Y137.99 E1012.24900
G1 X150.47 Y138.01 E1012.25447
G1 X150.47 Y138.01 E1012.25452
G1 X149.38 Y138.31 E1012.31078
G1 X148.32 Y138.74 E1012.36814
G1 X148.21 Y138.80 E1012.37410
G1 X147.30 Y139.31 E1012.42634
G1 X146.43 Y139.97 E1012.48062
G1 X146.32 Y140.08 E1012.48845
G1 X145.61 Y140.81 E1012.53925
G1 X144.96 Y141.71 E1012.59485
G1 X144.44 Y142.72 E1012.65139
G1 X144.06 Y143.81 E1012.70885
G1 X143.85 Y144.90 E1012.76454
G1 X143.84 Y145.02 E1012.77054
G1 X143.76 Y146.18 E1012.82843
G1 X144.03 Y148.19 E1012.92940
G1 X144.13 Y148.41 E1012.94177
G1 X144.79 Y149.94 E1013.02479
G1 X144.92 Y150.12 E1013.03590
G1 X145.90 Y151.42 E1013.11680
G1 X146.04 Y151.55 E1013.12651
G1 X147.26 Y152.67 E1013.20906
G1 X148.68 Y153.70 E1013.29669
G1 X150.13 Y154.62 E1013.38198
G1 X151.49 Y155.44 E1013.46150
G1 X152.72 Y156.25 E1013.53503
G1 X153.69 Y156.99 E1013.59612
G1 X154.41 Y157.74 E1013.64750
G1 X154.80 Y158.44 E1013.68753
G1 X154.97 Y159.39 E1013.73556
G1 X154.74 Y159.84 E1013.76095
G1 X154.60 Y160.03 E1013.77292
G1 X154.41 Y160.23 E1013.78640
G1 X154.18 Y160.41 E1013.80086
G1 X153.91 Y160.57 E1013.81658
G1 X153.58 Y160.72 E1013.83448
G1 X153.20 Y160.82 E1013.85417
G1 X152.74 Y160.90 E1013.87743
G1 X152.24 Y160.93 E1013.90251
G1 X151.73 Y160.90 E1013.92828
G1 X151.23 Y160.84 E1013.95334
G1 X150.74 Y160.73 E1013.97829
G1 X150.27 Y160.58 E1014.00308
G1 X149.77 Y160.38 E1014.02964
G1 X149.30 Y160.14 E1014.05617
G1 X148.83 Y159.85 E1014.08332
G1 X148.36 Y159.52 E1014.11218
G1 X147.91 Y159.14 E1014.14164
G1 X147.46 Y158.72 E1014.17266
G1 X147.03 Y158.26 E1014.20396
G1 X145.91 Y156.91 E1014.29147
G1 X143.92 Y157.62 E1014.39659
G1 X143.92 Y164.13 E1014.72137
G1 X144.55 Y164.60 E1014.76048
G1 X145.15 Y165.02 E1014.79679
G1 X145.76 Y165.41 E1014.83299
G1 X146.39 Y165.77 E1014.86910
G1 X147.03 Y166.09 E1014.90498
G1 X147.68 Y166.37 E1014.94009
G1 X148.36 Y166.62 E1014.97648
G1 X149.03 Y166.81 E1015.01133
G1 X149.74 Y166.98 E1015.04747
G1 X150.46 Y167.11 E1015.08389
G1 X151.18 Y167.20 E1015.12033
G1 X151.92 Y167.25 E1015.15709
G1 X152.71 Y167.26 E1015.19656
G1 X154.10 Y167.15 E1015.26604
G1 X155.04 Y166.97 E1015.31406
G1 X156.10 Y166.63 E1015.36972
G1 X156.22 Y166.58 E1015.37635
G1 X157.12 Y166.16 E1015.42537
G1 X157.22 Y166.09 E1015.43175
G1 X158.07 Y165.55 E1015.48224
G1 X158.88 Y164.87 E1015.53500
G1 X158.97 Y164.76 E1015.54189
G1 X159.65 Y164.01 E1015.59213
G1 X160.26 Y163.10 E1015.64719
G1 X160.75 Y162.10 E1015.70261
G1 X161.11 Y161.03 E1015.75890
G1 X161.32 Y159.95 E1015.81363
G1 X161.34 Y159.82 E1015.82055
G1 X161.41 Y158.71 E1015.87604
G1 X161.38 Y158.50 E1015.88655
G1 X161.15 Y156.50 E1015.98695
G1 X161.05 Y156.26 E1015.99969
G1 X160.41 Y154.57 E1016.08967
G1 X160.28 Y154.38 E1016.10164
G1 X159.31 Y152.97 E1016.18667
G1 X159.16 Y152.82 E1016.19732
G1 X157.93 Y151.62 E1016.28309
G1 X156.49 Y150.56 E1016.37229
G1 X155.03 Y149.66 E1016.45791
G1 X153.65 Y148.87 E1016.53699
G1 X152.38 Y148.12 E1016.61062
G1 X151.41 Y147.46 E1016.66910
G1 X150.72 Y146.81 E1016.71682
G1 X150.36 Y146.23 E1016.75060
G1 X150.16 Y145.16 E1016.80470
G1 X150.77 Y144.63 E1016.84547
G1 X151.00 Y144.48 E1016.85885
G1 X151.28 Y144.35 E1016.87434
G1 X151.62 Y144.23 E1016.89220
G1 X151.96 Y144.15 E1016.91008
G1 X152.36 Y144.09 E1016.92992
G1 X152.84 Y144.07 E1016.95374
G1 X153.15 Y144.08 E1016.96926
G1 X153.93 Y144.18 E1017.00862
G1 X154.32 Y144.27 E1017.02852
G1 X154.71 Y144.38 E1017.04906
G1 X155.13 Y144.54 E1017.07142
G1 X155.55 Y144.72 E1017.09425
G1 X155.97 Y144.95 E1017.11813
G1 X156.44 Y145.23 E1017.14553
G1 X156.91 Y145.56 E1017.17396
G1 X157.38 Y145.94 E1017.20403
G1 X158.60 Y147.03 E1017.28568
G1 X160.38 Y146.24 E1017.38272
G1 X160.38 Y140.22 E1017.68256
G1 X159.10 Y139.43 E1017.75750
G1 X158.63 Y139.16 E1017.78434
G1 X158.13 Y138.91 E1017.81239
G1 X157.60 Y138.66 E1017.84159
G1 X157.05 Y138.45 E1017.87122
G1 X156.50 Y138.26 E1017.90041
G1 X155.95 Y138.10 E1017.92875
G1 X155.39 Y137.97 E1017.95729
G1 X153.66 Y137.66 E1018.04527
G1 X153.85 Y135.47 E1018.15467
G1 X169.67 Y135.47 E1018.94373
G1 X169.67 Y169.67 E1020.64998
G1 X135.17 Y169.67 E1022.37119
G1 X135.17 Y135.47 E1024.07744
G0 F12000 X135.11 Y136.80
G1 F2700 X152.52 Y136.80 E1024.94598
G0 F12000 X153.67 Y136.80
G1 F2700 X169.73 Y136.80 E1025.74701
G0 F12000 X169.57 Y136.80
G0 X169.57 Y138.40
G0 X169.73 Y138.40
G1 F2700 X156.72 Y138.40 E1026.39583
G0 F12000 X156.78 Y138.25
G0 X158.73 Y138.99
G0 X159.99 Y139.87
G0 X159.90 Y140.00
G1 F2700 X169.73 Y140.00 E1026.88621
G0 F12000 X169.57 Y140.00
G0 X169.57 Y141.60
G0 X169.73 Y141.60
G1 F2700 X160.32 Y141.60 E1027.35587
G0 F12000 X160.48 Y141.60
G0 X160.48 Y143.20
G0 X160.32 Y143.20
G1 F2700 X169.73 Y143.20 E1027.82554
G0 F12000 X169.57 Y143.20
G0 X169.57 Y144.80
G0 X169.73 Y144.80
G1 F2700 X160.32 Y144.80 E1028.29520
G0 F12000 X160.48 Y144.80
G0 X160.54 Y146.34
G0 X159.92 Y146.55
G0 X159.86 Y146.40
G1 F2700 X169.73 Y146.40 E1028.78767
G0 F12000 X169.57 Y146.40
G0 X169.57 Y148.00
G0 X169.73 Y148.00
G1 F2700 X152.09 Y148.00 E1029.66753
G0 F12000 X152.19 Y147.87
G0 X150.53 Y146.32
G0 X150.40 Y146.40
G1 F2700 X157.99 Y146.40 E1030.04645
G0 F12000 X157.88 Y146.52
G0 X155.75 Y144.94
G0 X155.83 Y144.80
G1 F2700 X150.48 Y144.80 E1030.31306
G0 F12000 X150.59 Y144.92
G0 X158.57 Y147.22
G0 X160.54 Y146.34
G0 X160.55 Y140.13
G0 X156.55 Y138.07
G0 X169.53 Y135.61
G0 X169.53 Y169.53
G0 X135.31 Y169.53
G0 X135.31 Y135.61
G0 X146.40 Y139.87
G0 X146.49 Y140.00
G1 F2700 X135.11 Y140.00 E1030.88096
G0 F12000 X135.27 Y140.00
G0 X135.27 Y141.60
G0 X135.11 Y141.60
G1 F2700 X145.11 Y141.60 E1031.38002
G0 F12000 X144.98 Y141.51
G0 X144.19 Y143.15
G0 X144.34 Y143.20
G1 F2700 X135.11 Y143.20 E1031.84030
G0 F12000 X135.27 Y143.20
G0 X135.27 Y144.80
G0 X135.11 Y144.80
G1 F2700 X143.93 Y144.80 E1032.28023
G0 F12000 X143.77 Y144.77
G0 X143.70 Y146.42
G0 X143.85 Y146.40
G1 F2700 X135.11 Y146.40 E1032.71652
G0 F12000 X135.27 Y146.40
G0 X135.27 Y148.00
G0 X135.11 Y148.00
G1 F2700 X144.07 Y148.00 E1033.16349
G0 F12000 X143.91 Y148.02
G0 X144.56 Y149.66
G0 X144.71 Y149.60
G1 F2700 X135.11 Y149.60 E1033.64244
G0 F12000 X135.27 Y149.60
G0 X135.27 Y151.20
G0 X135.11 Y151.20
G1 F2700 X145.81 Y151.20 E1034.17631
G0 F12000 X145.68 Y151.30
G0 X147.45 Y152.93
G0 X147.54 Y152.80
G1 F2700 X135.11 Y152.80 E1034.79665
G0 F12000 X135.27 Y152.80
G0 X135.27 Y154.40
G0 X135.11 Y154.40
G1 F2700 X149.90 Y154.40 E1035.53452
G0 F12000 X149.81 Y154.53
G0 X152.37 Y156.13
G0 X152.46 Y156.00
G1 F2700 X135.11 Y156.00 E1036.39992
G0 F12000 X135.27 Y156.00
G0 X135.27 Y157.60
G0 X135.11 Y157.60
G1 F2700 X144.16 Y157.60 E1036.85167
G0 F12000 X144.11 Y157.45
G0 X143.76 Y157.51
G0 X143.82 Y159.20
G0 X143.98 Y159.20
G1 F2700 X135.11 Y159.20 E1037.29435
G0 F12000 X135.27 Y159.20
G0 X135.27 Y160.80
G0 X135.11 Y160.80
G1 F2700 X143.98 Y160.80 E1037.73702
G0 F12000 X143.82 Y160.80
G0 X143.82 Y162.40
G0 X143.98 Y162.40
G1 F2700 X135.11 Y162.40 E1038.17970
G0 F12000 X135.27 Y162.40
G0 X135.27 Y164.00
G0 X135.11 Y164.00
G1 F2700 X143.98 Y164.00 E1038.62238
G0 F12000 X143.82 Y164.00
G0 X143.75 Y164.22
G0 X146.13 Y165.74
G0 X146.21 Y165.60
G1 F2700 X135.11 Y165.60 E1039.17596
G0 F12000 X135.27 Y165.60
G0 X135.27 Y167.20
G0 X135.11 Y167.20
G1 F2700 X152.49 Y167.20 E1040.04290
G0 F12000 X152.76 Y167.20
G1 F2700 X169.73 Y167.20 E1040.88929
G0 F12000 X169.57 Y167.20
G0 X169.57 Y168.80
G0 X169.73 Y168.80
G1 F2700 X135.11 Y168.80 E1042.61649
G0 F12000 X135.27 Y168.80
G0 X143.76 Y157.51
G0 X145.96 Y156.72
G0 X146.52 Y157.50
G0 X146.40 Y157.60
G1 F2700 X154.36 Y157.60 E1043.01341
G0 F12000 X154.24 Y157.71
G0 X154.84 Y159.23
G0 X154.99 Y159.20
G1 F2700 X147.88 Y159.20 E1043.36838
G0 F12000 X147.98 Y159.08
G0 X150.83 Y160.65
G0 X150.79 Y160.80
G1 F2700 X153.51 Y160.80 E1043.50383
G0 F12000 X153.46 Y160.65
G0 X145.96 Y156.72
G0 X143.76 Y157.51
G0 X143.75 Y164.22
G0 X147.60 Y166.56
G0 X151.91 Y167.45
G0 X155.09 Y167.17
G0 X158.03 Y165.81
G0 X157.97 Y165.74
G0 X157.88 Y165.60
G1 F2700 X169.73 Y165.60 E1044.09503
G0 F12000 X169.57 Y165.60
G0 X169.57 Y164.00
G0 X169.73 Y164.00
G1 F2700 X159.58 Y164.00 E1044.60147
G0 F12000 X159.70 Y164.11
G0 X160.68 Y162.47
G0 X160.54 Y162.40
G1 F2700 X169.73 Y162.40 E1045.05986
G0 F12000 X169.57 Y162.40
G0 X169.57 Y160.80
G0 X169.73 Y160.80
G1 F2700 X161.10 Y160.80 E1045.49051
G0 F12000 X161.25 Y160.83
G0 X161.47 Y159.21
G0 X161.31 Y159.20
G1 F2700 X169.73 Y159.20 E1045.91039
G0 F12000 X169.57 Y159.20
G0 X169.57 Y157.60
G0 X169.73 Y157.60
G1 F2700 X161.22 Y157.60 E1046.33520
G0 F12000 X161.37 Y157.58
G0 X161.04 Y155.94
G0 X160.89 Y156.00
G1 F2700 X169.73 Y156.00 E1046.77613
G0 F12000 X169.57 Y156.00
G0 X169.57 Y154.40
G0 X169.73 Y154.40
G1 F2700 X160.22 Y154.40 E1047.25074
G0 F12000 X160.35 Y154.31
G0 X159.16 Y152.69
G0 X159.05 Y152.80
G1 F2700 X169.73 Y152.80 E1047.78356
G0 F12000 X169.57 Y152.80
G0 X169.57 Y151.20
G0 X169.73 Y151.20
G1 F2700 X157.25 Y151.20 E1048.40594
G0 F12000 X157.35 Y151.07
G0 X154.89 Y149.46
G0 X154.81 Y149.60
G1 F2700 X169.73 Y149.60 E1049.15046
G0 F12000 X169.57 Y149.60
G0 X160.55 Y140.13
G0 X156.55 Y138.07
G0 X169.53 Y135.61
G0 X169.53 Y169.53
G0 X135.31 Y169.53
G0 X135.31 Y135.61
G0 X149.26 Y138.25
G0 X149.32 Y138.40
G1 F2700 X135.11 Y138.40 E1049.85955
G1 F2400 E1048.65955
G0 F12000 X183.17 Y135.47
G1 F2400 E1049.85955
G1 F2700 X199.35 Y135.47 E1050.66677
G1 X199.42 Y137.80 E1050.78292
G1 X198.26 Y137.87 E1050.84110
G1 X198.10 Y137.90 E1050.84898
G1 X196.16 Y138.27 E1050.94739
G1 X194.22 Y138.91 E1051.04972
G1 X194.06 Y138.98 E1051.05831
G1 X192.37 Y139.81 E1051.15227
G1 X190.74 Y140.90 E1051.24989
G1 X189.34 Y142.12 E1051.34288
G1 X188.06 Y143.60 E1051.44010
G1 X187.04 Y145.13 E1051.53188
G1 X186.97 Y145.27 E1051.53985
G1 X186.21 Y146.83 E1051.62640
G1 X186.16 Y146.99 E1051.63454
G1 X185.61 Y148.64 E1051.72134
G1 X185.57 Y148.80 E1051.72975
G1 X185.34 Y150.00 E1051.79089
G1 X183.17 Y149.79 E1051.89966
G1 X183.17 Y135.47 E1052.61428
G0 F12000 X183.11 Y136.80
G1 F2700 X199.45 Y136.80 E1053.42954
G0 F12000 X199.29 Y136.80
G0 X195.90 Y138.25
G0 X195.95 Y138.40
G1 F2700 X183.11 Y138.40 E1054.07028
G0 F12000 X183.27 Y138.40
G0 X183.27 Y140.00
G0 X183.11 Y140.00
G1 F2700 X192.19 Y140.00 E1054.52343
G0 F12000 X192.11 Y139.87
G0 X189.92 Y141.48
G0 X190.03 Y141.60
G1 F2700 X183.11 Y141.60 E1054.86857
G0 F12000 X183.27 Y141.60
G0 X183.27 Y143.20
G0 X183.11 Y143.20
G1 F2700 X188.48 Y143.20 E1055.13663
G0 F12000 X188.36 Y143.10
G0 X187.20 Y144.71
G0 X187.33 Y144.80
G1 F2700 X183.11 Y144.80 E1055.34737
G0 F12000 X183.27 Y144.80
G0 X183.27 Y146.40
G0 X183.11 Y146.40
G1 F2700 X186.49 Y146.40 E1055.51605
G0 F12000 X186.35 Y146.33
G0 X185.73 Y147.95
G0 X185.88 Y148.00
G1 F2700 X183.11 Y148.00 E1055.65449
G0 F12000 X183.27 Y148.00
G0 X183.27 Y149.60
G0 X183.11 Y149.60
G1 F2700 X185.48 Y149.60 E1055.77268
G1 F2400 E1054.57268
G0 F12000 X192.03 Y151.26
G1 F2400 E1055.77268
G1 F2700 X192.24 Y150.19 E1055.82727
G1 X192.61 Y149.10 E1055.88451
G1 X193.07 Y148.17 E1055.93620
G1 X193.65 Y147.31 E1055.98827
G1 X194.35 Y146.52 E1056.04089
G1 X195.16 Y145.83 E1056.09378
G1 X196.05 Y145.25 E1056.14676
G1 X197.04 Y144.78 E1056.20123
G1 X198.15 Y144.43 E1056.25939
G1 X199.27 Y144.22 E1056.31623
G1 X200.48 Y144.15 E1056.37666
G1 X201.76 Y144.23 E1056.44085
G1 X202.88 Y144.44 E1056.49747
G1 X203.95 Y144.78 E1056.55385
G1 X204.94 Y145.25 E1056.60850
G1 X205.84 Y145.83 E1056.66196
G1 X206.65 Y146.52 E1056.71458
G1 X207.35 Y147.30 E1056.76691
G1 X207.95 Y148.21 E1056.82138
G1 X208.43 Y149.18 E1056.87525
G1 X208.78 Y150.22 E1056.93037
G1 X208.99 Y151.30 E1056.98502
G1 X209.06 Y152.50 E1057.04490
G1 X208.98 Y153.73 E1057.10651
G1 X208.75 Y154.84 E1057.16305
G1 X208.40 Y155.88 E1057.21779
G1 X207.94 Y156.81 E1057.26969
G1 X207.35 Y157.68 E1057.32208
G1 X206.65 Y158.47 E1057.37480
G1 X205.84 Y159.16 E1057.42805
G1 X204.95 Y159.74 E1057.48065
G1 X203.95 Y160.21 E1057.53602
G1 X202.83 Y160.57 E1057.59441
G1 X201.71 Y160.78 E1057.65125
G1 X200.48 Y160.85 E1057.71263
G1 X199.22 Y160.77 E1057.77602
G1 X198.12 Y160.56 E1057.83177
G1 X197.04 Y160.21 E1057.88832
G1 X196.05 Y159.74 E1057.94290
G1 X195.16 Y159.16 E1057.99593
G1 X194.35 Y158.47 E1058.04922
G1 X193.66 Y157.69 E1058.10092
G1 X193.04 Y156.77 E1058.15638
G1 X192.59 Y155.84 E1058.20779
G1 X192.23 Y154.77 E1058.26444
G1 X192.02 Y153.69 E1058.31905
G1 X191.94 Y152.50 E1058.37879
G1 X192.03 Y151.26 E1058.44070
G0 F12000 X191.98 Y151.20
G1 F2700 X209.03 Y151.20 E1059.29132
G0 F12000 X208.87 Y151.23
G0 X208.94 Y152.79
G0 X209.10 Y152.80
G1 F2700 X191.90 Y152.80 E1060.14934
G0 F12000 X192.06 Y152.79
G0 X192.25 Y154.37
G0 X192.10 Y154.40
G1 F2700 X208.90 Y154.40 E1060.98784
G0 F12000 X208.75 Y154.37
G0 X208.26 Y155.93
G0 X208.41 Y156.00
G1 F2700 X192.60 Y156.00 E1061.77655
G0 F12000 X192.74 Y155.93
G0 X193.66 Y157.51
G0 X193.53 Y157.60
G1 F2700 X207.48 Y157.60 E1062.47252
G0 F12000 X207.35 Y157.51
G0 X205.78 Y159.08
G0 X205.88 Y159.20
G1 F2700 X195.11 Y159.20 E1063.00989
G0 F12000 X195.22 Y159.08
G0 X199.09 Y160.64
G0 X199.06 Y160.80
G1 F2700 X201.91 Y160.80 E1063.15213
G0 F12000 X201.88 Y160.64
G0 X208.48 Y149.65
G0 X208.63 Y149.60
G1 F2700 X192.37 Y149.60 E1063.96329
G0 F12000 X192.52 Y149.65
G0 X193.24 Y148.09
G0 X193.11 Y148.00
G1 F2700 X207.89 Y148.00 E1064.70067
G0 F12000 X207.76 Y148.09
G0 X206.50 Y146.52
G0 X206.60 Y146.40
G1 F2700 X194.40 Y146.40 E1065.30953
G0 F12000 X194.50 Y146.52
G0 X196.93 Y144.94
G0 X196.86 Y144.80
G1 F2700 X204.12 Y144.80 E1065.67178
G1 F2400 E1064.47178
G0 F12000 X215.65 Y155.58
G1 F2400 E1065.67178
G1 F2700 X217.67 Y155.90 E1065.77398
G1 X217.67 Y169.67 E1066.46092
G1 X183.17 Y169.67 E1068.18213
G1 X183.17 Y155.17 E1068.90554
G1 X185.34 Y154.96 E1069.01412
G1 X185.61 Y156.35 E1069.08506
G1 X186.21 Y158.15 E1069.17960
G1 X187.03 Y159.84 E1069.27318
G1 X188.03 Y161.37 E1069.36441
G1 X188.14 Y161.49 E1069.37251
G1 X189.31 Y162.85 E1069.46224
G1 X190.71 Y164.09 E1069.55521
G1 X192.32 Y165.19 E1069.65255
G1 X194.11 Y166.07 E1069.75191
G1 X194.27 Y166.12 E1069.76047
G1 X196.06 Y166.72 E1069.85480
G1 X196.23 Y166.75 E1069.86340
G1 X198.16 Y167.13 E1069.96138
G1 X198.32 Y167.14 E1069.96948
G1 X200.41 Y167.27 E1070.07404
G1 X200.56 Y167.26 E1070.08140
G1 X202.71 Y167.13 E1070.18886
G1 X204.86 Y166.72 E1070.29772
G1 X206.85 Y166.07 E1070.40227
G1 X207.00 Y166.00 E1070.41048
G1 X208.68 Y165.18 E1070.50377
G1 X208.81 Y165.08 E1070.51215
G1 X210.36 Y164.04 E1070.60493
G1 X211.75 Y162.80 E1070.69801
G1 X211.86 Y162.68 E1070.70622
G1 X213.00 Y161.35 E1070.79336
G1 X213.08 Y161.22 E1070.80133
G1 X214.05 Y159.72 E1070.89032
G1 X214.85 Y158.01 E1070.98436
G1 X215.65 Y155.58 E1071.11209
G0 F12000 X215.45 Y156.00
G1 F2700 X217.73 Y156.00 E1071.22594
G0 F12000 X217.57 Y156.00
G0 X217.57 Y157.60
G0 X217.73 Y157.60
G1 F2700 X214.93 Y157.60 E1071.36583
G0 F12000 X215.08 Y157.65
G0 X214.37 Y159.27
G0 X214.23 Y159.20
G1 F2700 X217.73 Y159.20 E1071.54055
G0 F12000 X217.57 Y159.20
G0 X217.57 Y160.80
G0 X217.73 Y160.80
G1 F2700 X213.28 Y160.80 E1071.76246
G0 F12000 X213.42 Y160.89
G0 X212.14 Y162.50
G0 X212.02 Y162.40
G1 F2700 X217.73 Y162.40 E1072.04733
G0 F12000 X217.57 Y162.40
G0 X217.57 Y164.00
G0 X217.73 Y164.00
G1 F2700 X210.31 Y164.00 E1072.41757
G0 F12000 X210.40 Y164.13
G0 X208.78 Y165.35
G0 X207.74 Y165.74
G0 X207.67 Y165.60
G1 F2700 X217.73 Y165.60 E1072.91947
G0 F12000 X217.57 Y165.60
G0 X217.57 Y167.20
G0 X217.73 Y167.20
G1 F2700 X200.53 Y167.20 E1073.77758
G0 F12000 X200.30 Y167.20
G1 F2700 X183.11 Y167.20 E1074.63534
G0 F12000 X183.27 Y167.20
G0 X183.27 Y168.80
G0 X183.11 Y168.80
G1 F2700 X217.73 Y168.80 E1076.36254
G0 F12000 X217.57 Y168.80
G0 X198.14 Y167.32
G0 X194.03 Y166.25
G0 X193.23 Y165.74
G0 X193.30 Y165.60
G1 F2700 X183.11 Y165.60 E1076.87092
G0 F12000 X183.27 Y165.60
G0 X183.27 Y164.00
G0 X183.11 Y164.00
G1 F2700 X190.69 Y164.00 E1077.24914
G0 F12000 X190.59 Y164.12
G0 X188.88 Y162.50
G0 X189.00 Y162.40
G1 F2700 X183.11 Y162.40 E1077.54304
G0 F12000 X183.27 Y162.40
G0 X183.27 Y160.80
G0 X183.11 Y160.80
G1 F2700 X187.73 Y160.80 E1077.77353
G0 F12000 X187.60 Y160.89
G0 X186.65 Y159.27
G0 X186.79 Y159.20
G1 F2700 X183.11 Y159.20 E1077.95713
G0 F12000 X183.27 Y159.20
G0 X183.27 Y157.60
G0 X183.11 Y157.60
G1 F2700 X186.09 Y157.60 E1078.10595
G0 F12000 X185.94 Y157.65
G0 X185.45 Y156.03
G0 X185.60 Y156.00
G1 F2700 X183.11 Y156.00 E1078.23038
G1 F2400 E1077.03038
G0 F12000 X201.55 Y137.78
G1 F2400 E1078.23038
G1 F2700 X201.64 Y135.47 E1078.34590
G1 X217.67 Y135.47 E1079.14579
G1 X217.67 Y149.06 E1079.82350
G1 X215.65 Y149.38 E1079.92539
G1 X214.79 Y146.78 E1080.06247
G1 X213.95 Y145.06 E1080.15739
G1 X212.95 Y143.54 E1080.24859
G1 X212.84 Y143.42 E1080.25666
G1 X211.65 Y142.06 E1080.34666
G1 X210.20 Y140.81 E1080.44226
G1 X208.63 Y139.77 E1080.53627
G1 X208.49 Y139.70 E1080.54415
G1 X206.81 Y138.90 E1080.63696
G1 X206.67 Y138.85 E1080.64428
G1 X206.67 Y138.85 E1080.64433
G1 X204.85 Y138.26 E1080.73972
G1 X204.70 Y138.24 E1080.74724
G1 X202.74 Y137.87 E1080.84680
G1 X201.55 Y137.78 E1080.90608
G0 F12000 X201.53 Y136.80
G1 F2700 X217.73 Y136.80 E1081.71430
G0 F12000 X217.57 Y136.80
G0 X217.57 Y138.40
G0 X217.73 Y138.40
G1 F2700 X205.07 Y138.40 E1082.34571
G0 F12000 X205.12 Y138.25
G0 X206.88 Y138.71
G0 X208.95 Y139.87
G0 X208.87 Y140.00
G1 F2700 X217.73 Y140.00 E1082.78793
G0 F12000 X217.57 Y140.00
G0 X217.57 Y141.60
G0 X217.73 Y141.60
G1 F2700 X211.03 Y141.60 E1083.12240
G0 F12000 X211.13 Y141.48
G0 X212.69 Y143.09
G0 X212.57 Y143.20
G1 F2700 X217.73 Y143.20 E1083.37978
G0 F12000 X217.57 Y143.20
G0 X217.57 Y144.80
G0 X217.73 Y144.80
G1 F2700 X213.71 Y144.80 E1083.58059
G0 F12000 X213.84 Y144.71
G0 X214.68 Y146.33
G0 X214.54 Y146.40
G1 F2700 X217.73 Y146.40 E1083.73994
G0 F12000 X217.57 Y146.40
G0 X217.57 Y148.00
G0 X217.73 Y148.00
G1 F2700 X215.13 Y148.00 E1083.86965
G1 F2400 E1082.66965
G0 F12000 X231.17 Y135.47
G1 F2400 E1083.86965
G1 F2700 X265.67 Y135.47 E1085.59087
G1 X265.67 Y169.67 E1087.29711
G1 X231.17 Y169.67 E1089.01832
G1 X231.17 Y135.47 E1090.72457
G0 F12000 X235.05 Y138.08
G1 F2700 X235.05 Y166.92 E1092.16370
G1 X241.53 Y166.92 E1092.48729
G1 X241.53 Y151.92 E1093.23579
G1 X243.09 Y151.34 E1093.31888
G1 X256.63 Y166.92 E1094.34884
G1 X262.00 Y166.92 E1094.61660
G1 X262.00 Y138.08 E1096.05574
G1 X255.51 Y138.08 E1096.37937
G1 X255.51 Y153.23 E1097.13541
G1 X253.96 Y153.82 E1097.21834
G1 X240.19 Y138.08 E1098.26167
G1 X235.05 Y138.08 E1098.51800
G0 F12000 X235.11 Y138.40
G1 F2700 X231.11 Y138.40 E1098.71742
G0 F12000 X231.27 Y138.40
G0 X231.27 Y140.00
G0 X231.11 Y140.00
G1 F2700 X235.11 Y140.00 E1098.91683
G0 F12000 X234.95 Y140.00
G0 X234.95 Y141.60
G0 X235.11 Y141.60
G1 F2700 X231.11 Y141.60 E1099.11624
G0 F12000 X231.27 Y141.60
G0 X231.27 Y143.20
G0 X231.11 Y143.20
G1 F2700 X235.11 Y143.20 E1099.31565
G0 F12000 X234.95 Y143.20
G0 X234.95 Y144.80
G0 X235.11 Y144.80
G1 F2700 X231.11 Y144.80 E1099.51506
G0 F12000 X231.27 Y144.80
G0 X231.27 Y146.40
G0 X231.11 Y146.40
G1 F2700 X235.11 Y146.40 E1099.71447
G0 F12000 X234.95 Y146.40
G0 X234.95 Y148.00
G0 X235.11 Y148.00
G1 F2700 X231.11 Y148.00 E1099.91388
G0 F12000 X231.27 Y148.00
G0 X231.27 Y149.60
G0 X231.11 Y149.60
G1 F2700 X235.11 Y149.60 E1100.11329
G0 F12000 X234.95 Y149.60
G0 X234.95 Y151.20
G0 X235.11 Y151.20
G1 F2700 X231.11 Y151.20 E1100.31270
G0 F12000 X231.27 Y151.20
G0 X231.27 Y152.80
G0 X231.11 Y152.80
G1 F2700 X235.11 Y152.80 E1100.51212
G0 F12000 X234.95 Y152.80
G0 X234.95 Y154.40
G0 X235.11 Y154.40
G1 F2700 X231.11 Y154.40 E1100.71153
G0 F12000 X231.27 Y154.40
G0 X231.27 Y156.00
G0 X231.11 Y156.00
G1 F2700 X235.11 Y156.00 E1100.91094
G0 F12000 X234.95 Y156.00
G0 X234.95 Y157.60
G0 X235.11 Y157.60
G1 F2700 X231.11 Y157.60 E1101.11035
G0 F12000 X231.27 Y157.60
G0 X231.27 Y159.20
G0 X231.11 Y159.20
G1 F2700 X235.11 Y159.20 E1101.30976
G0 F12000 X234.95 Y159.20
G0 X234.95 Y160.80
G0 X235.11 Y160.80
G1 F2700 X231.11 Y160.80 E1101.50917
G0 F12000 X231.27 Y160.80
G0 X231.27 Y162.40
G0 X231.11 Y162.40
G1 F2700 X235.11 Y162.40 E1101.70858
G0 F12000 X234.95 Y162.40
G0 X234.95 Y164.00
G0 X235.11 Y164.00
G1 F2700 X231.11 Y164.00 E1101.90799
G0 F12000 X231.27 Y164.00
G0 X231.27 Y165.60
G0 X231.11 Y165.60
G1 F2700 X235.11 Y165.60 E1102.10740
G0 F12000 X234.95 Y165.60
G0 X231.27 Y167.20
G0 X231.11 Y167.20
G1 F2700 X265.73 Y167.20 E1103.83460
G0 F12000 X265.57 Y167.20
G0 X265.57 Y168.80
G0 X265.73 Y168.80
G1 F2700 X231.11 Y168.80 E1105.56180
G0 F12000 X231.27 Y168.80
G0 X241.67 Y167.06
G0 X241.63 Y165.60
G0 X241.47 Y165.60
G1 F2700 X255.56 Y165.60 E1106.26471
G0 F12000 X255.44 Y165.71
G0 X254.05 Y164.10
G0 X254.17 Y164.00
G1 F2700 X241.47 Y164.00 E1106.89831
G0 F12000 X241.63 Y164.00
G0 X241.63 Y162.40
G0 X241.47 Y162.40
G1 F2700 X252.78 Y162.40 E1107.46257
G0 F12000 X252.66 Y162.50
G0 X251.27 Y160.91
G0 X251.39 Y160.80
G1 F2700 X241.47 Y160.80 E1107.95748
G0 F12000 X241.63 Y160.80
G0 X241.63 Y159.20
G0 X241.47 Y159.20
G1 F2700 X250.00 Y159.20 E1108.38309
G0 F12000 X249.88 Y159.31
G0 X248.49 Y157.71
G0 X248.61 Y157.60
G1 F2700 X241.47 Y157.60 E1108.73936
G0 F12000 X241.63 Y157.60
G0 X241.63 Y156.00
G0 X241.47 Y156.00
G1 F2700 X247.22 Y156.00 E1109.02628
G0 F12000 X247.10 Y156.10
G0 X245.71 Y154.50
G0 X245.83 Y154.40
G1 F2700 X241.47 Y154.40 E1109.24385
G0 F12000 X241.63 Y154.40
G0 X241.63 Y152.80
G0 X241.47 Y152.80
G1 F2700 X244.44 Y152.80 E1109.39212
G0 F12000 X244.32 Y152.91
G0 X241.67 Y167.06
G0 X234.91 Y167.06
G0 X234.91 Y137.94
G0 X240.27 Y137.90
G0 X248.91 Y147.90
G0 X248.79 Y148.00
G1 F2700 X255.57 Y148.00 E1109.73058
G0 F12000 X255.41 Y148.00
G0 X255.41 Y149.60
G0 X255.57 Y149.60
G1 F2700 X250.19 Y149.60 E1109.99919
G0 F12000 X250.31 Y149.50
G0 X251.71 Y151.10
G0 X251.59 Y151.20
G1 F2700 X255.57 Y151.20 E1110.19800
G0 F12000 X255.41 Y151.20
G0 X255.41 Y152.80
G0 X255.57 Y152.80
G1 F2700 X252.99 Y152.80 E1110.32697
G0 F12000 X253.11 Y152.70
G0 X255.41 Y146.40
G0 X255.57 Y146.40
G1 F2700 X247.39 Y146.40 E1110.73527
G0 F12000 X247.51 Y146.30
G0 X246.11 Y144.70
G0 X245.99 Y144.80
G1 F2700 X255.57 Y144.80 E1111.21341
G0 F12000 X255.41 Y144.80
G0 X255.41 Y143.20
G0 X255.57 Y143.20
G1 F2700 X244.59 Y143.20 E1111.76141
G0 F12000 X244.71 Y143.10
G0 X243.31 Y141.50
G0 X243.19 Y141.60
G1 F2700 X255.57 Y141.60 E1112.37925
G0 F12000 X255.41 Y141.60
G0 X255.41 Y140.00
G0 X255.57 Y140.00
G1 F2700 X241.79 Y140.00 E1113.06694
G0 F12000 X241.91 Y139.90
G0 X240.51 Y138.29
G0 X240.39 Y138.40
G1 F2700 X255.57 Y138.40 E1113.82447
G0 F12000 X255.41 Y138.40
G0 X255.37 Y137.94
G0 X262.14 Y137.94
G0 X262.10 Y138.40
G0 X261.94 Y138.40
G1 F2700 X265.73 Y138.40 E1114.01365
G0 F12000 X265.57 Y138.40
G0 X265.57 Y140.00
G0 X265.73 Y140.00
G1 F2700 X261.94 Y140.00 E1114.20284
G0 F12000 X262.10 Y140.00
G0 X262.10 Y141.60
G0 X261.94 Y141.60
G1 F2700 X265.73 Y141.60 E1114.39202
G0 F12000 X265.57 Y141.60
G0 X265.57 Y143.20
G0 X265.73 Y143.20
G1 F2700 X261.94 Y143.20 E1114.58120
G0 F12000 X262.10 Y143.20
G0 X262.10 Y144.80
G0 X261.94 Y144.80
G1 F2700 X265.73 Y144.80 E1114.77039
G0 F12000 X265.57 Y144.80
G0 X265.57 Y146.40
G0 X265.73 Y146.40
G1 F2700 X261.94 Y146.40 E1114.95957
G0 F12000 X262.10 Y146.40
G0 X262.10 Y148.00
G0 X261.94 Y148.00
G1 F2700 X265.73 Y148.00 E1115.14875
G0 F12000 X265.57 Y148.00
G0 X265.57 Y149.60
G0 X265.73 Y149.60
G1 F2700 X261.94 Y149.60 E1115.33794
G0 F12000 X262.10 Y149.60
G0 X262.10 Y151.20
G0 X261.94 Y151.20
G1 F2700 X265.73 Y151.20 E1115.52712
G0 F12000 X265.57 Y151.20
G0 X265.57 Y152.80
G0 X265.73 Y152.80
G1 F2700 X261.94 Y152.80 E1115.71630
G0 F12000 X262.10 Y152.80
G0 X262.10 Y154.40
G0 X261.94 Y154.40
G1 F2700 X265.73 Y154.40 E1115.90549
G0 F12000 X265.57 Y154.40
G0 X265.57 Y156.00
G0 X265.73 Y156.00
G1 F2700 X261.94 Y156.00 E1116.09467
G0 F12000 X262.10 Y156.00
G0 X262.10 Y157.60
G0 X261.94 Y157.60
G1 F2700 X265.73 Y157.60 E1116.28386
G0 F12000 X265.57 Y157.60
G0 X265.57 Y159.20
G0 X265.73 Y159.20
G1 F2700 X261.94 Y159.20 E1116.47304
G0 F12000 X262.10 Y159.20
G0 X262.10 Y160.80
G0 X261.94 Y160.80
G1 F2700 X265.73 Y160.80 E1116.66222
G0 F12000 X265.57 Y160.80
G0 X265.57 Y162.40
G0 X265.73 Y162.40
G1 F2700 X261.94 Y162.40 E1116.85141
G0 F12000 X262.10 Y162.40
G0 X262.10 Y164.00
G0 X261.94 Y164.00
G1 F2700 X265.73 Y164.00 E1117.04059
G0 F12000 X265.57 Y164.00
G0 X265.57 Y165.60
G0 X265.73 Y165.60
G1 F2700 X261.94 Y165.60 E1117.22977
G0 F12000 X262.10 Y165.60
G0 X265.57 Y136.80
G0 X265.73 Y136.80
G1 F2700 X231.11 Y136.80 E1118.95697
;LAYER:1
G1 F2400 E1117.75697
G0 F12000 X237.15 Y140.18 Z0.60
;TYPE:WALL-INNER
G1 F2400 E1118.95697
G1 F3180 X239.23 Y140.18 E1119.06089
G1 X256.83 Y160.29 E1120.39452
G1 X257.61 Y160.00 E1120.43598
G1 X257.61 Y140.18 E1121.42505
G1 X259.90 Y140.18 E1121.53915
G1 X259.90 Y164.82 E1122.76875
G1 X257.59 Y164.82 E1122.88399
G1 X240.21 Y144.82 E1124.20589
G1 X239.43 Y145.11 E1124.24745
G1 X239.43 Y164.82 E1125.23088
G1 X237.15 Y164.82 E1125.34493
G1 X237.15 Y140.18 E1126.57452
G0 F12000 X236.75 Y139.78
;TYPE:WALL-OUTER
G1 F3180 X239.41 Y139.78 E1126.70748
G1 X256.95 Y159.82 E1128.03634
G1 X257.21 Y159.72 E1128.05013
G1 X257.21 Y139.78 E1129.04534
G1 X260.30 Y139.78 E1129.19935
