;-- START GCODE --
;Sliced for Type A Machines Series 1
;Sliced at: Thu 06-08-2015 10:15:43
;Basic settings: Layer height: 0.3 Walls: 0.8 Fill: 8
;Print Speed: 80 Support: 0
;Retraction Speed: 40 Retraction Distance: 1.2
;Print time: #P_TIME#
;Filament used: #F_AMNT#m #F_WGHT#g
;Filament cost: #F_COST#
M106 S255	 ;start with the fan on
G21        ;metric values
G90        ;absolute positioning
M106 S255    ;start with the fan on
G28     ;move to endstops
G29		;allows for auto-levelling
G1 X150 Y5  Z15.0 F12000 ;center and move the platform down 15mm
M109 S220 ;Heat To temp
G92 E0                  ;zero the extruded length
G1 F200 E30              ;extrude 30mm of feed stock
G92 E0                  ;zero the extruded length again
G1 X175 Y25  Z0 F12000 ;remove bugger
G1 X220 F12000 ;remove bugger
G1 X150 Y150  Z15 F12000 ;recenter and begin
G1 F12000

;Layer count: 79
;LAYER:0
M106 S255
G0 F12000 X32.37 Y128.47 Z0.30
;TYPE:SKIRT
G1 F2700 X80.27 Y128.47 E2.38974
G1 X80.27 Y176.27 E4.77449
G1 X32.37 Y176.27 E7.16423
G1 X32.37 Y128.47 E9.54898
G0 F12000 X32.77 Y128.87
G1 F2700 X79.87 Y128.87 E11.89881
G1 X79.87 Y175.87 E14.24365
G1 X32.77 Y175.87 E16.59348
G1 X32.77 Y128.87 E18.93832
G0 F12000 X33.17 Y129.27
G1 F2700 X79.47 Y129.27 E21.24824
G1 X79.47 Y175.47 E23.55316
G1 X33.17 Y175.47 E25.86308
G1 X33.17 Y129.27 E28.16801
G0 F12000 X33.57 Y129.67
G1 F2700 X79.07 Y129.67 E30.43801
G1 X79.07 Y175.07 E32.70303
G1 X33.57 Y175.07 E34.97303
G1 X33.57 Y129.67 E37.23805
G0 F12000 X33.97 Y130.07
G1 F2700 X78.67 Y130.07 E39.46814
G1 X78.67 Y174.67 E41.69324
G1 X33.97 Y174.67 E43.92333
G1 X33.97 Y130.07 E46.14844
G0 F12000 X34.37 Y130.47
G1 F2700 X78.27 Y130.47 E48.33862
G1 X78.27 Y174.27 E50.52381
G1 X34.37 Y174.27 E52.71399
G1 X34.37 Y130.47 E54.89918
G0 F12000 X34.77 Y130.87
G1 F2700 X77.87 Y130.87 E57.04945
G1 X77.87 Y173.87 E59.19473
G1 X34.77 Y173.87 E61.34499
G1 X34.77 Y130.87 E63.49027
G0 F12000 X35.17 Y131.27
G1 F2700 X77.47 Y131.27 E65.60063
G1 X77.47 Y173.47 E67.70599
G1 X35.17 Y173.47 E69.81635
G1 X35.17 Y131.27 E71.92172
G0 F12000 X35.57 Y131.67
G1 F2700 X77.07 Y131.67 E73.99216
G1 X77.07 Y173.07 E76.05761
G1 X35.57 Y173.07 E78.12806
G1 X35.57 Y131.67 E80.19351
G0 F12000 X35.97 Y132.07
G1 F2700 X76.67 Y132.07 E82.22404
G1 X76.67 Y172.67 E84.24959
G1 X35.97 Y172.67 E86.28012
G1 X35.97 Y132.07 E88.30566
G0 F12000 X36.37 Y132.47
G1 F2700 X76.27 Y132.47 E90.29628
G1 X76.27 Y172.27 E92.28191
G1 X36.37 Y172.27 E94.27253
G1 X36.37 Y132.47 E96.25816
G0 F12000 X36.77 Y132.87
G1 F2700 X75.87 Y132.87 E98.20886
G1 X75.87 Y171.87 E100.15458
G1 X36.77 Y171.87 E102.10529
G1 X36.77 Y132.87 E104.05101
G0 F12000 X37.17 Y133.27
G1 F2700 X75.47 Y133.27 E105.96180
G1 X75.47 Y171.47 E107.86761
G1 X37.17 Y171.47 E109.77840
G1 X37.17 Y133.27 E111.68421
G0 F12000 X37.57 Y133.67
G1 F2700 X75.07 Y133.67 E113.55509
G1 X75.07 Y171.07 E115.42098
G1 X37.57 Y171.07 E117.29187
G1 X37.57 Y133.67 E119.15776
G0 F12000 X37.97 Y134.07
G1 F2700 X74.67 Y134.07 E120.98873
G1 X74.67 Y170.67 E122.81471
G1 X37.97 Y170.67 E124.64568
G1 X37.97 Y134.07 E126.47166
G0 F12000 X38.37 Y134.47
G1 F2700 X74.27 Y134.47 E128.26272
G1 X74.27 Y170.27 E130.04879
G1 X38.37 Y170.27 E131.83985
G1 X38.37 Y134.47 E133.62592
G0 F12000 X38.77 Y134.87
G1 F2700 X73.87 Y134.87 E135.37706
G1 X73.87 Y169.87 E137.12322
G1 X38.77 Y169.87 E138.87437
G1 X38.77 Y134.87 E140.62052
G0 F12000 X39.17 Y135.27
G1 F2700 X73.47 Y135.27 E142.33176
G1 X73.47 Y169.47 E144.03800
G1 X39.17 Y169.47 E145.74924
G1 X39.17 Y135.27 E147.45548
G0 F12000 X39.57 Y135.67
G1 F2700 X73.07 Y135.67 E149.12680
G1 X73.07 Y169.07 E150.79314
G1 X39.57 Y169.07 E152.46446
G1 X39.57 Y135.67 E154.13079
G0 F12000 X39.97 Y136.07
G1 F2700 X72.67 Y136.07 E155.76220
G1 X72.67 Y168.67 E157.38862
G1 X39.97 Y168.67 E159.02003
G1 X39.97 Y136.07 E160.64645
G0 F12000 X80.37 Y128.47
G1 F2700 X128.27 Y128.47 E163.03619
G1 X128.27 Y176.27 E165.42094
G1 X80.37 Y176.27 E167.81069
G1 X80.37 Y128.47 E170.19544
G0 F12000 X80.77 Y128.87
G1 F2700 X127.87 Y128.87 E172.54527
G1 X127.87 Y175.87 E174.89011
G1 X80.77 Y175.87 E177.23993
G1 X80.77 Y128.87 E179.58477
G0 F12000 X81.17 Y129.27
G1 F2700 X127.47 Y129.27 E181.89469
G1 X127.47 Y175.47 E184.19962
G1 X81.17 Y175.47 E186.50953
G1 X81.17 Y129.27 E188.81446
G0 F12000 X81.57 Y129.67
G1 F2700 X127.07 Y129.67 E191.08446
G1 X127.07 Y175.07 E193.34948
G1 X81.57 Y175.07 E195.61948
G1 X81.57 Y129.67 E197.88450
G0 F12000 X81.97 Y130.07
G1 F2700 X126.67 Y130.07 E200.11459
G1 X126.67 Y174.67 E202.33969
G1 X81.97 Y174.67 E204.56979
G1 X81.97 Y130.07 E206.79489
G0 F12000 X82.37 Y130.47
G1 F2700 X126.27 Y130.47 E208.98507
G1 X126.27 Y174.27 E211.17026
G1 X82.37 Y174.27 E213.36044
G1 X82.37 Y130.47 E215.54563
G0 F12000 X82.77 Y130.87
G1 F2700 X125.87 Y130.87 E217.69590
G1 X125.87 Y173.87 E219.84118
G1 X82.77 Y173.87 E221.99145
G1 X82.77 Y130.87 E224.13672
G0 F12000 X83.17 Y131.27
G1 F2700 X125.47 Y131.27 E226.24708
G1 X125.47 Y173.47 E228.35245
G1 X83.17 Y173.47 E230.46280
G1 X83.17 Y131.27 E232.56817
G0 F12000 X83.57 Y131.67
G1 F2700 X125.07 Y131.67 E234.63861
G1 X125.07 Y173.07 E236.70407
G1 X83.57 Y173.07 E238.77451
G1 X83.57 Y131.67 E240.83996
G0 F12000 X83.97 Y132.07
G1 F2700 X124.67 Y132.07 E242.87050
G1 X124.67 Y172.67 E244.89604
G1 X83.97 Y172.67 E246.92657
G1 X83.97 Y132.07 E248.95211
G0 F12000 X84.37 Y132.47
G1 F2700 X124.27 Y132.47 E250.94273
G1 X124.27 Y172.27 E252.92836
G1 X84.37 Y172.27 E254.91898
G1 X84.37 Y132.47 E256.90461
G0 F12000 X84.77 Y132.87
G1 F2700 X123.87 Y132.87 E258.85532
G1 X123.87 Y171.87 E260.80103
G1 X84.77 Y171.87 E262.75174
G1 X84.77 Y132.87 E264.69746
G0 F12000 X85.17 Y133.27
G1 F2700 X123.47 Y133.27 E266.60825
G1 X123.47 Y171.47 E268.51406
G1 X85.17 Y171.47 E270.42485
G1 X85.17 Y133.27 E272.33066
G0 F12000 X85.57 Y133.67
G1 F2700 X123.07 Y133.67 E274.20154
G1 X123.07 Y171.07 E276.06744
G1 X85.57 Y171.07 E277.93832
G1 X85.57 Y133.67 E279.80421
G0 F12000 X85.97 Y134.07
G1 F2700 X122.67 Y134.07 E281.63518
G1 X122.67 Y170.67 E283.46116
G1 X85.97 Y170.67 E285.29213
G1 X85.97 Y134.07 E287.11812
G0 F12000 X86.37 Y134.47
G1 F2700 X122.27 Y134.47 E288.90917
G1 X122.27 Y170.27 E290.69524
G1 X86.37 Y170.27 E292.48630
G1 X86.37 Y134.47 E294.27237
G0 F12000 X86.77 Y134.87
G1 F2700 X121.87 Y134.87 E296.02352
G1 X121.87 Y169.87 E297.76967
G1 X86.77 Y169.87 E299.52082
G1 X86.77 Y134.87 E301.26698
G0 F12000 X87.17 Y135.27
G1 F2700 X121.47 Y135.27 E302.97821
G1 X121.47 Y169.47 E304.68446
G1 X87.17 Y169.47 E306.39569
G1 X87.17 Y135.27 E308.10193
G0 F12000 X87.57 Y135.67
G1 F2700 X121.07 Y135.67 E309.77326
G1 X121.07 Y169.07 E311.43959
G1 X87.57 Y169.07 E313.11091
G1 X87.57 Y135.67 E314.77724
G0 F12000 X87.97 Y136.07
G1 F2700 X120.67 Y136.07 E316.40865
G1 X120.67 Y168.67 E318.03507
G1 X87.97 Y168.67 E319.66648
G1 X87.97 Y136.07 E321.29290
G0 F12000 X128.37 Y128.47
G1 F2700 X176.27 Y128.47 E323.68265
G1 X176.27 Y176.27 E326.06740
G1 X128.37 Y176.27 E328.45714
G1 X128.37 Y128.47 E330.84189
G0 F12000 X128.77 Y128.87
G1 F2700 X175.87 Y128.87 E333.19172
G1 X175.87 Y175.87 E335.53656
G1 X128.77 Y175.87 E337.88639
G1 X128.77 Y128.87 E340.23123
G0 F12000 X129.17 Y129.27
G1 F2700 X175.47 Y129.27 E342.54114
G1 X175.47 Y175.47 E344.84607
G1 X129.17 Y175.47 E347.15599
G1 X129.17 Y129.27 E349.46091
G0 F12000 X129.57 Y129.67
G1 F2700 X175.07 Y129.67 E351.73092
G1 X175.07 Y175.07 E353.99593
G1 X129.57 Y175.07 E356.26594
G1 X129.57 Y129.67 E358.53095
G0 F12000 X129.97 Y130.07
G1 F2700 X174.67 Y130.07 E360.76104
G1 X174.67 Y174.67 E362.98615
G1 X129.97 Y174.67 E365.21624
G1 X129.97 Y130.07 E367.44134
G0 F12000 X130.37 Y130.47
G1 F2700 X174.27 Y130.47 E369.63152
G1 X174.27 Y174.27 E371.81671
G1 X130.37 Y174.27 E374.00689
G1 X130.37 Y130.47 E376.19208
G0 F12000 X130.77 Y130.87
G1 F2700 X173.87 Y130.87 E378.34235
G1 X173.87 Y173.87 E380.48763
G1 X130.77 Y173.87 E382.63790
G1 X130.77 Y130.87 E384.78318
G0 F12000 X131.17 Y131.27
G1 F2700 X173.47 Y131.27 E386.89353
G1 X173.47 Y173.47 E388.99890
G1 X131.17 Y173.47 E391.10925
G1 X131.17 Y131.27 E393.21462
G0 F12000 X131.57 Y131.67
G1 F2700 X173.07 Y131.67 E395.28506
G1 X173.07 Y173.07 E397.35052
G1 X131.57 Y173.07 E399.42096
G1 X131.57 Y131.67 E401.48642
G0 F12000 X131.97 Y132.07
G1 F2700 X172.67 Y132.07 E403.51695
G1 X172.67 Y172.67 E405.54249
G1 X131.97 Y172.67 E407.57302
G1 X131.97 Y132.07 E409.59856
G0 F12000 X132.37 Y132.47
G1 F2700 X172.27 Y132.47 E411.58918
G1 X172.27 Y172.27 E413.57481
G1 X132.37 Y172.27 E415.56543
G1 X132.37 Y132.47 E417.55106
G0 F12000 X132.77 Y132.87
G1 F2700 X171.87 Y132.87 E419.50177
G1 X171.87 Y171.87 E421.44749
G1 X132.77 Y171.87 E423.39819
G1 X132.77 Y132.87 E425.34391
G0 F12000 X133.17 Y133.27
G1 F2700 X171.47 Y133.27 E427.25471
G1 X171.47 Y171.47 E429.16051
G1 X133.17 Y171.47 E431.07131
G1 X133.17 Y133.27 E432.97711
G0 F12000 X133.57 Y133.67
G1 F2700 X171.07 Y133.67 E434.84799
G1 X171.07 Y171.07 E436.71389
G1 X133.57 Y171.07 E438.58477
G1 X133.57 Y133.67 E440.45066
G0 F12000 X133.97 Y134.07
G1 F2700 X170.67 Y134.07 E442.28163
G1 X170.67 Y170.67 E444.10762
G1 X133.97 Y170.67 E445.93859
G1 X133.97 Y134.07 E447.76457
G0 F12000 X134.37 Y134.47
G1 F2700 X170.27 Y134.47 E449.55563
G1 X170.27 Y170.27 E451.34170
G1 X134.37 Y170.27 E453.13275
G1 X134.37 Y134.47 E454.91882
G0 F12000 X134.77 Y134.87
G1 F2700 X169.87 Y134.87 E456.66997
G1 X169.87 Y169.87 E458.41613
G1 X134.77 Y169.87 E460.16727
G1 X134.77 Y134.87 E461.91343
G0 F12000 X135.17 Y135.27
G1 F2700 X169.47 Y135.27 E463.62466
G1 X169.47 Y169.47 E465.33091
G1 X135.17 Y169.47 E467.04214
G1 X135.17 Y135.27 E468.74839
G0 F12000 X135.57 Y135.67
G1 F2700 X169.07 Y135.67 E470.41971
G1 X169.07 Y169.07 E472.08604
G1 X135.57 Y169.07 E473.75736
G1 X135.57 Y135.67 E475.42370
G0 F12000 X135.97 Y136.07
G1 F2700 X168.67 Y136.07 E477.05511
G1 X168.67 Y168.67 E478.68153
G1 X135.97 Y168.67 E480.31294
G1 X135.97 Y136.07 E481.93936
G0 F12000 X176.37 Y128.47
G1 F2700 X224.27 Y128.47 E484.32910
G1 X224.27 Y176.27 E486.71385
G1 X176.37 Y176.27 E489.10359
G1 X176.37 Y128.47 E491.48834
G0 F12000 X176.77 Y128.87
G1 F2700 X223.87 Y128.87 E493.83817
G1 X223.87 Y175.87 E496.18301
G1 X176.77 Y175.87 E498.53284
G1 X176.77 Y128.87 E500.87768
G0 F12000 X177.17 Y129.27
G1 F2700 X223.47 Y129.27 E503.18759
G1 X223.47 Y175.47 E505.49252
G1 X177.17 Y175.47 E507.80244
G1 X177.17 Y129.27 E510.10737
G0 F12000 X177.57 Y129.67
G1 F2700 X223.07 Y129.67 E512.37737
G1 X223.07 Y175.07 E514.64238
G1 X177.57 Y175.07 E516.91239
G1 X177.57 Y129.67 E519.17740
G0 F12000 X177.97 Y130.07
G1 F2700 X222.67 Y130.07 E521.40750
G1 X222.67 Y174.67 E523.63260
G1 X177.97 Y174.67 E525.86269
G1 X177.97 Y130.07 E528.08779
G0 F12000 X178.37 Y130.47
G1 F2700 X222.27 Y130.47 E530.27797
G1 X222.27 Y174.27 E532.46316
G1 X178.37 Y174.27 E534.65334
G1 X178.37 Y130.47 E536.83854
G0 F12000 X178.77 Y130.87
G1 F2700 X221.87 Y130.87 E538.98880
G1 X221.87 Y173.87 E541.13408
G1 X178.77 Y173.87 E543.28435
G1 X178.77 Y130.87 E545.42963
G0 F12000 X179.17 Y131.27
G1 F2700 X221.47 Y131.27 E547.53998
G1 X221.47 Y173.47 E549.64535
G1 X179.17 Y173.47 E551.75571
G1 X179.17 Y131.27 E553.86107
G0 F12000 X179.57 Y131.67
G1 F2700 X221.07 Y131.67 E555.93152
G1 X221.07 Y173.07 E557.99697
G1 X179.57 Y173.07 E560.06741
G1 X179.57 Y131.67 E562.13287
G0 F12000 X179.97 Y132.07
G1 F2700 X220.67 Y132.07 E564.16340
G1 X220.67 Y172.67 E566.18894
G1 X179.97 Y172.67 E568.21947
G1 X179.97 Y132.07 E570.24502
G0 F12000 X180.37 Y132.47
G1 F2700 X220.27 Y132.47 E572.23563
G1 X220.27 Y172.27 E574.22126
G1 X180.37 Y172.27 E576.21188
G1 X180.37 Y132.47 E578.19751
G0 F12000 X180.77 Y132.87
G1 F2700 X219.87 Y132.87 E580.14822
G1 X219.87 Y171.87 E582.09394
G1 X180.77 Y171.87 E584.04465
G1 X180.77 Y132.87 E585.99036
G0 F12000 X181.17 Y133.27
G1 F2700 X219.47 Y133.27 E587.90116
G1 X219.47 Y171.47 E589.80696
G1 X181.17 Y171.47 E591.71776
G1 X181.17 Y133.27 E593.62356
G0 F12000 X181.57 Y133.67
G1 F2700 X219.07 Y133.67 E595.49445
G1 X219.07 Y171.07 E597.36034
G1 X181.57 Y171.07 E599.23122
G1 X181.57 Y133.67 E601.09712
G0 F12000 X181.97 Y134.07
G1 F2700 X218.67 Y134.07 E602.92809
G1 X218.67 Y170.67 E604.75407
G1 X181.97 Y170.67 E606.58504
G1 X181.97 Y134.07 E608.41102
G0 F12000 X182.37 Y134.47
G1 F2700 X218.27 Y134.47 E610.20208
G1 X218.27 Y170.27 E611.98815
G1 X182.37 Y170.27 E613.77921
G1 X182.37 Y134.47 E615.56528
G0 F12000 X182.77 Y134.87
G1 F2700 X217.87 Y134.87 E617.31642
G1 X217.87 Y169.87 E619.06258
G1 X182.77 Y169.87 E620.81372
G1 X182.77 Y134.87 E622.55988
G0 F12000 X183.17 Y135.27
G1 F2700 X217.47 Y135.27 E624.27112
G1 X217.47 Y169.47 E625.97736
G1 X183.17 Y169.47 E627.68859
G1 X183.17 Y135.27 E629.39484
G0 F12000 X183.57 Y135.67
G1 F2700 X217.07 Y135.67 E631.06616
G1 X217.07 Y169.07 E632.73249
G1 X183.57 Y169.07 E634.40382
G1 X183.57 Y135.67 E636.07015
G0 F12000 X183.97 Y136.07
G1 F2700 X216.67 Y136.07 E637.70156
G1 X216.67 Y168.67 E639.32798
G1 X183.97 Y168.67 E640.95939
G1 X183.97 Y136.07 E642.58581
G0 F12000 X224.37 Y128.47
G1 F2700 X272.27 Y128.47 E644.97555
G1 X272.27 Y176.27 E647.36030
G1 X224.37 Y176.27 E649.75004
G1 X224.37 Y128.47 E652.13479
G0 F12000 X224.77 Y128.87
G1 F2700 X271.87 Y128.87 E654.48462
G1 X271.87 Y175.87 E656.82946
G1 X224.77 Y175.87 E659.17929
G1 X224.77 Y128.87 E661.52413
G0 F12000 X225.17 Y129.27
G1 F2700 X271.47 Y129.27 E663.83405
G1 X271.47 Y175.47 E666.13897
G1 X225.17 Y175.47 E668.44889
G1 X225.17 Y129.27 E670.75382
G0 F12000 X225.57 Y129.67
G1 F2700 X271.07 Y129.67 E673.02382
G1 X271.07 Y175.07 E675.28884
G1 X225.57 Y175.07 E677.55884
G1 X225.57 Y129.67 E679.82386
G0 F12000 X225.97 Y130.07
G1 F2700 X270.67 Y130.07 E682.05395
G1 X270.67 Y174.67 E684.27905
G1 X225.97 Y174.67 E686.50914
G1 X225.97 Y130.07 E688.73425
G0 F12000 X226.37 Y130.47
G1 F2700 X270.27 Y130.47 E690.92443
G1 X270.27 Y174.27 E693.10962
G1 X226.37 Y174.27 E695.29980
G1 X226.37 Y130.47 E697.48499
G0 F12000 X226.77 Y130.87
G1 F2700 X269.87 Y130.87 E699.63526
G1 X269.87 Y173.87 E701.78053
G1 X226.77 Y173.87 E703.93080
G1 X226.77 Y130.87 E706.07608
G0 F12000 X227.17 Y131.27
G1 F2700 X269.47 Y131.27 E708.18644
G1 X269.47 Y173.47 E710.29180
G1 X227.17 Y173.47 E712.40216
G1 X227.17 Y131.27 E714.50753
G0 F12000 X227.57 Y131.67
G1 F2700 X269.07 Y131.67 E716.57797
G1 X269.07 Y173.07 E718.64342
G1 X227.57 Y173.07 E720.71387
G1 X227.57 Y131.67 E722.77932
G0 F12000 X227.97 Y132.07
G1 F2700 X268.67 Y132.07 E724.80985
G1 X268.67 Y172.67 E726.83539
G1 X227.97 Y172.67 E728.86593
G1 X227.97 Y132.07 E730.89147
G0 F12000 X228.37 Y132.47
G1 F2700 X268.27 Y132.47 E732.88209
G1 X268.27 Y172.27 E734.86772
G1 X228.37 Y172.27 E736.85834
G1 X228.37 Y132.47 E738.84397
G0 F12000 X228.77 Y132.87
G1 F2700 X267.87 Y132.87 E740.79467
G1 X267.87 Y171.87 E742.74039
G1 X228.77 Y171.87 E744.69110
G1 X228.77 Y132.87 E746.63682
G0 F12000 X229.17 Y133.27
G1 F2700 X267.47 Y133.27 E748.54761
G1 X267.47 Y171.47 E750.45342
G1 X229.17 Y171.47 E752.36421
G1 X229.17 Y133.27 E754.27002
G0 F12000 X229.57 Y133.67
G1 F2700 X267.07 Y133.67 E756.14090
G1 X267.07 Y171.07 E758.00679
G1 X229.57 Y171.07 E759.87768
G1 X229.57 Y133.67 E761.74357
G0 F12000 X229.97 Y134.07
G1 F2700 X266.67 Y134.07 E763.57454
G1 X266.67 Y170.67 E765.40052
G1 X229.97 Y170.67 E767.23149
G1 X229.97 Y134.07 E769.05747
G0 F12000 X230.37 Y134.47
G1 F2700 X266.27 Y134.47 E770.84853
G1 X266.27 Y170.27 E772.63460
G1 X230.37 Y170.27 E774.42566
G1 X230.37 Y134.47 E776.21173
G0 F12000 X230.77 Y134.87
G1 F2700 X265.87 Y134.87 E777.96287
G1 X265.87 Y169.87 E779.70903
G1 X230.77 Y169.87 E781.46018
G1 X230.77 Y134.87 E783.20633
G0 F12000 X231.17 Y135.27
G1 F2700 X265.47 Y135.27 E784.91757
G1 X265.47 Y169.47 E786.62381
G1 X231.17 Y169.47 E788.33505
G1 X231.17 Y135.27 E790.04129
G0 F12000 X231.57 Y135.67
G1 F2700 X265.07 Y135.67 E791.71261
G1 X265.07 Y169.07 E793.37895
G1 X231.57 Y169.07 E795.05027
G1 X231.57 Y135.67 E796.71660
G0 F12000 X231.97 Y136.07
G1 F2700 X264.67 Y136.07 E798.34801
G1 X264.67 Y168.67 E799.97443
G1 X231.97 Y168.67 E801.60584
G1 X231.97 Y136.07 E803.23226
G1 F2400 E802.03226
G0 F12000 X71.73 Y137.27
;TYPE:WALL-INNER
G1 F2400 E803.23226
G1 F2700 X71.73 Y167.73 E804.75182
G1 X41.27 Y167.73 E806.27152
G1 X41.27 Y137.27 E807.79108
G1 X71.73 Y137.27 E809.31078
G0 F12000 X71.38 Y137.62
G1 F2700 X64.98 Y137.62 E809.63033
G1 X64.98 Y138.72 E809.68536
G1 X64.83 Y138.72 E809.69284
G1 X64.83 Y137.62 E809.74792
G1 X48.17 Y137.62 E810.57864
G1 X48.17 Y138.72 E810.63372
G1 X48.02 Y138.72 E810.64121
G1 X48.02 Y137.62 E810.69628
G1 X41.62 Y137.62 E811.01583
G1 X41.62 Y144.03 E811.33538
G1 X42.73 Y144.03 E811.39051
G1 X42.73 Y144.18 E811.39799
G1 X41.62 Y144.18 E811.45312
G1 X41.62 Y160.82 E812.28369
G1 X42.73 Y160.82 E812.33882
G1 X42.73 Y160.97 E812.34630
G1 X41.62 Y160.97 E812.40143
G1 X41.62 Y167.38 E812.72098
G1 X48.02 Y167.38 E813.04053
G1 X48.02 Y166.28 E813.09555
G1 X48.17 Y166.28 E813.10304
G1 X48.17 Y167.38 E813.15812
G1 X64.83 Y167.38 E813.98884
G1 X64.83 Y166.28 E814.04387
G1 X64.98 Y166.28 E814.05135
G1 X64.98 Y167.38 E814.10643
G1 X71.38 Y167.38 E814.42598
G1 X71.38 Y160.97 E814.74552
G1 X70.28 Y160.97 E814.80065
G1 X70.28 Y160.82 E814.80814
G1 X71.38 Y160.82 E814.86326
G1 X71.38 Y144.18 E815.69384
G1 X70.28 Y144.18 E815.74897
G1 X70.28 Y144.03 E815.75645
G1 X71.38 Y144.03 E815.81158
G1 X71.38 Y137.62 E816.13112
G0 F12000 X70.98 Y138.02
;TYPE:WALL-OUTER
G1 F2700 X65.38 Y138.02 E816.41076
G1 X65.38 Y139.12 E816.46579
G1 X64.43 Y139.12 E816.51318
G1 X64.43 Y138.02 E816.56826
G1 X48.58 Y138.02 E817.35907
G1 X48.58 Y139.12 E817.41415
G1 X47.62 Y139.12 E817.46155
G1 X47.62 Y138.02 E817.51663
G1 X42.02 Y138.02 E817.79626
G1 X42.02 Y143.63 E818.07589
G1 X43.12 Y143.63 E818.13102
G1 X43.12 Y144.34 E818.16640
G1 X43.12 Y144.58 E818.17842
G1 X42.02 Y144.58 E818.23350
G1 X42.02 Y160.42 E819.02416
G1 X43.12 Y160.42 E819.07929
G1 X43.12 Y161.13 E819.11471
G1 X43.12 Y161.37 E819.12668
G1 X42.02 Y161.37 E819.18176
G1 X42.02 Y166.98 E819.46140
G1 X47.62 Y166.98 E819.74103
G1 X47.62 Y165.88 E819.79606
G1 X48.58 Y165.88 E819.84345
G1 X48.58 Y166.98 E819.89853
G1 X64.43 Y166.98 E820.68934
G1 X64.43 Y165.88 E820.74437
G1 X65.38 Y165.88 E820.79177
G1 X65.38 Y166.98 E820.84685
G1 X70.98 Y166.98 E821.12648
G1 X70.98 Y161.37 E821.40612
G1 X69.88 Y161.37 E821.46124
G1 X69.88 Y160.42 E821.50864
G1 X70.98 Y160.42 E821.56377
G1 X70.98 Y144.58 E822.35443
G1 X69.88 Y144.58 E822.40956
G1 X69.88 Y143.89 E822.44373
G1 X69.88 Y143.63 E822.45695
G1 X70.98 Y143.63 E822.51203
G1 X70.98 Y138.02 E822.79167
G0 F12000 X71.28 Y138.02
G0 X71.83 Y137.08
G0 X72.13 Y136.87
G1 F2700 X72.13 Y168.13 E824.35113
G1 X40.87 Y168.13 E825.91075
G1 X40.87 Y136.87 E827.47022
G1 X72.13 Y136.87 E829.02984
G1 F2400 E827.82984
G0 F12000 X89.27 Y137.27
;TYPE:WALL-INNER
G1 F2400 E829.02984
G1 F2700 X119.73 Y137.27 E830.54949
G1 X119.73 Y167.73 E832.06905
G1 X89.27 Y167.73 E833.58870
G1 X89.27 Y137.27 E835.10826
G0 F12000 X89.62 Y137.62
G1 F2700 X89.62 Y144.03 E835.42781
G1 X90.72 Y144.03 E835.48289
G1 X90.72 Y144.18 E835.49037
G1 X89.62 Y144.18 E835.54545
G1 X89.62 Y160.82 E836.37602
G1 X90.72 Y160.82 E836.43110
G1 X90.72 Y160.97 E836.43858
G1 X89.62 Y160.97 E836.49366
G1 X89.62 Y167.38 E836.81321
G1 X96.03 Y167.38 E837.13275
G1 X96.03 Y166.28 E837.18778
G1 X96.18 Y166.28 E837.19527
G1 X96.18 Y167.38 E837.25035
G1 X112.83 Y167.38 E838.08102
G1 X112.83 Y166.28 E838.13605
G1 X112.98 Y166.28 E838.14353
G1 X112.98 Y167.38 E838.19861
G1 X119.38 Y167.38 E838.51816
G1 X119.38 Y160.97 E838.83770
G1 X118.28 Y160.97 E838.89283
G1 X118.28 Y160.82 E838.90031
G1 X119.38 Y160.82 E838.95544
G1 X119.38 Y144.18 E839.78602
G1 X118.28 Y144.18 E839.84114
G1 X118.28 Y144.03 E839.84863
G1 X119.38 Y144.03 E839.90376
G1 X119.38 Y137.62 E840.22330
G1 X112.98 Y137.62 E840.54285
G1 X112.98 Y138.72 E840.59788
G1 X112.83 Y138.72 E840.60536
G1 X112.83 Y137.62 E840.66044
G1 X96.18 Y137.62 E841.49111
G1 X96.18 Y138.72 E841.54619
G1 X96.03 Y138.72 E841.55368
G1 X96.03 Y137.62 E841.60875
G1 X89.62 Y137.62 E841.92830
G0 F12000 X90.02 Y138.02
;TYPE:WALL-OUTER
G1 F2700 X90.02 Y143.63 E842.20794
G1 X91.12 Y143.63 E842.26301
G1 X91.12 Y144.34 E842.29839
G1 X91.12 Y144.58 E842.31041
G1 X90.02 Y144.58 E842.36544
G1 X90.02 Y160.42 E843.15610
G1 X91.12 Y160.42 E843.21118
G1 X91.12 Y161.13 E843.24660
G1 X91.12 Y161.37 E843.25857
G1 X90.02 Y161.37 E843.31360
G1 X90.02 Y166.98 E843.59324
G1 X95.63 Y166.98 E843.87287
G1 X95.63 Y165.88 E843.92790
G1 X96.58 Y165.88 E843.97530
G1 X96.58 Y166.98 E844.03038
G1 X112.43 Y166.98 E844.82113
G1 X112.43 Y165.88 E844.87616
G1 X113.38 Y165.88 E844.92356
G1 X113.38 Y166.98 E844.97864
G1 X118.98 Y166.98 E845.25827
G1 X118.98 Y161.37 E845.53791
G1 X117.88 Y161.37 E845.59304
G1 X117.88 Y160.42 E845.64043
G1 X118.98 Y160.42 E845.69556
G1 X118.98 Y144.58 E846.48622
G1 X117.88 Y144.58 E846.54135
G1 X117.88 Y143.89 E846.57552
G1 X117.88 Y143.63 E846.58874
G1 X118.98 Y143.63 E846.64382
G1 X118.98 Y138.02 E846.92346
G1 X113.38 Y138.02 E847.20309
G1 X113.38 Y139.12 E847.25812
G1 X112.43 Y139.12 E847.30552
G1 X112.43 Y138.02 E847.36060
G1 X96.58 Y138.02 E848.15136
G1 X96.58 Y139.12 E848.20643
G1 X95.63 Y139.12 E848.25383
G1 X95.63 Y138.02 E848.30891
G1 X90.02 Y138.02 E848.58854
G0 F12000 X90.02 Y137.72
G0 X89.17 Y137.08
G0 X88.87 Y136.87
G1 F2700 X120.13 Y136.87 E850.14811
G1 X120.13 Y168.13 E851.70758
G1 X88.87 Y168.13 E853.26715
G1 X88.87 Y136.87 E854.82662
G1 F2400 E853.62662
G0 F12000 X137.27 Y137.27
;TYPE:WALL-INNER
G1 F2400 E854.82662
G1 F2700 X167.73 Y137.27 E856.34622
G1 X167.73 Y167.73 E857.86578
G1 X137.27 Y167.73 E859.38538
G1 X137.27 Y137.27 E860.90494
G0 F12000 X137.62 Y137.62
G1 F2700 X137.62 Y144.03 E861.22448
G1 X138.72 Y144.03 E861.27956
G1 X138.72 Y144.18 E861.28705
G1 X137.62 Y144.18 E861.34213
G1 X137.62 Y160.82 E862.17270
G1 X138.72 Y160.82 E862.22778
G1 X138.72 Y160.97 E862.23526
G1 X137.62 Y160.97 E862.29034
G1 X137.62 Y167.38 E862.60989
G1 X144.03 Y167.38 E862.92943
G1 X144.03 Y166.28 E862.98446
G1 X144.18 Y166.28 E862.99195
G1 X144.18 Y167.38 E863.04702
G1 X160.82 Y167.38 E863.87765
G1 X160.82 Y166.28 E863.93267
G1 X160.97 Y166.28 E863.94016
G1 X160.97 Y167.38 E863.99524
G1 X167.38 Y167.38 E864.31478
G1 X167.38 Y160.97 E864.63433
G1 X166.28 Y160.97 E864.68946
G1 X166.28 Y160.82 E864.69694
G1 X167.38 Y160.82 E864.75207
G1 X167.38 Y144.18 E865.58264
G1 X166.28 Y144.18 E865.63777
G1 X166.28 Y144.03 E865.64526
G1 X167.38 Y144.03 E865.70038
G1 X167.38 Y137.62 E866.01993
G1 X160.97 Y137.62 E866.33948
G1 X160.97 Y138.72 E866.39451
G1 X160.82 Y138.72 E866.40199
G1 X160.82 Y137.62 E866.45702
G1 X144.18 Y137.62 E867.28764
G1 X144.18 Y138.72 E867.34272
G1 X144.03 Y138.72 E867.35020
G1 X144.03 Y137.62 E867.40528
G1 X137.62 Y137.62 E867.72483
G0 F12000 X138.02 Y138.02
;TYPE:WALL-OUTER
G1 F2700 X138.02 Y143.63 E868.00446
G1 X139.12 Y143.63 E868.05954
G1 X139.12 Y144.34 E868.09491
G1 X139.12 Y144.58 E868.10694
G1 X138.02 Y144.58 E868.16197
G1 X138.02 Y160.42 E868.95263
G1 X139.12 Y160.42 E869.00771
G1 X139.12 Y161.13 E869.04313
G1 X139.12 Y161.37 E869.05510
G1 X138.02 Y161.37 E869.11013
G1 X138.02 Y166.98 E869.38977
G1 X143.63 Y166.98 E869.66940
G1 X143.63 Y165.88 E869.72443
G1 X144.58 Y165.88 E869.77182
G1 X144.58 Y166.98 E869.82690
G1 X160.43 Y166.98 E870.61761
G1 X160.43 Y165.88 E870.67264
G1 X161.38 Y165.88 E870.72004
G1 X161.38 Y166.98 E870.77512
G1 X166.98 Y166.98 E871.05475
G1 X166.98 Y161.37 E871.33439
G1 X165.88 Y161.37 E871.38951
G1 X165.88 Y160.42 E871.43691
G1 X166.98 Y160.42 E871.49204
G1 X166.98 Y144.58 E872.28270
G1 X165.88 Y144.58 E872.33783
G1 X165.88 Y143.89 E872.37200
G1 X165.88 Y143.63 E872.38522
G1 X166.98 Y143.63 E872.44030
G1 X166.98 Y138.02 E872.71994
G1 X161.38 Y138.02 E872.99957
G1 X161.38 Y139.12 E873.05465
G1 X160.43 Y139.12 E873.10205
G1 X160.43 Y138.02 E873.15712
G1 X144.58 Y138.02 E873.94783
G1 X144.58 Y139.12 E874.00291
G1 X143.63 Y139.12 E874.05031
G1 X143.63 Y138.02 E874.10539
G1 X138.02 Y138.02 E874.38502
G0 F12000 X138.02 Y137.72
G0 X137.17 Y137.08
G0 X136.87 Y136.87
G1 F2700 X168.13 Y136.87 E875.94454
G1 X168.13 Y168.13 E877.50401
G1 X136.87 Y168.13 E879.06353
G1 X136.87 Y136.87 E880.62299
G1 F2400 E879.42299
G0 F12000 X185.27 Y137.27
;TYPE:WALL-INNER
G1 F2400 E880.62299
G1 F2700 X215.73 Y137.27 E882.14265
G1 X215.73 Y167.73 E883.66221
G1 X185.27 Y167.73 E885.18186
G1 X185.27 Y137.27 E886.70142
G0 F12000 X185.62 Y137.62
G1 F2700 X185.62 Y144.03 E887.02096
G1 X186.72 Y144.03 E887.07604
G1 X186.72 Y144.18 E887.08353
G1 X185.62 Y144.18 E887.13860
G1 X185.62 Y160.82 E887.96918
G1 X186.72 Y160.82 E888.02426
G1 X186.72 Y160.97 E888.03174
G1 X185.62 Y160.97 E888.08682
G1 X185.62 Y167.38 E888.40636
G1 X192.03 Y167.38 E888.72591
G1 X192.03 Y166.28 E888.78094
G1 X192.18 Y166.28 E888.78842
G1 X192.18 Y167.38 E888.84350
G1 X208.82 Y167.38 E889.67417
G1 X208.82 Y166.28 E889.72920
G1 X208.97 Y166.28 E889.73669
G1 X208.97 Y167.38 E889.79177
G1 X215.38 Y167.38 E890.11131
G1 X215.38 Y160.97 E890.43086
G1 X214.28 Y160.97 E890.48599
G1 X214.28 Y160.82 E890.49347
G1 X215.38 Y160.82 E890.54860
G1 X215.38 Y144.18 E891.37917
G1 X214.28 Y144.18 E891.43430
G1 X214.28 Y144.03 E891.44178
G1 X215.38 Y144.03 E891.49691
G1 X215.38 Y137.62 E891.81646
G1 X208.97 Y137.62 E892.13601
G1 X208.97 Y138.72 E892.19104
G1 X208.82 Y138.72 E892.19852
G1 X208.82 Y137.62 E892.25360
G1 X192.18 Y137.62 E893.08427
G1 X192.18 Y138.72 E893.13935
G1 X192.03 Y138.72 E893.14683
G1 X192.03 Y137.62 E893.20191
G1 X185.62 Y137.62 E893.52146
G0 F12000 X186.02 Y138.02
;TYPE:WALL-OUTER
G1 F2700 X186.02 Y143.63 E893.80109
G1 X187.12 Y143.63 E893.85617
G1 X187.12 Y144.34 E893.89154
G1 X187.12 Y144.58 E893.90357
G1 X186.02 Y144.58 E893.95860
G1 X186.02 Y160.42 E894.74926
G1 X187.12 Y160.42 E894.80433
G1 X187.12 Y161.13 E894.83976
G1 X187.12 Y161.37 E894.85173
G1 X186.02 Y161.37 E894.90676
G1 X186.02 Y166.98 E895.18639
G1 X191.62 Y166.98 E895.46603
G1 X191.62 Y165.88 E895.52106
G1 X192.57 Y165.88 E895.56845
G1 X192.57 Y166.98 E895.62353
G1 X208.43 Y166.98 E896.41429
G1 X208.43 Y165.88 E896.46932
G1 X209.38 Y165.88 E896.51672
G1 X209.38 Y166.98 E896.57179
G1 X214.98 Y166.98 E896.85143
G1 X214.98 Y161.37 E897.13106
G1 X213.88 Y161.37 E897.18619
G1 X213.88 Y160.42 E897.23359
G1 X214.98 Y160.42 E897.28872
G1 X214.98 Y144.58 E898.07938
G1 X213.88 Y144.58 E898.13451
G1 X213.88 Y143.89 E898.16868
G1 X213.88 Y143.63 E898.18190
G1 X214.98 Y143.63 E898.23698
G1 X214.98 Y138.02 E898.51661
G1 X209.38 Y138.02 E898.79625
G1 X209.38 Y139.12 E898.85128
G1 X208.43 Y139.12 E898.89867
G1 X208.43 Y138.02 E898.95375
G1 X192.57 Y138.02 E899.74451
G1 X192.57 Y139.12 E899.79959
G1 X191.62 Y139.12 E899.84699
G1 X191.62 Y138.02 E899.90207
G1 X186.02 Y138.02 E900.18170
G0 F12000 X186.02 Y137.72
G0 X185.17 Y137.08
G0 X184.87 Y136.87
G1 F2700 X216.13 Y136.87 E901.74127
G1 X216.13 Y168.13 E903.30074
G1 X184.87 Y168.13 E904.86030
G1 X184.87 Y136.87 E906.41977
G1 F2400 E905.21977
G0 F12000 X233.27 Y137.27
;TYPE:WALL-INNER
G1 F2400 E906.41977
G1 F2700 X263.73 Y137.27 E907.93943
G1 X263.73 Y167.73 E909.45898
G1 X233.27 Y167.73 E910.97864
G1 X233.27 Y137.27 E912.49819
G0 F12000 X233.62 Y137.62
G1 F2700 X233.62 Y144.03 E912.81774
G1 X234.72 Y144.03 E912.87282
G1 X234.72 Y144.18 E912.88030
G1 X233.62 Y144.18 E912.93538
G1 X233.62 Y160.82 E913.76595
G1 X234.72 Y160.82 E913.82103
G1 X234.72 Y160.97 E913.82852
G1 X233.62 Y160.97 E913.88360
G1 X233.62 Y167.38 E914.20314
G1 X240.03 Y167.38 E914.52269
G1 X240.03 Y166.28 E914.57772
G1 X240.18 Y166.28 E914.58520
G1 X240.18 Y167.38 E914.64028
G1 X256.82 Y167.38 E915.47095
G1 X256.82 Y166.28 E915.52598
G1 X256.98 Y166.28 E915.53346
G1 X256.98 Y167.38 E915.58854
G1 X263.38 Y167.38 E915.90809
G1 X263.38 Y160.97 E916.22764
G1 X262.27 Y160.97 E916.28277
G1 X262.27 Y160.82 E916.29025
G1 X263.38 Y160.82 E916.34538
G1 X263.38 Y144.18 E917.17595
G1 X262.27 Y144.18 E917.23108
G1 X262.27 Y144.03 E917.23856
G1 X263.38 Y144.03 E917.29369
G1 X263.38 Y137.62 E917.61324
G1 X256.98 Y137.62 E917.93278
G1 X256.98 Y138.72 E917.98781
G1 X256.82 Y138.72 E917.99530
G1 X256.82 Y137.62 E918.05033
G1 X240.18 Y137.62 E918.88100
G1 X240.18 Y138.72 E918.93603
G1 X240.03 Y138.72 E918.94351
G1 X240.03 Y137.62 E918.99859
G1 X233.62 Y137.62 E919.31814
G0 F12000 X234.02 Y138.02
;TYPE:WALL-OUTER
G1 F2700 X234.02 Y143.63 E919.59777
G1 X235.12 Y143.63 E919.65285
G1 X235.12 Y144.34 E919.68822
G1 X235.12 Y144.58 E919.70024
G1 X234.02 Y144.58 E919.75527
G1 X234.02 Y160.42 E920.54593
G1 X235.12 Y160.42 E920.60101
G1 X235.12 Y161.13 E920.63643
G1 X235.12 Y161.37 E920.64841
G1 X234.02 Y161.37 E920.70344
G1 X234.02 Y166.98 E920.98307
G1 X239.62 Y166.98 E921.26271
G1 X239.62 Y165.88 E921.31774
G1 X240.57 Y165.88 E921.36513
G1 X240.57 Y166.98 E921.42021
G1 X256.43 Y166.98 E922.21097
G1 X256.43 Y165.88 E922.26600
G1 X257.38 Y165.88 E922.31339
G1 X257.38 Y166.98 E922.36847
G1 X262.98 Y166.98 E922.64811
G1 X262.98 Y161.37 E922.92774
G1 X261.88 Y161.37 E922.98287
G1 X261.88 Y160.69 E923.01700
G1 X261.88 Y160.42 E923.03027
G1 X262.98 Y160.42 E923.08535
G1 X262.98 Y144.58 E923.87601
G1 X261.88 Y144.58 E923.93113
G1 X261.88 Y143.89 E923.96531
G1 X261.88 Y143.63 E923.97853
G1 X262.98 Y143.63 E924.03361
G1 X262.98 Y138.02 E924.31324
G1 X257.38 Y138.02 E924.59288
G1 X257.38 Y139.12 E924.64796
G1 X256.43 Y139.12 E924.69535
G1 X256.43 Y138.02 E924.75043
G1 X240.57 Y138.02 E925.54119
G1 X240.57 Y139.12 E925.59622
G1 X239.62 Y139.12 E925.64362
G1 X239.62 Y138.02 E925.69869
G1 X234.02 Y138.02 E925.97833
G0 F12000 X234.02 Y137.72
G0 X233.17 Y137.08
G0 X232.87 Y136.87
G1 F2700 X264.13 Y136.87 E927.53790
G1 X264.13 Y168.13 E929.09736
G1 X232.87 Y168.13 E930.65693
G1 X232.87 Y136.87 E932.21640
G1 F2400 E931.01640
G0 F12000 X68.88 Y146.68
;TYPE:SUPPORT
G1 F2400 E932.21640
G1 F2700 X68.88 Y158.32 E932.79752
G1 X67.82 Y158.32 E932.85060
G1 X67.78 Y160.26 E932.94736
G1 X67.78 Y163.84 E933.12567
G1 X65.55 Y163.78 E933.23682
G1 X64.32 Y163.78 E933.29808
G1 X62.33 Y163.59 E933.39803
G1 X62.33 Y164.88 E933.46214
G1 X50.67 Y164.88 E934.04341
G1 X50.67 Y163.83 E934.09579
G1 X48.75 Y163.78 E934.19192
G1 X47.52 Y163.78 E934.25323
G1 X45.23 Y163.57 E934.36795
G1 X45.22 Y161.24 E934.48430
G1 X45.23 Y161.15 E934.48849
G1 X45.23 Y158.32 E934.62958
G1 X44.12 Y158.32 E934.68471
G1 X44.12 Y146.68 E935.26583
G1 X45.23 Y146.68 E935.32121
G1 X45.22 Y144.44 E935.43286
G1 X45.23 Y144.35 E935.43710
G1 X45.23 Y141.18 E935.59545
G1 X47.46 Y141.22 E935.70718
G1 X50.67 Y141.22 E935.86738
G1 X50.67 Y140.12 E935.92246
G1 X62.33 Y140.12 E936.50373
G1 X62.33 Y141.23 E936.55886
G1 X65.48 Y141.22 E936.71611
G1 X67.77 Y141.27 E936.83054
G1 X67.78 Y143.78 E936.95531
G1 X67.78 Y143.88 E936.96075
G1 X67.78 Y146.68 E937.10004
G1 X68.88 Y146.68 E937.15517
G0 F12000 X68.78 Y149.99
G0 X68.94 Y149.99
G1 F2700 X44.06 Y149.99 E938.39649
G0 F12000 X44.22 Y149.99
G0 X44.22 Y156.65
G0 X44.06 Y156.65
G1 F2700 X68.94 Y156.65 E939.63781
G0 F12000 X68.78 Y156.65
G0 X67.68 Y158.18
G0 X67.68 Y163.32
G0 X67.83 Y163.32
G1 F2700 X45.17 Y163.32 E940.76867
G0 F12000 X45.33 Y163.32
G0 X50.00 Y163.71
G0 X49.99 Y163.87
G1 F2700 X49.99 Y141.16 E941.90138
G0 F12000 X49.99 Y141.32
G0 X45.33 Y143.32
G0 X45.17 Y143.32
G1 F2700 X67.83 Y143.32 E943.03219
G0 F12000 X67.67 Y143.32
G0 X63.33 Y141.33
G0 X63.33 Y141.16
G1 F2700 X63.33 Y163.75 E944.15871
G0 F12000 X63.34 Y163.59
G0 X62.19 Y163.45
G0 X56.66 Y164.78
G0 X56.66 Y164.94
G1 F2700 X56.66 Y140.06 E945.39988
G1 F2400 E944.19988
G0 F12000 X92.12 Y146.68
G1 F2400 E945.39988
G1 F2700 X93.23 Y146.68 E945.45521
G1 X93.22 Y144.44 E945.56686
G1 X93.22 Y144.35 E945.57110
G1 X93.22 Y141.18 E945.72955
G1 X95.47 Y141.22 E945.84138
G1 X98.68 Y141.22 E946.00153
G1 X98.68 Y140.12 E946.05661
G1 X110.33 Y140.12 E946.63783
G1 X110.33 Y141.23 E946.69296
G1 X113.48 Y141.22 E946.85021
G1 X115.77 Y141.27 E946.96464
G1 X115.78 Y143.78 E947.08941
G1 X115.78 Y143.88 E947.09485
G1 X115.78 Y146.68 E947.23414
G1 X116.88 Y146.68 E947.28927
G1 X116.88 Y158.32 E947.87039
G1 X115.82 Y158.32 E947.92348
G1 X115.78 Y160.26 E948.02024
G1 X115.78 Y163.84 E948.19854
G1 X113.55 Y163.78 E948.30969
G1 X112.32 Y163.78 E948.37096
G1 X110.33 Y163.59 E948.47090
G1 X110.33 Y164.88 E948.53501
G1 X98.68 Y164.88 E949.11623
G1 X98.68 Y163.83 E949.16862
G1 X96.75 Y163.78 E949.26474
G1 X95.52 Y163.78 E949.32606
G1 X93.23 Y163.57 E949.44084
G1 X93.22 Y161.24 E949.55708
G1 X93.22 Y161.15 E949.56127
G1 X93.22 Y158.32 E949.70236
G1 X92.12 Y158.32 E949.75744
G1 X92.12 Y146.68 E950.33856
G0 F12000 X92.22 Y146.69
G0 X92.22 Y149.99
G0 X92.06 Y149.99
G1 F2700 X116.94 Y149.99 E951.57983
G0 F12000 X116.78 Y149.99
G0 X116.66 Y146.78
G0 X116.66 Y146.62
G1 F2700 X116.66 Y158.38 E952.16694
G0 F12000 X116.66 Y158.22
G0 X116.78 Y156.65
G0 X116.94 Y156.65
G1 F2700 X92.06 Y156.65 E953.40820
G0 F12000 X92.22 Y156.65
G0 X93.37 Y158.18
G0 X93.33 Y163.32
G0 X93.17 Y163.32
G1 F2700 X115.83 Y163.32 E954.53907
G0 F12000 X115.68 Y163.32
G0 X110.19 Y163.45
G0 X109.99 Y164.78
G0 X109.99 Y164.94
G1 F2700 X109.99 Y140.06 E955.78023
G0 F12000 X109.99 Y140.22
G0 X103.32 Y140.22
G0 X103.32 Y140.06
G1 F2700 X103.32 Y164.94 E957.02140
G0 F12000 X103.32 Y164.78
G0 X98.82 Y163.69
G0 X96.66 Y163.68
G0 X96.66 Y163.84
G1 F2700 X96.66 Y141.16 E958.15246
G0 F12000 X96.66 Y141.32
G0 X93.33 Y143.32
G0 X93.17 Y143.32
G1 F2700 X115.83 Y143.32 E959.28327
G1 F2400 E958.08327
G0 F12000 X140.12 Y146.68
G1 F2400 E959.28327
G1 F2700 X141.23 Y146.68 E959.33860
G1 X141.22 Y144.44 E959.45026
G1 X141.22 Y144.35 E959.45450
G1 X141.22 Y141.18 E959.61295
G1 X143.47 Y141.22 E959.72478
G1 X146.68 Y141.22 E959.88493
G1 X146.68 Y140.12 E959.94001
G1 X158.32 Y140.12 E960.52118
G1 X158.32 Y141.23 E960.57636
G1 X161.11 Y141.22 E960.71530
G1 X163.77 Y141.23 E960.84791
G1 X163.78 Y143.77 E960.97488
G1 X163.78 Y143.88 E960.98037
G1 X163.78 Y146.68 E961.11966
G1 X164.88 Y146.68 E961.17479
G1 X164.88 Y158.32 E961.75591
G1 X163.82 Y158.32 E961.80899
G1 X163.78 Y160.26 E961.90575
G1 X163.78 Y163.84 E962.08406
G1 X161.55 Y163.78 E962.19521
G1 X160.32 Y163.78 E962.25647
G1 X158.32 Y163.59 E962.35642
G1 X158.32 Y164.88 E962.42053
G1 X146.68 Y164.88 E963.00170
G1 X146.68 Y163.83 E963.05408
G1 X144.75 Y163.78 E963.15021
G1 X143.52 Y163.78 E963.21152
G1 X141.23 Y163.57 E963.32630
G1 X141.22 Y161.24 E963.44255
G1 X141.22 Y161.15 E963.44674
G1 X141.22 Y158.32 E963.58783
G1 X140.12 Y158.32 E963.64291
G1 X140.12 Y146.68 E964.22403
G0 F12000 X140.22 Y146.69
G0 X140.22 Y149.99
G0 X140.06 Y149.99
G1 F2700 X164.94 Y149.99 E965.46524
G0 F12000 X164.78 Y149.99
G0 X164.78 Y156.65
G0 X164.94 Y156.65
G1 F2700 X140.06 Y156.65 E966.70646
G0 F12000 X140.22 Y156.65
G0 X141.37 Y158.18
G0 X141.33 Y163.32
G0 X141.17 Y163.32
G1 F2700 X163.84 Y163.32 E967.83727
G0 F12000 X163.32 Y163.88
G1 F2700 X163.32 Y141.17 E968.97053
G0 F12000 X163.32 Y141.33
G0 X163.67 Y143.32
G0 X163.83 Y143.32
G1 F2700 X141.17 Y143.32 E970.10124
G0 F12000 X141.32 Y143.32
G0 X143.32 Y141.32
G0 X143.32 Y141.16
G1 F2700 X143.32 Y163.82 E971.23150
G0 F12000 X143.33 Y163.66
G0 X146.82 Y163.69
G0 X149.99 Y164.78
G0 X149.99 Y164.94
G1 F2700 X149.99 Y140.06 E972.47267
G0 F12000 X149.99 Y140.22
G0 X156.65 Y140.22
G0 X156.65 Y140.06
G1 F2700 X156.65 Y164.94 E973.71384
G1 F2400 E972.51384
G0 F12000 X188.12 Y158.32
G1 F2400 E973.71384
G1 F2700 X188.12 Y146.68 E974.29496
G1 X189.23 Y146.68 E974.35029
G1 X189.22 Y144.44 E974.46195
G1 X189.22 Y144.35 E974.46619
G1 X189.22 Y141.20 E974.62354
G1 X191.51 Y141.22 E974.73740
G1 X194.68 Y141.22 E974.89550
G1 X194.68 Y140.12 E974.95058
G1 X206.32 Y140.12 E975.53180
G1 X206.32 Y141.23 E975.58693
G1 X209.48 Y141.22 E975.74418
G1 X211.77 Y141.27 E975.85861
G1 X211.78 Y143.78 E975.98338
G1 X211.78 Y143.88 E975.98882
G1 X211.78 Y146.68 E976.12811
G1 X212.88 Y146.68 E976.18324
G1 X212.88 Y158.32 E976.76436
G1 X211.80 Y158.32 E976.81835
G1 X211.78 Y160.31 E976.91723
G1 X211.78 Y163.84 E977.09340
G1 X209.55 Y163.78 E977.20455
G1 X208.32 Y163.78 E977.26581
G1 X206.32 Y163.59 E977.36575
G1 X206.32 Y164.88 E977.42986
G1 X194.68 Y164.88 E978.01108
G1 X194.68 Y163.83 E978.06347
G1 X192.75 Y163.78 E978.15960
G1 X191.52 Y163.78 E978.22091
G1 X189.23 Y163.57 E978.33569
G1 X189.22 Y161.24 E978.45193
G1 X189.22 Y161.15 E978.45612
G1 X189.22 Y158.32 E978.59721
G1 X188.12 Y158.32 E978.65229
G0 F12000 X188.13 Y158.22
G0 X188.22 Y156.65
G0 X188.06 Y156.65
G1 F2700 X212.94 Y156.65 E979.89356
G0 F12000 X212.78 Y156.65
G0 X212.78 Y149.99
G0 X212.94 Y149.99
G1 F2700 X188.06 Y149.99 E981.13483
G0 F12000 X188.22 Y149.99
G0 X189.37 Y146.82
G0 X189.32 Y143.32
G0 X189.16 Y143.32
G1 F2700 X211.83 Y143.32 E982.26569
G0 F12000 X211.67 Y143.32
G0 X209.97 Y141.33
G0 X209.98 Y141.18
G1 F2700 X209.98 Y163.85 E983.39680
G0 F12000 X209.98 Y163.69
G0 X211.68 Y163.32
G0 X211.84 Y163.32
G1 F2700 X189.17 Y163.32 E984.52771
G0 F12000 X189.98 Y163.69
G1 F2700 X189.98 Y141.14 E985.65284
G0 F12000 X189.98 Y141.31
G0 X194.82 Y141.37
G0 X196.65 Y140.22
G0 X196.65 Y140.06
G1 F2700 X196.65 Y164.94 E986.89400
G0 F12000 X196.65 Y164.78
G0 X203.31 Y164.78
G0 X203.31 Y164.94
G1 F2700 X203.31 Y140.06 E988.13517
G1 F2400 E986.93517
G0 F12000 X236.12 Y146.68
G1 F2400 E988.13517
G1 F2700 X237.23 Y146.68 E988.19050
G1 X237.22 Y144.44 E988.30216
G1 X237.22 Y144.35 E988.30640
G1 X237.22 Y141.23 E988.46235
G1 X240.66 Y141.22 E988.63393
G1 X242.68 Y141.25 E988.73431
G1 X242.68 Y140.12 E988.79049
G1 X254.32 Y140.12 E989.37171
G1 X254.32 Y141.23 E989.42689
G1 X257.11 Y141.22 E989.56583
G1 X259.77 Y141.23 E989.69844
G1 X259.78 Y143.77 E989.82541
G1 X259.77 Y143.88 E989.83090
G1 X259.77 Y146.68 E989.97019
G1 X260.88 Y146.68 E990.02532
G1 X260.88 Y158.32 E990.60644
G1 X259.77 Y158.32 E990.66182
G1 X259.78 Y160.57 E990.77402
G1 X259.77 Y160.68 E990.77951
G1 X259.77 Y163.84 E990.93687
G1 X257.55 Y163.78 E991.04801
G1 X256.32 Y163.78 E991.10928
G1 X254.32 Y163.59 E991.20922
G1 X254.32 Y164.88 E991.27333
G1 X242.68 Y164.88 E991.85455
G1 X242.68 Y163.83 E991.90694
G1 X240.75 Y163.78 E992.00306
G1 X239.52 Y163.78 E992.06438
G1 X237.23 Y163.57 E992.17916
G1 X237.22 Y161.24 E992.29540
G1 X237.22 Y161.15 E992.29959
G1 X237.22 Y158.32 E992.44068
G1 X236.12 Y158.32 E992.49576
G1 X236.12 Y146.68 E993.07688
G0 F12000 X236.64 Y146.62
G1 F2700 X236.64 Y158.38 E993.66399
G0 F12000 X236.64 Y158.22
G0 X236.22 Y156.65
G0 X236.06 Y156.65
G1 F2700 X260.94 Y156.65 E994.90526
G0 F12000 X260.78 Y156.65
G0 X260.78 Y149.99
G0 X260.94 Y149.99
G1 F2700 X236.06 Y149.99 E996.14653
G0 F12000 X236.22 Y149.99
G0 X237.37 Y146.82
G0 X237.32 Y143.32
G0 X237.16 Y143.32
G1 F2700 X259.83 Y143.32 E997.27734
G0 F12000 X259.67 Y143.32
G0 X256.64 Y141.32
G0 X256.64 Y141.17
G1 F2700 X256.64 Y163.84 E998.40825
G0 F12000 X256.64 Y163.68
G0 X259.68 Y163.32
G0 X259.83 Y163.32
G1 F2700 X237.17 Y163.32 E999.53911
G0 F12000 X237.33 Y163.32
G0 X242.82 Y163.69
G0 X243.31 Y164.78
G0 X243.31 Y164.94
G1 F2700 X243.31 Y140.06 E1000.78028
G0 F12000 X243.31 Y140.22
G0 X249.97 Y140.22
G0 X249.97 Y140.06
G1 F2700 X249.97 Y164.94 E1002.02145
;LAYER:1
G1 F2400 E1000.82145
G0 F12000 X256.82 Y166.24 Z0.60
;TYPE:WALL-INNER
G1 F2400 E1002.02145
G1 F3180 X256.98 Y166.24 E1002.02893
G1 X256.98 Y167.38 E1002.08561
G1 X263.38 Y167.38 E1002.40515
G1 X263.38 Y160.97 E1002.72470
G1 X262.24 Y160.97 E1002.78142
G1 X262.24 Y160.82 E1002.78891
G1 X263.38 Y160.82 E1002.84563
G1 X263.38 Y144.18 E1003.67621
G1 X262.24 Y144.18 E1003.73293
G1 X262.24 Y144.03 E1003.74041
G1 X263.38 Y144.03 E1003.79714
G1 X263.38 Y137.62 E1004.11669
G1 X256.98 Y137.62 E1004.43623
G1 X256.98 Y138.76 E1004.49286
G1 X256.82 Y138.76 E1004.50034
G1 X256.82 Y137.62 E1004.55697
G1 X240.18 Y137.62 E1005.38764
G1 X240.18 Y138.76 E1005.44426
G1 X240.03 Y138.76 E1005.45175
G1 X240.03 Y137.62 E1005.50837
G1 X233.62 Y137.62 E1005.82792
G1 X233.62 Y144.03 E1006.14747
G1 X234.76 Y144.03 E1006.20414
G1 X234.76 Y144.18 E1006.21163
G1 X233.62 Y144.18 E1006.26830
G1 X233.62 Y160.82 E1007.09887
G1 X234.76 Y160.82 E1007.15555
G1 X234.76 Y160.97 E1007.16303
G1 X233.62 Y160.97 E1007.21971
G1 X233.62 Y167.38 E1007.53925
G1 X240.03 Y167.38 E1007.85880
G1 X240.03 Y166.24 E1007.91543
G1 X240.18 Y166.24 E1007.92291
G1 X240.18 Y167.38 E1007.97958
G1 X256.82 Y167.38 E1008.81026
G1 X256.82 Y166.24 E1008.86688
G0 F12000 X257.03 Y167.32
G0 X263.73 Y167.73
G1 F3180 X233.27 Y167.73 E1010.38654
G1 X233.27 Y137.27 E1011.90609
G1 X263.73 Y137.27 E1013.42575
G1 X263.73 Y167.73 E1014.94530
G0 F12000 X264.13 Y168.13
;TYPE:WALL-OUTER
G1 F3180 X232.87 Y168.13 E1016.50487
G1 X232.87 Y136.87 E1018.06434
G1 X264.13 Y136.87 E1019.62391
G1 X264.13 Y168.13 E1021.18338
G0 F12000 X263.83 Y167.92
G0 X262.98 Y167.28
G0 X262.98 Y166.98
G1 F3180 X262.98 Y161.37 E1021.46301
G1 X261.84 Y161.37 E1021.51974
G1 X261.84 Y160.42 E1021.56713
G1 X262.98 Y160.42 E1021.62386
G1 X262.98 Y144.58 E1022.41452
G1 X261.84 Y144.58 E1022.47124
G1 X261.84 Y143.63 E1022.51864
G1 X262.98 Y143.63 E1022.57536
G1 X262.98 Y138.02 E1022.85500
G1 X257.38 Y138.02 E1023.13463
G1 X257.38 Y139.16 E1023.19131
G1 X256.43 Y139.16 E1023.23870
G1 X256.43 Y138.02 E1023.29538
G1 X240.57 Y138.02 E1024.08614
G1 X240.57 Y139.16 E1024.14281
G1 X239.62 Y139.16 E1024.19021
G1 X239.62 Y138.02 E1024.24688
G1 X234.02 Y138.02 E1024.52652
G1 X234.02 Y143.63 E1024.80615
G1 X235.16 Y143.63 E1024.86283
G1 X235.16 Y144.27 E1024.89506
G1 X235.16 Y144.58 E1024.91022
G1 X234.02 Y144.58 E1024.96685
G1 X234.02 Y160.42 E1025.75751
G1 X235.16 Y160.42 E1025.81418
G1 X235.16 Y161.07 E1025.84646
G1 X235.16 Y161.37 E1025.86158
G1 X234.02 Y161.37 E1025.91821
G1 X234.02 Y166.98 E1026.19784
G1 X239.62 Y166.98 E1026.47748
G1 X239.62 Y165.84 E1026.53410
G1 X240.57 Y165.84 E1026.58150
G1 X240.57 Y166.98 E1026.63817
G1 X256.43 Y166.98 E1027.42893
G1 X256.43 Y165.84 E1027.48556
G1 X257.38 Y165.84 E1027.53295
G1 X257.38 Y166.98 E1027.58963
G1 X262.98 Y166.98 E1027.86926
G1 F2400 E1026.66926
G0 F12000 X215.73 Y167.73
;TYPE:WALL-INNER
G1 F2400 E1027.86926
G1 F3180 X185.27 Y167.73 E1029.38892
G1 X185.27 Y137.27 E1030.90847
G1 X215.73 Y137.27 E1032.42813
G1 X215.73 Y167.73 E1033.94768
G0 F12000 X215.38 Y167.38
G1 F3180 X215.38 Y160.97 E1034.26723
G1 X214.24 Y160.97 E1034.32396
G1 X214.24 Y160.82 E1034.33144
G1 X215.38 Y160.82 E1034.38817
G1 X215.38 Y144.18 E1035.21874
G1 X214.24 Y144.18 E1035.27546
G1 X214.24 Y144.03 E1035.28295
G1 X215.38 Y144.03 E1035.33967
G1 X215.38 Y137.62 E1035.65922
G1 X208.97 Y137.62 E1035.97876
G1 X208.97 Y138.76 E1036.03539
G1 X208.82 Y138.76 E1036.04287
G1 X208.82 Y137.62 E1036.09955
G1 X192.18 Y137.62 E1036.93022
G1 X192.18 Y138.76 E1036.98690
G1 X192.03 Y138.76 E1036.99438
G1 X192.03 Y137.62 E1037.05106
G1 X185.62 Y137.62 E1037.37060
G1 X185.62 Y144.03 E1037.69015
G1 X186.76 Y144.03 E1037.74682
G1 X186.76 Y144.18 E1037.75431
G1 X185.62 Y144.18 E1037.81098
G1 X185.62 Y160.82 E1038.64155
G1 X186.76 Y160.82 E1038.69823
G1 X186.76 Y160.97 E1038.70571
G1 X185.62 Y160.97 E1038.76239
G1 X185.62 Y167.38 E1039.08194
G1 X192.03 Y167.38 E1039.40148
G1 X192.03 Y166.24 E1039.45811
G1 X192.18 Y166.24 E1039.46559
G1 X192.18 Y167.38 E1039.52227
G1 X208.82 Y167.38 E1040.35294
G1 X208.82 Y166.24 E1040.40956
G1 X208.97 Y166.24 E1040.41705
G1 X208.97 Y167.38 E1040.47372
G1 X215.38 Y167.38 E1040.79327
G0 F12000 X214.98 Y166.98
;TYPE:WALL-OUTER
G1 F3180 X214.98 Y161.37 E1041.07290
G1 X213.84 Y161.37 E1041.12963
G1 X213.84 Y160.42 E1041.17703
G1 X214.98 Y160.42 E1041.23370
G1 X214.98 Y144.58 E1042.02436
G1 X213.84 Y144.58 E1042.08109
G1 X213.84 Y143.63 E1042.12848
G1 X214.98 Y143.63 E1042.18521
G1 X214.98 Y138.02 E1042.46484
G1 X209.38 Y138.02 E1042.74448
G1 X209.38 Y139.16 E1042.80110
G1 X208.43 Y139.16 E1042.84850
G1 X208.43 Y138.02 E1042.90517
G1 X192.57 Y138.02 E1043.69593
G1 X192.57 Y139.16 E1043.75261
G1 X191.62 Y139.16 E1043.80000
G1 X191.62 Y138.02 E1043.85663
G1 X186.02 Y138.02 E1044.13626
G1 X186.02 Y143.63 E1044.41590
G1 X187.16 Y143.63 E1044.47257
G1 X187.16 Y144.27 E1044.50480
G1 X187.16 Y144.58 E1044.51997
G1 X186.02 Y144.58 E1044.57659
G1 X186.02 Y160.42 E1045.36725
G1 X187.16 Y160.42 E1045.42393
G1 X187.16 Y161.07 E1045.45621
G1 X187.16 Y161.37 E1045.47132
G1 X186.02 Y161.37 E1045.52795
G1 X186.02 Y166.98 E1045.80758
G1 X191.62 Y166.98 E1046.08722
G1 X191.62 Y165.84 E1046.14384
G1 X192.57 Y165.84 E1046.19124
G1 X192.57 Y166.98 E1046.24792
G1 X208.43 Y166.98 E1047.03868
G1 X208.43 Y165.84 E1047.09530
G1 X209.38 Y165.84 E1047.14270
G1 X209.38 Y166.98 E1047.19937
G1 X214.98 Y166.98 E1047.47901
G0 F12000 X214.98 Y167.28
G0 X215.83 Y167.92
G0 X216.13 Y168.13
G1 F3180 X184.87 Y168.13 E1049.03857
G1 X184.87 Y136.87 E1050.59804
G1 X216.13 Y136.87 E1052.15761
G1 X216.13 Y168.13 E1053.71708
G1 F2400 E1052.51708
G0 F12000 X167.73 Y167.73
;TYPE:WALL-INNER
G1 F2400 E1053.71708
G1 F3180 X137.27 Y167.73 E1055.23668
G1 X137.27 Y137.27 E1056.75624
G1 X167.73 Y137.27 E1058.27584
G1 X167.73 Y167.73 E1059.79540
G0 F12000 X167.38 Y167.38
G1 F3180 X167.38 Y160.97 E1060.11495
G1 X166.24 Y160.97 E1060.17167
G1 X166.24 Y160.82 E1060.17916
G1 X167.38 Y160.82 E1060.23588
G1 X167.38 Y144.18 E1061.06645
G1 X166.24 Y144.18 E1061.12318
G1 X166.24 Y144.03 E1061.13066
G1 X167.38 Y144.03 E1061.18739
G1 X167.38 Y137.62 E1061.50693
G1 X160.97 Y137.62 E1061.82648
G1 X160.97 Y138.76 E1061.88311
G1 X160.82 Y138.76 E1061.89059
G1 X160.82 Y137.62 E1061.94721
G1 X144.18 Y137.62 E1062.77784
G1 X144.18 Y138.76 E1062.83451
G1 X144.03 Y138.76 E1062.84200
G1 X144.03 Y137.62 E1062.89867
G1 X137.62 Y137.62 E1063.21822
G1 X137.62 Y144.03 E1063.53776
G1 X138.76 Y144.03 E1063.59444
G1 X138.76 Y144.18 E1063.60192
G1 X137.62 Y144.18 E1063.65860
G1 X137.62 Y160.82 E1064.48917
G1 X138.76 Y160.82 E1064.54585
G1 X138.76 Y160.97 E1064.55333
G1 X137.62 Y160.97 E1064.61000
G1 X137.62 Y167.38 E1064.92955
G1 X144.03 Y167.38 E1065.24910
G1 X144.03 Y166.24 E1065.30572
G1 X144.18 Y166.24 E1065.31321
G1 X144.18 Y167.38 E1065.36988
G1 X160.82 Y167.38 E1066.20050
G1 X160.82 Y166.24 E1066.25713
G1 X160.97 Y166.24 E1066.26461
G1 X160.97 Y167.38 E1066.32129
G1 X167.38 Y167.38 E1066.64084
G0 F12000 X166.98 Y166.98
;TYPE:WALL-OUTER
G1 F3180 X166.98 Y161.37 E1066.92047
G1 X165.84 Y161.37 E1066.97720
G1 X165.84 Y160.42 E1067.02459
G1 X166.98 Y160.42 E1067.08132
G1 X166.98 Y144.58 E1067.87198
G1 X165.84 Y144.58 E1067.92870
G1 X165.84 Y143.63 E1067.97610
G1 X166.98 Y143.63 E1068.03282
G1 X166.98 Y138.02 E1068.31246
G1 X161.38 Y138.02 E1068.59209
G1 X161.38 Y139.16 E1068.64877
G1 X160.43 Y139.16 E1068.69616
G1 X160.43 Y138.02 E1068.75284
G1 X144.58 Y138.02 E1069.54355
G1 X144.58 Y139.16 E1069.60022
G1 X143.63 Y139.16 E1069.64762
G1 X143.63 Y138.02 E1069.70429
G1 X138.02 Y138.02 E1069.98393
G1 X138.02 Y143.63 E1070.26356
G1 X139.16 Y143.63 E1070.32024
G1 X139.16 Y144.27 E1070.35247
G1 X139.16 Y144.58 E1070.36763
G1 X138.02 Y144.58 E1070.42426
G1 X138.02 Y160.42 E1071.21492
G1 X139.16 Y160.42 E1071.27159
G1 X139.16 Y161.07 E1071.30387
G1 X139.16 Y161.37 E1071.31899
G1 X138.02 Y161.37 E1071.37562
G1 X138.02 Y166.98 E1071.65525
G1 X143.63 Y166.98 E1071.93488
G1 X143.63 Y165.84 E1071.99151
G1 X144.58 Y165.84 E1072.03891
G1 X144.58 Y166.98 E1072.09558
G1 X160.43 Y166.98 E1072.88629
G1 X160.43 Y165.84 E1072.94292
G1 X161.38 Y165.84 E1072.99031
G1 X161.38 Y166.98 E1073.04699
G1 X166.98 Y166.98 E1073.32662
G0 F12000 X166.98 Y167.28
G0 X167.83 Y167.92
G0 X168.13 Y168.13
G1 F3180 X136.87 Y168.13 E1074.88614
G1 X136.87 Y136.87 E1076.44561
G1 X168.13 Y136.87 E1078.00513
G1 X168.13 Y168.13 E1079.56459
G1 F2400 E1078.36459
G0 F12000 X119.73 Y167.73
;TYPE:WALL-INNER
G1 F2400 E1079.56459
G1 F3180 X89.27 Y167.73 E1081.08425
G1 X89.27 Y137.27 E1082.60380
G1 X119.73 Y137.27 E1084.12346
G1 X119.73 Y167.73 E1085.64302
G0 F12000 X119.38 Y167.38
G1 F3180 X119.38 Y160.97 E1085.96256
G1 X118.24 Y160.97 E1086.01929
G1 X118.24 Y160.82 E1086.02677
G1 X119.38 Y160.82 E1086.08350
G1 X119.38 Y144.18 E1086.91407
G1 X118.24 Y144.18 E1086.97079
G1 X118.24 Y144.03 E1086.97828
G1 X119.38 Y144.03 E1087.03500
G1 X119.38 Y137.62 E1087.35455
G1 X112.98 Y137.62 E1087.67410
G1 X112.98 Y138.76 E1087.73072
G1 X112.83 Y138.76 E1087.73821
G1 X112.83 Y137.62 E1087.79488
G1 X96.18 Y137.62 E1088.62555
G1 X96.18 Y138.76 E1088.68223
G1 X96.03 Y138.76 E1088.68971
G1 X96.03 Y137.62 E1088.74639
G1 X89.62 Y137.62 E1089.06593
G1 X89.62 Y144.03 E1089.38548
G1 X90.76 Y144.03 E1089.44216
G1 X90.76 Y144.18 E1089.44964
G1 X89.62 Y144.18 E1089.50631
G1 X89.62 Y160.82 E1090.33689
G1 X90.76 Y160.82 E1090.39356
G1 X90.76 Y160.97 E1090.40104
G1 X89.62 Y160.97 E1090.45772
G1 X89.62 Y167.38 E1090.77727
G1 X96.03 Y167.38 E1091.09681
G1 X96.03 Y166.24 E1091.15344
G1 X96.18 Y166.24 E1091.16092
G1 X96.18 Y167.38 E1091.21760
G1 X112.83 Y167.38 E1092.04827
G1 X112.83 Y166.24 E1092.10490
G1 X112.98 Y166.24 E1092.11238
G1 X112.98 Y167.38 E1092.16905
G1 X119.38 Y167.38 E1092.48860
G0 F12000 X118.98 Y166.98
;TYPE:WALL-OUTER
G1 F3180 X118.98 Y161.37 E1092.76824
G1 X117.84 Y161.37 E1092.82496
G1 X117.84 Y160.42 E1092.87236
G1 X118.98 Y160.42 E1092.92908
G1 X118.98 Y144.58 E1093.71974
G1 X117.84 Y144.58 E1093.77647
G1 X117.84 Y143.63 E1093.82386
G1 X118.98 Y143.63 E1093.88059
G1 X118.98 Y138.02 E1094.16022
G1 X113.38 Y138.02 E1094.43986
G1 X113.38 Y139.16 E1094.49648
G1 X112.43 Y139.16 E1094.54388
G1 X112.43 Y138.02 E1094.60055
G1 X96.58 Y138.02 E1095.39131
G1 X96.58 Y139.16 E1095.44799
G1 X95.63 Y139.16 E1095.49538
G1 X95.63 Y138.02 E1095.55206
G1 X90.02 Y138.02 E1095.83169
G1 X90.02 Y143.63 E1096.11133
G1 X91.16 Y143.63 E1096.16800
G1 X91.16 Y144.27 E1096.20023
G1 X91.16 Y144.58 E1096.21540
G1 X90.02 Y144.58 E1096.27202
G1 X90.02 Y160.42 E1097.06268
G1 X91.16 Y160.42 E1097.11936
G1 X91.16 Y161.07 E1097.15164
G1 X91.16 Y161.37 E1097.16676
G1 X90.02 Y161.37 E1097.22338
G1 X90.02 Y166.98 E1097.50302
G1 X95.63 Y166.98 E1097.78265
G1 X95.63 Y165.84 E1097.83928
G1 X96.58 Y165.84 E1097.88667
G1 X96.58 Y166.98 E1097.94335
G1 X112.43 Y166.98 E1098.73411
G1 X112.43 Y165.84 E1098.79073
G1 X113.38 Y165.84 E1098.83813
G1 X113.38 Y166.98 E1098.89480
G1 X118.98 Y166.98 E1099.17444
G0 F12000 X118.98 Y167.28
G0 X119.83 Y167.92
G0 X120.13 Y168.13
G1 F3180 X88.87 Y168.13 E1100.73400
G1 X88.87 Y136.87 E1102.29347
G1 X120.13 Y136.87 E1103.85304
G1 X120.13 Y168.13 E1105.41251
G1 F2400 E1104.21251
G0 F12000 X71.73 Y167.73
;TYPE:WALL-INNER
G1 F2400 E1105.41251
G1 F3180 X41.27 Y167.73 E1106.93221
G1 X41.27 Y137.27 E1108.45177
G1 X71.73 Y137.27 E1109.97148
G1 X71.73 Y167.73 E1111.49103
G0 F12000 X71.38 Y167.38
G1 F3180 X71.38 Y160.97 E1111.81058
G1 X70.24 Y160.97 E1111.86730
G1 X70.24 Y160.82 E1111.87479
G1 X71.38 Y160.82 E1111.93151
G1 X71.38 Y144.18 E1112.76208
G1 X70.24 Y144.18 E1112.81881
G1 X70.24 Y144.03 E1112.82629
G1 X71.38 Y144.03 E1112.88302
G1 X71.38 Y137.62 E1113.20256
G1 X64.98 Y137.62 E1113.52211
G1 X64.98 Y138.76 E1113.57874
G1 X64.83 Y138.76 E1113.58622
G1 X64.83 Y137.62 E1113.64290
G1 X48.17 Y137.62 E1114.47362
G1 X48.17 Y138.76 E1114.53029
G1 X48.02 Y138.76 E1114.53778
G1 X48.02 Y137.62 E1114.59445
G1 X41.62 Y137.62 E1114.91400
G1 X41.62 Y144.03 E1115.23354
G1 X42.76 Y144.03 E1115.29027
G1 X42.76 Y144.18 E1115.29775
G1 X41.62 Y144.18 E1115.35448
G1 X41.62 Y160.82 E1116.18505
G1 X42.76 Y160.82 E1116.24178
G1 X42.76 Y160.97 E1116.24926
G1 X41.62 Y160.97 E1116.30598
G1 X41.62 Y167.38 E1116.62553
G1 X48.02 Y167.38 E1116.94508
G1 X48.02 Y166.24 E1117.00170
G1 X48.17 Y166.24 E1117.00919
G1 X48.17 Y167.38 E1117.06586
G1 X64.83 Y167.38 E1117.89658
G1 X64.83 Y166.24 E1117.95321
G1 X64.98 Y166.24 E1117.96069
G1 X64.98 Y167.38 E1118.01737
G1 X71.38 Y167.38 E1118.33692
G0 F12000 X70.98 Y166.98
;TYPE:WALL-OUTER
G1 F3180 X70.98 Y161.37 E1118.61655
G1 X69.84 Y161.37 E1118.67327
G1 X69.84 Y160.42 E1118.72067
G1 X70.98 Y160.42 E1118.77740
G1 X70.98 Y144.58 E1119.56806
G1 X69.84 Y144.58 E1119.62478
G1 X69.84 Y143.63 E1119.67218
G1 X70.98 Y143.63 E1119.72890
G1 X70.98 Y138.02 E1120.00854
G1 X65.38 Y138.02 E1120.28817
G1 X65.38 Y139.16 E1120.34480
G1 X64.43 Y139.16 E1120.39219
G1 X64.43 Y138.02 E1120.44887
G1 X48.58 Y138.02 E1121.23968
G1 X48.58 Y139.16 E1121.29635
G1 X47.62 Y139.16 E1121.34375
G1 X47.62 Y138.02 E1121.40042
G1 X42.02 Y138.02 E1121.68006
G1 X42.02 Y143.63 E1121.95969
G1 X43.16 Y143.63 E1122.01642
G1 X43.16 Y144.27 E1122.04865
G1 X43.16 Y144.58 E1122.06381
G1 X42.02 Y144.58 E1122.12049
G1 X42.02 Y160.42 E1122.91115
G1 X43.16 Y160.42 E1122.96787
G1 X43.16 Y161.07 E1123.00015
G1 X43.16 Y161.37 E1123.01527
G1 X42.02 Y161.37 E1123.07194
G1 X42.02 Y166.98 E1123.35158
G1 X47.62 Y166.98 E1123.63121
G1 X47.62 Y165.84 E1123.68784
G1 X48.58 Y165.84 E1123.73523
G1 X48.58 Y166.98 E1123.79191
G1 X64.43 Y166.98 E1124.58272
G1 X64.43 Y165.84 E1124.63935
G1 X65.38 Y165.84 E1124.68674
G1 X65.38 Y166.98 E1124.74342
G1 X70.98 Y166.98 E1125.02305
G0 F12000 X70.98 Y167.28
G0 X71.83 Y167.92
G0 X72.13 Y168.13
G1 F3180 X40.87 Y168.13 E1126.58267
G1 X40.87 Y136.87 E1128.14214
G1 X72.13 Y136.87 E1129.70175
G1 X72.13 Y168.13 E1131.26122
G1 F2400 E1130.06122
G0 F12000 X236.12 Y158.32
;TYPE:SUPPORT
G1 F2400 E1131.26122
G1 F3180 X236.12 Y146.68 E1131.84234
G1 X237.26 Y146.68 E1131.89927
G1 X237.25 Y144.43 E1132.01117
G1 X237.26 Y144.28 E1132.01900
G1 X237.26 Y141.26 E1132.16952
G1 X240.51 Y141.26 E1132.33207
G1 X242.68 Y141.26 E1132.43988
G1 X242.68 Y140.12 E1132.49690
G1 X254.32 Y140.12 E1133.07812
G1 X254.32 Y141.26 E1133.13490
G1 X256.99 Y141.26 E1133.26796
G1 X259.74 Y141.26 E1133.40486
G1 X259.74 Y143.74 E1133.52858
G1 X259.74 Y144.01 E1133.54190
G1 X259.74 Y146.68 E1133.67501
G1 X260.88 Y146.68 E1133.73174
G1 X260.88 Y158.32 E1134.31286
G1 X259.74 Y158.32 E1134.36988
G1 X259.74 Y160.54 E1134.48044
G1 X259.74 Y160.81 E1134.49376
G1 X259.74 Y163.76 E1134.64129
G1 X257.47 Y163.74 E1134.75459
G1 X256.27 Y163.74 E1134.81476
G1 X254.32 Y163.69 E1134.91164
G1 X254.32 Y164.88 E1134.97116
G1 X242.68 Y164.88 E1135.55238
G1 X242.68 Y163.76 E1135.60811
G1 X240.67 Y163.74 E1135.70804
G1 X239.47 Y163.74 E1135.76826
G1 X237.26 Y163.68 E1135.87827
G1 X237.25 Y161.23 E1136.00030
G1 X237.26 Y161.07 E1136.00808
G1 X237.26 Y158.32 E1136.14533
G1 X236.12 Y158.32 E1136.20201
G0 F12000 X236.64 Y158.38
G1 F3180 X236.64 Y146.62 E1136.78911
G0 F12000 X236.64 Y146.78
G0 X237.40 Y146.82
G0 X237.36 Y143.32
G0 X237.20 Y143.32
G1 F3180 X259.80 Y143.32 E1137.91673
G0 F12000 X259.64 Y143.32
G0 X256.64 Y141.36
G0 X256.64 Y141.20
G1 F3180 X256.64 Y163.81 E1139.04455
G0 F12000 X256.64 Y163.64
G0 X259.64 Y163.32
G0 X259.80 Y163.32
G1 F3180 X237.20 Y163.32 E1140.17222
G0 F12000 X237.36 Y163.32
G0 X242.82 Y163.62
G0 X243.31 Y164.78
G0 X243.31 Y164.94
G1 F3180 X243.31 Y140.06 E1141.41339
G0 F12000 X243.31 Y140.22
G0 X249.97 Y140.22
G0 X249.97 Y140.06
G1 F3180 X249.97 Y164.94 E1142.65455
G0 F12000 X249.97 Y164.78
G0 X260.78 Y156.65
G0 X260.94 Y156.65
G1 F3180 X236.06 Y156.65 E1143.89582
G0 F12000 X236.22 Y156.65
G0 X236.22 Y149.99
G0 X236.06 Y149.99
G1 F3180 X260.94 Y149.99 E1145.13709
G1 F2400 E1143.93709
G0 F12000 X212.88 Y146.68
G1 F2400 E1145.13709
G1 F3180 X212.88 Y158.32 E1145.71821
G1 X211.75 Y158.32 E1145.77454
G1 X211.74 Y160.48 E1145.88200
G1 X211.74 Y163.76 E1146.04594
G1 X209.47 Y163.74 E1146.15925
G1 X208.27 Y163.74 E1146.21941
G1 X206.32 Y163.69 E1146.31630
G1 X206.32 Y164.88 E1146.37581
G1 X194.68 Y164.88 E1146.95703
G1 X194.68 Y163.76 E1147.01276
G1 X192.67 Y163.74 E1147.11270
G1 X191.47 Y163.74 E1147.17291
G1 X189.26 Y163.68 E1147.28292
G1 X189.25 Y161.23 E1147.40495
G1 X189.26 Y161.07 E1147.41274
G1 X189.26 Y158.32 E1147.54999
G1 X188.12 Y158.32 E1147.60666
G1 X188.12 Y146.68 E1148.18778
G1 X189.26 Y146.68 E1148.24471
G1 X189.25 Y144.43 E1148.35661
G1 X189.26 Y144.28 E1148.36444
G1 X189.26 Y141.25 E1148.51546
G1 X191.68 Y141.26 E1148.63635
G1 X194.68 Y141.26 E1148.78582
G1 X194.68 Y140.12 E1148.84249
G1 X206.32 Y140.12 E1149.42371
G1 X206.32 Y141.26 E1149.48049
G1 X209.42 Y141.26 E1149.63485
G1 X211.74 Y141.27 E1149.75045
G1 X211.74 Y143.74 E1149.87363
G1 X211.74 Y144.01 E1149.88695
G1 X211.74 Y146.68 E1150.02005
G1 X212.88 Y146.68 E1150.07678
G0 F12000 X212.78 Y149.99
G0 X212.94 Y149.99
G1 F3180 X188.06 Y149.99 E1151.31805
G0 F12000 X188.22 Y149.99
G0 X188.22 Y156.65
G0 X188.06 Y156.65
G1 F3180 X212.94 Y156.65 E1152.55932
G0 F12000 X212.78 Y156.65
G0 X211.61 Y158.18
G0 X211.64 Y163.32
G0 X211.80 Y163.32
G1 F3180 X189.20 Y163.32 E1153.68698
G0 F12000 X189.98 Y163.76
G1 F3180 X189.98 Y141.19 E1154.81286
G0 F12000 X189.98 Y141.35
G0 X189.36 Y143.32
G0 X189.20 Y143.32
G1 F3180 X211.80 Y143.32 E1155.94048
G0 F12000 X211.64 Y143.32
G0 X209.98 Y141.36
G0 X209.98 Y141.21
G1 F3180 X209.98 Y163.81 E1157.06829
G0 F12000 X209.98 Y163.65
G0 X206.19 Y163.54
G0 X203.31 Y164.78
G0 X203.31 Y164.94
G1 F3180 X203.31 Y140.06 E1158.30946
G0 F12000 X203.31 Y140.22
G0 X196.65 Y140.22
G0 X196.65 Y140.06
G1 F3180 X196.65 Y164.94 E1159.55063
G1 F2400 E1158.35063
G0 F12000 X164.88 Y158.32
G1 F2400 E1159.55063
G1 F3180 X163.76 Y158.32 E1159.60666
G1 X163.74 Y160.36 E1159.70834
G1 X163.74 Y163.76 E1159.87806
G1 X161.47 Y163.74 E1159.99137
G1 X160.27 Y163.74 E1160.05153
G1 X158.32 Y163.69 E1160.14841
G1 X158.32 Y164.88 E1160.20793
G1 X146.68 Y164.88 E1160.78910
G1 X146.68 Y163.76 E1160.84483
G1 X144.67 Y163.74 E1160.94477
G1 X143.47 Y163.74 E1161.00498
G1 X141.26 Y163.68 E1161.11499
G1 X141.26 Y161.23 E1161.23702
G1 X141.26 Y161.07 E1161.24481
G1 X141.26 Y158.32 E1161.38206
G1 X140.12 Y158.32 E1161.43873
G1 X140.12 Y146.68 E1162.01985
G1 X141.26 Y146.68 E1162.07678
G1 X141.26 Y144.43 E1162.18868
G1 X141.26 Y144.28 E1162.19651
G1 X141.26 Y141.24 E1162.34788
G1 X143.56 Y141.26 E1162.46298
G1 X146.68 Y141.26 E1162.61824
G1 X146.68 Y140.12 E1162.67491
G1 X158.32 Y140.12 E1163.25608
G1 X158.32 Y141.26 E1163.31286
G1 X160.99 Y141.26 E1163.44592
G1 X163.74 Y141.26 E1163.58282
G1 X163.74 Y143.74 E1163.70654
G1 X163.74 Y144.01 E1163.71986
G1 X163.74 Y146.68 E1163.85297
G1 X164.88 Y146.68 E1163.90970
G1 X164.88 Y158.32 E1164.49082
G0 F12000 X164.78 Y158.31
G0 X164.78 Y156.65
G0 X164.94 Y156.65
G1 F3180 X140.06 Y156.65 E1165.73204
G0 F12000 X140.22 Y156.65
G0 X140.22 Y149.99
G0 X140.06 Y149.99
G1 F3180 X164.94 Y149.99 E1166.97325
G0 F12000 X164.78 Y149.99
G0 X163.60 Y146.82
G0 X163.64 Y143.32
G0 X163.80 Y143.32
G1 F3180 X141.20 Y143.32 E1168.10082
G0 F12000 X141.36 Y143.32
G0 X143.32 Y141.35
G0 X143.32 Y141.19
G1 F3180 X143.32 Y163.80 E1169.22889
G0 F12000 X143.32 Y163.64
G0 X141.36 Y163.32
G0 X141.20 Y163.32
G1 F3180 X163.80 Y163.32 E1170.35656
G0 F12000 X163.32 Y163.82
G1 F3180 X163.32 Y141.20 E1171.48513
G0 F12000 X163.32 Y141.36
G0 X158.18 Y141.40
G0 X156.65 Y140.22
G0 X156.65 Y140.06
G1 F3180 X156.65 Y164.94 E1172.72629
G0 F12000 X156.65 Y164.78
G0 X149.99 Y164.78
G0 X149.99 Y164.94
G1 F3180 X149.99 Y140.06 E1173.96746
G1 F2400 E1172.76746
G0 F12000 X116.88 Y146.68
G1 F2400 E1173.96746
G1 F3180 X116.88 Y158.32 E1174.54858
G1 X115.76 Y158.32 E1174.60461
G1 X115.74 Y160.36 E1174.70629
G1 X115.74 Y163.76 E1174.87602
G1 X113.47 Y163.74 E1174.98932
G1 X112.27 Y163.74 E1175.04949
G1 X110.33 Y163.69 E1175.14637
G1 X110.33 Y164.88 E1175.20589
G1 X98.68 Y164.88 E1175.78711
G1 X98.68 Y163.76 E1175.84284
G1 X96.67 Y163.74 E1175.94277
G1 X95.47 Y163.74 E1176.00299
G1 X93.26 Y163.68 E1176.11300
G1 X93.26 Y161.23 E1176.23503
G1 X93.26 Y161.07 E1176.24281
G1 X93.26 Y158.32 E1176.38006
G1 X92.12 Y158.32 E1176.43673
G1 X92.12 Y146.68 E1177.01786
G1 X93.26 Y146.68 E1177.07478
G1 X93.26 Y144.43 E1177.18668
G1 X93.26 Y144.28 E1177.19452
G1 X93.26 Y141.24 E1177.34588
G1 X95.56 Y141.26 E1177.46098
G1 X98.68 Y141.26 E1177.61624
G1 X98.68 Y140.12 E1177.67292
G1 X110.33 Y140.12 E1178.25414
G1 X110.33 Y141.26 E1178.31091
G1 X113.42 Y141.26 E1178.46527
G1 X115.74 Y141.27 E1178.58087
G1 X115.75 Y143.74 E1178.70405
G1 X115.74 Y144.01 E1178.71737
G1 X115.74 Y146.68 E1178.85048
G1 X116.88 Y146.68 E1178.90720
G0 F12000 X116.66 Y146.62
G1 F3180 X116.66 Y158.38 E1179.49431
G0 F12000 X116.66 Y158.22
G0 X116.78 Y156.65
G0 X116.94 Y156.65
G1 F3180 X92.06 Y156.65 E1180.73558
G0 F12000 X92.22 Y156.65
G0 X92.22 Y149.99
G0 X92.06 Y149.99
G1 F3180 X116.94 Y149.99 E1181.97685
G0 F12000 X116.78 Y149.99
G0 X115.60 Y146.82
G0 X115.64 Y143.32
G0 X115.80 Y143.32
G1 F3180 X93.20 Y143.32 E1183.10447
G0 F12000 X93.36 Y143.32
G0 X96.66 Y141.36
G0 X96.66 Y141.19
G1 F3180 X96.66 Y163.81 E1184.23288
G0 F12000 X96.66 Y163.64
G0 X93.36 Y163.32
G0 X93.20 Y163.32
G1 F3180 X115.80 Y163.32 E1185.36060
G0 F12000 X115.64 Y163.32
G0 X110.19 Y163.54
G0 X109.99 Y164.78
G0 X109.99 Y164.94
G1 F3180 X109.99 Y140.06 E1186.60177
G0 F12000 X109.99 Y140.22
G0 X103.32 Y140.22
G0 X103.32 Y140.06
G1 F3180 X103.32 Y164.94 E1187.84294
G1 F2400 E1186.64294
G0 F12000 X68.88 Y158.32
G1 F2400 E1187.84294
G1 F3180 X67.76 Y158.32 E1187.89897
G1 X67.74 Y160.36 E1188.00064
G1 X67.74 Y163.76 E1188.17037
G1 X65.47 Y163.74 E1188.28368
G1 X64.27 Y163.74 E1188.34384
G1 X62.33 Y163.69 E1188.44072
G1 X62.33 Y164.88 E1188.50024
G1 X50.67 Y164.88 E1189.08151
G1 X50.67 Y163.76 E1189.13724
G1 X48.67 Y163.74 E1189.23718
G1 X47.47 Y163.74 E1189.29734
G1 X45.26 Y163.68 E1189.40735
G1 X45.26 Y161.23 E1189.52948
G1 X45.26 Y161.07 E1189.53726
G1 X45.26 Y158.32 E1189.67451
G1 X44.12 Y158.32 E1189.73124
G1 X44.12 Y146.68 E1190.31236
G1 X45.26 Y146.68 E1190.36933
G1 X45.26 Y144.43 E1190.48124
G1 X45.26 Y144.28 E1190.48907
G1 X45.26 Y141.24 E1190.64044
G1 X47.56 Y141.26 E1190.75549
G1 X50.67 Y141.26 E1190.91074
G1 X50.67 Y140.12 E1190.96742
G1 X62.33 Y140.12 E1191.54869
G1 X62.33 Y141.26 E1191.60546
G1 X65.42 Y141.26 E1191.75982
G1 X67.74 Y141.27 E1191.87542
G1 X67.75 Y143.74 E1191.99860
G1 X67.74 Y144.01 E1192.01192
G1 X67.74 Y146.68 E1192.14503
G1 X68.88 Y146.68 E1192.20176
G1 X68.88 Y158.32 E1192.78288
G0 F12000 X68.78 Y158.31
G0 X68.78 Y156.65
G0 X68.94 Y156.65
G1 F3180 X44.06 Y156.65 E1194.02420
G0 F12000 X44.22 Y156.65
G0 X44.22 Y149.99
G0 X44.06 Y149.99
G1 F3180 X68.94 Y149.99 E1195.26551
G0 F12000 X68.78 Y149.99
G0 X67.60 Y146.82
G0 X67.64 Y143.32
G0 X67.80 Y143.32
G1 F3180 X45.20 Y143.32 E1196.39313
G0 F12000 X45.36 Y143.32
G0 X49.99 Y141.36
G0 X49.99 Y141.20
G1 F3180 X49.99 Y163.82 E1197.52175
G0 F12000 X50.00 Y163.66
G0 X45.36 Y163.32
G0 X45.20 Y163.32
G1 F3180 X67.80 Y163.32 E1198.64947
G0 F12000 X67.64 Y163.32
G0 X63.33 Y163.62
G0 X63.33 Y163.78
G1 F3180 X63.33 Y141.20 E1199.77569
G0 F12000 X63.33 Y141.36
G0 X62.19 Y141.40
G0 X56.66 Y140.22
G0 X56.66 Y140.06
G1 F3180 X56.66 Y164.94 E1201.01686
;LAYER:2
G1 F2400 E1199.81686
G0 F12000 X64.83 Y166.21 Z0.90
;TYPE:WALL-INNER
G1 F2400 E1201.01686
G1 F3720 X64.98 Y166.21 E1201.02434
G1 X64.98 Y167.38 E1201.08261
G1 X71.38 Y167.38 E1201.40216
G1 X71.38 Y160.97 E1201.72170
G1 X70.21 Y160.97 E1201.78003
G1 X70.21 Y160.82 E1201.78751
G1 X71.38 Y160.82 E1201.84583
G1 X71.38 Y144.18 E1202.67640
G1 X70.21 Y144.18 E1202.73473
G1 X70.21 Y144.03 E1202.74221
G1 X71.38 Y144.03 E1202.80053
G1 X71.38 Y137.62 E1203.12008
G1 X64.98 Y137.62 E1203.43962
G1 X64.98 Y138.79 E1203.49785
G1 X64.83 Y138.79 E1203.50533
G1 X64.83 Y137.62 E1203.56355
G1 X48.17 Y137.62 E1204.39427
G1 X48.17 Y138.79 E1204.45254
G1 X48.02 Y138.79 E1204.46003
G1 X48.02 Y137.62 E1204.51830
G1 X41.62 Y137.62 E1204.83785
G1 X41.62 Y144.03 E1205.15739
G1 X42.79 Y144.03 E1205.21572
G1 X42.79 Y144.18 E1205.22320
G1 X41.62 Y144.18 E1205.28152
G1 X41.62 Y160.82 E1206.11209
G1 X42.79 Y160.82 E1206.17041
G1 X42.79 Y160.97 E1206.17790
G1 X41.62 Y160.97 E1206.23622
G1 X41.62 Y167.38 E1206.55577
G1 X48.02 Y167.38 E1206.87531
G1 X48.02 Y166.21 E1206.93353
G1 X48.17 Y166.21 E1206.94102
G1 X48.17 Y167.38 E1206.99929
G1 X64.83 Y167.38 E1207.83001
G1 X64.83 Y166.21 E1207.88823
G0 F12000 X65.03 Y167.32
G0 X71.73 Y167.73
G1 F3720 X41.27 Y167.73 E1209.40794
G1 X41.27 Y137.27 E1210.92749
G1 X71.73 Y137.27 E1212.44720
G1 X71.73 Y167.73 E1213.96676
G0 F12000 X72.13 Y168.13
;TYPE:WALL-OUTER
G1 F3720 X40.87 Y168.13 E1215.52637
G1 X40.87 Y136.87 E1217.08584
G1 X72.13 Y136.87 E1218.64546
G1 X72.13 Y168.13 E1220.20493
G0 F12000 X71.83 Y167.92
G0 X70.98 Y167.28
G0 X70.98 Y166.98
G1 F3720 X70.98 Y161.37 E1220.48456
G1 X69.81 Y161.37 E1220.54288
G1 X69.81 Y160.42 E1220.59028
G1 X70.98 Y160.42 E1220.64855
G1 X70.98 Y144.58 E1221.43921
G1 X69.81 Y144.58 E1221.49753
G1 X69.81 Y143.63 E1221.54493
G1 X70.98 Y143.63 E1221.60325
G1 X70.98 Y138.02 E1221.88288
G1 X65.38 Y138.02 E1222.16252
G1 X65.38 Y139.19 E1222.22074
G1 X64.43 Y139.19 E1222.26814
G1 X64.43 Y138.02 E1222.32641
G1 X48.58 Y138.02 E1223.11722
G1 X48.58 Y139.19 E1223.17549
G1 X47.62 Y139.19 E1223.22289
G1 X47.62 Y138.02 E1223.28111
G1 X42.02 Y138.02 E1223.56074
G1 X42.02 Y143.63 E1223.84038
G1 X43.19 Y143.63 E1223.89870
G1 X43.19 Y144.58 E1223.94609
G1 X42.02 Y144.58 E1224.00442
G1 X42.02 Y160.42 E1224.79508
G1 X43.19 Y160.42 E1224.85340
G1 X43.19 Y161.37 E1224.90079
G1 X42.02 Y161.37 E1224.95911
G1 X42.02 Y166.98 E1225.23875
G1 X47.62 Y166.98 E1225.51838
G1 X47.62 Y165.81 E1225.57661
G1 X48.58 Y165.81 E1225.62400
G1 X48.58 Y166.98 E1225.68227
G1 X64.43 Y166.98 E1226.47308
G1 X64.43 Y165.81 E1226.53130
G1 X65.38 Y165.81 E1226.57870
G1 X65.38 Y166.98 E1226.63697
G1 X70.98 Y166.98 E1226.91661
G1 F2400 E1225.71661
G0 F12000 X89.27 Y167.73
;TYPE:WALL-INNER
G1 F2400 E1226.91661
G1 F3720 X89.27 Y137.27 E1228.43616
G1 X119.73 Y137.27 E1229.95582
G1 X119.73 Y167.73 E1231.47537
G1 X89.27 Y167.73 E1232.99503
G0 F12000 X89.62 Y167.38
G1 F3720 X96.03 Y167.38 E1233.31458
G1 X96.03 Y166.21 E1233.37280
G1 X96.18 Y166.21 E1233.38028
G1 X96.18 Y167.38 E1233.43855
G1 X112.83 Y167.38 E1234.26923
G1 X112.83 Y166.21 E1234.32745
G1 X112.98 Y166.21 E1234.33493
G1 X112.98 Y167.38 E1234.39320
G1 X119.38 Y167.38 E1234.71275
G1 X119.38 Y160.97 E1235.03230
G1 X118.21 Y160.97 E1235.09062
G1 X118.21 Y160.82 E1235.09810
G1 X119.38 Y160.82 E1235.15642
G1 X119.38 Y144.18 E1235.98699
G1 X118.21 Y144.18 E1236.04532
G1 X118.21 Y144.03 E1236.05280
G1 X119.38 Y144.03 E1236.11112
G1 X119.38 Y137.62 E1236.43067
G1 X112.98 Y137.62 E1236.75022
G1 X112.98 Y138.79 E1236.80844
G1 X112.83 Y138.79 E1236.81592
G1 X112.83 Y137.62 E1236.87414
G1 X96.18 Y137.62 E1237.70481
G1 X96.18 Y138.79 E1237.76309
G1 X96.03 Y138.79 E1237.77057
G1 X96.03 Y137.62 E1237.82884
G1 X89.62 Y137.62 E1238.14839
G1 X89.62 Y144.03 E1238.46793
G1 X90.79 Y144.03 E1238.52621
G1 X90.79 Y144.18 E1238.53369
G1 X89.62 Y144.18 E1238.59196
G1 X89.62 Y160.82 E1239.42253
G1 X90.79 Y160.82 E1239.48081
G1 X90.79 Y160.97 E1239.48829
G1 X89.62 Y160.97 E1239.54656
G1 X89.62 Y167.38 E1239.86611
G0 F12000 X90.02 Y166.98
;TYPE:WALL-OUTER
G1 F3720 X95.63 Y166.98 E1240.14574
G1 X95.63 Y165.81 E1240.20396
G1 X96.58 Y165.81 E1240.25136
G1 X96.58 Y166.98 E1240.30963
G1 X112.43 Y166.98 E1241.10039
G1 X112.43 Y165.81 E1241.15861
G1 X113.38 Y165.81 E1241.20601
G1 X113.38 Y166.98 E1241.26428
G1 X118.98 Y166.98 E1241.54392
G1 X118.98 Y161.37 E1241.82355
G1 X117.81 Y161.37 E1241.88187
G1 X117.81 Y160.42 E1241.92927
G1 X118.98 Y160.42 E1241.98754
G1 X118.98 Y144.58 E1242.77820
G1 X117.81 Y144.58 E1242.83652
G1 X117.81 Y143.63 E1242.88392
G1 X118.98 Y143.63 E1242.94224
G1 X118.98 Y138.02 E1243.22187
G1 X113.38 Y138.02 E1243.50151
G1 X113.38 Y139.19 E1243.55973
G1 X112.43 Y139.19 E1243.60712
G1 X112.43 Y138.02 E1243.66540
G1 X96.58 Y138.02 E1244.45616
G1 X96.58 Y139.19 E1244.51443
G1 X95.63 Y139.19 E1244.56182
G1 X95.63 Y138.02 E1244.62005
G1 X90.02 Y138.02 E1244.89968
G1 X90.02 Y143.63 E1245.17931
G1 X91.19 Y143.63 E1245.23759
G1 X91.19 Y144.58 E1245.28498
G1 X90.02 Y144.58 E1245.34325
G1 X90.02 Y160.42 E1246.13391
G1 X91.19 Y160.42 E1246.19219
G1 X91.19 Y161.37 E1246.23958
G1 X90.02 Y161.37 E1246.29785
G1 X90.02 Y166.98 E1246.57749
G0 F12000 X89.72 Y166.98
G0 X89.08 Y167.83
G0 X88.87 Y168.13
G1 F3720 X88.87 Y136.87 E1248.13696
G1 X120.13 Y136.87 E1249.69652
G1 X120.13 Y168.13 E1251.25599
G1 X88.87 Y168.13 E1252.81556
G1 F2400 E1251.61556
G0 F12000 X137.27 Y167.73
;TYPE:WALL-INNER
G1 F2400 E1252.81556
G1 F3720 X137.27 Y137.27 E1254.33511
G1 X167.73 Y137.27 E1255.85472
G1 X167.73 Y167.73 E1257.37428
G1 X137.27 Y167.73 E1258.89388
G0 F12000 X137.62 Y167.38
G1 F3720 X144.03 Y167.38 E1259.21343
G1 X144.03 Y166.21 E1259.27165
G1 X144.18 Y166.21 E1259.27913
G1 X144.18 Y167.38 E1259.33741
G1 X160.82 Y167.38 E1260.16803
G1 X160.82 Y166.21 E1260.22625
G1 X160.97 Y166.21 E1260.23373
G1 X160.97 Y167.38 E1260.29201
G1 X167.38 Y167.38 E1260.61155
G1 X167.38 Y160.97 E1260.93110
G1 X166.21 Y160.97 E1260.98942
G1 X166.21 Y160.82 E1260.99690
G1 X167.38 Y160.82 E1261.05523
G1 X167.38 Y144.18 E1261.88580
G1 X166.21 Y144.18 E1261.94412
G1 X166.21 Y144.03 E1261.95160
G1 X167.38 Y144.03 E1262.00992
G1 X167.38 Y137.62 E1262.32947
G1 X160.97 Y137.62 E1262.64902
G1 X160.97 Y138.79 E1262.70724
G1 X160.82 Y138.79 E1262.71472
G1 X160.82 Y137.62 E1262.77295
G1 X144.18 Y137.62 E1263.60357
G1 X144.18 Y138.79 E1263.66184
G1 X144.03 Y138.79 E1263.66932
G1 X144.03 Y137.62 E1263.72759
G1 X137.62 Y137.62 E1264.04714
G1 X137.62 Y144.03 E1264.36669
G1 X138.79 Y144.03 E1264.42496
G1 X138.79 Y144.18 E1264.43244
G1 X137.62 Y144.18 E1264.49071
G1 X137.62 Y160.82 E1265.32129
G1 X138.79 Y160.82 E1265.37956
G1 X138.79 Y160.97 E1265.38704
G1 X137.62 Y160.97 E1265.44531
G1 X137.62 Y167.38 E1265.76486
G0 F12000 X138.02 Y166.98
;TYPE:WALL-OUTER
G1 F3720 X143.63 Y166.98 E1266.04450
G1 X143.63 Y165.81 E1266.10272
G1 X144.58 Y165.81 E1266.15011
G1 X144.58 Y166.98 E1266.20838
G1 X160.43 Y166.98 E1266.99909
G1 X160.43 Y165.81 E1267.05732
G1 X161.38 Y165.81 E1267.10471
G1 X161.38 Y166.98 E1267.16298
G1 X166.98 Y166.98 E1267.44262
G1 X166.98 Y161.37 E1267.72225
G1 X165.81 Y161.37 E1267.78057
G1 X165.81 Y160.42 E1267.82797
G1 X166.98 Y160.42 E1267.88624
G1 X166.98 Y144.58 E1268.67690
G1 X165.81 Y144.58 E1268.73522
G1 X165.81 Y143.63 E1268.78262
G1 X166.98 Y143.63 E1268.84094
G1 X166.98 Y138.02 E1269.12058
G1 X161.38 Y138.02 E1269.40021
G1 X161.38 Y139.19 E1269.45848
G1 X160.43 Y139.19 E1269.50588
G1 X160.43 Y138.02 E1269.56415
G1 X144.58 Y138.02 E1270.35486
G1 X144.58 Y139.19 E1270.41313
G1 X143.63 Y139.19 E1270.46053
G1 X143.63 Y138.02 E1270.51875
G1 X138.02 Y138.02 E1270.79838
G1 X138.02 Y143.63 E1271.07802
G1 X139.19 Y143.63 E1271.13629
G1 X139.19 Y144.58 E1271.18369
G1 X138.02 Y144.58 E1271.24196
G1 X138.02 Y160.42 E1272.03262
G1 X139.19 Y160.42 E1272.09089
G1 X139.19 Y161.37 E1272.13828
G1 X138.02 Y161.37 E1272.19656
G1 X138.02 Y166.98 E1272.47619
G0 F12000 X137.72 Y166.98
G0 X137.08 Y167.83
G0 X136.87 Y168.13
G1 F3720 X136.87 Y136.87 E1274.03566
G1 X168.13 Y136.87 E1275.59518
G1 X168.13 Y168.13 E1277.15464
G1 X136.87 Y168.13 E1278.71416
G1 F2400 E1277.51416
G0 F12000 X185.27 Y167.73
;TYPE:WALL-INNER
G1 F2400 E1278.71416
G1 F3720 X185.27 Y137.27 E1280.23372
G1 X215.73 Y137.27 E1281.75337
G1 X215.73 Y167.73 E1283.27293
G1 X185.27 Y167.73 E1284.79258
G0 F12000 X185.62 Y167.38
G1 F3720 X192.03 Y167.38 E1285.11213
G1 X192.03 Y166.21 E1285.17035
G1 X192.18 Y166.21 E1285.17784
G1 X192.18 Y167.38 E1285.23611
G1 X208.82 Y167.38 E1286.06678
G1 X208.82 Y166.21 E1286.12500
G1 X208.97 Y166.21 E1286.13249
G1 X208.97 Y167.38 E1286.19076
G1 X215.38 Y167.38 E1286.51030
G1 X215.38 Y160.97 E1286.82985
G1 X214.21 Y160.97 E1286.88817
G1 X214.21 Y160.82 E1286.89566
G1 X215.38 Y160.82 E1286.95398
G1 X215.38 Y144.18 E1287.78455
G1 X214.21 Y144.18 E1287.84287
G1 X214.21 Y144.03 E1287.85036
G1 X215.38 Y144.03 E1287.90868
G1 X215.38 Y137.62 E1288.22822
G1 X208.97 Y137.62 E1288.54777
G1 X208.97 Y138.79 E1288.60599
G1 X208.82 Y138.79 E1288.61348
G1 X208.82 Y137.62 E1288.67170
G1 X192.18 Y137.62 E1289.50237
G1 X192.18 Y138.79 E1289.56064
G1 X192.03 Y138.79 E1289.56813
G1 X192.03 Y137.62 E1289.62640
G1 X185.62 Y137.62 E1289.94594
G1 X185.62 Y144.03 E1290.26549
G1 X186.79 Y144.03 E1290.32376
G1 X186.79 Y144.18 E1290.33125
G1 X185.62 Y144.18 E1290.38952
G1 X185.62 Y160.82 E1291.22009
G1 X186.79 Y160.82 E1291.27836
G1 X186.79 Y160.97 E1291.28585
G1 X185.62 Y160.97 E1291.34412
G1 X185.62 Y167.38 E1291.66366
G0 F12000 X186.02 Y166.98
;TYPE:WALL-OUTER
G1 F3720 X191.62 Y166.98 E1291.94330
G1 X191.62 Y165.81 E1292.00152
G1 X192.57 Y165.81 E1292.04892
G1 X192.57 Y166.98 E1292.10719
G1 X208.43 Y166.98 E1292.89795
G1 X208.43 Y165.81 E1292.95617
G1 X209.38 Y165.81 E1293.00356
G1 X209.38 Y166.98 E1293.06184
G1 X214.98 Y166.98 E1293.34147
G1 X214.98 Y161.37 E1293.62111
G1 X213.81 Y161.37 E1293.67943
G1 X213.81 Y160.42 E1293.72682
G1 X214.98 Y160.42 E1293.78509
G1 X214.98 Y144.58 E1294.57575
G1 X213.81 Y144.58 E1294.63408
G1 X213.81 Y143.63 E1294.68147
G1 X214.98 Y143.63 E1294.73979
G1 X214.98 Y138.02 E1295.01943
G1 X209.38 Y138.02 E1295.29906
G1 X209.38 Y139.19 E1295.35728
G1 X208.43 Y139.19 E1295.40468
G1 X208.43 Y138.02 E1295.46295
G1 X192.57 Y138.02 E1296.25371
G1 X192.57 Y139.19 E1296.31198
G1 X191.62 Y139.19 E1296.35938
G1 X191.62 Y138.02 E1296.41760
G1 X186.02 Y138.02 E1296.69724
G1 X186.02 Y143.63 E1296.97687
G1 X187.19 Y143.63 E1297.03514
G1 X187.19 Y144.58 E1297.08254
G1 X186.02 Y144.58 E1297.14081
G1 X186.02 Y160.42 E1297.93147
G1 X187.19 Y160.42 E1297.98974
G1 X187.19 Y161.37 E1298.03714
G1 X186.02 Y161.37 E1298.09541
G1 X186.02 Y166.98 E1298.37504
G0 F12000 X185.72 Y166.98
G0 X185.08 Y167.83
G0 X184.87 Y168.13
G1 F3720 X184.87 Y136.87 E1299.93451
G1 X216.13 Y136.87 E1301.49408
G1 X216.13 Y168.13 E1303.05355
G1 X184.87 Y168.13 E1304.61311
G1 F2400 E1303.41311
G0 F12000 X233.27 Y167.73
;TYPE:WALL-INNER
G1 F2400 E1304.61311
G1 F3720 X233.27 Y137.27 E1306.13267
G1 X263.73 Y137.27 E1307.65233
G1 X263.73 Y167.73 E1309.17188
G1 X233.27 Y167.73 E1310.69154
G0 F12000 X233.62 Y167.38
G1 F3720 X240.03 Y167.38 E1311.01108
G1 X240.03 Y166.21 E1311.06931
G1 X240.18 Y166.21 E1311.07679
G1 X240.18 Y167.38 E1311.13506
G1 X256.82 Y167.38 E1311.96573
G1 X256.82 Y166.21 E1312.02396
G1 X256.98 Y166.21 E1312.03144
G1 X256.98 Y167.38 E1312.08971
G1 X263.38 Y167.38 E1312.40926
G1 X263.38 Y160.97 E1312.72880
G1 X262.21 Y160.97 E1312.78713
G1 X262.21 Y160.82 E1312.79461
G1 X263.38 Y160.82 E1312.85293
G1 X263.38 Y144.18 E1313.68350
G1 X262.21 Y144.18 E1313.74182
G1 X262.21 Y144.03 E1313.74931
G1 X263.38 Y144.03 E1313.80763
G1 X263.38 Y137.62 E1314.12718
G1 X256.98 Y137.62 E1314.44672
G1 X256.98 Y138.79 E1314.50495
G1 X256.82 Y138.79 E1314.51243
G1 X256.82 Y137.62 E1314.57065
G1 X240.18 Y137.62 E1315.40132
G1 X240.18 Y138.79 E1315.45954
G1 X240.03 Y138.79 E1315.46703
G1 X240.03 Y137.62 E1315.52525
G1 X233.62 Y137.62 E1315.84480
G1 X233.62 Y144.03 E1316.16434
G1 X234.79 Y144.03 E1316.22262
G1 X234.79 Y144.18 E1316.23010
G1 X233.62 Y144.18 E1316.28837
G1 X233.62 Y160.82 E1317.11894
G1 X234.79 Y160.82 E1317.17721
G1 X234.79 Y160.97 E1317.18470
G1 X233.62 Y160.97 E1317.24297
G1 X233.62 Y167.38 E1317.56252
G0 F12000 X234.02 Y166.98
;TYPE:WALL-OUTER
G1 F3720 X239.62 Y166.98 E1317.84215
G1 X239.62 Y165.81 E1317.90037
G1 X240.57 Y165.81 E1317.94777
G1 X240.57 Y166.98 E1318.00604
G1 X256.43 Y166.98 E1318.79680
G1 X256.43 Y165.81 E1318.85502
G1 X257.38 Y165.81 E1318.90242
G1 X257.38 Y166.98 E1318.96069
G1 X262.98 Y166.98 E1319.24032
G1 X262.98 Y161.37 E1319.51996
G1 X261.81 Y161.37 E1319.57828
G1 X261.81 Y160.42 E1319.62568
G1 X262.98 Y160.42 E1319.68400
G1 X262.98 Y144.58 E1320.47466
G1 X261.81 Y144.58 E1320.53298
G1 X261.81 Y143.63 E1320.58037
G1 X262.98 Y143.63 E1320.63870
G1 X262.98 Y138.02 E1320.91833
G1 X257.38 Y138.02 E1321.19797
G1 X257.38 Y139.19 E1321.25624
G1 X256.43 Y139.19 E1321.30363
G1 X256.43 Y138.02 E1321.36190
G1 X240.57 Y138.02 E1322.15266
G1 X240.57 Y139.19 E1322.21094
G1 X239.62 Y139.19 E1322.25833
G1 X239.62 Y138.02 E1322.31660
G1 X234.02 Y138.02 E1322.59624
G1 X234.02 Y143.63 E1322.87587
G1 X235.19 Y143.63 E1322.93414
G1 X235.19 Y144.58 E1322.98154
G1 X234.02 Y144.58 E1323.03981
G1 X234.02 Y160.42 E1323.83047
G1 X235.19 Y160.42 E1323.88874
G1 X235.19 Y161.37 E1323.93614
G1 X234.02 Y161.37 E1323.99441
G1 X234.02 Y166.98 E1324.27405
G0 F12000 X233.72 Y166.98
G0 X233.08 Y167.83
G0 X232.87 Y168.13
G1 F3720 X232.87 Y136.87 E1325.83351
G1 X264.13 Y136.87 E1327.39308
G1 X264.13 Y168.13 E1328.95255
G1 X232.87 Y168.13 E1330.51212
G1 F2400 E1329.31212
G0 F12000 X68.88 Y158.32
;TYPE:SUPPORT
G1 F2400 E1330.51212
G1 F3720 X67.72 Y158.32 E1330.56999
G1 X67.71 Y160.46 E1330.67636
G1 X67.71 Y163.72 E1330.83940
G1 X65.40 Y163.71 E1330.95470
G1 X64.32 Y163.71 E1331.00843
G1 X62.33 Y163.68 E1331.10812
G1 X62.33 Y164.88 E1331.16809
G1 X50.67 Y164.88 E1331.74936
G1 X50.67 Y163.72 E1331.80704
G1 X48.60 Y163.71 E1331.91056
G1 X47.52 Y163.71 E1331.96429
G1 X45.30 Y163.67 E1332.07541
G1 X45.29 Y161.25 E1332.19620
G1 X45.29 Y161.01 E1332.20832
G1 X45.29 Y158.32 E1332.34228
G1 X44.12 Y158.32 E1332.40060
G1 X44.12 Y146.68 E1332.98172
G1 X45.30 Y146.68 E1333.04034
G1 X45.29 Y144.45 E1333.15125
G1 X45.29 Y144.21 E1333.16337
G1 X45.29 Y141.28 E1333.30960
G1 X47.66 Y141.29 E1333.42774
G1 X50.67 Y141.29 E1333.57831
G1 X50.67 Y140.12 E1333.63658
G1 X62.33 Y140.12 E1334.21785
G1 X62.33 Y141.29 E1334.27622
G1 X65.33 Y141.29 E1334.42634
G1 X67.70 Y141.30 E1334.54458
G1 X67.71 Y143.69 E1334.66412
G1 X67.71 Y144.13 E1334.68577
G1 X67.71 Y146.68 E1334.81289
G1 X68.88 Y146.68 E1334.87122
G1 X68.88 Y158.32 E1335.45234
G0 F12000 X68.78 Y158.31
G0 X68.78 Y156.65
G0 X68.94 Y156.65
G1 F3720 X44.06 Y156.65 E1336.69365
G0 F12000 X44.22 Y156.65
G0 X44.22 Y149.99
G0 X44.06 Y149.99
G1 F3720 X68.94 Y149.99 E1337.93497
G0 F12000 X68.78 Y149.99
G0 X67.57 Y146.82
G0 X67.61 Y143.32
G0 X67.77 Y143.32
G1 F3720 X45.23 Y143.32 E1339.05935
G0 F12000 X45.39 Y143.32
G0 X49.99 Y141.39
G0 X49.99 Y141.23
G1 F3720 X49.99 Y163.78 E1340.18427
G0 F12000 X50.00 Y163.62
G0 X45.40 Y163.32
G0 X45.23 Y163.32
G1 F3720 X67.77 Y163.32 E1341.30865
G0 F12000 X67.61 Y163.32
G0 X63.33 Y163.59
G0 X63.33 Y163.75
G1 F3720 X63.33 Y141.23 E1342.43183
G0 F12000 X63.33 Y141.39
G0 X62.19 Y141.43
G0 X56.66 Y140.22
G0 X56.66 Y140.06
G1 F3720 X56.66 Y164.94 E1343.67299
G1 F2400 E1342.47299
G0 F12000 X92.12 Y158.32
G1 F2400 E1343.67299
G1 F3720 X92.12 Y146.68 E1344.25412
G1 X93.30 Y146.68 E1344.31269
G1 X93.29 Y144.45 E1344.42359
G1 X93.29 Y144.21 E1344.43572
G1 X93.29 Y141.28 E1344.58194
G1 X95.66 Y141.29 E1344.70014
G1 X98.68 Y141.29 E1344.85070
G1 X98.68 Y140.12 E1344.90898
G1 X110.33 Y140.12 E1345.49020
G1 X110.33 Y141.29 E1345.54857
G1 X113.33 Y141.29 E1345.69869
G1 X115.70 Y141.30 E1345.81693
G1 X115.71 Y143.69 E1345.93647
G1 X115.71 Y144.13 E1345.95812
G1 X115.71 Y146.68 E1346.08524
G1 X116.88 Y146.68 E1346.14356
G1 X116.88 Y158.32 E1346.72468
G1 X115.72 Y158.32 E1346.78255
G1 X115.71 Y160.46 E1346.88892
G1 X115.71 Y163.72 E1347.05196
G1 X113.40 Y163.71 E1347.16726
G1 X112.32 Y163.71 E1347.22099
G1 X110.33 Y163.68 E1347.32069
G1 X110.33 Y164.88 E1347.38066
G1 X98.68 Y164.88 E1347.96188
G1 X98.68 Y163.72 E1348.01955
G1 X96.60 Y163.71 E1348.12307
G1 X95.52 Y163.71 E1348.17681
G1 X93.30 Y163.67 E1348.28798
G1 X93.29 Y161.25 E1348.40881
G1 X93.29 Y161.01 E1348.42094
G1 X93.29 Y158.32 E1348.55489
G1 X92.12 Y158.32 E1348.61316
G0 F12000 X92.13 Y158.22
G0 X92.22 Y156.65
G0 X92.06 Y156.65
G1 F3720 X116.94 Y156.65 E1349.85443
G0 F12000 X116.78 Y156.65
G0 X116.66 Y158.22
G0 X116.66 Y158.38
G1 F3720 X116.66 Y146.62 E1350.44154
G0 F12000 X116.66 Y146.78
G0 X116.78 Y149.99
G0 X116.94 Y149.99
G1 F3720 X92.06 Y149.99 E1351.68281
G0 F12000 X92.22 Y149.99
G0 X93.44 Y146.82
G0 X93.39 Y143.32
G0 X93.23 Y143.32
G1 F3720 X115.77 Y143.32 E1352.80718
G0 F12000 X115.61 Y143.32
G0 X110.19 Y141.43
G0 X109.99 Y140.22
G0 X109.99 Y140.06
G1 F3720 X109.99 Y164.94 E1354.04835
G0 F12000 X109.99 Y164.78
G0 X110.19 Y163.53
G0 X115.61 Y163.32
G0 X115.77 Y163.32
G1 F3720 X93.23 Y163.32 E1355.17273
G0 F12000 X93.39 Y163.32
G0 X96.66 Y163.61
G0 X96.66 Y163.76
G1 F3720 X96.66 Y141.23 E1356.29715
G0 F12000 X96.66 Y141.39
G0 X98.82 Y141.43
G0 X103.32 Y140.22
G0 X103.32 Y140.06
G1 F3720 X103.32 Y164.94 E1357.53832
G1 F2400 E1356.33832
G0 F12000 X140.12 Y158.32
G1 F2400 E1357.53832
G1 F3720 X140.12 Y146.68 E1358.11944
G1 X141.29 Y146.68 E1358.17801
G1 X141.29 Y144.45 E1358.28892
G1 X141.29 Y144.21 E1358.30104
G1 X141.29 Y141.28 E1358.44727
G1 X143.66 Y141.29 E1358.56546
G1 X146.68 Y141.29 E1358.71603
G1 X146.68 Y140.12 E1358.77430
G1 X158.32 Y140.12 E1359.35547
G1 X158.32 Y141.29 E1359.41384
G1 X161.06 Y141.29 E1359.55049
G1 X163.70 Y141.29 E1359.68220
G1 X163.71 Y143.69 E1359.80199
G1 X163.71 Y144.13 E1359.82364
G1 X163.71 Y146.68 E1359.95076
G1 X164.88 Y146.68 E1360.00909
G1 X164.88 Y158.32 E1360.59021
G1 X163.72 Y158.32 E1360.64808
G1 X163.71 Y160.46 E1360.75445
G1 X163.71 Y163.72 E1360.91749
G1 X161.40 Y163.71 E1361.03279
G1 X160.32 Y163.71 E1361.08652
G1 X158.32 Y163.68 E1361.18621
G1 X158.32 Y164.88 E1361.24618
G1 X146.68 Y164.88 E1361.82735
G1 X146.68 Y163.72 E1361.88502
G1 X144.60 Y163.71 E1361.98855
G1 X143.52 Y163.71 E1362.04228
G1 X141.30 Y163.67 E1362.15345
G1 X141.29 Y161.25 E1362.27429
G1 X141.29 Y161.01 E1362.28641
G1 X141.29 Y158.32 E1362.42037
G1 X140.12 Y158.32 E1362.47864
G0 F12000 X140.13 Y158.22
G0 X140.22 Y156.65
G0 X140.06 Y156.65
G1 F3720 X164.94 Y156.65 E1363.71986
G0 F12000 X164.78 Y156.65
G0 X164.78 Y149.99
G0 X164.94 Y149.99
G1 F3720 X140.06 Y149.99 E1364.96107
G0 F12000 X140.22 Y149.99
G0 X141.44 Y146.82
G0 X141.39 Y143.32
G0 X141.23 Y143.32
G1 F3720 X163.77 Y143.32 E1366.08540
G0 F12000 X163.61 Y143.32
G0 X163.32 Y141.39
G0 X163.32 Y141.23
G1 F3720 X163.32 Y163.78 E1367.21027
G0 F12000 X163.77 Y163.32
G1 F3720 X141.24 Y163.32 E1368.33460
G0 F12000 X141.40 Y163.32
G0 X143.32 Y163.61
G0 X143.32 Y163.75
G1 F3720 X143.32 Y141.22 E1369.45858
G0 F12000 X143.32 Y141.39
G0 X146.82 Y141.43
G0 X149.99 Y140.22
G0 X149.99 Y140.06
G1 F3720 X149.99 Y164.94 E1370.69974
G0 F12000 X149.99 Y164.78
G0 X156.65 Y164.78
G0 X156.65 Y164.94
G1 F3720 X156.65 Y140.06 E1371.94091
G1 F2400 E1370.74091
G0 F12000 X188.12 Y146.68
G1 F2400 E1371.94091
G1 F3720 X189.29 Y146.68 E1371.99948
G1 X189.29 Y144.45 E1372.11039
G1 X189.29 Y144.21 E1372.12251
G1 X189.29 Y141.28 E1372.26854
G1 X191.85 Y141.29 E1372.39641
G1 X194.68 Y141.29 E1372.53730
G1 X194.68 Y140.12 E1372.59557
G1 X206.32 Y140.12 E1373.17679
G1 X206.32 Y141.29 E1373.23517
G1 X209.33 Y141.29 E1373.38529
G1 X211.70 Y141.30 E1373.50353
G1 X211.71 Y143.69 E1373.62306
G1 X211.71 Y144.13 E1373.64472
G1 X211.71 Y146.68 E1373.77184
G1 X212.88 Y146.68 E1373.83016
G1 X212.88 Y158.32 E1374.41128
G1 X211.72 Y158.32 E1374.46935
G1 X211.71 Y160.65 E1374.58540
G1 X211.71 Y163.72 E1374.73876
G1 X209.40 Y163.71 E1374.85406
G1 X208.32 Y163.71 E1374.90779
G1 X206.32 Y163.68 E1375.00748
G1 X206.32 Y164.88 E1375.06745
G1 X194.68 Y164.88 E1375.64867
G1 X194.68 Y163.72 E1375.70635
G1 X192.60 Y163.71 E1375.80987
G1 X191.52 Y163.71 E1375.86360
G1 X189.29 Y163.67 E1375.97477
G1 X189.29 Y161.25 E1376.09561
G1 X189.29 Y161.01 E1376.10773
G1 X189.29 Y158.32 E1376.24169
G1 X188.12 Y158.32 E1376.29996
G1 X188.12 Y146.68 E1376.88108
G0 F12000 X188.22 Y146.69
G0 X188.22 Y149.99
G0 X188.06 Y149.99
G1 F3720 X212.94 Y149.99 E1378.12235
G0 F12000 X212.78 Y149.99
G0 X212.78 Y156.65
G0 X212.94 Y156.65
G1 F3720 X188.06 Y156.65 E1379.36362
G0 F12000 X188.22 Y156.65
G0 X189.43 Y158.18
G0 X189.39 Y163.32
G0 X189.23 Y163.32
G1 F3720 X211.77 Y163.32 E1380.48799
G0 F12000 X211.61 Y163.32
G0 X209.98 Y163.62
G0 X209.98 Y163.77
G1 F3720 X209.98 Y141.24 E1381.61212
G0 F12000 X209.98 Y141.39
G0 X211.61 Y143.32
G0 X211.77 Y143.32
G1 F3720 X189.23 Y143.32 E1382.73649
G0 F12000 X189.39 Y143.32
G0 X189.98 Y141.38
G0 X189.98 Y141.22
G1 F3720 X189.98 Y163.74 E1383.85982
G0 F12000 X189.98 Y163.59
G0 X194.82 Y163.58
G0 X196.65 Y164.78
G0 X196.65 Y164.94
G1 F3720 X196.65 Y140.06 E1385.10099
G0 F12000 X196.65 Y140.22
G0 X203.31 Y140.22
G0 X203.31 Y140.06
G1 F3720 X203.31 Y164.94 E1386.34216
G1 F2400 E1385.14216
G0 F12000 X236.12 Y158.32
G1 F2400 E1386.34216
G1 F3720 X236.12 Y146.68 E1386.92328
G1 X237.29 Y146.68 E1386.98185
G1 X237.29 Y144.45 E1387.09276
G1 X237.29 Y144.21 E1387.10488
G1 X237.29 Y141.29 E1387.25051
G1 X240.35 Y141.29 E1387.40312
G1 X242.68 Y141.29 E1387.51927
G1 X242.68 Y140.12 E1387.57774
G1 X254.32 Y140.12 E1388.15896
G1 X254.32 Y141.29 E1388.21733
G1 X257.06 Y141.29 E1388.35398
G1 X259.70 Y141.29 E1388.48569
G1 X259.71 Y143.69 E1388.60548
G1 X259.71 Y144.13 E1388.62713
G1 X259.71 Y146.68 E1388.75425
G1 X260.88 Y146.68 E1388.81257
G1 X260.88 Y158.32 E1389.39369
G1 X259.70 Y158.32 E1389.45236
G1 X259.71 Y160.49 E1389.56058
G1 X259.71 Y160.93 E1389.58223
G1 X259.71 Y163.72 E1389.72177
G1 X257.40 Y163.71 E1389.83707
G1 X256.32 Y163.71 E1389.89080
G1 X254.32 Y163.68 E1389.99050
G1 X254.32 Y164.88 E1390.05047
G1 X242.68 Y164.88 E1390.63169
G1 X242.68 Y163.72 E1390.68936
G1 X240.60 Y163.71 E1390.79288
G1 X239.52 Y163.71 E1390.84662
G1 X237.29 Y163.67 E1390.95779
G1 X237.29 Y161.25 E1391.07862
G1 X237.29 Y161.01 E1391.09075
G1 X237.29 Y158.32 E1391.22470
G1 X236.12 Y158.32 E1391.28297
G0 F12000 X236.64 Y158.38
G1 F3720 X236.64 Y146.62 E1391.87008
G0 F12000 X236.64 Y146.78
G0 X237.44 Y146.82
G0 X237.39 Y143.32
G0 X237.23 Y143.32
G1 F3720 X259.77 Y143.32 E1392.99446
G0 F12000 X259.61 Y143.32
G0 X256.64 Y141.39
G0 X256.64 Y141.23
G1 F3720 X256.64 Y163.76 E1394.11823
G0 F12000 X256.64 Y163.61
G0 X259.61 Y163.32
G0 X259.77 Y163.32
G1 F3720 X237.23 Y163.32 E1395.24261
G0 F12000 X237.39 Y163.32
G0 X242.82 Y163.58
G0 X243.31 Y164.78
G0 X243.31 Y164.94
G1 F3720 X243.31 Y140.06 E1396.48378
G0 F12000 X243.31 Y140.22
G0 X249.97 Y140.22
G0 X249.97 Y140.06
G1 F3720 X249.97 Y164.94 E1397.72495
G0 F12000 X249.97 Y164.78
G0 X260.78 Y156.65
G0 X260.94 Y156.65
G1 F3720 X236.06 Y156.65 E1398.96621
G0 F12000 X236.22 Y156.65
G0 X236.22 Y149.99
G0 X236.06 Y149.99
G1 F3720 X260.94 Y149.99 E1400.20748
;LAYER:3
G1 F2400 E1399.00748
G0 F12000 X262.18 Y144.18 Z1.20
;TYPE:WALL-INNER
G1 F2400 E1400.20748
G1 F4260 X262.18 Y144.03 E1400.21497
G1 X263.38 Y144.03 E1400.27488
G1 X263.38 Y137.62 E1400.59443
G1 X256.98 Y137.62 E1400.91398
G1 X256.98 Y138.82 E1400.97380
G1 X256.82 Y138.82 E1400.98128
G1 X256.82 Y137.62 E1401.04110
G1 X240.18 Y137.62 E1401.87177
G1 X240.18 Y138.82 E1401.93159
G1 X240.03 Y138.82 E1401.93907
G1 X240.03 Y137.62 E1401.99889
G1 X233.62 Y137.62 E1402.31844
G1 X233.62 Y144.03 E1402.63798
G1 X234.82 Y144.03 E1402.69785
G1 X234.82 Y144.18 E1402.70533
G1 X233.62 Y144.18 E1402.76520
G1 X233.62 Y160.82 E1403.59578
G1 X234.82 Y160.82 E1403.65564
G1 X234.82 Y160.97 E1403.66313
G1 X233.62 Y160.97 E1403.72300
G1 X233.62 Y167.38 E1404.04254
G1 X240.03 Y167.38 E1404.36209
G1 X240.03 Y166.18 E1404.42196
G1 X240.18 Y166.18 E1404.42944
G1 X240.18 Y167.38 E1404.48931
G1 X256.82 Y167.38 E1405.31998
G1 X256.82 Y166.18 E1405.37985
G1 X256.98 Y166.18 E1405.38733
G1 X256.98 Y167.38 E1405.44720
G1 X263.38 Y167.38 E1405.76675
G1 X263.38 Y160.97 E1406.08629
G1 X262.18 Y160.97 E1406.14621
G1 X262.18 Y160.82 E1406.15370
G1 X263.38 Y160.82 E1406.21361
G1 X263.38 Y144.18 E1407.04419
G1 X262.18 Y144.18 E1407.10410
G0 F12000 X263.32 Y143.97
G0 X263.73 Y137.27
G1 F4260 X263.73 Y167.73 E1408.62366
G1 X233.27 Y167.73 E1410.14332
G1 X233.27 Y137.27 E1411.66287
G1 X263.73 Y137.27 E1413.18253
G0 F12000 X264.13 Y136.87
;TYPE:WALL-OUTER
G1 F4260 X264.13 Y168.13 E1414.74199
G1 X232.87 Y168.13 E1416.30156
G1 X232.87 Y136.87 E1417.86103
G1 X264.13 Y136.87 E1419.42060
G0 F12000 X263.83 Y137.08
G0 X263.28 Y138.02
G0 X262.98 Y138.02
G1 F4260 X257.38 Y138.02 E1419.70023
G1 X257.38 Y139.22 E1419.76010
G1 X256.43 Y139.22 E1419.80750
G1 X256.43 Y138.02 E1419.86736
G1 X240.57 Y138.02 E1420.65812
G1 X240.57 Y139.22 E1420.71799
G1 X239.62 Y139.22 E1420.76539
G1 X239.62 Y138.02 E1420.82526
G1 X234.02 Y138.02 E1421.10489
G1 X234.02 Y143.63 E1421.38453
G1 X235.22 Y143.63 E1421.44439
G1 X235.22 Y144.58 E1421.49179
G1 X234.02 Y144.58 E1421.55166
G1 X234.02 Y160.42 E1422.34232
G1 X235.22 Y160.42 E1422.40219
G1 X235.22 Y161.37 E1422.44958
G1 X234.02 Y161.37 E1422.50945
G1 X234.02 Y166.98 E1422.78908
G1 X239.62 Y166.98 E1423.06872
G1 X239.62 Y165.78 E1423.12854
G1 X240.53 Y165.78 E1423.17349
G1 X240.57 Y165.78 E1423.17593
G1 X240.57 Y166.98 E1423.23580
G1 X256.43 Y166.98 E1424.02656
G1 X256.43 Y165.78 E1424.08638
G1 X257.33 Y165.78 E1424.13133
G1 X257.38 Y165.78 E1424.13378
G1 X257.38 Y166.98 E1424.19364
G1 X262.98 Y166.98 E1424.47328
G1 X262.98 Y161.37 E1424.75291
G1 X261.78 Y161.37 E1424.81283
G1 X261.78 Y160.42 E1424.86023
G1 X262.98 Y160.42 E1424.92014
G1 X262.98 Y144.58 E1425.71080
G1 X261.78 Y144.58 E1425.77072
G1 X261.78 Y143.63 E1425.81812
G1 X262.98 Y143.63 E1425.87804
G1 X262.98 Y138.02 E1426.15767
G1 F2400 E1424.95767
G0 F12000 X215.73 Y137.27
;TYPE:WALL-INNER
G1 F2400 E1426.15767
G1 F4260 X215.73 Y167.73 E1427.67723
G1 X185.27 Y167.73 E1429.19688
G1 X185.27 Y137.27 E1430.71644
G1 X215.73 Y137.27 E1432.23609
G0 F12000 X215.38 Y137.62
G1 F4260 X208.97 Y137.62 E1432.55564
G1 X208.97 Y138.82 E1432.61546
G1 X208.82 Y138.82 E1432.62294
G1 X208.82 Y137.62 E1432.68276
G1 X192.18 Y137.62 E1433.51343
G1 X192.18 Y138.82 E1433.57330
G1 X192.03 Y138.82 E1433.58078
G1 X192.03 Y137.62 E1433.64065
G1 X185.62 Y137.62 E1433.96020
G1 X185.62 Y144.03 E1434.27975
G1 X186.82 Y144.03 E1434.33961
G1 X186.82 Y144.18 E1434.34710
G1 X185.62 Y144.18 E1434.40697
G1 X185.62 Y160.82 E1435.23754
G1 X186.82 Y160.82 E1435.29741
G1 X186.82 Y160.97 E1435.30489
G1 X185.62 Y160.97 E1435.36476
G1 X185.62 Y167.38 E1435.68431
G1 X192.03 Y167.38 E1436.00385
G1 X192.03 Y166.18 E1436.06372
G1 X192.18 Y166.18 E1436.07120
G1 X192.18 Y167.38 E1436.13107
G1 X208.82 Y167.38 E1436.96174
G1 X208.82 Y166.18 E1437.02161
G1 X208.97 Y166.18 E1437.02910
G1 X208.97 Y167.38 E1437.08896
G1 X215.38 Y167.38 E1437.40851
G1 X215.38 Y160.97 E1437.72806
G1 X214.18 Y160.97 E1437.78798
G1 X214.18 Y160.82 E1437.79546
G1 X215.38 Y160.82 E1437.85538
G1 X215.38 Y144.18 E1438.68595
G1 X214.18 Y144.18 E1438.74587
G1 X214.18 Y144.03 E1438.75335
G1 X215.38 Y144.03 E1438.81327
G1 X215.38 Y137.62 E1439.13282
G0 F12000 X214.98 Y138.02
;TYPE:WALL-OUTER
G1 F4260 X209.38 Y138.02 E1439.41245
G1 X209.38 Y139.22 E1439.47232
G1 X208.43 Y139.22 E1439.51971
G1 X208.43 Y138.02 E1439.57958
G1 X192.57 Y138.02 E1440.37034
G1 X192.57 Y139.22 E1440.43021
G1 X191.62 Y139.22 E1440.47761
G1 X191.62 Y138.02 E1440.53742
G1 X186.02 Y138.02 E1440.81706
G1 X186.02 Y143.63 E1441.09669
G1 X187.22 Y143.63 E1441.15656
G1 X187.22 Y144.58 E1441.20396
G1 X186.02 Y144.58 E1441.26383
G1 X186.02 Y160.42 E1442.05449
G1 X187.22 Y160.42 E1442.11435
G1 X187.22 Y161.37 E1442.16175
G1 X186.02 Y161.37 E1442.22162
G1 X186.02 Y166.98 E1442.50125
G1 X191.62 Y166.98 E1442.78089
G1 X191.62 Y165.78 E1442.84071
G1 X192.53 Y165.78 E1442.88566
G1 X192.57 Y165.78 E1442.88810
G1 X192.57 Y166.98 E1442.94797
G1 X208.43 Y166.98 E1443.73873
G1 X208.43 Y165.78 E1443.79855
G1 X209.33 Y165.78 E1443.84350
G1 X209.38 Y165.78 E1443.84594
G1 X209.38 Y166.98 E1443.90581
G1 X214.98 Y166.98 E1444.18545
G1 X214.98 Y161.37 E1444.46508
G1 X213.78 Y161.37 E1444.52500
G1 X213.78 Y160.42 E1444.57239
G1 X214.98 Y160.42 E1444.63226
G1 X214.98 Y144.58 E1445.42292
G1 X213.78 Y144.58 E1445.48284
G1 X213.78 Y143.63 E1445.53024
G1 X214.98 Y143.63 E1445.59015
G1 X214.98 Y138.02 E1445.86979
G0 F12000 X215.28 Y138.02
G0 X215.83 Y137.08
G0 X216.13 Y136.87
G1 F4260 X216.13 Y168.13 E1447.42926
G1 X184.87 Y168.13 E1448.98883
G1 X184.87 Y136.87 E1450.54829
G1 X216.13 Y136.87 E1452.10786
G1 F2400 E1450.90786
G0 F12000 X167.73 Y137.27
;TYPE:WALL-INNER
G1 F2400 E1452.10786
G1 F4260 X167.73 Y167.73 E1453.62742
G1 X137.27 Y167.73 E1455.14702
G1 X137.27 Y137.27 E1456.66658
G1 X167.73 Y137.27 E1458.18618
G0 F12000 X167.38 Y137.62
G1 F4260 X160.97 Y137.62 E1458.50573
G1 X160.97 Y138.82 E1458.56555
G1 X160.82 Y138.82 E1458.57303
G1 X160.82 Y137.62 E1458.63285
G1 X144.18 Y137.62 E1459.46347
G1 X144.18 Y138.82 E1459.52334
G1 X144.03 Y138.82 E1459.53082
G1 X144.03 Y137.62 E1459.59069
G1 X137.62 Y137.62 E1459.91024
G1 X137.62 Y144.03 E1460.22979
G1 X138.82 Y144.03 E1460.28965
G1 X138.82 Y144.18 E1460.29714
G1 X137.62 Y144.18 E1460.35701
G1 X137.62 Y160.82 E1461.18758
G1 X138.82 Y160.82 E1461.24745
G1 X138.82 Y160.97 E1461.25493
G1 X137.62 Y160.97 E1461.31480
G1 X137.62 Y167.38 E1461.63435
G1 X144.03 Y167.38 E1461.95389
G1 X144.03 Y166.18 E1462.01376
G1 X144.18 Y166.18 E1462.02124
G1 X144.18 Y167.38 E1462.08111
G1 X160.82 Y167.38 E1462.91173
G1 X160.82 Y166.18 E1462.97160
G1 X160.97 Y166.18 E1462.97909
G1 X160.97 Y167.38 E1463.03895
G1 X167.38 Y167.38 E1463.35850
G1 X167.38 Y160.97 E1463.67805
G1 X166.18 Y160.97 E1463.73797
G1 X166.18 Y160.82 E1463.74545
G1 X167.38 Y160.82 E1463.80537
G1 X167.38 Y144.18 E1464.63594
G1 X166.18 Y144.18 E1464.69586
G1 X166.18 Y144.03 E1464.70334
G1 X167.38 Y144.03 E1464.76326
G1 X167.38 Y137.62 E1465.08281
G0 F12000 X166.98 Y138.02
;TYPE:WALL-OUTER
G1 F4260 X161.38 Y138.02 E1465.36244
G1 X161.38 Y139.22 E1465.42231
G1 X160.43 Y139.22 E1465.46970
G1 X160.43 Y138.02 E1465.52957
G1 X144.58 Y138.02 E1466.32028
G1 X144.58 Y139.22 E1466.38015
G1 X143.63 Y139.22 E1466.42755
G1 X143.63 Y138.02 E1466.48736
G1 X138.02 Y138.02 E1466.76700
G1 X138.02 Y143.63 E1467.04663
G1 X139.22 Y143.63 E1467.10650
G1 X139.22 Y144.58 E1467.15390
G1 X138.02 Y144.58 E1467.21377
G1 X138.02 Y160.42 E1468.00443
G1 X139.22 Y160.42 E1468.06429
G1 X139.22 Y161.37 E1468.11169
G1 X138.02 Y161.37 E1468.17156
G1 X138.02 Y166.98 E1468.45119
G1 X143.63 Y166.98 E1468.73083
G1 X143.63 Y165.78 E1468.79065
G1 X144.53 Y165.78 E1468.83560
G1 X144.58 Y165.78 E1468.83804
G1 X144.58 Y166.98 E1468.89791
G1 X160.43 Y166.98 E1469.68862
G1 X160.43 Y165.78 E1469.74844
G1 X161.33 Y165.78 E1469.79339
G1 X161.38 Y165.78 E1469.79583
G1 X161.38 Y166.98 E1469.85570
G1 X166.98 Y166.98 E1470.13534
G1 X166.98 Y161.37 E1470.41497
G1 X165.78 Y161.37 E1470.47489
G1 X165.78 Y160.42 E1470.52228
G1 X166.98 Y160.42 E1470.58215
G1 X166.98 Y144.58 E1471.37281
G1 X165.78 Y144.58 E1471.43273
G1 X165.78 Y143.63 E1471.48013
G1 X166.98 Y143.63 E1471.54004
G1 X166.98 Y138.02 E1471.81968
G0 F12000 X167.28 Y138.02
G0 X167.83 Y137.08
G0 X168.13 Y136.87
G1 F4260 X168.13 Y168.13 E1473.37915
G1 X136.87 Y168.13 E1474.93867
G1 X136.87 Y136.87 E1476.49813
G1 X168.13 Y136.87 E1478.05765
G1 F2400 E1476.85765
G0 F12000 X119.73 Y137.27
;TYPE:WALL-INNER
G1 F2400 E1478.05765
G1 F4260 X119.73 Y167.73 E1479.57721
G1 X89.27 Y167.73 E1481.09686
G1 X89.27 Y137.27 E1482.61642
G1 X119.73 Y137.27 E1484.13607
G0 F12000 X119.38 Y137.62
G1 F4260 X112.98 Y137.62 E1484.45562
G1 X112.98 Y138.82 E1484.51544
G1 X112.83 Y138.82 E1484.52292
G1 X112.83 Y137.62 E1484.58274
G1 X96.18 Y137.62 E1485.41341
G1 X96.18 Y138.82 E1485.47328
G1 X96.03 Y138.82 E1485.48076
G1 X96.03 Y137.62 E1485.54063
G1 X89.62 Y137.62 E1485.86018
G1 X89.62 Y144.03 E1486.17973
G1 X90.82 Y144.03 E1486.23959
G1 X90.82 Y144.18 E1486.24708
G1 X89.62 Y144.18 E1486.30695
G1 X89.62 Y160.82 E1487.13752
G1 X90.82 Y160.82 E1487.19739
G1 X90.82 Y160.97 E1487.20487
G1 X89.62 Y160.97 E1487.26474
G1 X89.62 Y167.38 E1487.58428
G1 X96.03 Y167.38 E1487.90383
G1 X96.03 Y166.18 E1487.96370
G1 X96.18 Y166.18 E1487.97118
G1 X96.18 Y167.38 E1488.03105
G1 X112.83 Y167.38 E1488.86172
G1 X112.83 Y166.18 E1488.92159
G1 X112.98 Y166.18 E1488.92908
G1 X112.98 Y167.38 E1488.98894
G1 X119.38 Y167.38 E1489.30849
G1 X119.38 Y160.97 E1489.62804
G1 X118.18 Y160.97 E1489.68796
G1 X118.18 Y160.82 E1489.69544
G1 X119.38 Y160.82 E1489.75536
G1 X119.38 Y144.18 E1490.58593
G1 X118.18 Y144.18 E1490.64585
G1 X118.18 Y144.03 E1490.65333
G1 X119.38 Y144.03 E1490.71325
G1 X119.38 Y137.62 E1491.03280
G0 F12000 X118.98 Y138.02
;TYPE:WALL-OUTER
G1 F4260 X113.38 Y138.02 E1491.31243
G1 X113.38 Y139.22 E1491.37230
G1 X112.43 Y139.22 E1491.41969
G1 X112.43 Y138.02 E1491.47956
G1 X96.58 Y138.02 E1492.27032
G1 X96.58 Y139.22 E1492.33019
G1 X95.63 Y139.22 E1492.37759
G1 X95.63 Y138.02 E1492.43740
G1 X90.02 Y138.02 E1492.71704
G1 X90.02 Y143.63 E1492.99667
G1 X91.22 Y143.63 E1493.05654
G1 X91.22 Y144.58 E1493.10394
G1 X90.02 Y144.58 E1493.16381
G1 X90.02 Y160.42 E1493.95447
G1 X91.22 Y160.42 E1494.01433
G1 X91.22 Y161.37 E1494.06173
G1 X90.02 Y161.37 E1494.12160
G1 X90.02 Y166.98 E1494.40123
G1 X95.63 Y166.98 E1494.68087
G1 X95.63 Y165.78 E1494.74069
G1 X96.53 Y165.78 E1494.78564
G1 X96.58 Y165.78 E1494.78808
G1 X96.58 Y166.98 E1494.84795
G1 X112.43 Y166.98 E1495.63871
G1 X112.43 Y165.78 E1495.69853
G1 X113.33 Y165.78 E1495.74348
G1 X113.38 Y165.78 E1495.74592
G1 X113.38 Y166.98 E1495.80579
G1 X118.98 Y166.98 E1496.08543
G1 X118.98 Y161.37 E1496.36506
G1 X117.78 Y161.37 E1496.42498
G1 X117.78 Y160.42 E1496.47237
G1 X118.98 Y160.42 E1496.53224
G1 X118.98 Y144.58 E1497.32290
G1 X117.78 Y144.58 E1497.38282
G1 X117.78 Y143.63 E1497.43022
G1 X118.98 Y143.63 E1497.49013
G1 X118.98 Y138.02 E1497.76977
G0 F12000 X119.28 Y138.02
G0 X119.83 Y137.08
G0 X120.13 Y136.87
G1 F4260 X120.13 Y168.13 E1499.32924
G1 X88.87 Y168.13 E1500.88880
G1 X88.87 Y136.87 E1502.44827
G1 X120.13 Y136.87 E1504.00784
G1 F2400 E1502.80784
G0 F12000 X71.73 Y137.27
;TYPE:WALL-INNER
G1 F2400 E1504.00784
G1 F4260 X71.73 Y167.73 E1505.52740
G1 X41.27 Y167.73 E1507.04710
G1 X41.27 Y137.27 E1508.56666
G1 X71.73 Y137.27 E1510.08636
G0 F12000 X71.38 Y137.62
G1 F4260 X64.98 Y137.62 E1510.40591
G1 X64.98 Y138.82 E1510.46573
G1 X64.83 Y138.82 E1510.47321
G1 X64.83 Y137.62 E1510.53303
G1 X48.17 Y137.62 E1511.36375
G1 X48.17 Y138.82 E1511.42362
G1 X48.02 Y138.82 E1511.43110
G1 X48.02 Y137.62 E1511.49097
G1 X41.62 Y137.62 E1511.81052
G1 X41.62 Y144.03 E1512.13007
G1 X42.82 Y144.03 E1512.18998
G1 X42.82 Y144.18 E1512.19747
G1 X41.62 Y144.18 E1512.25738
G1 X41.62 Y160.82 E1513.08796
G1 X42.82 Y160.82 E1513.14788
G1 X42.82 Y160.97 E1513.15536
G1 X41.62 Y160.97 E1513.21528
G1 X41.62 Y167.38 E1513.53482
G1 X48.02 Y167.38 E1513.85437
G1 X48.02 Y166.18 E1513.91424
G1 X48.17 Y166.18 E1513.92172
G1 X48.17 Y167.38 E1513.98159
G1 X64.83 Y167.38 E1514.81231
G1 X64.83 Y166.18 E1514.87218
G1 X64.98 Y166.18 E1514.87966
G1 X64.98 Y167.38 E1514.93953
G1 X71.38 Y167.38 E1515.25908
G1 X71.38 Y160.97 E1515.57863
G1 X70.18 Y160.97 E1515.63854
G1 X70.18 Y160.82 E1515.64603
G1 X71.38 Y160.82 E1515.70595
G1 X71.38 Y144.18 E1516.53652
G1 X70.18 Y144.18 E1516.59644
G1 X70.18 Y144.03 E1516.60392
G1 X71.38 Y144.03 E1516.66384
G1 X71.38 Y137.62 E1516.98338
G0 F12000 X70.98 Y138.02
;TYPE:WALL-OUTER
G1 F4260 X65.38 Y138.02 E1517.26302
G1 X65.38 Y139.22 E1517.32289
G1 X64.43 Y139.22 E1517.37028
G1 X64.43 Y138.02 E1517.43015
G1 X48.58 Y138.02 E1518.22096
G1 X48.58 Y139.22 E1518.28083
G1 X47.62 Y139.22 E1518.32822
G1 X47.62 Y138.02 E1518.38804
G1 X42.02 Y138.02 E1518.66768
G1 X42.02 Y143.63 E1518.94731
G1 X43.22 Y143.63 E1519.00723
G1 X43.22 Y144.58 E1519.05463
G1 X42.02 Y144.58 E1519.11454
G1 X42.02 Y160.42 E1519.90520
G1 X43.22 Y160.42 E1519.96512
G1 X43.22 Y161.37 E1520.01252
G1 X42.02 Y161.37 E1520.07244
G1 X42.02 Y166.98 E1520.35207
G1 X47.62 Y166.98 E1520.63170
G1 X47.62 Y165.78 E1520.69152
G1 X48.53 Y165.78 E1520.73652
G1 X48.58 Y165.78 E1520.73892
G1 X48.58 Y166.98 E1520.79879
G1 X64.43 Y166.98 E1521.58960
G1 X64.43 Y165.78 E1521.64942
G1 X65.33 Y165.78 E1521.69437
G1 X65.38 Y165.78 E1521.69681
G1 X65.38 Y166.98 E1521.75668
G1 X70.98 Y166.98 E1522.03631
G1 X70.98 Y161.37 E1522.31595
G1 X69.78 Y161.37 E1522.37587
G1 X69.78 Y160.42 E1522.42326
G1 X70.98 Y160.42 E1522.48313
G1 X70.98 Y144.58 E1523.27379
G1 X69.78 Y144.58 E1523.33371
G1 X69.78 Y143.63 E1523.38110
G1 X70.98 Y143.63 E1523.44102
G1 X70.98 Y138.02 E1523.72066
G0 F12000 X71.28 Y138.02
G0 X71.83 Y137.08
G0 X72.13 Y136.87
G1 F4260 X72.13 Y168.13 E1525.28012
G1 X40.87 Y168.13 E1526.83974
G1 X40.87 Y136.87 E1528.39921
G1 X72.13 Y136.87 E1529.95883
G1 F2400 E1528.75883
G0 F12000 X236.12 Y146.68
;TYPE:SUPPORT
G1 F2400 E1529.95883
G1 F4260 X237.33 Y146.68 E1530.01900
G1 X237.32 Y144.48 E1530.12860
G1 X237.32 Y144.14 E1530.14537
G1 X237.32 Y141.32 E1530.28596
G1 X240.18 Y141.32 E1530.42860
G1 X242.68 Y141.32 E1530.55312
G1 X242.68 Y140.12 E1530.61314
G1 X254.32 Y140.12 E1531.19436
G1 X254.32 Y141.32 E1531.25433
G1 X257.02 Y141.32 E1531.38883
G1 X259.67 Y141.32 E1531.52099
G1 X259.68 Y143.64 E1531.63674
G1 X259.68 Y144.25 E1531.66682
G1 X259.68 Y146.68 E1531.78800
G1 X260.88 Y146.68 E1531.84792
G1 X260.88 Y158.32 E1532.42904
G1 X259.67 Y158.32 E1532.48936
G1 X259.68 Y160.44 E1532.59508
G1 X259.68 Y161.04 E1532.62511
G1 X259.68 Y163.69 E1532.75702
G1 X257.33 Y163.68 E1532.87432
G1 X256.33 Y163.68 E1532.92391
G1 X254.32 Y163.66 E1533.02414
G1 X254.32 Y164.88 E1533.08521
G1 X242.68 Y164.88 E1533.66643
G1 X242.68 Y163.69 E1533.72585
G1 X240.53 Y163.68 E1533.83297
G1 X239.53 Y163.68 E1533.88256
G1 X237.33 Y163.65 E1533.99267
G1 X237.32 Y161.28 E1534.11111
G1 X237.32 Y160.94 E1534.12788
G1 X237.32 Y158.32 E1534.25849
G1 X236.12 Y158.32 E1534.31836
G1 X236.12 Y146.68 E1534.89948
G0 F12000 X236.64 Y146.62
G1 F4260 X236.64 Y158.38 E1535.48659
G0 F12000 X236.64 Y158.22
