;-- START GCODE --
;Sliced for Type A Machines Series 1
;Sliced at: Wed 05-08-2015 21:07:22
;Basic settings: Layer height: 0.3 Walls: 0.8 Fill: 8
;Print Speed: 80 Support: 0
;Retraction Speed: 40 Retraction Distance: 1.2
;Print time: #P_TIME#
;Filament used: #F_AMNT#m #F_WGHT#g
;Filament cost: #F_COST#
M106 S255	 ;start with the fan on
G21        ;metric values
G90        ;absolute positioning
M106 S255    ;start with the fan on
G28     ;move to endstops
G29		;allows for auto-levelling
G1 X150 Y5  Z15.0 F12000 ;center and move the platform down 15mm
M109 S220 ;Heat To temp
G92 E0                  ;zero the extruded length
G1 F200 E30              ;extrude 30mm of feed stock
G92 E0                  ;zero the extruded length again
G1 X175 Y25  Z0 F12000 ;remove bugger
G1 X220 F12000 ;remove bugger
G1 X150 Y150  Z15 F12000 ;recenter and begin
G1 F12000

;Layer count: 79
;LAYER:0
M106 S255
G0 F12000 X129.27 Y129.37 Z0.30
;TYPE:SKIRT
G1 F2700 X175.37 Y129.37 E2.29994
G1 X175.37 Y175.37 E4.59489
G1 X129.27 Y175.37 E6.89483
G1 X129.27 Y129.37 E9.18978
G0 F12000 X129.67 Y129.77
G1 F2700 X174.97 Y129.77 E11.44980
G1 X174.97 Y174.97 E13.70484
G1 X129.67 Y174.97 E15.96486
G1 X129.67 Y129.77 E18.21990
G0 F12000 X130.07 Y130.17
G1 F2700 X174.57 Y130.17 E20.44002
G1 X174.57 Y174.57 E22.65514
G1 X130.07 Y174.57 E24.87526
G1 X130.07 Y130.17 E27.09038
G0 F12000 X130.47 Y130.57
G1 F2700 X174.17 Y130.57 E29.27058
G1 X174.17 Y174.17 E31.44579
G1 X130.47 Y174.17 E33.62600
G1 X130.47 Y130.57 E35.80121
G0 F12000 X130.87 Y130.97
G1 F2700 X173.77 Y130.97 E37.94150
G1 X173.77 Y173.77 E40.07680
G1 X130.87 Y173.77 E42.21709
G1 X130.87 Y130.97 E44.35239
G0 F12000 X131.27 Y131.37
G1 F2700 X173.37 Y131.37 E46.45277
G1 X173.37 Y173.37 E48.54816
G1 X131.27 Y173.37 E50.64853
G1 X131.27 Y131.37 E52.74392
G0 F12000 X131.67 Y131.77
G1 F2700 X172.97 Y131.77 E54.80439
G1 X172.97 Y172.97 E56.85986
G1 X131.67 Y172.97 E58.92033
G1 X131.67 Y131.77 E60.97581
G0 F12000 X132.07 Y132.17
G1 F2700 X172.57 Y132.17 E62.99636
G1 X172.57 Y172.57 E65.01192
G1 X132.07 Y172.57 E67.03248
G1 X132.07 Y132.17 E69.04804
G0 F12000 X132.47 Y132.57
G1 F2700 X172.17 Y132.57 E71.02868
G1 X172.17 Y172.17 E73.00433
G1 X132.47 Y172.17 E74.98497
G1 X132.47 Y132.57 E76.96063
G0 F12000 X132.87 Y132.97
G1 F2700 X171.77 Y132.97 E78.90136
G1 X171.77 Y171.77 E80.83710
G1 X132.87 Y171.77 E82.77782
G1 X132.87 Y132.97 E84.71356
G0 F12000 X133.27 Y133.37
G1 F2700 X171.37 Y133.37 E86.61438
G1 X171.37 Y171.37 E88.51021
G1 X133.27 Y171.37 E90.41103
G1 X133.27 Y133.37 E92.30685
G0 F12000 X133.67 Y133.77
G1 F2700 X170.97 Y133.77 E94.16776
G1 X170.97 Y170.97 E96.02367
G1 X133.67 Y170.97 E97.88458
G1 X133.67 Y133.77 E99.74049
G0 F12000 X134.07 Y134.17
G1 F2700 X170.57 Y134.17 E101.56149
G1 X170.57 Y170.57 E103.37749
G1 X134.07 Y170.57 E105.19848
G1 X134.07 Y134.17 E107.01448
G0 F12000 X134.47 Y134.57
G1 F2700 X170.17 Y134.57 E108.79556
G1 X170.17 Y170.17 E110.57166
G1 X134.47 Y170.17 E112.35274
G1 X134.47 Y134.57 E114.12883
G0 F12000 X134.87 Y134.97
G1 F2700 X169.77 Y134.97 E115.87000
G1 X169.77 Y169.77 E117.60617
G1 X134.87 Y169.77 E119.34734
G1 X134.87 Y134.97 E121.08352
G1 F2400 E119.88352
G0 F12000 X137.27 Y137.27
;TYPE:WALL-INNER
G1 F2400 E121.08352
G1 F2700 X167.73 Y137.27 E122.60308
G1 X167.73 Y167.73 E124.12273
G1 X137.27 Y167.73 E125.64229
G1 X137.27 Y137.27 E127.16194
G0 F12000 X137.62 Y137.62
G1 F2700 X137.62 Y144.03 E127.48149
G1 X138.72 Y144.03 E127.53652
G1 X138.72 Y144.18 E127.54400
G1 X137.62 Y144.18 E127.59908
G1 X137.62 Y160.82 E128.42975
G1 X138.72 Y160.82 E128.48483
G1 X138.72 Y160.97 E128.49232
G1 X137.62 Y160.97 E128.54740
G1 X137.62 Y167.38 E128.86694
G1 X144.03 Y167.38 E129.18649
G1 X144.03 Y166.28 E129.24162
G1 X144.18 Y166.28 E129.24910
G1 X144.18 Y167.38 E129.30423
G1 X160.82 Y167.38 E130.13480
G1 X160.82 Y166.28 E130.18993
G1 X160.97 Y166.28 E130.19741
G1 X160.97 Y167.38 E130.25254
G1 X167.38 Y167.38 E130.57209
G1 X167.38 Y160.97 E130.89164
G1 X166.28 Y160.97 E130.94667
G1 X166.28 Y160.82 E130.95415
G1 X167.38 Y160.82 E131.00923
G1 X167.38 Y144.18 E131.83990
G1 X166.28 Y144.18 E131.89493
G1 X166.28 Y144.03 E131.90241
G1 X167.38 Y144.03 E131.95749
G1 X167.38 Y137.62 E132.27704
G1 X160.97 Y137.62 E132.59658
G1 X160.97 Y138.72 E132.65171
G1 X160.82 Y138.72 E132.65920
G1 X160.82 Y137.62 E132.71433
G1 X144.18 Y137.62 E133.54490
G1 X144.18 Y138.72 E133.60003
G1 X144.03 Y138.72 E133.60751
G1 X144.03 Y137.62 E133.66264
G1 X137.62 Y137.62 E133.98218
G0 F12000 X138.02 Y138.02
;TYPE:WALL-OUTER
G1 F2700 X138.02 Y143.62 E134.26182
G1 X139.12 Y143.62 E134.31685
G1 X139.12 Y144.57 E134.36424
G1 X138.02 Y144.57 E134.41932
G1 X138.02 Y160.43 E135.21008
G1 X139.12 Y160.43 E135.26516
G1 X139.12 Y161.38 E135.31256
G1 X138.02 Y161.38 E135.36764
G1 X138.02 Y166.98 E135.64727
G1 X143.63 Y166.98 E135.92691
G1 X143.63 Y165.88 E135.98203
G1 X144.34 Y165.88 E136.01741
G1 X144.58 Y165.88 E136.02943
G1 X144.58 Y166.98 E136.08451
G1 X160.42 Y166.98 E136.87517
G1 X160.42 Y165.88 E136.93030
G1 X161.13 Y165.88 E136.96572
G1 X161.37 Y165.88 E136.97769
G1 X161.37 Y166.98 E137.03277
G1 X166.98 Y166.98 E137.31241
G1 X166.98 Y161.38 E137.59204
G1 X165.88 Y161.38 E137.64707
G1 X165.88 Y160.43 E137.69447
G1 X166.98 Y160.43 E137.74954
G1 X166.98 Y144.57 E138.54030
G1 X165.88 Y144.57 E138.59533
G1 X165.88 Y143.62 E138.64273
G1 X166.98 Y143.62 E138.69781
G1 X166.98 Y138.02 E138.97744
G1 X161.37 Y138.02 E139.25708
G1 X161.37 Y139.12 E139.31221
G1 X160.42 Y139.12 E139.35960
G1 X160.42 Y138.02 E139.41473
G1 X144.58 Y138.02 E140.20539
G1 X144.58 Y139.12 E140.26052
G1 X143.89 Y139.12 E140.29469
G1 X143.63 Y139.12 E140.30791
G1 X143.63 Y138.02 E140.36299
G1 X138.02 Y138.02 E140.64263
G0 F12000 X138.02 Y137.72
G0 X137.17 Y137.08
G0 X136.87 Y136.87
G1 F2700 X168.13 Y136.87 E142.20210
G1 X168.13 Y168.13 E143.76166
G1 X136.87 Y168.13 E145.32113
G1 X136.87 Y136.87 E146.88070
G1 F2400 E145.68070
G0 F12000 X142.32 Y142.33
;TYPE:SUPPORT
G1 F2400 E146.88070
G1 F2700 X143.77 Y142.32 E146.95299
G1 X143.88 Y142.32 E146.95823
G1 X147.78 Y142.32 E147.15275
G1 X147.78 Y141.22 E147.20788
G1 X157.22 Y141.22 E147.67924
G1 X157.22 Y142.26 E147.73118
G1 X160.25 Y142.32 E147.88223
G1 X162.67 Y142.32 E148.00311
G1 X162.68 Y144.63 E148.11791
G1 X162.39 Y147.78 E148.27566
G1 X163.78 Y147.78 E148.34496
G1 X163.78 Y157.22 E148.81642
G1 X162.76 Y157.22 E148.86731
G1 X162.68 Y160.24 E149.01764
G1 X162.68 Y161.43 E149.07691
G1 X162.57 Y162.67 E149.13926
G1 X161.22 Y162.68 E149.20617
G1 X161.16 Y162.68 E149.20931
G1 X157.22 Y162.68 E149.40578
G1 X157.22 Y163.78 E149.46091
G1 X147.78 Y163.78 E149.93227
G1 X147.78 Y162.67 E149.98780
G1 X144.43 Y162.68 E150.15493
G1 X144.36 Y162.68 E150.15802
G1 X142.32 Y162.68 E150.25975
G1 X142.32 Y157.22 E150.53165
G1 X141.22 Y157.22 E150.58673
G1 X141.22 Y147.78 E151.05819
G1 X142.33 Y147.78 E151.11337
G1 X142.32 Y142.33 E151.38502
G0 F12000 X142.26 Y143.32
G1 F2700 X162.74 Y143.32 E152.40637
G0 F12000 X162.57 Y143.32
G0 X162.24 Y147.91
G0 X163.32 Y147.88
G0 X163.32 Y147.72
G1 F2700 X163.32 Y157.28 E152.88382
G0 F12000 X163.84 Y156.65
G1 F2700 X141.16 Y156.65 E154.01523
G0 F12000 X141.32 Y156.65
G0 X142.47 Y157.08
G0 X143.32 Y162.57
G0 X143.32 Y162.73
G1 F2700 X143.32 Y142.27 E155.03624
G0 F12000 X143.32 Y142.43
G0 X147.92 Y142.47
G0 X149.99 Y141.32
G0 X149.99 Y141.16
G1 F2700 X149.99 Y163.84 E156.16775
G0 F12000 X149.99 Y163.68
G0 X147.88 Y163.32
G0 X147.72 Y163.32
G1 F2700 X157.28 Y163.32 E156.64510
G0 F12000 X156.65 Y163.84
G1 F2700 X156.65 Y141.16 E157.77661
G0 F12000 X156.65 Y141.32
G0 X157.08 Y142.40
G0 X163.68 Y149.99
G0 X163.84 Y149.99
G1 F2700 X141.16 Y149.99 E158.90802
;LAYER:1
G1 F2400 E157.70802
G0 F12000 X138.76 Y144.18 Z0.60
;TYPE:WALL-INNER
G1 F2400 E158.90802
G1 F3180 X137.62 Y144.18 E158.96469
G1 X137.62 Y160.82 E159.79536
G1 X138.76 Y160.82 E159.85204
G1 X138.76 Y160.97 E159.85952
G1 X137.62 Y160.97 E159.91620
G1 X137.62 Y167.38 E160.23574
G1 X144.03 Y167.38 E160.55529
G1 X144.03 Y166.24 E160.61201
G1 X144.18 Y166.24 E160.61950
G1 X144.18 Y167.38 E160.67622
G1 X160.82 Y167.38 E161.50680
G1 X160.82 Y166.24 E161.56352
G1 X160.97 Y166.24 E161.57100
G1 X160.97 Y167.38 E161.62773
G1 X167.38 Y167.38 E161.94728
G1 X167.38 Y160.97 E162.26682
G1 X166.24 Y160.97 E162.32345
G1 X166.24 Y160.82 E162.33093
G1 X167.38 Y160.82 E162.38761
G1 X167.38 Y144.18 E163.21828
G1 X166.24 Y144.18 E163.27490
G1 X166.24 Y144.03 E163.28239
G1 X167.38 Y144.03 E163.33906
G1 X167.38 Y137.62 E163.65861
G1 X160.97 Y137.62 E163.97816
G1 X160.97 Y138.76 E164.03488
G1 X160.82 Y138.76 E164.04237
G1 X160.82 Y137.62 E164.09909
G1 X144.18 Y137.62 E164.92966
G1 X144.18 Y138.76 E164.98639
G1 X144.03 Y138.76 E164.99387
G1 X144.03 Y137.62 E165.05060
G1 X137.62 Y137.62 E165.37014
G1 X137.62 Y144.03 E165.68969
G1 X138.76 Y144.03 E165.74632
G1 X138.76 Y144.18 E165.75380
G0 F12000 X137.68 Y143.97
G0 X137.27 Y137.27
G1 F3180 X167.73 Y137.27 E167.27336
G1 X167.73 Y167.73 E168.79301
G1 X137.27 Y167.73 E170.31257
G1 X137.27 Y137.27 E171.83222
G0 F12000 X136.87 Y136.87
;TYPE:WALL-OUTER
G1 F3180 X168.13 Y136.87 E173.39169
G1 X168.13 Y168.13 E174.95126
G1 X136.87 Y168.13 E176.51073
G1 X136.87 Y136.87 E178.07029
G0 F12000 X137.17 Y137.08
G0 X138.02 Y137.72
G0 X138.02 Y138.02
G1 F3180 X138.02 Y143.62 E178.34993
G1 X139.16 Y143.62 E178.40655
G1 X139.16 Y144.57 E178.45395
G1 X138.02 Y144.57 E178.51062
G1 X138.02 Y160.43 E179.30138
G1 X139.16 Y160.43 E179.35806
G1 X139.16 Y161.38 E179.40546
G1 X138.02 Y161.38 E179.46213
G1 X138.02 Y166.98 E179.74177
G1 X143.63 Y166.98 E180.02140
G1 X143.63 Y165.84 E180.07812
G1 X144.27 Y165.84 E180.11035
G1 X144.58 Y165.84 E180.12552
G1 X144.58 Y166.98 E180.18220
G1 X160.42 Y166.98 E180.97286
G1 X160.42 Y165.84 E181.02958
G1 X161.07 Y165.84 E181.06186
G1 X161.37 Y165.84 E181.07698
G1 X161.37 Y166.98 E181.13365
G1 X166.98 Y166.98 E181.41329
G1 X166.98 Y161.38 E181.69292
G1 X165.84 Y161.38 E181.74955
G1 X165.84 Y160.43 E181.79694
G1 X166.98 Y160.43 E181.85362
G1 X166.98 Y144.57 E182.64438
G1 X165.84 Y144.57 E182.70100
G1 X165.84 Y143.62 E182.74840
G1 X166.98 Y143.62 E182.80507
G1 X166.98 Y138.02 E183.08471
G1 X161.37 Y138.02 E183.36434
G1 X161.37 Y139.16 E183.42107
G1 X160.42 Y139.16 E183.46846
G1 X160.42 Y138.02 E183.52519
G1 X144.58 Y138.02 E184.31585
G1 X144.58 Y139.16 E184.37257
G1 X143.63 Y139.16 E184.41997
G1 X143.63 Y138.02 E184.47669
G1 X138.02 Y138.02 E184.75633
G1 F2400 E183.55633
G0 F12000 X142.35 Y142.36
;TYPE:SUPPORT
G1 F2400 E184.75633
G1 F3180 X143.75 Y142.36 E184.82578
G1 X144.01 Y142.36 E184.83870
G1 X147.78 Y142.36 E185.02679
G1 X147.78 Y141.22 E185.08351
G1 X157.22 Y141.22 E185.55487
G1 X157.22 Y142.34 E185.61050
G1 X160.36 Y142.36 E185.76686
G1 X162.64 Y142.36 E185.88081
G1 X162.64 Y144.71 E185.99800
G1 X162.55 Y147.78 E186.15118
G1 X163.78 Y147.78 E186.21235
G1 X163.78 Y157.22 E186.68381
G1 X162.67 Y157.22 E186.73904
G1 X162.64 Y160.32 E186.89365
G1 X162.65 Y162.64 E187.00905
G1 X161.23 Y162.64 E187.07970
G1 X161.08 Y162.64 E187.08718
G1 X157.22 Y162.64 E187.27951
G1 X157.22 Y163.78 E187.33623
G1 X147.78 Y163.78 E187.80759
G1 X147.78 Y162.63 E187.86472
G1 X144.43 Y162.64 E188.03175
G1 X144.28 Y162.64 E188.03914
G1 X142.36 Y162.64 E188.13507
G1 X142.36 Y157.22 E188.40538
G1 X141.22 Y157.22 E188.46205
G1 X141.22 Y147.78 E188.93352
G1 X142.36 Y147.78 E188.99029
G1 X142.35 Y142.36 E189.26030
G0 F12000 X142.29 Y143.32
G1 F3180 X162.70 Y143.32 E190.27846
G0 F12000 X162.54 Y143.32
G0 X162.41 Y147.91
G0 X163.32 Y147.88
G0 X163.32 Y147.72
G1 F3180 X163.32 Y157.28 E190.75591
G0 F12000 X163.84 Y156.65
G1 F3180 X141.16 Y156.65 E191.88732
G0 F12000 X141.32 Y156.65
G0 X142.50 Y157.08
G0 X143.32 Y162.54
G0 X143.32 Y162.70
G1 F3180 X143.32 Y142.30 E192.90513
G0 F12000 X143.32 Y142.46
G0 X147.92 Y142.50
G0 X149.99 Y141.32
G0 X149.99 Y141.16
G1 F3180 X149.99 Y163.84 E194.03664
G0 F12000 X149.99 Y163.68
G0 X147.88 Y163.32
G0 X147.72 Y163.32
G1 F3180 X157.28 Y163.32 E194.51399
G0 F12000 X156.65 Y163.84
G1 F3180 X156.65 Y141.16 E195.64550
G0 F12000 X156.65 Y141.32
G0 X157.08 Y142.47
G0 X163.68 Y149.99
G0 X163.84 Y149.99
G1 F3180 X141.16 Y149.99 E196.77691
;LAYER:2
G1 F2400 E195.57691
G0 F12000 X138.79 Y144.18 Z0.90
;TYPE:WALL-INNER
G1 F2400 E196.77691
G1 F3720 X137.62 Y144.18 E196.83513
G1 X137.62 Y160.82 E197.66580
G1 X138.79 Y160.82 E197.72407
G1 X138.79 Y160.97 E197.73155
G1 X137.62 Y160.97 E197.78983
G1 X137.62 Y167.38 E198.10937
G1 X144.03 Y167.38 E198.42892
G1 X144.03 Y166.21 E198.48724
G1 X144.18 Y166.21 E198.49473
G1 X144.18 Y167.38 E198.55305
G1 X160.82 Y167.38 E199.38362
G1 X160.82 Y166.21 E199.44194
G1 X160.97 Y166.21 E199.44942
G1 X160.97 Y167.38 E199.50775
G1 X167.38 Y167.38 E199.82729
G1 X167.38 Y160.97 E200.14684
G1 X166.21 Y160.97 E200.20506
G1 X166.21 Y160.82 E200.21254
G1 X167.38 Y160.82 E200.27082
G1 X167.38 Y144.18 E201.10149
G1 X166.21 Y144.18 E201.15971
G1 X166.21 Y144.03 E201.16719
G1 X167.38 Y144.03 E201.22547
G1 X167.38 Y137.62 E201.54501
G1 X160.97 Y137.62 E201.86456
G1 X160.97 Y138.79 E201.92288
G1 X160.82 Y138.79 E201.93036
G1 X160.82 Y137.62 E201.98869
G1 X144.18 Y137.62 E202.81926
G1 X144.18 Y138.79 E202.87758
G1 X144.03 Y138.79 E202.88506
G1 X144.03 Y137.62 E202.94338
G1 X137.62 Y137.62 E203.26293
G1 X137.62 Y144.03 E203.58248
G1 X138.79 Y144.03 E203.64070
G1 X138.79 Y144.18 E203.64818
G0 F12000 X137.68 Y143.97
G0 X137.27 Y137.27
G1 F3720 X167.73 Y137.27 E205.16774
G1 X167.73 Y167.73 E206.68740
G1 X137.27 Y167.73 E208.20695
G1 X137.27 Y137.27 E209.72661
G0 F12000 X136.87 Y136.87
;TYPE:WALL-OUTER
G1 F3720 X168.13 Y136.87 E211.28607
G1 X168.13 Y168.13 E212.84564
G1 X136.87 Y168.13 E214.40511
G1 X136.87 Y136.87 E215.96468
G0 F12000 X137.17 Y137.08
G0 X138.02 Y137.72
G0 X138.02 Y138.02
G1 F3720 X138.02 Y143.62 E216.24431
G1 X139.19 Y143.62 E216.30253
G1 X139.19 Y144.57 E216.34993
G1 X138.02 Y144.57 E216.40820
G1 X138.02 Y160.43 E217.19896
G1 X139.19 Y160.43 E217.25723
G1 X139.19 Y161.38 E217.30463
G1 X138.02 Y161.38 E217.36285
G1 X138.02 Y166.98 E217.64249
G1 X143.63 Y166.98 E217.92212
G1 X143.63 Y165.81 E217.98044
G1 X144.58 Y165.81 E218.02784
G1 X144.58 Y166.98 E218.08616
G1 X160.42 Y166.98 E218.87682
G1 X160.42 Y165.81 E218.93514
G1 X161.37 Y165.81 E218.98254
G1 X161.37 Y166.98 E219.04086
G1 X166.98 Y166.98 E219.32049
G1 X166.98 Y161.38 E219.60013
G1 X165.81 Y161.38 E219.65835
G1 X165.81 Y160.43 E219.70574
G1 X166.98 Y160.43 E219.76402
G1 X166.98 Y144.57 E220.55478
G1 X165.81 Y144.57 E220.61300
G1 X165.81 Y143.62 E220.66039
G1 X166.98 Y143.62 E220.71867
G1 X166.98 Y138.02 E220.99830
G1 X161.37 Y138.02 E221.27793
G1 X161.37 Y139.19 E221.33626
G1 X160.42 Y139.19 E221.38365
G1 X160.42 Y138.02 E221.44192
G1 X144.58 Y138.02 E222.23258
G1 X144.58 Y139.19 E222.29091
G1 X143.63 Y139.19 E222.33830
G1 X143.63 Y138.02 E222.39662
G1 X138.02 Y138.02 E222.67626
G1 F2400 E221.47626
G0 F12000 X142.39 Y142.39
;TYPE:SUPPORT
G1 F2400 E222.67626
G1 F3720 X143.71 Y142.39 E222.74216
G1 X144.13 Y142.39 E222.76297
G1 X147.78 Y142.39 E222.94507
G1 X147.78 Y141.22 E223.00339
G1 X157.22 Y141.22 E223.47475
G1 X157.22 Y142.38 E223.53237
G1 X160.45 Y142.39 E223.69352
G1 X162.61 Y142.39 E223.80113
G1 X162.61 Y143.59 E223.86115
G1 X162.61 Y144.65 E223.91413
G1 X162.56 Y147.78 E224.06987
G1 X163.78 Y147.78 E224.13078
G1 X163.78 Y157.22 E224.60224
G1 X162.63 Y157.22 E224.65962
G1 X162.61 Y160.40 E224.81797
G1 X162.61 Y162.60 E224.92798
G1 X161.25 Y162.61 E224.99618
G1 X161.01 Y162.61 E225.00790
G1 X157.22 Y162.61 E225.19684
G1 X157.22 Y163.78 E225.25516
G1 X147.78 Y163.78 E225.72652
G1 X147.78 Y162.60 E225.78529
G1 X144.44 Y162.61 E225.95148
G1 X144.21 Y162.61 E225.96310
G1 X142.39 Y162.61 E226.05405
G1 X142.39 Y157.22 E226.32276
G1 X141.22 Y157.22 E226.38103
G1 X141.22 Y147.78 E226.85250
G1 X142.39 Y147.78 E226.91092
G1 X142.39 Y143.68 E227.11532
G1 X142.39 Y142.39 E227.17968
G0 F12000 X143.32 Y142.33
G1 F3720 X143.32 Y162.67 E228.19449
G0 F12000 X143.32 Y162.51
G0 X147.92 Y162.46
G0 X147.88 Y163.32
G0 X147.72 Y163.32
G1 F3720 X157.28 Y163.32 E228.67184
G0 F12000 X156.65 Y163.84
G1 F3720 X156.65 Y141.16 E229.80335
G0 F12000 X156.65 Y141.32
G0 X157.08 Y142.52
G0 X162.51 Y143.32
G0 X162.67 Y143.32
G1 F3720 X142.33 Y143.32 E230.81832
G0 F12000 X142.49 Y143.32
G0 X142.53 Y147.92
G0 X141.32 Y149.99
G0 X141.16 Y149.99
G1 F3720 X163.84 Y149.99 E231.94973
G0 F12000 X163.68 Y149.99
G0 X163.32 Y147.88
G0 X163.32 Y147.72
G1 F3720 X163.32 Y157.28 E232.42718
G0 F12000 X163.84 Y156.65
G1 F3720 X141.16 Y156.65 E233.55859
G0 F12000 X141.32 Y156.65
G0 X142.53 Y157.08
G0 X149.99 Y163.68
G0 X149.99 Y163.84
G1 F3720 X149.99 Y141.16 E234.69010
;LAYER:3
G1 F2400 E233.49010
G0 F12000 X144.18 Y138.82 Z1.20
;TYPE:WALL-INNER
G1 F2400 E234.69010
G1 F4260 X144.03 Y138.82 E234.69758
G1 X144.03 Y137.62 E234.75750
G1 X137.62 Y137.62 E235.07705
G1 X137.62 Y144.03 E235.39659
G1 X138.82 Y144.03 E235.45641
G1 X138.82 Y144.18 E235.46389
G1 X137.62 Y144.18 E235.52371
G1 X137.62 Y160.82 E236.35438
G1 X138.82 Y160.82 E236.41425
G1 X138.82 Y160.97 E236.42174
G1 X137.62 Y160.97 E236.48160
G1 X137.62 Y167.38 E236.80115
G1 X144.03 Y167.38 E237.12070
G1 X144.03 Y166.18 E237.18062
G1 X144.18 Y166.18 E237.18810
G1 X144.18 Y167.38 E237.24802
G1 X160.82 Y167.38 E238.07859
G1 X160.82 Y166.18 E238.13851
G1 X160.97 Y166.18 E238.14599
G1 X160.97 Y167.38 E238.20591
G1 X167.38 Y167.38 E238.52546
G1 X167.38 Y160.97 E238.84500
G1 X166.18 Y160.97 E238.90487
G1 X166.18 Y160.82 E238.91236
G1 X167.38 Y160.82 E238.97222
G1 X167.38 Y144.18 E239.80290
G1 X166.18 Y144.18 E239.86276
G1 X166.18 Y144.03 E239.87025
G1 X167.38 Y144.03 E239.93012
G1 X167.38 Y137.62 E240.24966
G1 X160.97 Y137.62 E240.56921
G1 X160.97 Y138.82 E240.62913
G1 X160.82 Y138.82 E240.63661
G1 X160.82 Y137.62 E240.69653
G1 X144.18 Y137.62 E241.52710
G1 X144.18 Y138.82 E241.58702
G0 F12000 X143.97 Y137.68
G0 X137.27 Y137.27
G1 F4260 X167.73 Y137.27 E243.10657
G1 X167.73 Y167.73 E244.62623
G1 X137.27 Y167.73 E246.14579
G1 X137.27 Y137.27 E247.66544
G0 F12000 X136.87 Y136.87
;TYPE:WALL-OUTER
G1 F4260 X168.13 Y136.87 E249.22491
G1 X168.13 Y168.13 E250.78448
G1 X136.87 Y168.13 E252.34395
G1 X136.87 Y136.87 E253.90351
G0 F12000 X137.17 Y137.08
G0 X138.02 Y137.72
G0 X138.02 Y138.02
G1 F4260 X138.02 Y143.62 E254.18315
G1 X139.22 Y143.62 E254.24302
G1 X139.22 Y144.57 E254.29041
G1 X138.02 Y144.57 E254.35028
G1 X138.02 Y160.43 E255.14104
G1 X139.22 Y160.43 E255.20091
G1 X139.22 Y161.38 E255.24830
G1 X138.02 Y161.38 E255.30812
G1 X138.02 Y166.98 E255.58776
G1 X143.63 Y166.98 E255.86739
G1 X143.63 Y165.78 E255.92731
G1 X144.58 Y165.78 E255.97470
G1 X144.58 Y166.98 E256.03462
G1 X160.42 Y166.98 E256.82528
G1 X160.42 Y165.78 E256.88520
G1 X161.37 Y165.78 E256.93260
G1 X161.37 Y166.98 E256.99251
G1 X166.98 Y166.98 E257.27215
G1 X166.98 Y161.38 E257.55178
G1 X165.78 Y161.38 E257.61160
G1 X165.78 Y160.47 E257.65660
G1 X165.78 Y160.43 E257.65900
G1 X166.98 Y160.43 E257.71887
G1 X166.98 Y144.57 E258.50963
G1 X165.78 Y144.57 E258.56944
G1 X165.78 Y143.67 E258.61440
G1 X165.78 Y143.62 E258.61684
G1 X166.98 Y143.62 E258.67671
G1 X166.98 Y138.02 E258.95634
G1 X161.37 Y138.02 E259.23598
G1 X161.37 Y139.22 E259.29590
G1 X160.42 Y139.22 E259.34329
G1 X160.42 Y138.02 E259.40316
G1 X144.58 Y138.02 E260.19382
G1 X144.58 Y139.22 E260.25374
G1 X143.63 Y139.22 E260.30113
G1 X143.63 Y138.02 E260.36105
G1 X138.02 Y138.02 E260.64069
G1 F2400 E259.44069
G0 F12000 X142.42 Y142.42
;TYPE:SUPPORT
G1 F2400 E260.64069
G1 F4260 X143.66 Y142.42 E260.70270
G1 X144.25 Y142.42 E260.73179
G1 X147.78 Y142.42 E260.90790
G1 X147.78 Y141.22 E260.96782
G1 X157.22 Y141.22 E261.43918
G1 X157.22 Y142.41 E261.49860
G1 X160.55 Y142.42 E261.66448
G1 X162.58 Y142.42 E261.76576
G1 X162.58 Y143.67 E261.82787
G1 X162.58 Y144.65 E261.87697
G1 X162.54 Y147.78 E262.03288
G1 X163.78 Y147.78 E262.09465
G1 X163.78 Y157.22 E262.56611
G1 X162.59 Y157.22 E262.62533
G1 X162.58 Y160.47 E262.78723
G1 X162.58 Y162.58 E262.89249
G1 X161.26 Y162.58 E262.95815
G1 X160.94 Y162.58 E262.97416
G1 X157.22 Y162.58 E263.15976
G1 X157.22 Y163.78 E263.21967
G1 X147.78 Y163.78 E263.69104
G1 X147.78 Y162.57 E263.75145
G1 X144.47 Y162.58 E263.91649
G1 X144.15 Y162.58 E263.93261
G1 X142.42 Y162.58 E264.01862
G1 X142.42 Y157.22 E264.28573
G1 X141.22 Y157.22 E264.34560
G1 X141.22 Y147.78 E264.81706
G1 X142.42 Y147.78 E264.87708
G1 X142.42 Y143.77 E265.07709
G1 X142.42 Y142.42 E265.14424
G0 F12000 X143.32 Y142.36
G1 F4260 X143.32 Y162.64 E266.15586
G0 F12000 X143.32 Y162.48
G0 X147.92 Y162.43
G0 X147.88 Y163.32
G0 X147.72 Y163.32
G1 F4260 X157.28 Y163.32 E266.63321
G0 F12000 X156.65 Y163.84
G1 F4260 X156.65 Y141.16 E267.76472
G0 F12000 X156.65 Y141.32
G0 X157.08 Y142.55
G0 X162.48 Y143.32
G0 X162.63 Y143.32
G1 F4260 X142.36 Y143.32 E268.77610
G0 F12000 X142.52 Y143.32
G0 X142.56 Y147.92
G0 X141.32 Y149.99
G0 X141.16 Y149.99
G1 F4260 X163.84 Y149.99 E269.90751
G0 F12000 X163.68 Y149.99
G0 X163.32 Y147.88
G0 X163.32 Y147.72
G1 F4260 X163.32 Y157.28 E270.38496
G0 F12000 X163.84 Y156.65
G1 F4260 X141.16 Y156.65 E271.51637
G0 F12000 X141.32 Y156.65
G0 X142.56 Y157.08
G0 X149.99 Y163.68
G0 X149.99 Y163.84
G1 F4260 X149.99 Y141.16 E272.64788
;LAYER:4
G1 F2400 E271.44788
G0 F12000 X144.18 Y138.85 Z1.50
;TYPE:WALL-INNER
G1 F2400 E272.64788
G1 F4680 X144.03 Y138.85 E272.65536
G1 X144.03 Y137.62 E272.71682
G1 X137.62 Y137.62 E273.03637
G1 X137.62 Y144.03 E273.35592
G1 X138.85 Y144.03 E273.41733
G1 X138.85 Y144.18 E273.42482
G1 X137.62 Y144.18 E273.48623
G1 X137.62 Y160.82 E274.31690
G1 X138.85 Y160.82 E274.37837
G1 X138.85 Y160.97 E274.38585
G1 X137.62 Y160.97 E274.44732
G1 X137.62 Y167.38 E274.76686
G1 X144.03 Y167.38 E275.08641
G1 X144.03 Y166.15 E275.14792
G1 X144.18 Y166.15 E275.15541
G1 X144.18 Y167.38 E275.21692
G1 X160.82 Y167.38 E276.04749
G1 X160.82 Y166.15 E276.10901
G1 X160.97 Y166.15 E276.11649
G1 X160.97 Y167.38 E276.17801
G1 X167.38 Y167.38 E276.49755
G1 X167.38 Y160.97 E276.81710
G1 X166.15 Y160.97 E276.87857
G1 X166.15 Y160.82 E276.88605
G1 X167.38 Y160.82 E276.94751
G1 X167.38 Y144.18 E277.77819
G1 X166.15 Y144.18 E277.83965
G1 X166.15 Y144.03 E277.84713
G1 X167.38 Y144.03 E277.90860
G1 X167.38 Y137.62 E278.22815
G1 X160.97 Y137.62 E278.54769
G1 X160.97 Y138.85 E278.60921
G1 X160.82 Y138.85 E278.61669
G1 X160.82 Y137.62 E278.67820
G1 X144.18 Y137.62 E279.50878
G1 X144.18 Y138.85 E279.57024
G0 F12000 X143.97 Y137.68
G0 X137.27 Y137.27
G1 F4680 X167.73 Y137.27 E281.08980
G1 X167.73 Y167.73 E282.60945
G1 X137.27 Y167.73 E284.12901
G1 X137.27 Y137.27 E285.64866
G0 F12000 X136.87 Y136.87
;TYPE:WALL-OUTER
G1 F4680 X168.13 Y136.87 E287.20813
G1 X168.13 Y168.13 E288.76770
G1 X136.87 Y168.13 E290.32717
G1 X136.87 Y136.87 E291.88674
G0 F12000 X137.17 Y137.08
G0 X138.02 Y137.72
G0 X138.02 Y138.02
G1 F4680 X138.02 Y143.62 E292.16637
G1 X139.25 Y143.62 E292.22783
G1 X139.25 Y144.57 E292.27523
G1 X138.02 Y144.57 E292.33670
G1 X138.02 Y160.43 E293.12746
G1 X139.25 Y160.43 E293.18892
G1 X139.25 Y161.38 E293.23632
G1 X138.02 Y161.38 E293.29773
G1 X138.02 Y166.98 E293.57736
G1 X143.63 Y166.98 E293.85700
G1 X143.63 Y165.75 E293.91851
G1 X144.58 Y165.75 E293.96591
G1 X144.58 Y166.98 E294.02742
G1 X160.42 Y166.98 E294.81808
G1 X160.42 Y165.75 E294.87960
G1 X161.37 Y165.75 E294.92699
G1 X161.37 Y166.98 E294.98851
G1 X166.98 Y166.98 E295.26814
G1 X166.98 Y161.38 E295.54778
G1 X165.75 Y161.38 E295.60919
G1 X165.75 Y160.43 E295.65659
G1 X166.98 Y160.43 E295.71800
G1 X166.98 Y144.57 E296.50876
G1 X165.75 Y144.57 E296.57018
G1 X165.75 Y143.62 E296.61757
G1 X166.98 Y143.62 E296.67899
G1 X166.98 Y138.02 E296.95862
G1 X161.37 Y138.02 E297.23826
G1 X161.37 Y139.25 E297.29977
G1 X160.42 Y139.25 E297.34717
G1 X160.42 Y138.02 E297.40863
G1 X144.58 Y138.02 E298.19929
G1 X144.58 Y139.25 E298.26081
G1 X143.63 Y139.25 E298.30820
G1 X143.63 Y138.02 E298.36972
G1 X138.02 Y138.02 E298.64935
G1 F2400 E297.44935
G0 F12000 X142.45 Y142.46
;TYPE:SUPPORT
G1 F2400 E298.64935
G1 F4680 X144.02 Y142.45 E298.72758
G1 X147.78 Y142.46 E298.91497
G1 X147.78 Y141.22 E298.97668
G1 X157.22 Y141.22 E299.44805
G1 X157.22 Y142.44 E299.50916
G1 X160.64 Y142.45 E299.67974
G1 X162.55 Y142.45 E299.77473
G1 X162.55 Y143.74 E299.83889
G1 X162.55 Y144.64 E299.88369
G1 X162.52 Y147.78 E300.04025
G1 X163.78 Y147.78 E300.10316
G1 X163.78 Y157.22 E300.57462
G1 X162.56 Y157.22 E300.63559
G1 X162.55 Y160.54 E300.80113
G1 X162.55 Y162.55 E300.90116
G1 X161.29 Y162.55 E300.96402
G1 X160.88 Y162.55 E300.98457
G1 X157.22 Y162.55 E301.16682
G1 X157.22 Y163.78 E301.22834
G1 X147.78 Y163.78 E301.69970
G1 X147.78 Y162.54 E301.76176
G1 X144.49 Y162.55 E301.92555
G1 X144.08 Y162.55 E301.94621
G1 X142.45 Y162.55 E302.02733
G1 X142.45 Y157.22 E302.29284
G1 X141.22 Y157.22 E302.35431
G1 X141.22 Y147.78 E302.82577
G1 X142.46 Y147.78 E302.88739
G1 X142.45 Y143.86 E303.08291
G1 X142.45 Y142.46 E303.15275
G0 F12000 X142.39 Y143.32
G1 F4680 X162.60 Y143.32 E304.16098
G0 F12000 X162.45 Y143.32
G0 X162.38 Y147.91
G0 X163.32 Y147.88
G0 X163.32 Y147.72
G1 F4680 X163.32 Y157.28 E304.63843
G0 F12000 X163.84 Y156.65
G1 F4680 X141.16 Y156.65 E305.76984
G0 F12000 X141.32 Y156.65
G0 X142.59 Y157.08
G0 X143.32 Y162.45
G0 X143.32 Y162.61
G1 F4680 X143.32 Y142.40 E306.77807
G0 F12000 X143.32 Y142.55
G0 X147.92 Y142.60
G0 X149.99 Y141.32
G0 X149.99 Y141.16
G1 F4680 X149.99 Y163.84 E307.90958
G0 F12000 X149.99 Y163.68
G0 X147.88 Y163.32
G0 X147.72 Y163.32
G1 F4680 X157.28 Y163.32 E308.38693
G0 F12000 X156.65 Y163.84
G1 F4680 X156.65 Y141.16 E309.51844
G0 F12000 X156.65 Y141.32
G0 X157.08 Y142.59
G0 X163.68 Y149.99
G0 X163.84 Y149.99
G1 F4680 X141.16 Y149.99 E310.64985
;LAYER:5
G1 F2400 E309.44985
G0 F12000 X138.88 Y144.18 Z1.80
;TYPE:WALL-INNER
G1 F2400 E310.64985
G1 F4680 X137.62 Y144.18 E310.71286
G1 X137.62 Y160.82 E311.54354
G1 X138.88 Y160.82 E311.60660
G1 X138.88 Y160.97 E311.61408
G1 X137.62 Y160.97 E311.67714
G1 X137.62 Y167.38 E311.99669
G1 X144.03 Y167.38 E312.31624
G1 X144.03 Y166.12 E312.37935
G1 X144.18 Y166.12 E312.38683
G1 X144.18 Y167.38 E312.44994
G1 X160.82 Y167.38 E313.28051
G1 X160.82 Y166.12 E313.34362
G1 X160.97 Y166.12 E313.35111
G1 X160.97 Y167.38 E313.41422
G1 X167.38 Y167.38 E313.73377
G1 X167.38 Y160.97 E314.05331
G1 X166.12 Y160.97 E314.11637
G1 X166.12 Y160.82 E314.12386
G1 X167.38 Y160.82 E314.18692
G1 X167.38 Y144.18 E315.01759
G1 X166.12 Y144.18 E315.08065
G1 X166.12 Y144.03 E315.08813
G1 X167.38 Y144.03 E315.15120
G1 X167.38 Y137.62 E315.47074
G1 X160.97 Y137.62 E315.79029
G1 X160.97 Y138.88 E315.85340
G1 X160.82 Y138.88 E315.86088
G1 X160.82 Y137.62 E315.92400
G1 X144.18 Y137.62 E316.75457
G1 X144.18 Y138.88 E316.81768
G1 X144.03 Y138.88 E316.82516
G1 X144.03 Y137.62 E316.88822
G1 X137.62 Y137.62 E317.20777
G1 X137.62 Y144.03 E317.52732
G1 X138.88 Y144.03 E317.59033
G1 X138.88 Y144.18 E317.59781
G0 F12000 X137.68 Y143.97
G0 X137.27 Y137.27
G1 F4680 X167.73 Y137.27 E319.11737
G1 X167.73 Y167.73 E320.63702
G1 X137.27 Y167.73 E322.15658
G1 X137.27 Y137.27 E323.67623
G0 F12000 X136.87 Y136.87
;TYPE:WALL-OUTER
G1 F4680 X168.13 Y136.87 E325.23570
G1 X168.13 Y168.13 E326.79527
G1 X136.87 Y168.13 E328.35474
G1 X136.87 Y136.87 E329.91431
G0 F12000 X137.17 Y137.08
G0 X138.02 Y137.72
G0 X138.02 Y138.02
G1 F4680 X138.02 Y143.62 E330.19394
G1 X139.28 Y143.62 E330.25700
G1 X139.28 Y144.57 E330.30440
G1 X138.02 Y144.57 E330.36746
G1 X138.02 Y160.43 E331.15822
G1 X139.28 Y160.43 E331.22128
G1 X139.28 Y161.38 E331.26868
G1 X138.02 Y161.38 E331.33169
G1 X138.02 Y166.98 E331.61132
G1 X143.63 Y166.98 E331.89096
G1 X143.63 Y165.72 E331.95407
G1 X144.58 Y165.72 E332.00146
G1 X144.58 Y166.98 E332.06457
G1 X160.42 Y166.98 E332.85523
G1 X160.42 Y165.72 E332.91834
G1 X161.37 Y165.72 E332.96574
G1 X161.37 Y166.98 E333.02885
G1 X166.98 Y166.98 E333.30849
G1 X166.98 Y161.38 E333.58812
G1 X165.72 Y161.38 E333.65113
G1 X165.72 Y160.43 E333.69853
G1 X166.98 Y160.43 E333.76154
G1 X166.98 Y144.57 E334.55230
G1 X165.72 Y144.57 E334.61531
G1 X165.72 Y143.62 E334.66271
G1 X166.98 Y143.62 E334.72572
G1 X166.98 Y138.02 E335.00535
G1 X161.37 Y138.02 E335.28499
G1 X161.37 Y139.28 E335.34810
G1 X160.42 Y139.28 E335.39549
G1 X160.42 Y138.02 E335.45855
G1 X144.58 Y138.02 E336.24921
G1 X144.58 Y139.28 E336.31233
G1 X143.63 Y139.28 E336.35972
G1 X143.63 Y138.02 E336.42278
G1 X138.02 Y138.02 E336.70242
G1 F2400 E335.50242
G0 F12000 X142.49 Y142.48
;TYPE:SUPPORT
G1 F2400 E336.70242
G1 F4680 X144.06 Y142.48 E336.78064
G1 X147.78 Y142.49 E336.96614
G1 X147.78 Y141.22 E337.02945
G1 X157.22 Y141.22 E337.50081
G1 X157.22 Y142.48 E337.56357
G1 X160.74 Y142.49 E337.73884
G1 X162.51 Y142.49 E337.82754
G1 X162.51 Y143.81 E337.89370
G1 X162.52 Y144.62 E337.93401
G1 X162.49 Y147.78 E338.09147
G1 X163.78 Y147.78 E338.15572
G1 X163.78 Y157.22 E338.62719
G1 X162.52 Y157.22 E338.68980
G1 X162.51 Y160.61 E338.85883
G1 X162.52 Y162.52 E338.95387
G1 X160.81 Y162.51 E339.03898
G1 X157.22 Y162.51 E339.21799
G1 X157.22 Y163.78 E339.28110
G1 X147.78 Y163.78 E339.75246
G1 X147.78 Y162.50 E339.81617
G1 X144.52 Y162.52 E339.97876
G1 X144.01 Y162.51 E340.00391
G1 X142.48 Y162.51 E340.08044
G1 X142.49 Y161.06 E340.15308
G1 X142.49 Y157.22 E340.34436
G1 X141.22 Y157.22 E340.40742
G1 X141.22 Y147.78 E340.87888
G1 X142.49 Y147.78 E340.94214
G1 X142.48 Y143.95 E341.13317
G1 X142.49 Y142.48 E341.20611
G0 F12000 X143.32 Y142.43
G1 F4680 X143.32 Y162.57 E342.21130
G0 F12000 X143.32 Y162.41
G0 X147.92 Y162.36
G0 X147.88 Y163.32
G0 X147.72 Y163.32
G1 F4680 X157.28 Y163.32 E342.68865
G0 F12000 X156.65 Y163.84
G1 F4680 X156.65 Y141.16 E343.82016
G0 F12000 X156.65 Y141.32
G0 X157.08 Y142.62
G0 X162.41 Y143.32
G0 X162.57 Y143.32
G1 F4680 X142.43 Y143.32 E344.82495
G0 F12000 X142.59 Y143.32
G0 X142.63 Y147.92
G0 X141.32 Y149.99
G0 X141.16 Y149.99
G1 F4680 X163.84 Y149.99 E345.95636
G0 F12000 X163.68 Y149.99
G0 X163.32 Y147.88
G0 X163.32 Y147.72
G1 F4680 X163.32 Y157.28 E346.43381
G0 F12000 X163.84 Y156.65
G1 F4680 X141.16 Y156.65 E347.56522
G0 F12000 X141.32 Y156.65
G0 X142.63 Y157.08
G0 X149.99 Y163.68
G0 X149.99 Y163.84
G1 F4680 X149.99 Y141.16 E348.69673
;LAYER:6
G1 F2400 E347.49673
G0 F12000 X151.37 Y146.85 Z2.10
;TYPE:WALL-OUTER
G1 F2400 E348.69673
G1 F4800 X152.45 Y146.75 E348.75053
G1 X152.50 Y146.74 E348.75303
G1 X153.57 Y146.84 E348.80681
G1 X153.62 Y146.85 E348.80932
G1 X154.65 Y147.16 E348.86305
G1 X154.71 Y147.18 E348.86599
G1 X155.65 Y147.69 E348.91940
G1 X155.69 Y147.71 E348.92190
G1 X156.53 Y148.39 E348.97578
G1 X157.25 Y149.26 E349.03198
G1 X157.29 Y149.30 E349.03496
G1 X157.79 Y150.25 E349.08831
G1 X157.82 Y150.30 E349.09112
G1 X158.13 Y151.32 E349.14462
G1 X158.15 Y151.37 E349.14727
G1 X158.25 Y152.44 E349.20087
G1 X158.26 Y152.50 E349.20357
G1 X158.16 Y153.57 E349.25736
G1 X158.15 Y153.62 E349.25987
G1 X157.84 Y154.65 E349.31360
G1 X157.82 Y154.71 E349.31653
G1 X157.31 Y155.65 E349.36994
G1 X157.29 Y155.69 E349.37244
G1 X156.61 Y156.53 E349.42633
G1 X155.74 Y157.25 E349.48253
G1 X155.70 Y157.29 E349.48551
G1 X154.75 Y157.79 E349.53885
G1 X154.70 Y157.82 E349.54167
G1 X153.68 Y158.13 E349.59517
G1 X153.63 Y158.15 E349.59782
G1 X152.55 Y158.25 E349.65162
G1 X152.50 Y158.26 E349.65412
G1 X151.43 Y158.16 E349.70790
G1 X151.38 Y158.15 E349.71042
G1 X150.35 Y157.84 E349.76414
G1 X150.29 Y157.82 E349.76708
G1 X149.35 Y157.31 E349.82060
G1 X148.47 Y156.61 E349.87683
G1 X147.75 Y155.74 E349.93303
G1 X147.71 Y155.70 E349.93602
G1 X147.20 Y154.75 E349.98943
G1 X147.18 Y154.70 E349.99217
G1 X146.87 Y153.67 E350.04583
G1 X146.85 Y153.63 E350.04833
G1 X146.75 Y152.55 E350.10212
G1 X146.74 Y152.50 E350.10463
G1 X146.84 Y151.43 E350.15841
G1 X146.85 Y151.38 E350.16092
G1 X147.16 Y150.35 E350.21465
G1 X147.18 Y150.29 E350.21758
G1 X147.69 Y149.35 E350.27099
G1 X147.71 Y149.31 E350.27350
G1 X148.39 Y148.47 E350.32738
G1 X149.26 Y147.75 E350.38358
G1 X149.30 Y147.71 E350.38656
G1 X150.25 Y147.21 E350.43991
G1 X150.30 Y147.18 E350.44272
G1 X151.32 Y146.87 E350.49622
G1 X151.37 Y146.85 E350.49887
G0 F12000 X151.47 Y147.16
G1 F4800 X150.43 Y147.47 E350.55279
G1 X149.49 Y147.97 E350.60598
G1 X148.65 Y148.65 E350.65992
G1 X147.98 Y149.48 E350.71309
G1 X147.48 Y150.41 E350.76559
G1 X147.17 Y151.43 E350.81874
G1 X147.07 Y152.46 E350.87054
G1 X147.06 Y152.50 E350.87245
G1 X147.16 Y153.53 E350.92438
G1 X147.47 Y154.57 E350.97826
G1 X147.97 Y155.51 E351.03144
G1 X148.65 Y156.35 E351.08538
G1 X149.48 Y157.02 E351.13855
G1 X150.41 Y157.52 E351.19105
G1 X151.43 Y157.83 E351.24420
G1 X152.47 Y157.94 E351.29641
G1 X152.50 Y157.94 E351.29792
G1 X153.53 Y157.84 E351.34980
G1 X154.57 Y157.53 E351.40372
G1 X155.51 Y157.03 E351.45691
G1 X156.35 Y156.35 E351.51084
G1 X157.02 Y155.52 E351.56401
G1 X157.52 Y154.59 E351.61651
G1 X157.83 Y153.58 E351.66962
G1 X157.93 Y152.54 E351.72147
G1 X157.94 Y152.50 E351.72338
G1 X157.84 Y151.47 E351.77526
G1 X157.53 Y150.43 E351.82918
G1 X157.03 Y149.49 E351.88237
G1 X156.35 Y148.65 E351.93631
G1 X155.52 Y147.98 E351.98948
G1 X154.59 Y147.48 E352.04197
G1 X153.57 Y147.17 E352.09513
G1 X152.53 Y147.06 E352.14733
G1 X152.50 Y147.06 E352.14884
G1 X151.47 Y147.16 E352.20072
G1 F2400 E351.00072
G0 F12000 X144.18 Y138.92
;TYPE:WALL-INNER
G1 F2400 E352.20072
G1 F4800 X144.03 Y138.92 E352.20821
G1 X144.03 Y137.62 E352.27287
G1 X137.62 Y137.62 E352.59241
G1 X137.62 Y144.03 E352.91196
G1 X138.92 Y144.03 E352.97657
G1 X138.92 Y144.18 E352.98405
G1 X137.62 Y144.18 E353.04866
G1 X137.62 Y160.82 E353.87933
G1 X138.92 Y160.82 E353.94399
G1 X138.92 Y160.97 E353.95147
G1 X137.62 Y160.97 E354.01608
G1 X137.62 Y167.38 E354.33563
G1 X144.03 Y167.38 E354.65517
G1 X144.03 Y166.08 E354.71983
G1 X144.18 Y166.08 E354.72731
G1 X144.18 Y167.38 E354.79197
G1 X160.82 Y167.38 E355.62254
G1 X160.82 Y166.08 E355.68720
G1 X160.97 Y166.08 E355.69468
G1 X160.97 Y167.38 E355.75934
G1 X167.38 Y167.38 E356.07889
G1 X167.38 Y160.97 E356.39844
G1 X166.08 Y160.97 E356.46309
G1 X166.08 Y160.82 E356.47058
G1 X167.38 Y160.82 E356.53523
G1 X167.38 Y144.18 E357.36591
G1 X166.08 Y144.18 E357.43056
G1 X166.08 Y144.03 E357.43805
G1 X167.38 Y144.03 E357.50271
G1 X167.38 Y137.62 E357.82225
G1 X160.97 Y137.62 E358.14180
G1 X160.97 Y138.92 E358.20651
G1 X160.82 Y138.92 E358.21399
G1 X160.82 Y137.62 E358.27865
G1 X144.18 Y137.62 E359.10922
G1 X144.18 Y138.92 E359.17393
G0 F12000 X143.97 Y137.68
G0 X137.27 Y137.27
G1 F4800 X167.73 Y137.27 E360.69348
G1 X167.73 Y167.73 E362.21314
G1 X137.27 Y167.73 E363.73270
G1 X137.27 Y137.27 E365.25235
G0 F12000 X136.87 Y136.87
;TYPE:WALL-OUTER
G1 F4800 X168.13 Y136.87 E366.81182
G1 X168.13 Y168.13 E368.37139
G1 X136.87 Y168.13 E369.93085
G1 X136.87 Y136.87 E371.49042
G0 F12000 X137.17 Y137.08
G0 X138.02 Y137.72
G0 X138.02 Y138.02
G1 F4800 X138.02 Y143.62 E371.77006
G1 X139.32 Y143.62 E371.83471
G1 X139.32 Y144.57 E371.88211
G1 X138.02 Y144.57 E371.94677
G1 X138.02 Y160.43 E372.73753
G1 X139.32 Y160.43 E372.80219
G1 X139.32 Y161.38 E372.84958
G1 X138.02 Y161.38 E372.91419
G1 X138.02 Y166.98 E373.19382
G1 X143.63 Y166.98 E373.47346
G1 X143.63 Y165.68 E373.53817
G1 X144.58 Y165.68 E373.58556
G1 X144.58 Y166.98 E373.65027
G1 X160.42 Y166.98 E374.44093
G1 X160.42 Y165.68 E374.50564
G1 X161.37 Y165.68 E374.55303
G1 X161.37 Y166.98 E374.61774
G1 X166.98 Y166.98 E374.89737
G1 X166.98 Y161.38 E375.17701
G1 X165.68 Y161.38 E375.24162
G1 X165.68 Y160.43 E375.28901
G1 X166.98 Y160.43 E375.35362
G1 X166.98 Y144.57 E376.14438
G1 X165.68 Y144.57 E376.20899
G1 X165.68 Y143.62 E376.25638
G1 X166.98 Y143.62 E376.32099
G1 X166.98 Y138.02 E376.60063
G1 X161.37 Y138.02 E376.88026
G1 X161.37 Y139.32 E376.94497
G1 X160.42 Y139.32 E376.99236
G1 X160.42 Y138.02 E377.05702
G1 X144.58 Y138.02 E377.84768
G1 X144.58 Y139.32 E377.91239
G1 X143.63 Y139.32 E377.95978
G1 X143.63 Y138.02 E378.02444
G1 X138.02 Y138.02 E378.30408
G1 F2400 E377.10408
G0 F12000 X142.52 Y142.52
;TYPE:SUPPORT
G1 F2400 E378.30408
G1 F4800 X144.10 Y142.52 E378.38285
G1 X147.78 Y142.52 E378.56625
G1 X147.78 Y141.22 E378.63116
G1 X157.22 Y141.22 E379.10252
G1 X157.22 Y142.51 E379.16698
G1 X160.83 Y142.52 E379.34693
G1 X162.48 Y142.52 E379.42935
G1 X162.48 Y143.88 E379.49750
G1 X162.48 Y144.60 E379.53332
G1 X162.46 Y147.78 E379.69168
G1 X163.78 Y147.78 E379.75733
G1 X163.78 Y157.22 E380.22879
G1 X162.49 Y157.22 E380.29305
G1 X162.48 Y160.69 E380.46567
G1 X162.49 Y162.49 E380.55553
G1 X160.75 Y162.48 E380.64239
G1 X157.22 Y162.48 E380.81805
G1 X157.22 Y163.78 E380.88276
G1 X147.78 Y163.78 E381.35412
G1 X147.78 Y162.47 E381.41947
G1 X144.54 Y162.48 E381.58077
G1 X143.95 Y162.48 E381.61051
G1 X142.51 Y162.48 E381.68210
G1 X142.52 Y160.97 E381.75778
G1 X142.52 Y157.22 E381.94442
G1 X141.22 Y157.22 E382.00908
G1 X141.22 Y147.78 E382.48054
G1 X142.52 Y147.78 E382.54540
G1 X142.52 Y144.04 E382.73184
G1 X142.52 Y142.52 E382.80777
G0 F12000 X146.18 Y146.14
G1 F4800 X145.93 Y146.43 E382.82670
G1 X145.05 Y147.50 E382.89636
G1 X144.87 Y147.83 E382.91503
G1 X144.34 Y148.82 E382.97101
G1 X144.29 Y148.81 E382.97352
G1 X144.10 Y149.41 E383.00477
G1 X143.71 Y150.72 E383.07293
G1 X143.66 Y151.10 E383.09214
G1 X143.53 Y152.51 E383.16271
G1 X143.70 Y154.23 E383.24890
G1 X143.79 Y154.57 E383.26669
G1 X144.28 Y156.18 E383.35071
G1 X144.33 Y156.17 E383.35313
G1 X145.03 Y157.48 E383.42734
G1 X145.26 Y157.76 E383.44537
G1 X145.26 Y157.76 E383.44544
G1 X146.14 Y158.82 E383.51406
G1 X146.43 Y159.07 E383.53299
G1 X147.50 Y159.95 E383.60265
G1 X147.82 Y160.13 E383.62080
G1 X148.81 Y160.66 E383.67651
G1 X148.80 Y160.70 E383.67893
G1 X149.40 Y160.89 E383.71049
G1 X149.40 Y160.89 E383.71054
G1 X150.72 Y161.29 E383.77923
G1 X151.10 Y161.34 E383.79848
G1 X152.51 Y161.48 E383.86901
G1 X154.23 Y161.30 E383.95520
G1 X154.59 Y161.20 E383.97419
G1 X156.18 Y160.72 E384.05701
G1 X156.17 Y160.67 E384.05943
G1 X157.48 Y159.97 E384.13365
G1 X157.76 Y159.74 E384.15167
G1 X157.76 Y159.74 E384.15174
G1 X158.82 Y158.86 E384.22036
G1 X159.07 Y158.57 E384.23929
G1 X159.95 Y157.50 E384.30895
G1 X160.13 Y157.17 E384.32761
G1 X160.67 Y156.16 E384.38482
G1 X160.72 Y156.17 E384.38713
G1 X160.90 Y155.59 E384.41717
G1 X161.29 Y154.28 E384.48534
G1 X161.34 Y153.90 E384.50454
G1 X161.47 Y152.48 E384.57572
G1 X161.30 Y150.77 E384.66131
G1 X161.20 Y150.41 E384.68029
G1 X160.70 Y148.78 E384.76504
G1 X160.65 Y148.80 E384.76797
G1 X159.97 Y147.52 E384.84009
G1 X159.74 Y147.24 E384.85818
G1 X159.74 Y147.24 E384.85825
G1 X158.86 Y146.18 E384.92687
G1 X158.57 Y145.93 E384.94580
G1 X157.50 Y145.05 E385.01546
G1 X157.18 Y144.88 E385.03332
G1 X156.16 Y144.33 E385.09110
G1 X156.17 Y144.29 E385.09347
G1 X155.60 Y144.11 E385.12325
G1 X155.60 Y144.11 E385.12330
G1 X154.28 Y143.71 E385.19198
G1 X153.90 Y143.66 E385.21119
G1 X152.49 Y143.52 E385.28177
G1 X150.77 Y143.70 E385.36796
G1 X150.41 Y143.80 E385.38695
G1 X148.81 Y144.29 E385.47019
G1 X148.82 Y144.34 E385.47271
G1 X147.52 Y145.04 E385.54648
G1 X147.24 Y145.26 E385.56447
G1 X147.24 Y145.26 E385.56454
G1 X146.18 Y146.14 E385.63316
G1 F2400 E384.43316
G0 F12000 X149.99 Y143.99
G1 F2400 E385.63316
G1 F4800 X149.99 Y141.16 E385.77450
G0 F12000 X149.99 Y141.32
G0 X156.65 Y141.32
G0 X156.65 Y141.16
G1 F4800 X156.65 Y144.66 E385.94927
G0 F12000 X156.73 Y144.52
G0 X162.38 Y143.32
G0 X162.54 Y143.32
G1 F4800 X142.46 Y143.32 E386.95096
G0 F12000 X143.32 Y142.46
G1 F4800 X143.32 Y162.54 E387.95296
G0 F12000 X143.32 Y162.38
G0 X147.92 Y162.33
G0 X147.88 Y163.32
G0 X147.72 Y163.32
G1 F4800 X157.28 Y163.32 E388.43031
G0 F12000 X156.65 Y163.84
G1 F4800 X156.65 Y160.34 E388.60492
G0 F12000 X156.73 Y160.48
G0 X158.96 Y159.00
G0 X160.31 Y157.26
G0 X160.48 Y156.73
G0 X160.34 Y156.65
G1 F4800 X163.84 Y156.65 E388.77954
G0 F12000 X163.32 Y157.28
G1 F4800 X163.32 Y147.72 E389.25699
G0 F12000 X163.32 Y147.88
G0 X163.68 Y149.99
G0 X163.84 Y149.99
G1 F4800 X161.01 Y149.99 E389.39823
G0 F12000 X161.16 Y149.94
G0 X161.68 Y152.48
G0 X161.09 Y155.65
G0 X159.22 Y158.70
G0 X157.59 Y160.13
G0 X154.65 Y161.39
G0 X151.08 Y161.54
G0 X149.94 Y161.16
G0 X149.99 Y161.01
G1 F4800 X149.99 Y163.84 E389.53951
G0 F12000 X149.99 Y163.68
G0 X144.87 Y157.59
G0 X144.52 Y156.73
G0 X144.66 Y156.65
G1 F4800 X141.16 Y156.65 E389.71408
G0 F12000 X141.32 Y156.65
G0 X141.32 Y149.99
G0 X141.16 Y149.99
G1 F4800 X143.99 Y149.99 E389.85542
G1 F2400 E388.65542
G0 F12000 X150.32 Y152.06
G1 F2400 E389.85542
G1 F4800 X150.45 Y151.63 E389.87754
G1 X150.65 Y151.26 E389.89848
G1 X150.93 Y150.93 E389.92014
G1 X151.27 Y150.65 E389.94219
G1 X151.66 Y150.44 E389.96408
G1 X152.07 Y150.32 E389.98549
G1 X152.49 Y150.28 E390.00685
G1 X152.94 Y150.32 E390.02931
G1 X153.37 Y150.45 E390.05144
G1 X153.74 Y150.65 E390.07238
G1 X154.07 Y150.93 E390.09403
G1 X154.35 Y151.27 E390.11608
G1 X154.56 Y151.66 E390.13798
G1 X154.68 Y152.07 E390.15939
G1 X154.72 Y152.49 E390.18074
G1 X154.68 Y152.94 E390.20321
G1 X154.55 Y153.37 E390.22540
G1 X154.35 Y153.73 E390.24622
G1 X154.07 Y154.07 E390.26791
G1 X153.73 Y154.35 E390.28997
G1 X153.34 Y154.56 E390.31186
G1 X152.93 Y154.68 E390.33327
G1 X152.51 Y154.72 E390.35462
G1 X152.06 Y154.68 E390.37709
G1 X151.63 Y154.55 E390.39922
G1 X151.26 Y154.35 E390.42015
G1 X150.93 Y154.07 E390.44181
G1 X150.65 Y153.73 E390.46386
G1 X150.44 Y153.34 E390.48587
G1 X150.32 Y152.94 E390.50705
G1 X150.28 Y152.51 E390.52841
G1 X150.32 Y152.06 E390.55097
;LAYER:7
G1 F2400 E389.35097
G0 F12000 X147.18 Y151.39 Z2.40
;TYPE:WALL-OUTER
G1 F2400 E390.55097
G1 F4800 X147.17 Y151.44 E390.55370
G1 X147.07 Y152.44 E390.60404
G1 X147.06 Y152.50 E390.60680
G1 X147.16 Y153.51 E390.65748
G1 X147.17 Y153.56 E390.66019
G1 X147.46 Y154.53 E390.71066
G1 X147.48 Y154.58 E390.71333
G1 X147.98 Y155.52 E390.76649
G1 X148.62 Y156.31 E390.81705
G1 X149.44 Y156.99 E390.87000
G1 X149.48 Y157.02 E390.87273
G1 X150.42 Y157.53 E390.92603
G1 X151.39 Y157.82 E390.97647
G1 X151.44 Y157.83 E390.97920
G1 X152.44 Y157.93 E391.02953
G1 X152.50 Y157.94 E391.03229
G1 X153.51 Y157.84 E391.08292
G1 X153.56 Y157.83 E391.08564
G1 X154.53 Y157.54 E391.13616
G1 X154.58 Y157.52 E391.13882
G1 X155.52 Y157.02 E391.19199
G1 X156.31 Y156.38 E391.24254
G1 X156.99 Y155.56 E391.29550
G1 X157.02 Y155.52 E391.29822
G1 X157.53 Y154.58 E391.35152
G1 X157.82 Y153.61 E391.40192
G1 X157.83 Y153.56 E391.40465
G1 X157.93 Y152.56 E391.45503
G1 X157.94 Y152.50 E391.45779
G1 X157.84 Y151.49 E391.50842
G1 X157.83 Y151.44 E391.51113
G1 X157.54 Y150.47 E391.56165
G1 X157.52 Y150.42 E391.56432
G1 X157.02 Y149.48 E391.61749
G1 X156.38 Y148.69 E391.66804
G1 X155.56 Y148.01 E391.72114
G1 X155.52 Y147.98 E391.72372
G1 X154.58 Y147.47 E391.77702
G1 X153.61 Y147.18 E391.82747
G1 X153.56 Y147.17 E391.83020
G1 X152.56 Y147.07 E391.88053
G1 X152.50 Y147.06 E391.88329
G1 X151.49 Y147.16 E391.93392
G1 X151.44 Y147.17 E391.93663
G1 X150.47 Y147.46 E391.98715
G1 X150.42 Y147.48 E391.98982
G1 X149.48 Y147.98 E392.04298
G1 X148.69 Y148.62 E392.09354
G1 X148.01 Y149.44 E392.14649
G1 X147.98 Y149.48 E392.14922
G1 X147.47 Y150.42 E392.20252
G1 X147.18 Y151.39 E392.25296
G0 F12000 X146.80 Y151.37
G1 F4800 X147.09 Y150.43 E392.30190
G1 X147.13 Y150.28 E392.30975
G1 X147.60 Y149.41 E392.35878
G1 X147.67 Y149.28 E392.36640
G1 X148.39 Y148.39 E392.42333
G1 X149.15 Y147.77 E392.47232
G1 X149.28 Y147.67 E392.48027
G1 X150.14 Y147.21 E392.52917
G1 X150.28 Y147.13 E392.53719
G1 X151.22 Y146.85 E392.58600
G1 X151.37 Y146.80 E392.59375
G1 X152.35 Y146.70 E392.64289
G1 X152.50 Y146.69 E392.65050
G1 X153.48 Y146.79 E392.69958
G1 X153.63 Y146.80 E392.70750
G1 X154.57 Y147.09 E392.75644
G1 X154.72 Y147.13 E392.76429
G1 X155.59 Y147.60 E392.81332
G1 X155.72 Y147.67 E392.82094
G1 X156.61 Y148.39 E392.87787
G1 X157.23 Y149.15 E392.92686
G1 X157.33 Y149.28 E392.93481
G1 X157.79 Y150.14 E392.98371
G1 X157.87 Y150.28 E392.99172
G1 X158.15 Y151.22 E393.04054
G1 X158.20 Y151.37 E393.04829
G1 X158.30 Y152.34 E393.09733
G1 X158.31 Y152.50 E393.10504
G1 X158.21 Y153.48 E393.15412
G1 X158.20 Y153.63 E393.16204
G1 X157.91 Y154.57 E393.21098
G1 X157.87 Y154.72 E393.21883
G1 X157.40 Y155.59 E393.26786
G1 X157.33 Y155.72 E393.27548
G1 X156.61 Y156.61 E393.33241
G1 X155.85 Y157.23 E393.38140
G1 X155.72 Y157.33 E393.38935
G1 X154.86 Y157.79 E393.43825
G1 X154.72 Y157.87 E393.44626
G1 X153.78 Y158.15 E393.49508
G1 X153.63 Y158.20 E393.50283
G1 X152.65 Y158.30 E393.55197
G1 X152.50 Y158.31 E393.55958
G1 X151.52 Y158.21 E393.60866
G1 X151.37 Y158.20 E393.61658
G1 X150.43 Y157.91 E393.66552
G1 X150.28 Y157.87 E393.67337
G1 X149.41 Y157.40 E393.72240
G1 X149.28 Y157.33 E393.73002
G1 X148.39 Y156.61 E393.78695
G1 X147.77 Y155.85 E393.83601
G1 X147.67 Y155.72 E393.84389
G1 X147.21 Y154.86 E393.89286
G1 X147.13 Y154.72 E393.90080
G1 X146.84 Y153.78 E393.94973
G1 X146.80 Y153.63 E393.95737
G1 X146.70 Y152.65 E394.00651
G1 X146.69 Y152.50 E394.01422
G1 X146.79 Y151.52 E394.06320
G1 X146.80 Y151.37 E394.07112
G1 F2400 E392.87112
G0 F12000 X138.95 Y144.18
;TYPE:WALL-INNER
G1 F2400 E394.07112
G1 F4800 X137.62 Y144.18 E394.13733
G1 X137.62 Y160.82 E394.96800
G1 X138.95 Y160.82 E395.03425
G1 X138.95 Y160.97 E395.04174
G1 X137.62 Y160.97 E395.10794
G1 X137.62 Y167.38 E395.42749
G1 X144.03 Y167.38 E395.74703
G1 X144.03 Y166.05 E395.81329
G1 X144.18 Y166.05 E395.82077
G1 X144.18 Y167.38 E395.88703
G1 X160.82 Y167.38 E396.71760
G1 X160.82 Y166.05 E396.78385
G1 X160.97 Y166.05 E396.79133
G1 X160.97 Y167.38 E396.85759
G1 X167.38 Y167.38 E397.17714
G1 X167.38 Y160.97 E397.49668
G1 X166.05 Y160.97 E397.56294
G1 X166.05 Y160.82 E397.57042
G1 X167.38 Y160.82 E397.63667
G1 X167.38 Y144.18 E398.46735
G1 X166.05 Y144.18 E398.53360
G1 X166.05 Y144.03 E398.54108
G1 X167.38 Y144.03 E398.60734
G1 X167.38 Y137.62 E398.92689
G1 X160.97 Y137.62 E399.24643
G1 X160.97 Y138.95 E399.31274
G1 X160.82 Y138.95 E399.32022
G1 X160.82 Y137.62 E399.38647
G1 X144.18 Y137.62 E400.21705
G1 X144.18 Y138.95 E400.28335
G1 X144.03 Y138.95 E400.29083
G1 X144.03 Y137.62 E400.35709
G1 X137.62 Y137.62 E400.67663
G1 X137.62 Y144.03 E400.99618
G1 X138.95 Y144.03 E401.06239
G1 X138.95 Y144.18 E401.06987
G0 F12000 X137.68 Y143.97
G0 X137.27 Y137.27
G1 F4800 X167.73 Y137.27 E402.58942
G1 X167.73 Y167.73 E404.10908
G1 X137.27 Y167.73 E405.62864
G1 X137.27 Y137.27 E407.14829
G0 F12000 X136.87 Y136.87
;TYPE:WALL-OUTER
G1 F4800 X168.13 Y136.87 E408.70776
G1 X168.13 Y168.13 E410.26733
G1 X136.87 Y168.13 E411.82680
G1 X136.87 Y136.87 E413.38636
G0 F12000 X137.17 Y137.08
G0 X138.02 Y137.72
G0 X138.02 Y138.02
G1 F4800 X138.02 Y143.62 E413.66600
G1 X139.35 Y143.62 E413.73225
G1 X139.35 Y144.57 E413.77965
G1 X138.02 Y144.57 E413.84590
G1 X138.02 Y160.43 E414.63666
G1 X139.35 Y160.43 E414.70292
G1 X139.35 Y161.38 E414.75031
G1 X138.02 Y161.38 E414.81652
G1 X138.02 Y166.98 E415.09615
G1 X143.63 Y166.98 E415.37578
G1 X143.63 Y165.65 E415.44209
G1 X144.58 Y165.65 E415.48948
G1 X144.58 Y166.98 E415.55574
G1 X160.42 Y166.98 E416.34640
G1 X160.42 Y165.65 E416.41270
G1 X161.37 Y165.65 E416.46010
G1 X161.37 Y166.98 E416.52635
G1 X166.98 Y166.98 E416.80599
G1 X166.98 Y161.38 E417.08562
G1 X165.65 Y161.38 E417.15183
G1 X165.65 Y160.43 E417.19922
G1 X166.98 Y160.43 E417.26543
G1 X166.98 Y144.57 E418.05619
G1 X165.65 Y144.57 E418.12239
G1 X165.65 Y143.62 E418.16979
G1 X166.98 Y143.62 E418.23599
G1 X166.98 Y138.02 E418.51562
G1 X161.37 Y138.02 E418.79526
G1 X161.37 Y139.35 E418.86156
G1 X160.42 Y139.35 E418.90896
G1 X160.42 Y138.02 E418.97521
G1 X144.58 Y138.02 E419.76587
G1 X144.58 Y139.35 E419.83218
G1 X143.63 Y139.35 E419.87957
G1 X143.63 Y138.02 E419.94583
G1 X138.02 Y138.02 E420.22546
G1 F2400 E419.02546
G0 F12000 X150.93 Y150.92
;TYPE:SUPPORT
G1 F2400 E420.22546
G1 F4800 X151.26 Y150.66 E420.24645
G1 X151.65 Y150.44 E420.26886
G1 X152.07 Y150.32 E420.29046
G1 X152.50 Y150.28 E420.31202
G1 X152.94 Y150.32 E420.33408
G1 X153.35 Y150.45 E420.35557
G1 X153.74 Y150.65 E420.37735
G1 X154.08 Y150.93 E420.39943
G1 X154.34 Y151.26 E420.42041
G1 X154.56 Y151.65 E420.44282
G1 X154.68 Y152.07 E420.46443
G1 X154.72 Y152.50 E420.48603
G1 X154.68 Y152.94 E420.50794
G1 X154.55 Y153.35 E420.52959
G1 X154.35 Y153.74 E420.55140
G1 X154.07 Y154.08 E420.57340
G1 X153.74 Y154.34 E420.59439
G1 X153.35 Y154.56 E420.61680
G1 X152.93 Y154.68 E420.63840
G1 X152.50 Y154.72 E420.65996
G1 X152.06 Y154.68 E420.68202
G1 X151.65 Y154.55 E420.70351
G1 X151.26 Y154.35 E420.72529
G1 X150.92 Y154.07 E420.74737
G1 X150.66 Y153.74 E420.76835
G1 X150.44 Y153.35 E420.79076
G1 X150.32 Y152.93 E420.81242
G1 X150.28 Y152.50 E420.83402
G1 X150.32 Y152.06 E420.85598
G1 X150.45 Y151.65 E420.87748
G1 X150.65 Y151.26 E420.89926
G1 X150.93 Y150.92 E420.92133
G1 F2400 E419.72133
G0 F12000 X145.82 Y146.48
G1 F2400 E420.92133
G1 F4800 X145.00 Y147.48 E420.98564
G1 X144.36 Y148.66 E421.05250
G1 X144.29 Y148.64 E421.05621
G1 X144.03 Y149.49 E421.10072
G1 X143.65 Y150.74 E421.16551
G1 X143.50 Y152.21 E421.23959
G1 X141.22 Y152.09 E421.35334
G1 X141.22 Y147.78 E421.56886
G1 X142.55 Y147.78 E421.63532
G1 X142.55 Y144.13 E421.81702
G1 X142.55 Y142.55 E421.89609
G1 X144.14 Y142.55 E421.97562
G1 X147.78 Y142.55 E422.15692
G1 X147.78 Y141.22 E422.22342
G1 X152.11 Y141.22 E422.43980
G1 X152.23 Y143.50 E422.55373
G1 X150.75 Y143.65 E422.62764
G1 X150.29 Y143.78 E422.65145
G1 X148.64 Y144.29 E422.73787
G1 X148.66 Y144.37 E422.74209
G1 X147.50 Y144.99 E422.80780
G1 X147.13 Y145.29 E422.83161
G1 X146.12 Y146.12 E422.89665
G1 X145.82 Y146.48 E422.92018
G1 F2400 E421.72018
G0 F12000 X143.94 Y149.99
G1 F2400 E422.92018
G1 F4800 X141.16 Y149.99 E423.05892
G0 F12000 X141.32 Y149.99
G0 X143.33 Y152.10
G0 X143.32 Y152.26
G1 F4800 X143.32 Y142.49 E423.54655
G0 F12000 X142.49 Y143.32
G1 F4800 X152.28 Y143.32 E424.03498
G0 F12000 X152.12 Y143.33
G0 X149.94 Y143.79
G0 X149.99 Y143.94
G1 F4800 X149.99 Y141.16 E424.17382
G1 F2400 E422.97382
G0 F12000 X143.50 Y152.78
G1 F2400 E424.17382
G1 F4800 X143.65 Y154.25 E424.24722
G1 X143.78 Y154.69 E424.27030
G1 X144.28 Y156.35 E424.35695
G1 X144.37 Y156.33 E424.36106
G1 X144.99 Y157.51 E424.42751
G1 X145.28 Y157.87 E424.45060
G1 X146.12 Y158.88 E424.51610
G1 X146.48 Y159.18 E424.53957
G1 X147.48 Y160.00 E424.60405
G1 X148.64 Y160.63 E424.66989
G1 X148.62 Y160.70 E424.67364
G1 X149.48 Y160.97 E424.71860
G1 X149.48 Y160.97 E424.71865
G1 X150.74 Y161.35 E424.78391
G1 X152.22 Y161.50 E424.85844
G1 X152.10 Y163.78 E424.97219
G1 X147.78 Y163.78 E425.18811
G1 X147.78 Y162.44 E425.25516
G1 X144.57 Y162.45 E425.41531
G1 X142.55 Y162.45 E425.51594
G1 X142.55 Y157.22 E425.77662
G1 X141.22 Y157.22 E425.84287
G1 X141.22 Y152.90 E426.05880
G1 X143.50 Y152.78 E426.17274
G0 F12000 X143.32 Y152.73
G1 F4800 X143.32 Y162.51 E426.66046
G0 F12000 X143.32 Y162.35
G0 X147.92 Y162.29
G0 X147.88 Y163.32
G0 X147.72 Y163.32
G1 F4800 X152.19 Y163.32 E426.88352
G0 F12000 X152.03 Y163.31
G0 X149.99 Y163.68
G0 X149.99 Y163.84
G1 F4800 X149.99 Y161.06 E427.02217
G0 F12000 X149.94 Y161.21
G0 X148.46 Y160.71
G0 X145.98 Y159.02
G0 X144.46 Y156.73
G0 X144.60 Y156.65
G1 F4800 X141.16 Y156.65 E427.19394
G1 F2400 E425.99394
G0 F12000 X152.77 Y161.50
G1 F2400 E427.19394
G1 F4800 X154.25 Y161.35 E427.26784
G1 X154.71 Y161.22 E427.29165
G1 X156.36 Y160.72 E427.37780
G1 X156.34 Y160.63 E427.38197
G1 X157.50 Y160.01 E427.44804
G1 X157.87 Y159.71 E427.47173
G1 X158.88 Y158.88 E427.53677
G1 X159.18 Y158.52 E427.56031
G1 X160.00 Y157.52 E427.62447
G1 X160.65 Y156.32 E427.69261
G1 X160.72 Y156.34 E427.69611
G1 X160.97 Y155.51 E427.73952
G1 X161.35 Y154.26 E427.80430
G1 X161.50 Y152.79 E427.87838
G1 X163.78 Y152.91 E427.99213
G1 X163.78 Y157.22 E428.20766
G1 X162.46 Y157.22 E428.27356
G1 X162.45 Y160.75 E428.44967
G1 X162.45 Y162.45 E428.53439
G1 X157.22 Y162.45 E428.79531
G1 X157.22 Y163.78 E428.86177
G1 X152.89 Y163.78 E429.07814
G1 X152.77 Y161.50 E429.19208
G0 F12000 X152.79 Y161.60
G0 X152.96 Y163.31
G0 X152.80 Y163.32
G1 F4800 X157.28 Y163.32 E429.41559
G0 F12000 X156.65 Y163.84
G1 F4800 X156.65 Y160.40 E429.58736
G0 F12000 X156.73 Y160.54
G0 X159.02 Y159.02
G0 X160.16 Y157.63
G0 X160.54 Y156.73
G0 X160.40 Y156.65
G1 F4800 X163.84 Y156.65 E429.75888
G0 F12000 X163.32 Y157.28
G1 F4800 X163.32 Y152.82 E429.98154
G0 F12000 X163.78 Y152.10
G1 F4800 X161.50 Y152.22 E430.09548
G1 X161.35 Y150.75 E430.16888
G1 X161.22 Y150.29 E430.19269
G1 X160.71 Y148.62 E430.28028
G1 X160.62 Y148.64 E430.28470
G1 X160.01 Y147.49 E430.34940
G1 X159.71 Y147.13 E430.37296
G1 X158.88 Y146.12 E430.43800
G1 X158.52 Y145.82 E430.46153
G1 X157.52 Y145.00 E430.52591
G1 X156.32 Y144.35 E430.59373
G1 X156.34 Y144.29 E430.59718
G1 X155.52 Y144.03 E430.64026
G1 X155.52 Y144.03 E430.64031
G1 X154.26 Y143.65 E430.70557
G1 X152.78 Y143.50 E430.78010
G1 X152.90 Y141.22 E430.89385
G1 X157.22 Y141.22 E431.10977
G1 X157.22 Y142.54 E431.17583
G1 X160.93 Y142.55 E431.36047
G1 X162.45 Y142.55 E431.43660
G1 X162.45 Y143.95 E431.50670
G1 X162.45 Y144.58 E431.53803
G1 X162.43 Y147.78 E431.69733
G1 X163.78 Y147.78 E431.76449
G1 X163.78 Y152.10 E431.98041
G0 F12000 X163.32 Y152.19
G1 F4800 X163.32 Y147.72 E432.20347
G0 F12000 X163.32 Y147.88
G0 X163.68 Y149.99
G0 X163.84 Y149.99
G1 F4800 X161.06 Y149.99 E432.34231
G0 F12000 X161.21 Y149.94
G0 X162.35 Y143.32
G0 X162.51 Y143.32
G1 F4800 X152.73 Y143.32 E432.83024
G0 F12000 X152.89 Y143.33
G0 X155.40 Y143.87
G0 X156.51 Y144.19
G0 X156.73 Y144.46
G0 X156.65 Y144.60
G1 F4800 X156.65 Y141.16 E433.00176
;LAYER:8
G1 F2400 E431.80176
G0 F12000 X154.74 Y147.09 Z2.70
;TYPE:WALL-OUTER
G1 F2400 E433.00176
G1 F4800 X155.75 Y147.62 E433.05881
G1 X156.64 Y148.36 E433.11635
G1 X157.38 Y149.25 E433.17389
G1 X157.91 Y150.26 E433.23094
G1 X158.25 Y151.35 E433.28823
G1 X158.34 Y152.25 E433.33285
G1 X158.36 Y152.50 E433.34553
G1 X158.25 Y153.65 E433.40303
G1 X157.91 Y154.74 E433.46032
G1 X157.38 Y155.75 E433.51737
G1 X156.64 Y156.64 E433.57491
G1 X155.75 Y157.38 E433.63245
G1 X154.74 Y157.91 E433.68950
G1 X153.65 Y158.25 E433.74679
G1 X152.75 Y158.34 E433.79146
G1 X152.50 Y158.36 E433.80414
G1 X151.35 Y158.25 E433.86159
G1 X150.26 Y157.91 E433.91888
G1 X149.25 Y157.38 E433.97594
G1 X148.36 Y156.64 E434.03347
G1 X147.62 Y155.75 E434.09101
G1 X147.09 Y154.74 E434.14806
G1 X146.75 Y153.65 E434.20535
G1 X146.66 Y152.75 E434.25002
G1 X146.64 Y152.50 E434.26285
G1 X146.75 Y151.35 E434.32016
G1 X147.09 Y150.26 E434.37745
G1 X147.62 Y149.25 E434.43450
G1 X148.36 Y148.36 E434.49203
G1 X149.25 Y147.62 E434.54957
G1 X150.26 Y147.09 E434.60662
G1 X151.35 Y146.75 E434.66391
G1 X152.25 Y146.66 E434.70859
G1 X152.50 Y146.64 E434.72126
G1 X153.65 Y146.75 E434.77872
G1 X154.74 Y147.09 E434.83601
G0 F12000 X154.58 Y147.47
G1 F4800 X153.63 Y147.19 E434.88546
G1 X153.56 Y147.17 E434.88918
G1 X152.57 Y147.07 E434.93861
G1 X152.50 Y147.06 E434.94232
G1 X151.51 Y147.16 E434.99195
G1 X151.44 Y147.17 E434.99561
G1 X150.49 Y147.45 E435.04514
G1 X150.42 Y147.48 E435.04880
G1 X149.48 Y147.98 E435.10197
G1 X148.71 Y148.61 E435.15152
G1 X148.65 Y148.65 E435.15514
G1 X148.03 Y149.42 E435.20463
G1 X147.98 Y149.48 E435.20831
G1 X147.47 Y150.42 E435.26155
G1 X147.19 Y151.37 E435.31100
G1 X147.17 Y151.44 E435.31472
G1 X147.07 Y152.43 E435.36415
G1 X147.06 Y152.50 E435.36781
G1 X147.16 Y153.49 E435.41754
G1 X147.17 Y153.56 E435.42120
G1 X147.45 Y154.51 E435.47068
G1 X147.48 Y154.58 E435.47434
G1 X147.98 Y155.52 E435.52751
G1 X148.61 Y156.29 E435.57706
G1 X148.65 Y156.35 E435.58068
G1 X149.42 Y156.97 E435.63017
G1 X149.48 Y157.02 E435.63385
G1 X150.42 Y157.53 E435.68709
G1 X151.37 Y157.81 E435.73654
G1 X151.44 Y157.83 E435.74026
G1 X152.43 Y157.93 E435.78969
G1 X152.50 Y157.94 E435.79340
G1 X153.49 Y157.84 E435.84303
G1 X153.56 Y157.83 E435.84669
G1 X154.51 Y157.55 E435.89622
G1 X154.58 Y157.52 E435.89988
G1 X155.52 Y157.02 E435.95305
G1 X156.29 Y156.39 E436.00260
G1 X156.35 Y156.35 E436.00622
G1 X156.97 Y155.58 E436.05571
G1 X157.02 Y155.52 E436.05939
G1 X157.53 Y154.58 E436.11262
G1 X157.81 Y153.63 E436.16203
G1 X157.83 Y153.56 E436.16575
G1 X157.93 Y152.57 E436.21523
G1 X157.94 Y152.50 E436.21894
G1 X157.84 Y151.51 E436.26857
G1 X157.83 Y151.44 E436.27223
G1 X157.55 Y150.49 E436.32176
G1 X157.52 Y150.42 E436.32542
G1 X157.02 Y149.48 E436.37859
G1 X156.39 Y148.71 E436.42814
G1 X156.35 Y148.65 E436.43176
G1 X155.58 Y148.02 E436.48132
G1 X155.52 Y147.98 E436.48493
G1 X154.58 Y147.47 E436.53817
G0 F12000 X154.32 Y147.25
;TYPE:FILL
G1 F4800 X153.82 Y147.03 E436.55300
G1 X153.13 Y146.91 E436.56389
G1 X152.53 Y146.87 E436.57481
G1 X151.99 Y146.90 E436.58380
G1 X151.49 Y146.96 E436.59281
G1 X151.03 Y147.07 E436.60066
G1 X150.59 Y147.20 E436.60869
G1 X150.19 Y147.36 E436.61671
G1 X149.82 Y147.56 E436.62402
G1 X149.46 Y147.76 E436.63121
G1 X149.08 Y147.95 E436.63801
G1 X148.86 Y148.30 E436.64485
G1 X148.47 Y148.47 E436.65165
G1 X148.30 Y148.86 E436.65862
G1 X147.94 Y149.08 E436.66557
G1 X147.76 Y149.46 E436.67250
G1 X147.56 Y149.82 E436.67980
G1 X147.36 Y150.19 E436.68710
G1 X147.20 Y150.59 E436.69504
G1 X147.07 Y151.03 E436.70303
G1 X146.96 Y151.49 E436.71111
G1 X146.90 Y151.99 E436.72012
G1 X146.87 Y152.53 E436.72918
G1 X146.91 Y153.13 E436.74026
G1 X147.03 Y153.82 E436.75132
G1 X147.32 Y154.68 E436.76628
G1 X147.74 Y155.38 E436.80707
G1 F2400 E435.60707
G0 F12000 X149.62 Y157.26
G1 F2400 E436.80707
G1 F4800 X150.32 Y157.67 E436.83120
G1 X151.18 Y157.97 E436.84605
G1 X151.86 Y158.09 E436.85694
G1 X152.47 Y158.13 E436.86771
G1 X153.01 Y158.10 E436.87663
G1 X153.51 Y158.04 E436.88564
G1 X153.97 Y157.93 E436.89355
G1 X154.40 Y157.80 E436.90147
G1 X154.81 Y157.64 E436.90948
G1 X155.18 Y157.44 E436.91683
G1 X155.54 Y157.24 E436.92398
G1 X155.92 Y157.05 E436.93074
G1 X156.13 Y156.70 E436.93762
G1 X156.53 Y156.53 E436.94444
G1 X156.70 Y156.13 E436.95142
G1 X157.05 Y155.92 E436.95841
G1 X157.24 Y155.54 E436.96527
G1 X157.44 Y155.18 E436.97258
G1 X157.64 Y154.81 E436.97993
G1 X157.80 Y154.40 E436.98792
G1 X157.93 Y153.97 E436.99592
G1 X158.04 Y153.51 E437.00394
G1 X158.10 Y153.01 E437.01295
G1 X158.13 Y152.47 E437.02201
G1 X158.09 Y151.86 E437.03309
G1 X157.97 Y151.18 E437.04415
G1 X157.67 Y150.32 E437.05900
G1 X157.25 Y149.62 E437.09979
G1 F2400 E435.89979
G0 F12000 X155.38 Y147.74
G1 F2400 E437.09979
G1 F4800 X155.04 Y147.40 E437.12399
G1 F2400 E435.92399
G0 F12000 X160.82 Y138.98
;TYPE:WALL-INNER
G1 F2400 E437.12399
G1 F4800 X160.82 Y137.62 E437.19184
G1 X144.18 Y137.62 E438.02241
G1 X144.18 Y138.98 E438.09031
G1 X144.03 Y138.98 E438.09779
G1 X144.03 Y137.62 E438.16570
G1 X137.62 Y137.62 E438.48524
G1 X137.62 Y144.03 E438.80479
G1 X138.98 Y144.03 E438.87259
G1 X138.98 Y144.18 E438.88007
G1 X137.62 Y144.18 E438.94787
G1 X137.62 Y160.82 E439.77855
G1 X138.98 Y160.82 E439.84640
G1 X138.98 Y160.97 E439.85388
G1 X137.62 Y160.97 E439.92168
G1 X137.62 Y167.38 E440.24123
G1 X144.03 Y167.38 E440.56077
G1 X144.03 Y166.02 E440.62862
G1 X144.18 Y166.02 E440.63611
G1 X144.18 Y167.38 E440.70396
G1 X160.82 Y167.38 E441.53453
G1 X160.82 Y166.02 E441.60238
G1 X160.97 Y166.02 E441.60987
G1 X160.97 Y167.38 E441.67772
G1 X167.38 Y167.38 E441.99726
G1 X167.38 Y160.97 E442.31681
G1 X166.02 Y160.97 E442.38466
G1 X166.02 Y160.82 E442.39214
G1 X167.38 Y160.82 E442.45999
G1 X167.38 Y144.18 E443.29067
G1 X166.02 Y144.18 E443.35852
G1 X166.02 Y144.03 E443.36600
G1 X167.38 Y144.03 E443.43385
G1 X167.38 Y137.62 E443.75340
G1 X160.97 Y137.62 E444.07294
G1 X160.97 Y138.98 E444.14085
G1 X160.82 Y138.98 E444.14833
G0 F12000 X161.03 Y137.68
G0 X167.73 Y137.27
G1 F4800 X167.73 Y167.73 E445.66798
G1 X137.27 Y167.73 E447.18754
G1 X137.27 Y137.27 E448.70720
G1 X167.73 Y137.27 E450.22675
G0 F12000 X168.13 Y136.87
;TYPE:WALL-OUTER
G1 F4800 X168.13 Y168.13 E451.78632
G1 X136.87 Y168.13 E453.34579
G1 X136.87 Y136.87 E454.90536
G1 X168.13 Y136.87 E456.46482
G0 F12000 X167.83 Y137.08
G0 X167.28 Y138.02
G0 X166.98 Y138.02
G1 F4800 X161.37 Y138.02 E456.74446
G1 X161.37 Y139.38 E456.81236
G1 X160.42 Y139.38 E456.85975
G1 X160.42 Y138.02 E456.92760
G1 X144.58 Y138.02 E457.71826
G1 X144.58 Y139.38 E457.78612
G1 X143.63 Y139.38 E457.83351
G1 X143.63 Y138.02 E457.90141
G1 X138.02 Y138.02 E458.18105
G1 X138.02 Y143.62 E458.46068
G1 X139.38 Y143.62 E458.52853
G1 X139.38 Y144.57 E458.57593
G1 X138.02 Y144.57 E458.64378
G1 X138.02 Y160.43 E459.43454
G1 X139.38 Y160.43 E459.50239
G1 X139.38 Y161.38 E459.54978
G1 X138.02 Y161.38 E459.61758
G1 X138.02 Y166.98 E459.89722
G1 X143.63 Y166.98 E460.17685
G1 X143.63 Y165.62 E460.24475
G1 X144.58 Y165.62 E460.29215
G1 X144.58 Y166.98 E460.36000
G1 X160.42 Y166.98 E461.15066
G1 X160.42 Y165.62 E461.21856
G1 X161.37 Y165.62 E461.26596
G1 X161.37 Y166.98 E461.33381
G1 X166.98 Y166.98 E461.61344
G1 X166.98 Y161.38 E461.89308
G1 X165.62 Y161.38 E461.96088
G1 X165.62 Y160.43 E462.00827
G1 X166.98 Y160.43 E462.07607
G1 X166.98 Y144.57 E462.86683
G1 X165.62 Y144.57 E462.93463
G1 X165.62 Y143.62 E462.98203
G1 X166.98 Y143.62 E463.04983
G1 X166.98 Y138.02 E463.32947
G1 F2400 E462.12947
G0 F12000 X162.42 Y142.58
;TYPE:SUPPORT
G1 F2400 E463.32947
G1 F4800 X162.42 Y144.03 E463.40151
G1 X162.42 Y144.56 E463.42830
G1 X162.40 Y147.78 E463.58860
G1 X163.78 Y147.78 E463.65725
G1 X163.78 Y151.52 E463.84404
G1 X161.73 Y151.82 E463.94751
G1 X161.24 Y150.19 E464.03266
G1 X160.71 Y148.44 E464.12349
G1 X160.59 Y148.47 E464.12955
G1 X160.05 Y147.46 E464.18694
G1 X158.92 Y146.08 E464.27570
G1 X157.54 Y144.96 E464.36439
G1 X156.49 Y144.39 E464.42380
G1 X156.52 Y144.28 E464.42941
G1 X155.43 Y143.95 E464.48619
G1 X153.18 Y143.27 E464.60361
G1 X153.48 Y141.22 E464.70694
G1 X157.22 Y141.22 E464.89363
G1 X157.22 Y142.58 E464.96128
G1 X161.02 Y142.58 E465.15056
G1 X162.42 Y142.58 E465.22046
G0 F12000 X162.48 Y143.32
G1 F4800 X153.14 Y143.32 E465.68629
G0 F12000 X153.22 Y143.18
G0 X156.69 Y144.19
G0 X156.73 Y144.40
G0 X156.65 Y144.54
G1 F4800 X156.65 Y141.16 E465.85516
G0 F12000 X156.65 Y141.32
G0 X157.08 Y142.72
G0 X162.26 Y147.92
G0 X163.32 Y147.88
G0 X163.32 Y147.72
G1 F4800 X163.32 Y151.65 E466.05138
G0 F12000 X163.29 Y151.49
G0 X163.68 Y149.99
G0 X163.84 Y149.99
G1 F4800 X161.11 Y149.99 E466.18753
G1 F2400 E464.98753
G0 F12000 X151.82 Y143.27
G1 F2400 E466.18753
G1 F4800 X150.19 Y143.76 E466.27289
G1 X148.48 Y144.28 E466.36189
G1 X148.51 Y144.39 E466.36760
G1 X147.46 Y144.95 E466.42680
G1 X146.08 Y146.08 E466.51566
G1 X144.96 Y147.46 E466.60435
G1 X144.40 Y148.49 E466.66286
G1 X144.29 Y148.46 E466.66872
G1 X143.95 Y149.57 E466.72644
G1 X143.95 Y149.57 E466.72649
G1 X143.27 Y151.82 E466.84375
G1 X141.22 Y151.51 E466.94708
G1 X141.22 Y147.78 E467.13367
G1 X142.59 Y147.78 E467.20182
G1 X142.58 Y144.22 E467.37898
G1 X142.58 Y142.58 E467.46095
G1 X144.19 Y142.58 E467.54128
G1 X147.78 Y142.57 E467.71998
G1 X147.78 Y141.22 E467.78753
G1 X151.52 Y141.22 E467.97447
G1 X151.82 Y143.27 E468.07794
G0 F12000 X151.88 Y143.32
G1 F4800 X142.52 Y143.32 E468.54457
G0 F12000 X143.32 Y142.52
G1 F4800 X143.32 Y151.86 E469.01064
G0 F12000 X143.18 Y151.78
G0 X143.74 Y149.94
G0 X143.89 Y149.99
G1 F4800 X141.16 Y149.99 E469.14659
G0 F12000 X141.32 Y149.99
G0 X147.35 Y144.79
G0 X148.30 Y144.18
G0 X149.94 Y143.73
G0 X149.99 Y143.89
G1 F4800 X149.99 Y141.16 E469.28274
G1 F2400 E468.08274
G0 F12000 X152.07 Y150.32
G1 F2400 E469.28274
G1 F4800 X152.50 Y150.28 E469.30430
G1 X152.93 Y150.32 E469.32611
G1 X153.35 Y150.45 E469.34786
G1 X153.74 Y150.65 E469.36957
G1 X154.07 Y150.93 E469.39145
G1 X154.35 Y151.26 E469.41291
G1 X154.56 Y151.65 E469.43482
G1 X154.68 Y152.07 E469.45683
G1 X154.72 Y152.50 E469.47827
G1 X154.68 Y152.93 E469.49998
G1 X154.55 Y153.35 E469.52181
G1 X154.35 Y153.73 E469.54348
G1 X154.07 Y154.07 E469.56546
G1 X153.74 Y154.35 E469.58688
G1 X153.35 Y154.56 E469.60880
G1 X152.93 Y154.68 E469.63069
G1 X152.50 Y154.72 E469.65224
G1 X152.07 Y154.68 E469.67405
G1 X151.65 Y154.55 E469.69580
G1 X151.26 Y154.35 E469.71752
G1 X150.93 Y154.07 E469.73943
G1 X150.65 Y153.74 E469.76077
G1 X150.44 Y153.35 E469.78303
G1 X150.32 Y152.93 E469.80459
G1 X150.28 Y152.50 E469.82604
G1 X150.32 Y152.07 E469.84785
G1 X150.45 Y151.65 E469.86975
G1 X150.65 Y151.26 E469.89147
G1 X150.93 Y150.93 E469.91335
G1 X151.26 Y150.65 E469.93480
G1 X151.65 Y150.44 E469.95672
G1 X152.07 Y150.32 E469.97861
G1 F2400 E468.77861
G0 F12000 X161.73 Y153.18
G1 F2400 E469.97861
G1 F4800 X163.78 Y153.49 E470.08194
G1 X163.78 Y157.22 E470.26853
G1 X162.43 Y157.22 E470.33603
G1 X162.42 Y160.83 E470.51573
G1 X162.42 Y162.42 E470.59526
G1 X157.22 Y162.42 E470.85464
G1 X157.22 Y163.78 E470.92269
G1 X153.48 Y163.78 E471.10963
G1 X153.18 Y161.73 E471.21310
G1 X154.81 Y161.24 E471.29846
G1 X156.54 Y160.71 E471.38820
G1 X156.51 Y160.60 E471.39396
G1 X157.54 Y160.05 E471.45239
G1 X158.92 Y158.92 E471.54126
G1 X160.05 Y157.54 E471.63009
G1 X160.61 Y156.49 E471.68951
G1 X160.72 Y156.52 E471.69511
G1 X161.05 Y155.43 E471.75178
G1 X161.05 Y155.43 E471.75183
G1 X161.73 Y153.18 E471.86910
G0 F12000 X163.29 Y153.51
G0 X163.32 Y153.36
G1 F4800 X163.32 Y157.28 E472.06507
G0 F12000 X163.84 Y156.65
G1 F4800 X160.46 Y156.65 E472.23385
G0 F12000 X160.60 Y156.73
G0 X159.06 Y159.06
G0 X157.65 Y160.21
G0 X156.73 Y160.60
G0 X156.65 Y160.46
G1 F4800 X156.65 Y163.84 E472.40268
G0 F12000 X157.28 Y163.32
G1 F4800 X153.35 Y163.32 E472.59904
G1 F2400 E471.39904
G0 F12000 X151.52 Y163.78
G1 F2400 E472.59904
G1 F4800 X147.78 Y163.78 E472.78573
G1 X147.78 Y162.40 E472.85453
G1 X144.59 Y162.42 E473.01343
G1 X142.58 Y162.42 E473.11391
G1 X142.58 Y160.78 E473.19563
G1 X142.58 Y157.22 E473.37299
G1 X141.22 Y157.22 E473.44084
G1 X141.22 Y153.48 E473.62763
G1 X143.27 Y153.18 E473.73110
G1 X143.76 Y154.81 E473.81626
G1 X144.28 Y156.53 E473.90578
G1 X144.40 Y156.50 E473.91164
G1 X144.95 Y157.54 E473.97030
G1 X146.08 Y158.92 E474.05917
G1 X147.45 Y160.04 E474.14775
G1 X148.47 Y160.59 E474.20520
G1 X148.44 Y160.70 E474.21126
G1 X149.57 Y161.05 E474.27003
G1 X151.82 Y161.73 E474.38746
G1 X151.52 Y163.78 E474.49079
G0 F12000 X151.65 Y163.32
G1 F4800 X147.72 Y163.32 E474.68691
G0 F12000 X147.88 Y163.32
G0 X149.99 Y163.68
G0 X149.99 Y163.84
G1 F4800 X149.99 Y161.11 E474.82306
G0 F12000 X149.94 Y161.26
G0 X143.32 Y162.32
G0 X143.32 Y162.48
G1 F4800 X143.32 Y153.12 E475.28968
G0 F12000 X143.18 Y153.22
G0 X144.19 Y156.71
G0 X144.40 Y156.73
G0 X144.55 Y156.65
G1 F4800 X141.16 Y156.65 E475.45856
;LAYER:9
G1 F2400 E474.25856
G0 F12000 X147.04 Y154.76 Z3.00
;TYPE:WALL-OUTER
G1 F2400 E475.45856
G1 F4800 X146.80 Y154.00 E475.49852
G1 X146.70 Y153.65 E475.51642
G1 X146.59 Y152.50 E475.57422
G1 X146.70 Y151.35 E475.63183
G1 X146.93 Y150.58 E475.67200
G1 X147.04 Y150.24 E475.68989
G1 X147.58 Y149.22 E475.74743
G1 X148.32 Y148.32 E475.80543
G1 X149.22 Y147.58 E475.86343
G1 X150.24 Y147.04 E475.92108
G1 X151.00 Y146.80 E475.96104
G1 X151.35 Y146.70 E475.97894
G1 X152.50 Y146.59 E476.03674
G1 X153.65 Y146.70 E476.09435
G1 X154.42 Y146.93 E476.13452
G1 X154.76 Y147.04 E476.15241
G1 X155.78 Y147.58 E476.20995
G1 X156.68 Y148.32 E476.26795
G1 X157.42 Y149.22 E476.32595
G1 X157.96 Y150.24 E476.38360
G1 X158.20 Y151.00 E476.42356
G1 X158.30 Y151.35 E476.44146
G1 X158.41 Y152.50 E476.49916
G1 X158.30 Y153.65 E476.55687
G1 X158.07 Y154.42 E476.59704
G1 X157.96 Y154.76 E476.61493
G1 X157.42 Y155.78 E476.67248
G1 X156.68 Y156.68 E476.73047
G1 X155.78 Y157.42 E476.78847
G1 X154.76 Y157.96 E476.84612
G1 X154.00 Y158.20 E476.88608
G1 X153.65 Y158.30 E476.90398
G1 X152.50 Y158.41 E476.96174
G1 X151.35 Y158.30 E477.01939
G1 X150.58 Y158.07 E477.05956
G1 X150.24 Y157.96 E477.07746
G1 X149.22 Y157.42 E477.13500
G1 X148.32 Y156.68 E477.19299
G1 X147.58 Y155.78 E477.25099
G1 X147.04 Y154.76 E477.30864
G0 F12000 X147.47 Y154.58
G1 F4800 X147.93 Y155.44 E477.35728
G1 X147.98 Y155.52 E477.36188
G1 X148.65 Y156.35 E477.41505
G1 X149.48 Y157.02 E477.46822
G1 X150.34 Y157.48 E477.51672
G1 X150.42 Y157.52 E477.52139
G1 X151.44 Y157.83 E477.57467
G1 X152.41 Y157.93 E477.62310
G1 X152.50 Y157.94 E477.62776
G1 X153.47 Y157.84 E477.67644
G1 X153.56 Y157.83 E477.68101
G1 X154.58 Y157.53 E477.73418
G1 X155.44 Y157.07 E477.78281
G1 X155.52 Y157.02 E477.78741
G1 X156.35 Y156.35 E477.84058
G1 X157.02 Y155.52 E477.89376
G1 X157.48 Y154.66 E477.94226
G1 X157.52 Y154.58 E477.94692
G1 X157.83 Y153.56 E478.00016
G1 X157.93 Y152.59 E478.04863
G1 X157.94 Y152.50 E478.05330
G1 X157.84 Y151.53 E478.10197
G1 X157.83 Y151.44 E478.10654
G1 X157.53 Y150.42 E478.15971
G1 X157.07 Y149.56 E478.20835
G1 X157.02 Y149.48 E478.21295
G1 X156.35 Y148.65 E478.26612
G1 X155.52 Y147.98 E478.31929
G1 X154.66 Y147.52 E478.36790
G1 X154.58 Y147.48 E478.37246
G1 X153.56 Y147.17 E478.42574
G1 X152.59 Y147.07 E478.47417
G1 X152.50 Y147.06 E478.47883
G1 X151.53 Y147.16 E478.52751
G1 X151.44 Y147.17 E478.53208
G1 X150.42 Y147.47 E478.58525
G1 X149.56 Y147.93 E478.63388
G1 X149.48 Y147.98 E478.63848
G1 X148.65 Y148.65 E478.69165
G1 X147.98 Y149.48 E478.74483
G1 X147.52 Y150.34 E478.79333
G1 X147.48 Y150.42 E478.79799
G1 X147.17 Y151.44 E478.85127
G1 X147.07 Y152.41 E478.89970
G1 X147.06 Y152.50 E478.90437
G1 X147.16 Y153.47 E478.95309
G1 X147.17 Y153.56 E478.95766
G1 X147.47 Y154.58 E479.01078
G0 F12000 X147.25 Y154.32
;TYPE:FILL
G1 F4800 X146.96 Y154.03 E479.03117
G1 F2400 E477.83117
G0 F12000 X148.13 Y155.93
G1 F2400 E479.03117
G1 F4800 X148.00 Y156.06 E479.04056
G0 F12000 X150.68 Y157.75
G1 F4800 X150.96 Y158.03 E479.06060
G0 F12000 X151.00 Y157.88
G0 X157.88 Y151.01
G0 X158.04 Y150.97
G1 F4800 X157.75 Y150.68 E479.08099
G1 F2400 E477.88099
G0 F12000 X155.93 Y148.13
G1 F2400 E479.08099
G1 F4800 X156.06 Y147.99 E479.09048
G0 F12000 X154.32 Y147.25
G1 F4800 X154.04 Y146.97 E479.11051
G1 F2400 E477.91051
G0 F12000 X160.82 Y139.01
;TYPE:WALL-INNER
G1 F2400 E479.11051
G1 F4800 X160.82 Y137.62 E479.17996
G1 X144.18 Y137.62 E480.01053
G1 X144.18 Y139.01 E480.08003
G1 X144.03 Y139.01 E480.08751
G1 X144.03 Y137.62 E480.15701
G1 X137.62 Y137.62 E480.47656
G1 X137.62 Y144.03 E480.79610
G1 X139.01 Y144.03 E480.86550
G1 X139.01 Y144.18 E480.87298
G1 X137.62 Y144.18 E480.94238
G1 X137.62 Y160.82 E481.77305
G1 X139.01 Y160.82 E481.84250
G1 X139.01 Y160.97 E481.84998
G1 X137.62 Y160.97 E481.91938
G1 X137.62 Y167.38 E482.23893
G1 X144.03 Y167.38 E482.55848
G1 X144.03 Y165.99 E482.62797
G1 X144.18 Y165.99 E482.63546
G1 X144.18 Y167.38 E482.70490
G1 X160.82 Y167.38 E483.53548
G1 X160.82 Y165.99 E483.60497
G1 X160.97 Y165.99 E483.61246
G1 X160.97 Y167.38 E483.68190
G1 X167.38 Y167.38 E484.00145
G1 X167.38 Y160.97 E484.32100
G1 X165.99 Y160.97 E484.39044
G1 X165.99 Y160.82 E484.39793
G1 X167.38 Y160.82 E484.46737
G1 X167.38 Y144.18 E485.29805
G1 X165.99 Y144.18 E485.36749
G1 X165.99 Y144.03 E485.37498
G1 X167.38 Y144.03 E485.44442
G1 X167.38 Y137.62 E485.76397
G1 X160.97 Y137.62 E486.08352
G1 X160.97 Y139.01 E486.15302
G1 X160.82 Y139.01 E486.16050
G0 F12000 X161.03 Y137.68
G0 X167.73 Y137.27
G1 F4800 X167.73 Y167.73 E487.68015
G1 X137.27 Y167.73 E489.19971
G1 X137.27 Y137.27 E490.71937
G1 X167.73 Y137.27 E492.23892
G0 F12000 X168.13 Y136.87
;TYPE:WALL-OUTER
G1 F4800 X168.13 Y168.13 E493.79849
G1 X136.87 Y168.13 E495.35796
G1 X136.87 Y136.87 E496.91753
G1 X168.13 Y136.87 E498.47699
G0 F12000 X167.83 Y137.08
G0 X167.28 Y138.02
G0 X166.98 Y138.02
G1 F4800 X161.37 Y138.02 E498.75663
G1 X161.37 Y139.41 E498.82612
G1 X160.42 Y139.41 E498.87352
G1 X160.42 Y138.02 E498.94297
G1 X144.58 Y138.02 E499.73363
G1 X144.58 Y139.41 E499.80307
G1 X143.67 Y139.41 E499.84808
G1 X143.63 Y139.41 E499.85047
G1 X143.63 Y138.02 E499.91997
G1 X138.02 Y138.02 E500.19960
G1 X138.02 Y143.62 E500.47924
G1 X139.41 Y143.62 E500.54868
G1 X139.41 Y144.57 E500.59608
G1 X138.02 Y144.57 E500.66553
G1 X138.02 Y160.43 E501.45629
G1 X139.41 Y160.43 E501.52573
G1 X139.41 Y161.38 E501.57313
G1 X138.02 Y161.38 E501.64253
G1 X138.02 Y166.98 E501.92216
G1 X143.63 Y166.98 E502.20180
G1 X143.63 Y165.59 E502.27129
G1 X144.58 Y165.59 E502.31869
G1 X144.58 Y166.98 E502.38814
G1 X160.42 Y166.98 E503.17880
G1 X160.42 Y165.59 E503.24829
G1 X161.37 Y165.59 E503.29569
G1 X161.37 Y166.98 E503.36514
G1 X166.98 Y166.98 E503.64477
G1 X166.98 Y161.38 E503.92440
G1 X165.59 Y161.38 E503.99380
G1 X165.59 Y160.43 E504.04120
G1 X166.98 Y160.43 E504.11059
G1 X166.98 Y144.57 E504.90135
G1 X165.59 Y144.57 E504.97075
G1 X165.59 Y143.62 E505.01815
G1 X166.98 Y143.62 E505.08754
G1 X166.98 Y138.02 E505.36718
G1 F2400 E504.16718
G0 F12000 X143.28 Y153.36
;TYPE:SUPPORT
G1 F2400 E505.36718
G1 F4800 X143.74 Y154.92 E505.44849
G1 X144.29 Y156.71 E505.54176
G1 X144.43 Y156.67 E505.54902
G1 X144.91 Y157.57 E505.60009
G1 X145.34 Y158.09 E505.63346
G1 X146.05 Y158.95 E505.68928
G1 X147.43 Y160.09 E505.77836
G1 X148.30 Y160.55 E505.82773
G1 X148.26 Y160.70 E505.83528
G1 X149.64 Y161.13 E505.90724
G1 X151.65 Y161.73 E506.01169
G1 X151.34 Y163.78 E506.11511
G1 X147.78 Y163.78 E506.29316
G1 X147.78 Y162.37 E506.36376
G1 X144.61 Y162.39 E506.52157
G1 X142.61 Y162.39 E506.62145
G1 X142.62 Y157.22 E506.87903
G1 X141.22 Y157.22 E506.94858
G1 X141.22 Y153.66 E507.12668
G1 X143.28 Y153.36 E507.23024
G0 F12000 X143.32 Y153.29
G1 F4800 X143.32 Y162.44 E507.68683
G0 F12000 X143.32 Y162.29
G0 X147.92 Y162.22
G0 X147.88 Y163.32
G0 X147.72 Y163.32
G1 F4800 X151.47 Y163.32 E507.87427
G0 F12000 X151.32 Y163.29
G0 X149.99 Y163.68
G0 X149.99 Y163.84
G1 F4800 X149.99 Y161.16 E508.00788
G0 F12000 X149.94 Y161.32
G0 X148.09 Y160.80
G0 X145.18 Y158.22
G0 X144.34 Y156.73
G0 X144.49 Y156.65
G1 F4800 X141.16 Y156.65 E508.17376
G1 F2400 E506.97376
G0 F12000 X141.22 Y151.34
G1 F2400 E508.17376
G1 F4800 X141.22 Y147.78 E508.35162
G1 X142.62 Y147.78 E508.42142
G1 X142.61 Y144.32 E508.59394
G1 X142.62 Y142.61 E508.67895
G1 X144.24 Y142.61 E508.75982
G1 X147.78 Y142.61 E508.93643
G1 X147.78 Y141.22 E509.00558
G1 X151.35 Y141.22 E509.18384
G1 X151.65 Y143.28 E509.28744
G1 X150.08 Y143.74 E509.36888
G1 X150.08 Y143.74 E509.36893
G1 X148.31 Y144.28 E509.46152
G1 X148.34 Y144.42 E509.46872
G1 X147.43 Y144.91 E509.52053
G1 X146.91 Y145.34 E509.55386
G1 X146.05 Y146.05 E509.60968
G1 X144.91 Y147.43 E509.69890
G1 X144.43 Y148.32 E509.74941
G1 X144.29 Y148.29 E509.75666
G1 X143.87 Y149.65 E509.82788
G1 X143.87 Y149.65 E509.82793
G1 X143.27 Y151.64 E509.93169
G1 X141.22 Y151.34 E510.03512
G0 F12000 X141.16 Y149.99
G1 F4800 X143.83 Y149.99 E510.16833
G0 F12000 X143.68 Y149.94
G0 X143.18 Y151.60
G0 X143.32 Y151.70
G1 F4800 X143.32 Y142.55 E510.62457
G0 F12000 X142.56 Y143.32
G1 F4800 X151.71 Y143.32 E511.08137
G0 F12000 X151.61 Y143.18
G0 X149.94 Y143.68
G0 X149.99 Y143.83
G1 F4800 X149.99 Y141.16 E511.21472
G1 F2400 E510.01472
G0 F12000 X152.08 Y150.32
G1 F2400 E511.21472
G1 F4800 X152.50 Y150.28 E511.23588
G1 X152.94 Y150.32 E511.25783
G1 X153.35 Y150.44 E511.27922
G1 X153.74 Y150.65 E511.30136
G1 X154.07 Y150.93 E511.32287
G1 X154.35 Y151.27 E511.34485
G1 X154.55 Y151.64 E511.36614
G1 X154.68 Y152.08 E511.38866
G1 X154.72 Y152.50 E511.40971
G1 X154.68 Y152.93 E511.43166
G1 X154.55 Y153.35 E511.45321
G1 X154.35 Y153.74 E511.47533
G1 X154.07 Y154.07 E511.49687
G1 X153.73 Y154.35 E511.51878
G1 X153.36 Y154.55 E511.54007
G1 X152.92 Y154.68 E511.56259
G1 X152.50 Y154.72 E511.58374
G1 X152.06 Y154.68 E511.60570
G1 X151.65 Y154.56 E511.62709
G1 X151.26 Y154.35 E511.64923
G1 X150.93 Y154.07 E511.67074
G1 X150.65 Y153.73 E511.69282
G1 X150.45 Y153.35 E511.71405
G1 X150.32 Y152.93 E511.73643
G1 X150.28 Y152.50 E511.75762
G1 X150.32 Y152.06 E511.77962
G1 X150.45 Y151.65 E511.80118
G1 X150.65 Y151.26 E511.82316
G1 X150.93 Y150.93 E511.84468
G1 X151.27 Y150.65 E511.86665
G1 X151.64 Y150.45 E511.88794
G1 X152.08 Y150.32 E511.91046
G1 F2400 E510.71046
G0 F12000 X161.73 Y153.36
G1 F2400 E511.91046
G1 F4800 X163.78 Y153.66 E512.01389
G1 X163.78 Y157.22 E512.19175
G1 X162.39 Y157.22 E512.26095
G1 X162.39 Y160.90 E512.44424
G1 X162.39 Y162.39 E512.51858
G1 X157.22 Y162.38 E512.77641
G1 X157.22 Y163.78 E512.84601
G1 X153.65 Y163.78 E513.02427
G1 X153.35 Y161.72 E513.12787
G1 X154.92 Y161.26 E513.20931
G1 X154.92 Y161.26 E513.20936
G1 X156.71 Y160.71 E513.30268
G1 X156.67 Y160.57 E513.30994
G1 X157.57 Y160.09 E513.36101
G1 X158.09 Y159.66 E513.39438
G1 X158.95 Y158.95 E513.45020
G1 X160.09 Y157.57 E513.53924
G1 X160.57 Y156.66 E513.59093
G1 X160.71 Y156.69 E513.59813
G1 X161.13 Y155.35 E513.66836
G1 X161.13 Y155.35 E513.66841
G1 X161.73 Y153.36 E513.77217
G0 F12000 X163.29 Y153.69
G0 X163.32 Y153.53
G1 F4800 X163.32 Y157.28 E513.95941
G0 F12000 X163.84 Y156.65
G1 F4800 X160.51 Y156.65 E514.12544
G0 F12000 X160.65 Y156.73
G0 X159.09 Y159.09
G0 X157.68 Y160.25
G0 X156.73 Y160.66
G0 X156.65 Y160.51
G1 F4800 X156.65 Y163.84 E514.29138
G0 F12000 X157.28 Y163.32
G1 F4800 X153.52 Y163.32 E514.47906
G1 F2400 E513.27906
G0 F12000 X161.72 Y151.64
G1 F2400 E514.47906
G1 F4800 X161.26 Y150.07 E514.56078
G1 X160.71 Y148.28 E514.65462
G1 X160.56 Y148.31 E514.66223
G1 X160.09 Y147.43 E514.71228
G1 X159.66 Y146.91 E514.74578
G1 X158.95 Y146.05 E514.80143
G1 X157.57 Y144.91 E514.89058
G1 X156.66 Y144.43 E514.94196
G1 X156.70 Y144.29 E514.94911
G1 X155.35 Y143.87 E515.01962
G1 X153.35 Y143.27 E515.12354
G1 X153.66 Y141.22 E515.22696
G1 X157.22 Y141.22 E515.40502
G1 X157.22 Y142.61 E515.47436
G1 X162.39 Y142.61 E515.73195
G1 X162.39 Y144.10 E515.80598
G1 X162.39 Y144.54 E515.82798
G1 X162.37 Y147.78 E515.98943
G1 X163.78 Y147.78 E516.05958
G1 X163.78 Y151.34 E516.23768
G1 X161.72 Y151.64 E516.34124
G0 F12000 X163.29 Y151.31
G0 X163.32 Y151.47
G1 F4800 X163.32 Y147.72 E516.52873
G0 F12000 X163.32 Y147.88
G0 X163.68 Y149.99
G0 X163.84 Y149.99
G1 F4800 X161.16 Y149.99 E516.66233
G0 F12000 X161.32 Y149.94
G0 X162.29 Y143.32
G0 X162.44 Y143.32
G1 F4800 X153.31 Y143.32 E517.11823
G0 F12000 X153.39 Y143.18
G0 X156.87 Y144.19
G0 X156.73 Y144.35
G0 X156.65 Y144.49
G1 F4800 X156.65 Y141.16 E517.28426
;LAYER:10
G1 F2400 E516.08426
G0 F12000 X154.78 Y146.99 Z3.30
;TYPE:WALL-OUTER
G1 F2400 E517.28426
G1 F4800 X155.41 Y147.33 E517.31997
G1 X155.81 Y147.54 E517.34270
G1 X156.72 Y148.28 E517.40112
G1 X157.46 Y149.19 E517.45951
G1 X158.01 Y150.22 E517.51787
G1 X158.35 Y151.34 E517.57597
G1 X158.46 Y152.50 E517.63432
G1 X158.35 Y153.66 E517.69273
G1 X158.01 Y154.78 E517.75076
G1 X157.68 Y155.41 E517.78640
G1 X157.46 Y155.81 E517.80919
G1 X156.72 Y156.72 E517.86762
G1 X155.81 Y157.46 E517.92600
G1 X154.78 Y158.01 E517.98437
G1 X153.66 Y158.35 E518.04246
G1 X152.50 Y158.46 E518.10087
G1 X151.34 Y158.35 E518.15922
G1 X150.22 Y158.01 E518.21726
G1 X149.59 Y157.67 E518.25296
G1 X149.19 Y157.46 E518.27569
G1 X148.28 Y156.72 E518.33411
G1 X147.54 Y155.81 E518.39250
G1 X146.99 Y154.78 E518.45087
G1 X146.65 Y153.66 E518.50896
G1 X146.54 Y152.50 E518.56741
G1 X146.65 Y151.34 E518.62572
G1 X146.99 Y150.22 E518.68375
G1 X147.32 Y149.59 E518.71939
G1 X147.54 Y149.19 E518.74218
G1 X148.28 Y148.28 E518.80061
G1 X149.19 Y147.54 E518.85900
G1 X150.22 Y146.99 E518.91736
G1 X151.34 Y146.65 E518.97546
G1 X152.50 Y146.54 E519.03391
G1 X153.66 Y146.65 E519.09221
G1 X154.78 Y146.99 E519.15025
G0 F12000 X154.58 Y147.48
G1 F4800 X153.56 Y147.17 E519.20353
G1 X152.61 Y147.07 E519.25095
G1 X152.50 Y147.06 E519.25662
G1 X151.55 Y147.15 E519.30429
G1 X151.44 Y147.17 E519.30986
G1 X150.42 Y147.47 E519.36303
G1 X149.58 Y147.93 E519.41071
G1 X149.48 Y147.98 E519.41627
G1 X148.74 Y148.58 E519.46388
G1 X148.65 Y148.65 E519.46948
G1 X148.05 Y149.39 E519.51699
G1 X147.98 Y149.48 E519.52262
G1 X147.53 Y150.32 E519.57023
G1 X147.48 Y150.42 E519.57579
G1 X147.17 Y151.44 E519.62907
G1 X147.07 Y152.39 E519.67649
G1 X147.06 Y152.50 E519.68216
G1 X147.15 Y153.45 E519.72988
G1 X147.17 Y153.56 E519.73545
G1 X147.47 Y154.58 E519.78858
G1 X147.93 Y155.42 E519.83625
G1 X147.98 Y155.52 E519.84181
G1 X148.58 Y156.26 E519.88942
G1 X148.65 Y156.35 E519.89502
G1 X149.39 Y156.95 E519.94253
G1 X149.48 Y157.02 E519.94816
G1 X150.32 Y157.47 E519.99577
G1 X150.42 Y157.52 E520.00133
G1 X151.44 Y157.83 E520.05461
G1 X152.39 Y157.93 E520.10204
G1 X152.50 Y157.94 E520.10770
G1 X153.45 Y157.85 E520.15538
G1 X153.56 Y157.83 E520.16095
G1 X154.58 Y157.53 E520.21412
G1 X155.42 Y157.07 E520.26179
G1 X155.52 Y157.02 E520.26735
G1 X156.26 Y156.42 E520.31496
G1 X156.35 Y156.35 E520.32056
G1 X156.95 Y155.61 E520.36807
G1 X157.02 Y155.52 E520.37371
G1 X157.47 Y154.68 E520.42131
G1 X157.52 Y154.58 E520.42687
G1 X157.83 Y153.56 E520.48011
G1 X157.93 Y152.61 E520.52758
G1 X157.94 Y152.50 E520.53325
G1 X157.85 Y151.55 E520.58092
G1 X157.83 Y151.44 E520.58649
G1 X157.53 Y150.42 E520.63966
G1 X157.07 Y149.58 E520.68734
G1 X157.02 Y149.48 E520.69289
G1 X156.42 Y148.74 E520.74050
G1 X156.35 Y148.65 E520.74611
G1 X155.61 Y148.05 E520.79368
G1 X155.52 Y147.98 E520.79925
G1 X154.68 Y147.53 E520.84686
G1 X154.58 Y147.48 E520.85241
G0 F12000 X154.32 Y147.25
;TYPE:FILL
G1 F4800 X153.96 Y146.89 E520.87799
G1 F2400 E519.67799
G0 F12000 X155.93 Y148.13
G1 F2400 E520.87799
G1 F4800 X156.10 Y147.96 E520.89002
G0 F12000 X157.75 Y150.68
G1 F4800 X158.11 Y151.04 E520.91563
G1 F2400 E519.71563
G0 F12000 X151.04 Y158.11
G1 F2400 E520.91563
G1 F4800 X150.68 Y157.75 E520.94117
G1 F2400 E519.74117
G0 F12000 X148.13 Y155.93
G1 F2400 E520.94117
G1 F4800 X147.96 Y156.10 E520.95310
G0 F12000 X147.25 Y154.32
G1 F4800 X146.89 Y153.96 E520.97871
G1 F2400 E519.77871
G0 F12000 X139.04 Y160.82
;TYPE:WALL-INNER
G1 F2400 E520.97871
G1 F4800 X139.04 Y160.97 E520.98619
G1 X137.62 Y160.97 E521.05719
G1 X137.62 Y167.38 E521.37673
G1 X144.03 Y167.38 E521.69628
G1 X144.03 Y165.96 E521.76737
G1 X144.18 Y165.96 E521.77486
G1 X144.18 Y167.38 E521.84590
G1 X160.82 Y167.38 E522.67647
G1 X160.82 Y165.96 E522.74757
G1 X160.97 Y165.96 E522.75505
G1 X160.97 Y167.38 E522.82609
G1 X167.38 Y167.38 E523.14564
G1 X167.38 Y160.97 E523.46519
G1 X165.96 Y160.97 E523.53623
G1 X165.96 Y160.82 E523.54371
G1 X167.38 Y160.82 E523.61476
G1 X167.38 Y144.18 E524.44543
G1 X165.96 Y144.18 E524.51647
G1 X165.96 Y144.03 E524.52396
G1 X167.38 Y144.03 E524.59500
G1 X167.38 Y137.62 E524.91455
G1 X160.97 Y137.62 E525.23409
G1 X160.97 Y139.04 E525.30519
G1 X160.82 Y139.04 E525.31267
G1 X160.82 Y137.62 E525.38371
G1 X144.18 Y137.62 E526.21429
G1 X144.18 Y139.04 E526.28538
G1 X144.03 Y139.04 E526.29286
G1 X144.03 Y137.62 E526.36396
G1 X137.62 Y137.62 E526.68350
G1 X137.62 Y144.03 E527.00305
G1 X139.04 Y144.03 E527.07404
G1 X139.04 Y144.18 E527.08153
G1 X137.62 Y144.18 E527.15252
G1 X137.62 Y160.82 E527.98319
G1 X139.04 Y160.82 E528.05424
G0 F12000 X137.68 Y161.03
G0 X137.27 Y167.73
G1 F4800 X137.27 Y137.27 E529.57389
G1 X167.73 Y137.27 E531.09345
G1 X167.73 Y167.73 E532.61310
G1 X137.27 Y167.73 E534.13266
G0 F12000 X136.87 Y168.13
;TYPE:WALL-OUTER
G1 F4800 X136.87 Y136.87 E535.69223
G1 X168.13 Y136.87 E537.25170
G1 X168.13 Y168.13 E538.81126
G1 X136.87 Y168.13 E540.37073
G0 F12000 X137.08 Y167.83
G0 X137.72 Y166.98
G0 X138.02 Y166.98
G1 F4800 X143.63 Y166.98 E540.65037
G1 X143.63 Y165.56 E540.72146
G1 X144.58 Y165.56 E540.76886
G1 X144.58 Y166.98 E540.83990
G1 X160.42 Y166.98 E541.63056
G1 X160.42 Y165.56 E541.70165
G1 X161.37 Y165.56 E541.74905
G1 X161.37 Y166.98 E541.82009
G1 X166.98 Y166.98 E542.09973
G1 X166.98 Y161.38 E542.37936
G1 X165.56 Y161.38 E542.45035
G1 X165.56 Y160.43 E542.49775
G1 X166.98 Y160.43 E542.56874
G1 X166.98 Y144.57 E543.35950
G1 X165.56 Y144.57 E543.43050
G1 X165.56 Y143.62 E543.47789
G1 X166.98 Y143.62 E543.54889
G1 X166.98 Y138.02 E543.82852
G1 X161.37 Y138.02 E544.10816
G1 X161.37 Y139.44 E544.17925
G1 X160.42 Y139.44 E544.22665
G1 X160.42 Y138.02 E544.29769
G1 X144.58 Y138.02 E545.08835
G1 X144.58 Y139.44 E545.15939
G1 X143.63 Y139.44 E545.20679
G1 X143.63 Y138.02 E545.27783
G1 X138.02 Y138.02 E545.55747
G1 X138.02 Y143.62 E545.83710
G1 X139.44 Y143.62 E545.90814
G1 X139.44 Y144.57 E545.95554
G1 X138.02 Y144.57 E546.02658
G1 X138.02 Y160.43 E546.81734
G1 X139.44 Y160.43 E546.88839
G1 X139.44 Y161.38 E546.93578
G1 X138.02 Y161.38 E547.00678
G1 X138.02 Y166.98 E547.28641
G1 F2400 E546.08641
G0 F12000 X161.73 Y151.47
;TYPE:SUPPORT
G1 F2400 E547.28641
G1 F4800 X161.28 Y149.97 E547.36457
G1 X160.71 Y148.10 E547.46201
G1 X160.51 Y148.15 E547.47191
G1 X160.13 Y147.40 E547.51395
G1 X159.64 Y146.80 E547.55224
G1 X158.99 Y146.01 E547.60328
G1 X157.60 Y144.87 E547.69307
G1 X156.83 Y144.45 E547.73703
G1 X156.87 Y144.28 E547.74538
G1 X155.28 Y143.80 E547.82850
G1 X153.53 Y143.27 E547.91951
G1 X153.83 Y141.22 E548.02284
G1 X157.22 Y141.22 E548.19206
G1 X157.22 Y142.90 E548.27578
G1 X157.29 Y142.64 E548.28902
G1 X162.35 Y142.65 E548.54171
G1 X162.35 Y144.17 E548.61779
G1 X162.36 Y144.52 E548.63521
G1 X162.34 Y147.70 E548.79411
G1 X162.05 Y147.78 E548.80920
G1 X163.78 Y147.78 E548.89556
G1 X163.78 Y151.16 E549.06468
G1 X161.73 Y151.47 E549.16806
G0 F12000 X161.38 Y149.95
G0 X161.22 Y149.99
G1 F4800 X163.84 Y149.99 E549.29893
G0 F12000 X163.32 Y151.29
G1 F4800 X163.32 Y147.72 E549.47748
G0 F12000 X163.32 Y147.88
G0 X161.85 Y147.80
G0 X162.25 Y143.32
G0 X162.41 Y143.32
G1 F4800 X153.49 Y143.32 E549.92270
G0 F12000 X153.57 Y143.18
G0 X156.70 Y144.13
G0 X156.65 Y144.28
G1 F4800 X156.65 Y141.16 E550.07836
G1 F2400 E548.87836
G0 F12000 X151.17 Y141.22
G1 F2400 E550.07836
G1 F4800 X151.47 Y143.27 E550.18179
G1 X149.97 Y143.72 E550.25989
G1 X148.13 Y144.28 E550.35601
G1 X148.17 Y144.45 E550.36466
G1 X147.40 Y144.87 E550.40824
G1 X146.80 Y145.36 E550.44699
G1 X146.01 Y146.01 E550.49804
G1 X144.87 Y147.40 E550.58758
G1 X144.46 Y148.16 E550.63063
G1 X144.29 Y148.11 E550.63959
G1 X143.80 Y149.72 E550.72370
G1 X143.80 Y149.72 E550.72375
G1 X143.27 Y151.47 E550.81460
G1 X141.22 Y151.16 E550.91793
G1 X141.22 Y147.78 E551.08706
G1 X142.94 Y147.78 E551.17297
G1 X142.65 Y147.70 E551.18794
G1 X142.64 Y144.41 E551.35217
G1 X142.65 Y142.65 E551.44018
G1 X147.71 Y142.64 E551.69288
G1 X147.78 Y142.89 E551.70585
G1 X147.78 Y141.22 E551.78931
G1 X151.17 Y141.22 E551.95859
G0 F12000 X149.99 Y141.16
G1 F4800 X149.99 Y143.78 E552.08955
G0 F12000 X149.93 Y143.63
G0 X151.43 Y143.18
G0 X151.52 Y143.32
G1 F4800 X142.59 Y143.32 E552.53527
G0 F12000 X143.32 Y142.59
G1 F4800 X143.32 Y151.51 E552.98059
G0 F12000 X143.18 Y151.43
G0 X143.63 Y149.94
G0 X143.78 Y149.99
G1 F4800 X141.16 Y149.99 E553.11125
G1 F2400 E551.91125
G0 F12000 X150.32 Y152.07
G1 F2400 E553.11125
G1 F4800 X150.44 Y151.65 E553.13299
G1 X150.65 Y151.26 E553.15499
G1 X150.93 Y150.93 E553.17678
G1 X151.26 Y150.65 E553.19833
G1 X151.66 Y150.44 E553.22058
G1 X152.07 Y150.32 E553.24200
G1 X152.49 Y150.28 E553.26335
G1 X152.93 Y150.32 E553.28520
G1 X153.35 Y150.44 E553.30694
G1 X153.74 Y150.65 E553.32894
G1 X154.07 Y150.93 E553.35073
G1 X154.35 Y151.26 E553.37228
G1 X154.56 Y151.66 E553.39453
G1 X154.68 Y152.07 E553.41595
G1 X154.72 Y152.49 E553.43730
G1 X154.68 Y152.93 E553.45916
G1 X154.56 Y153.35 E553.48089
G1 X154.35 Y153.74 E553.50289
G1 X154.07 Y154.07 E553.52468
G1 X153.74 Y154.35 E553.54623
G1 X153.34 Y154.56 E553.56848
G1 X152.93 Y154.68 E553.58990
G1 X152.51 Y154.72 E553.61125
G1 X152.07 Y154.68 E553.63311
G1 X151.65 Y154.56 E553.65484
G1 X151.26 Y154.35 E553.67684
G1 X150.93 Y154.07 E553.69859
G1 X150.65 Y153.74 E553.72020
G1 X150.45 Y153.35 E553.74205
G1 X150.32 Y152.93 E553.76402
G1 X150.28 Y152.50 E553.78541
G1 X150.32 Y152.07 E553.80706
G1 F2400 E552.60706
G0 F12000 X153.53 Y161.73
G1 F2400 E553.80706
G1 F4800 X155.03 Y161.28 E553.88516
G1 X156.88 Y160.71 E553.98160
G1 X156.84 Y160.55 E553.99000
G1 X157.59 Y160.14 E554.03303
G1 X158.20 Y159.64 E554.07210
G1 X158.99 Y158.99 E554.12314
G1 X160.13 Y157.60 E554.21300
G1 X160.55 Y156.82 E554.25696
G1 X160.72 Y156.87 E554.26545
G1 X161.20 Y155.28 E554.34846
G1 X161.20 Y155.28 E554.34851
G1 X161.73 Y153.53 E554.43936
G1 X163.78 Y153.84 E554.54269
G1 X163.78 Y157.22 E554.71182
G1 X162.11 Y157.22 E554.79488
G1 X162.36 Y157.29 E554.80755
G1 X162.35 Y160.97 E554.99130
G1 X162.36 Y162.36 E555.06045
G1 X157.30 Y162.35 E555.31309
G1 X157.22 Y162.06 E555.32793
G1 X157.22 Y163.78 E555.41349
G1 X153.83 Y163.78 E555.58277
G1 X153.53 Y161.73 E555.68619
G0 F12000 X153.57 Y161.82
G0 X153.86 Y163.30
G0 X153.70 Y163.32
G1 F4800 X157.28 Y163.32 E555.86490
G0 F12000 X156.65 Y163.84
G1 F4800 X156.65 Y160.72 E556.02056
G0 F12000 X156.70 Y160.87
G0 X159.13 Y159.13
G0 X160.87 Y156.70
G0 X160.72 Y156.65
G1 F4800 X163.84 Y156.65 E556.17607
G0 F12000 X163.32 Y157.28
G1 F4800 X163.32 Y153.71 E556.35457
G1 F2400 E555.15457
G0 F12000 X151.47 Y161.73
G1 F2400 E556.35457
G1 F4800 X151.17 Y163.78 E556.45790
G1 X147.78 Y163.78 E556.62713
G1 X147.78 Y161.95 E556.71823
G1 X147.68 Y162.33 E556.73749
G1 X144.63 Y162.36 E556.88961
G1 X142.64 Y162.36 E556.98895
G1 X142.65 Y157.29 E557.24179
G1 X142.90 Y157.22 E557.25494
G1 X141.22 Y157.22 E557.33891
G1 X141.22 Y153.84 E557.50804
G1 X143.27 Y153.53 E557.61141
G1 X143.72 Y155.03 E557.68937
G1 X144.29 Y156.88 E557.78613
G1 X144.47 Y156.84 E557.79563
G1 X144.87 Y157.60 E557.83854
G1 X145.36 Y158.19 E557.87683
G1 X146.01 Y158.99 E557.92801
G1 X147.40 Y160.12 E558.01745
G1 X148.13 Y160.52 E558.05897
G1 X148.08 Y160.70 E558.06837
G1 X149.72 Y161.20 E558.15395
G1 X151.47 Y161.73 E558.24496
G0 F12000 X149.94 Y161.37
G0 X149.99 Y161.22
G1 F4800 X149.99 Y163.84 E558.37582
G0 F12000 X151.30 Y163.32
G1 F4800 X147.72 Y163.32 E558.55447
G0 F12000 X147.88 Y163.32
G0 X147.80 Y161.75
G0 X143.32 Y162.26
G0 X143.32 Y162.41
G1 F4800 X143.32 Y153.49 E558.99984
G0 F12000 X143.18 Y153.57
G0 X144.13 Y156.70
G0 X144.28 Y156.65
G1 F4800 X141.16 Y156.65 E559.15545
;LAYER:11
G1 F2400 E557.95545
G0 F12000 X146.94 Y154.80 Z3.60
;TYPE:WALL-OUTER
G1 F2400 E559.15545
G1 F4800 X146.60 Y153.67 E559.21437
G1 X146.49 Y152.50 E559.27317
G1 X146.60 Y151.33 E559.33203
G1 X146.94 Y150.20 E559.39058
G1 X147.50 Y149.16 E559.44960
G1 X148.25 Y148.25 E559.50862
G1 X149.16 Y147.50 E559.56726
G1 X150.20 Y146.94 E559.62594
G1 X151.33 Y146.60 E559.68485
G1 X152.50 Y146.49 E559.74371
G1 X153.67 Y146.60 E559.80252
G1 X154.80 Y146.94 E559.86107
G1 X155.84 Y147.50 E559.92008
G1 X156.75 Y148.25 E559.97911
G1 X157.50 Y149.16 E560.03774
G1 X158.06 Y150.20 E560.09642
G1 X158.40 Y151.33 E560.15534
G1 X158.51 Y152.50 E560.21415
G1 X158.40 Y153.67 E560.27300
G1 X158.06 Y154.80 E560.33156
G1 X157.50 Y155.84 E560.39057
G1 X156.75 Y156.75 E560.44959
G1 X155.84 Y157.50 E560.50823
G1 X154.80 Y158.06 E560.56691
G1 X153.67 Y158.40 E560.62583
G1 X152.50 Y158.51 E560.68468
G1 X151.33 Y158.40 E560.74349
G1 X150.20 Y158.06 E560.80204
G1 X149.16 Y157.50 E560.86106
G1 X148.25 Y156.75 E560.92008
G1 X147.50 Y155.84 E560.97872
G1 X146.94 Y154.80 E561.03740
G0 F12000 X147.48 Y154.58
G1 F4800 X147.98 Y155.52 E561.09061
G1 X148.65 Y156.35 E561.14378
G1 X149.48 Y157.02 E561.19695
G1 X150.42 Y157.53 E561.25018
G1 X151.31 Y157.79 E561.29678
G1 X151.44 Y157.83 E561.30336
G1 X152.50 Y157.94 E561.35655
G1 X153.56 Y157.83 E561.40969
G1 X154.46 Y157.56 E561.45635
G1 X154.58 Y157.52 E561.46293
G1 X155.52 Y157.02 E561.51614
G1 X156.35 Y156.35 E561.56931
G1 X157.02 Y155.52 E561.62248
G1 X157.53 Y154.58 E561.67571
G1 X157.79 Y153.69 E561.72226
G1 X157.83 Y153.56 E561.72884
G1 X157.94 Y152.50 E561.78208
G1 X157.83 Y151.44 E561.83522
G1 X157.56 Y150.54 E561.88188
G1 X157.52 Y150.42 E561.88846
G1 X157.02 Y149.48 E561.94167
G1 X156.35 Y148.65 E561.99484
G1 X155.52 Y147.98 E562.04801
G1 X154.58 Y147.47 E562.10125
G1 X153.69 Y147.21 E562.14784
G1 X153.56 Y147.17 E562.15442
G1 X152.50 Y147.06 E562.20761
G1 X151.44 Y147.17 E562.26075
G1 X150.54 Y147.44 E562.30741
G1 X150.42 Y147.48 E562.31399
G1 X149.48 Y147.98 E562.36720
G1 X148.65 Y148.65 E562.42037
G1 X147.98 Y149.48 E562.47354
G1 X147.47 Y150.42 E562.52678
G1 X147.21 Y151.31 E562.57337
G1 X147.17 Y151.44 E562.57995
G1 X147.06 Y152.50 E562.63314
G1 X147.17 Y153.56 E562.68633
G1 X147.44 Y154.46 E562.73294
G1 X147.48 Y154.58 E562.73952
G0 F12000 X147.25 Y154.32
;TYPE:FILL
G1 F4800 X146.81 Y153.88 E562.77070
G1 F2400 E561.57070
G0 F12000 X148.13 Y155.93
G1 F2400 E562.77070
G1 F4800 X147.92 Y156.13 E562.78517
G0 F12000 X150.68 Y157.75
G1 F4800 X151.12 Y158.19 E562.81607
G1 F2400 E561.61607
G0 F12000 X158.19 Y151.12
G1 F2400 E562.81607
G1 F4800 X157.75 Y150.68 E562.84722
G1 F2400 E561.64722
G0 F12000 X155.93 Y148.13
G1 F2400 E562.84722
G1 F4800 X156.13 Y147.92 E562.86179
G0 F12000 X154.32 Y147.25
G1 F4800 X153.88 Y146.81 E562.89262
G1 F2400 E561.69262
G0 F12000 X160.82 Y139.08
;TYPE:WALL-INNER
G1 F2400 E562.89262
G1 F4800 X160.82 Y137.62 E562.96526
G1 X144.18 Y137.62 E563.79584
G1 X144.18 Y139.08 E563.86853
G1 X144.03 Y139.08 E563.87601
G1 X144.03 Y137.62 E563.94870
G1 X137.62 Y137.62 E564.26825
G1 X137.62 Y144.03 E564.58779
G1 X139.08 Y144.03 E564.66038
G1 X139.08 Y144.18 E564.66787
G1 X137.62 Y144.18 E564.74046
G1 X137.62 Y160.82 E565.57113
G1 X139.08 Y160.82 E565.64377
G1 X139.08 Y160.97 E565.65125
G1 X137.62 Y160.97 E565.72384
G1 X137.62 Y167.38 E566.04339
G1 X144.03 Y167.38 E566.36294
G1 X144.03 Y165.92 E566.43563
G1 X144.18 Y165.92 E566.44311
G1 X144.18 Y167.38 E566.51575
G1 X160.82 Y167.38 E567.34632
G1 X160.82 Y165.92 E567.41901
G1 X160.97 Y165.92 E567.42650
G1 X160.97 Y167.38 E567.49914
G1 X167.38 Y167.38 E567.81868
G1 X167.38 Y160.97 E568.13823
G1 X165.92 Y160.97 E568.21087
G1 X165.92 Y160.82 E568.21835
G1 X167.38 Y160.82 E568.29099
G1 X167.38 Y144.18 E569.12167
G1 X165.92 Y144.18 E569.19431
G1 X165.92 Y144.03 E569.20179
G1 X167.38 Y144.03 E569.27443
G1 X167.38 Y137.62 E569.59398
G1 X160.97 Y137.62 E569.91352
G1 X160.97 Y139.08 E569.98621
G1 X160.82 Y139.08 E569.99370
G0 F12000 X161.03 Y137.68
G0 X167.73 Y137.27
G1 F4800 X167.73 Y167.73 E571.51335
G1 X137.27 Y167.73 E573.03291
G1 X137.27 Y137.27 E574.55256
G1 X167.73 Y137.27 E576.07212
G0 F12000 X168.13 Y136.87
;TYPE:WALL-OUTER
G1 F4800 X168.13 Y168.13 E577.63169
G1 X136.87 Y168.13 E579.19116
G1 X136.87 Y136.87 E580.75072
G1 X168.13 Y136.87 E582.31019
G0 F12000 X167.83 Y137.08
G0 X167.28 Y138.02
G0 X166.98 Y138.02
G1 F4800 X161.37 Y138.02 E582.58983
G1 X161.37 Y139.48 E582.66252
G1 X160.42 Y139.48 E582.70991
G1 X160.42 Y138.02 E582.78255
G1 X144.58 Y138.02 E583.57321
G1 X144.58 Y139.48 E583.64585
G1 X143.63 Y139.48 E583.69325
G1 X143.63 Y138.02 E583.76589
G1 X138.02 Y138.02 E584.04552
G1 X138.02 Y143.62 E584.32516
G1 X139.48 Y143.62 E584.39780
G1 X139.48 Y144.57 E584.44519
G1 X138.02 Y144.57 E584.51783
G1 X138.02 Y160.43 E585.30859
G1 X139.48 Y160.43 E585.38123
G1 X139.48 Y161.38 E585.42863
G1 X138.02 Y161.38 E585.50122
G1 X138.02 Y166.98 E585.78085
G1 X143.63 Y166.98 E586.06049
G1 X143.63 Y165.52 E586.13318
G1 X144.58 Y165.52 E586.18057
G1 X144.58 Y166.98 E586.25321
G1 X160.42 Y166.98 E587.04387
G1 X160.42 Y165.52 E587.11656
G1 X161.37 Y165.52 E587.16396
G1 X161.37 Y166.98 E587.23660
G1 X166.98 Y166.98 E587.51623
G1 X166.98 Y161.38 E587.79587
G1 X165.52 Y161.38 E587.86846
G1 X165.52 Y160.43 E587.91585
G1 X166.98 Y160.43 E587.98844
G1 X166.98 Y144.57 E588.77920
G1 X165.52 Y144.57 E588.85179
G1 X165.52 Y143.62 E588.89919
G1 X166.98 Y143.62 E588.97178
G1 X166.98 Y138.02 E589.25142
G1 F2400 E588.05142
G0 F12000 X143.27 Y153.71
;TYPE:SUPPORT
G1 F2400 E589.25142
G1 F4800 X143.70 Y155.13 E589.32569
G1 X144.26 Y156.95 E589.42060
G1 X144.27 Y156.95 E589.42146
G1 X145.38 Y158.31 E589.50896
G1 X145.97 Y159.03 E589.55546
G1 X148.02 Y160.71 E589.68761
G1 X148.01 Y160.74 E589.68910
G1 X149.81 Y161.28 E589.78260
G1 X151.29 Y161.73 E589.86019
G1 X150.99 Y163.78 E589.96357
G1 X147.78 Y163.78 E590.12402
G1 X147.78 Y161.41 E590.24241
G1 X147.47 Y162.29 E590.28916
G1 X144.65 Y162.32 E590.42946
G1 X142.68 Y162.32 E590.52810
G1 X142.68 Y157.51 E590.76802
G1 X143.50 Y157.22 E590.81118
G1 X141.22 Y157.22 E590.92463
G1 X141.22 Y154.01 E591.08497
G1 X143.27 Y153.71 E591.18840
G0 F12000 X143.32 Y153.66
G1 F4800 X143.32 Y162.38 E591.62369
G0 F12000 X143.32 Y162.22
G0 X147.81 Y161.21
G0 X147.88 Y163.32
G0 X147.72 Y163.32
G1 F4800 X151.12 Y163.32 E591.79357
G0 F12000 X149.99 Y163.84
G1 F4800 X149.99 Y161.27 E591.92174
G0 F12000 X149.94 Y161.42
G0 X147.83 Y160.76
G0 X145.23 Y158.43
G0 X144.07 Y156.70
G0 X144.23 Y156.65
G1 F4800 X141.16 Y156.65 E592.07475
G1 F2400 E590.87475
G0 F12000 X141.22 Y150.99
G1 F2400 E592.07475
G1 F4800 X141.22 Y147.78 E592.23505
G1 X143.52 Y147.78 E592.34990
G1 X142.69 Y147.48 E592.39416
G1 X142.68 Y144.50 E592.54248
G1 X142.68 Y142.68 E592.63368
G1 X143.98 Y142.68 E592.69874
G1 X147.49 Y142.67 E592.87365
G1 X147.78 Y143.47 E592.91620
G1 X147.78 Y141.22 E593.02870
G1 X150.99 Y141.22 E593.18915
G1 X151.29 Y143.27 E593.29257
G1 X149.86 Y143.70 E593.36728
G1 X148.06 Y144.25 E593.46146
G1 X148.06 Y144.27 E593.46205
G1 X146.69 Y145.38 E593.54997
G1 X145.97 Y145.97 E593.59655
G1 X144.28 Y148.04 E593.73001
G1 X144.26 Y148.04 E593.73107
G1 X143.72 Y149.80 E593.82327
G1 X143.27 Y151.29 E593.90070
G1 X141.22 Y150.99 E594.00408
G0 F12000 X141.16 Y149.99
G1 F4800 X143.73 Y149.99 E594.13215
G0 F12000 X143.32 Y151.34
G1 F4800 X143.32 Y142.62 E594.56729
G0 F12000 X142.62 Y143.32
G1 F4800 X151.34 Y143.32 E595.00253
G0 F12000 X149.99 Y143.73
G1 F4800 X149.99 Y141.16 E595.13085
G1 F2400 E593.93085
G0 F12000 X152.07 Y150.32
G1 F2400 E595.13085
G1 F4800 X152.50 Y150.28 E595.15261
G1 X152.93 Y150.32 E595.17403
G1 X153.35 Y150.44 E595.19587
G1 X153.73 Y150.65 E595.21782
G1 X154.07 Y150.93 E595.23960
G1 X154.35 Y151.27 E595.26147
G1 X154.56 Y151.65 E595.28328
G1 X154.68 Y152.07 E595.30478
G1 X154.72 Y152.50 E595.32640
G1 X154.68 Y152.93 E595.34790
G1 X154.55 Y153.35 E595.37016
G1 X154.35 Y153.73 E595.39167
G1 X154.07 Y154.07 E595.41355
G1 X153.73 Y154.35 E595.43543
G1 X153.35 Y154.56 E595.45724
G1 X152.93 Y154.68 E595.47874
G1 X152.50 Y154.72 E595.50050
G1 X152.07 Y154.68 E595.52192
G1 X151.65 Y154.56 E595.54377
G1 X151.27 Y154.35 E595.56571
G1 X150.93 Y154.07 E595.58742
G1 X150.65 Y153.73 E595.60951
G1 X150.45 Y153.35 E595.63085
G1 X150.32 Y152.93 E595.65285
G1 X150.28 Y152.50 E595.67455
G1 X150.32 Y152.07 E595.69591
G1 X150.44 Y151.65 E595.71785
G1 X150.65 Y151.27 E595.73968
G1 X150.93 Y150.93 E595.76146
G1 X151.27 Y150.65 E595.78333
G1 X151.65 Y150.44 E595.80514
G1 X152.07 Y150.32 E595.82664
G1 F2400 E594.62664
G0 F12000 X161.73 Y153.71
G1 F2400 E595.82664
G1 F4800 X163.78 Y154.01 E595.93002
G1 X163.78 Y157.22 E596.09032
G1 X161.52 Y157.22 E596.20292
G1 X162.33 Y157.51 E596.24564
G1 X162.32 Y161.04 E596.42175
G1 X162.32 Y162.32 E596.48566
G1 X157.52 Y162.32 E596.72548
G1 X157.22 Y161.50 E596.76886
G1 X157.22 Y163.78 E596.88251
G1 X154.01 Y163.78 E597.04296
G1 X153.71 Y161.73 E597.14639
G1 X155.14 Y161.30 E597.22109
G1 X156.95 Y160.74 E597.31570
G1 X156.95 Y160.73 E597.31644
G1 X158.31 Y159.62 E597.40391
G1 X159.03 Y159.03 E597.45048
G1 X160.74 Y156.94 E597.58490
G1 X160.75 Y156.95 E597.58553
G1 X161.28 Y155.20 E597.67684
G1 X161.73 Y153.71 E597.75427
G0 F12000 X163.29 Y154.04
G0 X163.32 Y153.88
G1 F4800 X163.32 Y157.28 E597.92395
G0 F12000 X163.84 Y156.65
G1 F4800 X160.78 Y156.65 E598.07677
G0 F12000 X160.93 Y156.70
G0 X159.17 Y159.17
G0 X157.13 Y160.83
G0 X156.70 Y160.93
G0 X156.65 Y160.77
G1 F4800 X156.65 Y163.84 E598.22988
G0 F12000 X157.28 Y163.32
G1 F4800 X153.88 Y163.32 E598.39975
G1 F2400 E597.19975
G0 F12000 X161.73 Y151.29
G1 F2400 E598.39975
G1 F4800 X161.30 Y149.86 E598.47430
G1 X160.74 Y148.04 E598.56935
G1 X160.72 Y148.04 E598.57041
G1 X159.62 Y146.69 E598.65745
G1 X159.03 Y145.97 E598.70396
G1 X156.94 Y144.26 E598.83830
G1 X156.95 Y144.25 E598.83893
G1 X155.19 Y143.72 E598.93036
G1 X153.71 Y143.27 E599.00795
G1 X154.01 Y141.22 E599.11133
G1 X157.22 Y141.22 E599.27178
G1 X157.22 Y143.48 E599.38473
G1 X157.51 Y142.67 E599.42771
G1 X162.32 Y142.68 E599.66759
G1 X162.32 Y144.24 E599.74571
G1 X162.32 Y144.50 E599.75839
G1 X162.31 Y147.48 E599.90726
G1 X161.48 Y147.78 E599.95119
G1 X163.78 Y147.78 E600.06574
G1 X163.78 Y150.99 E600.22609
G1 X161.73 Y151.29 E600.32951
G0 F12000 X161.27 Y149.99
G1 F4800 X163.84 Y149.99 E600.45778
G0 F12000 X163.32 Y151.12
G1 F4800 X163.32 Y147.72 E600.62756
G0 F12000 X163.32 Y147.88
G0 X161.29 Y147.81
G0 X162.22 Y143.32
G0 X162.38 Y143.32
G1 F4800 X153.66 Y143.32 E601.06255
G0 F12000 X153.74 Y143.18
G0 X156.70 Y144.07
G0 X156.65 Y144.22
G1 F4800 X156.65 Y141.16 E601.21541
;LAYER:12
G1 F2400 E600.01541
G0 F12000 X154.82 Y146.90 Z3.90
;TYPE:WALL-OUTER
G1 F2400 E601.21541
G1 F4800 X155.87 Y147.46 E601.27499
G1 X156.79 Y148.22 E601.33447
G1 X157.54 Y149.13 E601.39346
G1 X158.10 Y150.18 E601.45292
G1 X158.45 Y151.32 E601.51220
G1 X158.56 Y152.50 E601.57150
G1 X158.45 Y153.68 E601.63086
G1 X158.10 Y154.82 E601.68989
G1 X157.54 Y155.87 E601.74946
G1 X156.78 Y156.79 E601.80894
G1 X155.87 Y157.54 E601.86793
G1 X154.82 Y158.10 E601.92739
G1 X153.68 Y158.45 E601.98667
G1 X152.50 Y158.56 E602.04598
G1 X151.32 Y158.45 E602.10534
G1 X150.18 Y158.10 E602.16436
G1 X149.13 Y157.54 E602.22393
G1 X148.21 Y156.78 E602.28342
G1 X147.46 Y155.87 E602.34241
G1 X146.90 Y154.82 E602.40187
G1 X146.55 Y153.68 E602.46114
G1 X146.44 Y152.50 E602.52050
G1 X146.55 Y151.32 E602.57981
G1 X146.90 Y150.18 E602.63884
G1 X147.46 Y149.13 E602.69841
G1 X148.22 Y148.21 E602.75789
G1 X149.13 Y147.46 E602.81688
G1 X150.18 Y146.90 E602.87634
