;-- START GCODE --
;Sliced for Type A Machines Series 1
;Sliced at: Sun 26-07-2015 21:14:04
;Basic settings: Layer height: 0.1 Walls: 0.8 Fill: 15
;Print Speed: 80 Support: 0
;Retraction Speed: 30 Retraction Distance: 3
;Print time: #P_TIME#
;Filament used: #F_AMNT#m #F_WGHT#g
;Filament cost: #F_COST#
M106 S255	 ;start with the fan on
G21        ;metric values
G90        ;absolute positioning
M106 S255    ;start with the fan on
G28 X Y    ;move to endstops

;LAYER:229
G0 F6000 X134.79 Y147.91 Z23.20
;TYPE:WALL-OUTER
G1 F540 X134.93 Y147.66 E5280.42331
G1 X135.07 Y147.48 E5280.42707
G1 X135.49 Y148.52 E5280.44579
G1 X135.75 Y149.91 E5280.46925
G1 X135.72 Y151.28 E5280.49209
G1 X135.67 Y151.44 E5280.49482
G1 X135.49 Y152.26 E5280.50885
G1 X135.12 Y152.06 E5280.51587
G1 X135.33 Y151.40 E5280.52748
G1 X135.40 Y151.29 E5280.52961
G1 X135.16 Y148.69 E5280.57306
G1 X135.16 Y148.62 E5280.57418
G1 X134.79 Y147.91 E5280.58746
G1 F1800 E5277.58746
G0 F12000 X131.71 Y147.79
;TYPE:WALL-INNER
G1 F1800 E5280.58746
G1 F540 X131.71 Y148.36 E5280.59696
G1 X131.50 Y148.11 E5280.60232
G1 X130.71 Y147.57 E5280.61824
G1 X130.34 Y147.42 E5280.62482
G1 X129.89 Y147.28 E5280.63275
G1 X129.50 Y147.20 E5280.63936
G1 X129.13 Y147.17 E5280.64544
G1 X128.76 Y147.19 E5280.65163
G1 X128.20 Y147.30 E5280.66120
G1 X127.97 Y147.36 E5280.66502
G1 X127.40 Y147.58 E5280.67527
G1 X126.64 Y148.12 E5280.69084
G1 X126.28 Y148.54 E5280.70005
G1 X126.00 Y148.34 E5280.70569
G1 X126.23 Y148.06 E5280.71179
G1 X126.75 Y147.59 E5280.72338
G1 X127.35 Y147.22 E5280.73508
G1 X128.00 Y146.97 E5280.74666
G1 X128.68 Y146.83 E5280.75827
G1 X129.38 Y146.81 E5280.76993
G1 X130.07 Y146.92 E5280.78161
G1 X130.73 Y147.15 E5280.79311
G1 X131.34 Y147.49 E5280.80479
G1 X131.71 Y147.79 E5280.81263
G0 F12000 X132.11 Y147.60
;TYPE:WALL-OUTER
G1 F540 X132.11 Y148.85 E5280.83345
G1 X132.10 Y148.87 E5280.83382
G1 X132.11 Y149.13 E5280.83806
G1 X131.89 Y149.32 E5280.84285
G1 X131.73 Y149.01 E5280.84868
G1 X131.23 Y148.41 E5280.86164
G1 X130.52 Y147.93 E5280.87593
G1 X129.79 Y147.67 E5280.88882
G1 X129.44 Y147.60 E5280.89471
G1 X129.12 Y147.57 E5280.89998
G1 X128.81 Y147.58 E5280.90522
G1 X128.29 Y147.69 E5280.91406
G1 X127.59 Y147.93 E5280.92640
G1 X126.91 Y148.41 E5280.94026
G1 X126.53 Y148.86 E5280.94996
G1 X126.41 Y149.01 E5280.95324
G1 X126.35 Y149.10 E5280.95496
G1 X125.44 Y148.44 E5280.97374
G1 X125.53 Y148.30 E5280.97652
G1 X125.94 Y147.78 E5280.98745
G1 X126.51 Y147.27 E5281.00023
G1 X127.17 Y146.87 E5281.01304
G1 X127.88 Y146.58 E5281.02583
G1 X128.64 Y146.43 E5281.03864
G1 X129.41 Y146.41 E5281.05143
G1 X130.17 Y146.53 E5281.06433
G1 X130.89 Y146.78 E5281.07701
G1 X131.57 Y147.16 E5281.08990
G1 X132.11 Y147.60 E5281.10144
G1 F1800 E5278.10144
G0 F12000 X131.71 Y153.15
;TYPE:WALL-INNER
G1 F1800 E5281.10144
G1 F540 X131.71 Y153.74 E5281.11112
G1 X131.41 Y153.98 E5281.11756
G1 X130.78 Y154.35 E5281.12962
G1 X130.15 Y154.57 E5281.14074
G1 X129.42 Y154.70 E5281.15307
G1 X129.35 Y154.71 E5281.15425
G1 X128.76 Y154.70 E5281.16412
G1 X128.07 Y154.57 E5281.17578
G1 X127.38 Y154.31 E5281.18803
G1 X126.79 Y153.96 E5281.19937
G1 X126.27 Y153.51 E5281.21094
G1 X126.21 Y153.45 E5281.21230
G1 X126.00 Y153.18 E5281.21796
G1 X126.28 Y152.99 E5281.22355
G1 X126.64 Y153.41 E5281.23298
G1 X127.34 Y153.91 E5281.24719
G1 X127.43 Y153.97 E5281.24897
G1 X127.97 Y154.16 E5281.25857
G1 X128.40 Y154.28 E5281.26589
G1 X128.77 Y154.34 E5281.27219
G1 X129.13 Y154.35 E5281.27816
G1 X129.50 Y154.32 E5281.28424
G1 X129.89 Y154.24 E5281.29091
G1 X130.43 Y154.07 E5281.30035
G1 X130.70 Y153.96 E5281.30512
G1 X131.04 Y153.74 E5281.31196
G1 X131.49 Y153.40 E5281.32124
G1 X131.71 Y153.15 E5281.32673
G0 F12000 X131.22 Y153.11
;TYPE:WALL-OUTER
G1 F540 X131.73 Y152.52 E5281.33969
G1 X131.89 Y152.21 E5281.34553
G1 X132.11 Y152.40 E5281.35030
G1 X132.10 Y152.70 E5281.35535
G1 X132.11 Y153.93 E5281.37571
G1 X131.64 Y154.31 E5281.38582
G1 X130.97 Y154.70 E5281.39861
G1 X130.85 Y154.76 E5281.40088
G1 X130.25 Y154.96 E5281.41136
G1 X129.48 Y155.10 E5281.42445
G1 X129.36 Y155.11 E5281.42638
G1 X128.72 Y155.10 E5281.43703
G1 X127.96 Y154.96 E5281.44996
G1 X127.23 Y154.69 E5281.46292
G1 X126.56 Y154.29 E5281.47572
G1 X126.48 Y154.23 E5281.47751
G1 X125.99 Y153.79 E5281.48839
G1 X125.50 Y153.19 E5281.50126
G1 X125.44 Y153.09 E5281.50330
G1 X126.06 Y152.65 E5281.51610
G1 X126.35 Y152.42 E5281.52213
G1 X126.76 Y152.95 E5281.53321
G1 X126.91 Y153.11 E5281.53688
G1 X127.56 Y153.57 E5281.55015
G1 X127.61 Y153.60 E5281.55106
G1 X128.10 Y153.78 E5281.55972
G1 X128.48 Y153.89 E5281.56638
G1 X128.81 Y153.94 E5281.57194
G1 X129.12 Y153.95 E5281.57711
G1 X129.44 Y153.93 E5281.58239
G1 X129.79 Y153.85 E5281.58829
G1 X130.29 Y153.69 E5281.59713
G1 X130.51 Y153.60 E5281.60107
G1 X130.82 Y153.41 E5281.60704
G1 X131.22 Y153.11 E5281.61534
G0 F12000 X131.11 Y153.77
G1 F1800 E5278.61534
G0 F12000 X133.05 Y155.63
G1 F1800 E5281.61534
G1 F540 X133.45 Y155.13 E5281.62601
G1 X133.47 Y155.11 E5281.62642
G1 X133.84 Y155.32 E5281.63346
G1 X133.25 Y155.91 E5281.64742
G1 X133.12 Y156.07 E5281.65075
G1 X132.01 Y156.82 E5281.67311
G1 X130.72 Y157.36 E5281.69641
G1 X129.47 Y157.61 E5281.71751
G1 X129.80 Y157.12 E5281.72733
G1 X130.60 Y157.03 E5281.74068
G1 X132.87 Y155.83 E5281.78337
G1 X132.96 Y155.78 E5281.78515
G1 X133.05 Y155.64 E5281.78782
G1 X133.05 Y155.63 E5281.78800
;LAYER:230
G0 F12000 X133.04 Y155.66 Z23.30
;TYPE:WALL-OUTER
G1 F540 X133.49 Y155.12 E5281.79975
G1 X133.87 Y155.32 E5281.80688
G1 X133.22 Y155.97 E5281.82204
G1 X133.14 Y156.08 E5281.82437
G1 X132.01 Y156.84 E5281.84701
G1 X130.71 Y157.38 E5281.87042
G1 X130.30 Y157.47 E5281.87737
G1 X130.32 Y157.25 E5281.88095
G1 X130.45 Y157.06 E5281.88476
G1 X130.59 Y157.05 E5281.88708
G1 X132.88 Y155.83 E5281.93020
G1 X132.96 Y155.79 E5281.93172
G1 X133.04 Y155.66 E5281.93417
G1 F1800 E5278.93417
G0 F12000 X131.70 Y153.74
;TYPE:WALL-INNER
G1 F1800 E5281.93417
G1 F540 X131.34 Y154.03 E5281.94192
G1 X130.80 Y154.34 E5281.95224
G1 X130.10 Y154.59 E5281.96460
G1 X130.04 Y154.60 E5281.96561
G1 X129.41 Y154.70 E5281.97623
G1 X129.35 Y154.71 E5281.97725
G1 X128.75 Y154.70 E5281.98730
G1 X128.03 Y154.57 E5281.99938
G1 X127.97 Y154.55 E5282.00038
G1 X127.40 Y154.33 E5282.01059
G1 X126.77 Y153.95 E5282.02282
G1 X126.24 Y153.48 E5282.03462
G1 X126.03 Y153.23 E5282.04012
G1 X126.28 Y153.05 E5282.04515
G1 X126.56 Y153.40 E5282.05263
G1 X127.32 Y153.95 E5282.06826
G1 X128.04 Y154.24 E5282.08114
G1 X128.54 Y154.36 E5282.08976
G1 X129.12 Y154.39 E5282.09932
G1 X129.57 Y154.36 E5282.10680
G1 X129.84 Y154.31 E5282.11133
G1 X130.26 Y154.18 E5282.11876
G1 X130.82 Y153.95 E5282.12880
G1 X131.56 Y153.40 E5282.14405
G1 X131.70 Y153.23 E5282.14776
G1 X131.70 Y153.74 E5282.15612
G0 F12000 X132.10 Y153.93
;TYPE:WALL-OUTER
G1 F540 X131.62 Y154.32 E5282.16651
G1 X131.56 Y154.37 E5282.16768
G1 X130.97 Y154.70 E5282.17903
G1 X130.23 Y154.97 E5282.19215
G1 X129.47 Y155.10 E5282.20499
G1 X129.36 Y155.11 E5282.20672
G1 X128.71 Y155.10 E5282.21755
G1 X127.94 Y154.96 E5282.23058
G1 X127.23 Y154.69 E5282.24320
G1 X126.55 Y154.29 E5282.25634
G1 X126.50 Y154.26 E5282.25724
G1 X125.97 Y153.78 E5282.26905
G1 X125.49 Y153.18 E5282.28193
G1 X125.45 Y153.13 E5282.28295
G1 X125.62 Y153.03 E5282.28627
G1 X126.20 Y152.61 E5282.29817
G1 X126.35 Y152.50 E5282.30120
G1 X126.84 Y153.11 E5282.31417
G1 X127.51 Y153.60 E5282.32807
G1 X128.16 Y153.85 E5282.33968
G1 X128.60 Y153.96 E5282.34722
G1 X129.12 Y153.99 E5282.35575
G1 X129.52 Y153.96 E5282.36241
G1 X129.74 Y153.92 E5282.36616
G1 X130.13 Y153.80 E5282.37295
G1 X130.62 Y153.60 E5282.38187
G1 X131.28 Y153.11 E5282.39551
G1 X131.73 Y152.58 E5282.40695
G1 X131.78 Y152.51 E5282.40842
G1 X131.89 Y152.31 E5282.41219
G1 X132.10 Y152.47 E5282.41657
G1 X132.10 Y153.93 E5282.44077
G1 F1800 E5279.44077
G0 F12000 X135.13 Y152.08
G1 F1800 E5282.44077
G1 F540 X135.36 Y151.36 E5282.45318
G1 X135.41 Y151.28 E5282.45479
G1 X135.16 Y148.60 E5282.49957
G1 X135.10 Y148.49 E5282.50165
G1 X135.37 Y148.16 E5282.50869
G1 X135.50 Y148.50 E5282.51490
G1 X135.76 Y149.86 E5282.53790
G1 X135.76 Y149.90 E5282.53853
G1 X135.74 Y151.28 E5282.56145
G1 X135.70 Y151.39 E5282.56339
G1 X135.51 Y152.28 E5282.57853
G1 X135.13 Y152.08 E5282.58566
G1 F1800 E5279.58566
G0 F12000 X131.70 Y148.28
;TYPE:WALL-INNER
G1 F1800 E5282.58566
G1 F540 X131.57 Y148.12 E5282.58914
G1 X131.05 Y147.74 E5282.59990
G1 X130.81 Y147.57 E5282.60470
G1 X130.25 Y147.35 E5282.61472
G1 X129.59 Y147.16 E5282.62614
G1 X129.12 Y147.13 E5282.63405
G1 X128.48 Y147.17 E5282.64468
G1 X128.04 Y147.29 E5282.65222
G1 X127.48 Y147.50 E5282.66210
G1 X127.31 Y147.58 E5282.66528
G1 X126.71 Y148.01 E5282.67757
G1 X126.55 Y148.14 E5282.68095
G1 X126.27 Y148.48 E5282.68829
G1 X126.03 Y148.30 E5282.69335
G1 X126.22 Y148.06 E5282.69851
G1 X126.75 Y147.59 E5282.71021
G1 X127.34 Y147.22 E5282.72181
G1 X127.99 Y146.97 E5282.73345
G1 X128.68 Y146.83 E5282.74504
G1 X129.38 Y146.81 E5282.75670
G1 X130.07 Y146.92 E5282.76838
G1 X130.72 Y147.15 E5282.77988
G1 X131.34 Y147.49 E5282.79157
G1 X131.70 Y147.79 E5282.79940
G1 X131.70 Y148.28 E5282.80762
G0 F12000 X131.43 Y148.58
;TYPE:WALL-OUTER
G1 F540 X131.29 Y148.42 E5282.81111
G1 X130.82 Y148.06 E5282.82098
G1 X130.62 Y147.93 E5282.82492
G1 X130.12 Y147.72 E5282.83382
G1 X129.52 Y147.56 E5282.84418
G1 X129.12 Y147.53 E5282.85099
G1 X128.54 Y147.57 E5282.86052
G1 X128.16 Y147.67 E5282.86706
G1 X127.64 Y147.87 E5282.87637
G1 X127.51 Y147.93 E5282.87871
G1 X126.95 Y148.33 E5282.89016
G1 X126.84 Y148.42 E5282.89262
G1 X126.35 Y149.02 E5282.90542
G1 X126.35 Y149.03 E5282.90561
G1 X125.62 Y148.50 E5282.92051
G1 X125.45 Y148.39 E5282.92384
G1 X125.93 Y147.78 E5282.93679
G1 X126.51 Y147.27 E5282.94956
G1 X127.16 Y146.87 E5282.96238
G1 X127.88 Y146.58 E5282.97517
G1 X128.63 Y146.43 E5282.98796
G1 X129.40 Y146.41 E5283.00075
G1 X130.17 Y146.53 E5283.01365
G1 X130.89 Y146.78 E5283.02633
G1 X131.57 Y147.16 E5283.03922
G1 X132.10 Y147.60 E5283.05076
G1 X132.10 Y149.05 E5283.07487
G1 X131.89 Y149.20 E5283.07919
G1 X131.78 Y149.01 E5283.08282
G1 X131.43 Y148.58 E5283.09208
G0 F12000 X131.10 Y147.92
;LAYER:231
G0 X130.99 Y147.63 Z23.40
;TYPE:WALL-INNER
G1 F540 X130.92 Y147.58 E5283.09341
G1 X130.19 Y147.28 E5283.10670
G1 X129.85 Y147.17 E5283.11260
G1 X129.41 Y147.12 E5283.11986
G1 X129.11 Y147.10 E5283.12494
G1 X128.54 Y147.13 E5283.13440
G1 X128.29 Y147.17 E5283.13859
G1 X128.11 Y147.22 E5283.14174
G1 X127.65 Y147.39 E5283.14995
G1 X127.22 Y147.58 E5283.15765
G1 X126.69 Y147.99 E5283.16881
G1 X126.50 Y148.14 E5283.17282
G1 X126.28 Y148.41 E5283.17864
G1 X126.06 Y148.27 E5283.18298
G1 X126.23 Y148.05 E5283.18755
G1 X126.74 Y147.59 E5283.19901
G1 X127.34 Y147.22 E5283.21071
G1 X127.99 Y146.97 E5283.22229
G1 X128.67 Y146.83 E5283.23388
G1 X129.37 Y146.81 E5283.24555
G1 X130.07 Y146.92 E5283.25724
G1 X130.72 Y147.15 E5283.26874
G1 X131.34 Y147.49 E5283.28049
G1 X131.70 Y147.79 E5283.28823
G1 X131.70 Y148.21 E5283.29520
G1 X131.63 Y148.13 E5283.29693
G1 X130.99 Y147.63 E5283.31045
G0 F12000 X130.75 Y147.96
;TYPE:WALL-OUTER
G1 F540 X130.72 Y147.93 E5283.31118
G1 X130.05 Y147.65 E5283.32318
G1 X129.76 Y147.56 E5283.32818
G1 X129.38 Y147.51 E5283.33460
G1 X129.11 Y147.50 E5283.33906
G1 X128.58 Y147.53 E5283.34785
G1 X128.23 Y147.60 E5283.35384
G1 X127.43 Y147.93 E5283.36822
G1 X126.93 Y148.30 E5283.37851
G1 X126.79 Y148.42 E5283.38169
G1 X126.35 Y148.96 E5283.39320
G1 X126.02 Y148.72 E5283.40001
G1 X125.48 Y148.38 E5283.41066
G1 X125.93 Y147.78 E5283.42309
G1 X126.50 Y147.27 E5283.43581
G1 X127.16 Y146.86 E5283.44863
G1 X127.88 Y146.58 E5283.46142
G1 X128.63 Y146.43 E5283.47421
G1 X129.40 Y146.41 E5283.48701
G1 X130.16 Y146.53 E5283.49991
G1 X130.89 Y146.78 E5283.51259
G1 X131.56 Y147.16 E5283.52549
G1 X132.10 Y147.60 E5283.53701
G1 X132.10 Y148.97 E5283.55986
G1 X131.89 Y149.12 E5283.56413
G1 X131.82 Y149.02 E5283.56612
G1 X131.43 Y148.51 E5283.57680
G1 X131.35 Y148.42 E5283.57880
G1 X130.75 Y147.96 E5283.59145
G1 F1800 E5280.59145
G0 F12000 X131.70 Y153.31
;TYPE:WALL-INNER
G1 F1800 E5283.59145
G1 F540 X131.70 Y153.74 E5283.59845
G1 X131.33 Y154.03 E5283.60629
G1 X130.79 Y154.34 E5283.61658
G1 X130.08 Y154.60 E5283.62925
G1 X129.40 Y154.71 E5283.64062
G1 X129.35 Y154.71 E5283.64147
G1 X128.71 Y154.70 E5283.65215
G1 X128.01 Y154.56 E5283.66395
G1 X127.36 Y154.31 E5283.67566
G1 X126.80 Y153.97 E5283.68647
G1 X126.26 Y153.51 E5283.69831
G1 X126.06 Y153.26 E5283.70366
G1 X126.28 Y153.11 E5283.70804
G1 X126.50 Y153.39 E5283.71390
G1 X127.23 Y153.94 E5283.72917
G1 X127.65 Y154.13 E5283.73685
G1 X128.27 Y154.35 E5283.74777
G1 X128.85 Y154.42 E5283.75739
G1 X128.90 Y154.42 E5283.75831
G1 X129.13 Y154.42 E5283.76207
G1 X129.72 Y154.38 E5283.77188
G1 X129.86 Y154.35 E5283.77430
G1 X130.18 Y154.25 E5283.77992
G1 X130.71 Y154.04 E5283.78930
G1 X130.91 Y153.94 E5283.79318
G1 X131.63 Y153.40 E5283.80815
G1 X131.70 Y153.31 E5283.80986
G0 F12000 X131.35 Y153.11
;TYPE:WALL-OUTER
G1 F540 X131.70 Y152.67 E5283.81918
G1 X131.82 Y152.51 E5283.82248
G1 X131.88 Y152.41 E5283.82448
G1 X132.10 Y152.55 E5283.82877
G1 X132.10 Y152.66 E5283.83056
G1 X132.10 Y153.93 E5283.85162
G1 X131.56 Y154.37 E5283.86322
G1 X130.96 Y154.70 E5283.87464
G1 X130.22 Y154.97 E5283.88781
G1 X129.46 Y155.10 E5283.90059
G1 X129.36 Y155.11 E5283.90216
G1 X128.69 Y155.10 E5283.91334
G1 X127.93 Y154.96 E5283.92621
G1 X127.87 Y154.94 E5283.92720
G1 X127.21 Y154.68 E5283.93908
G1 X127.16 Y154.66 E5283.93999
G1 X126.56 Y154.29 E5283.95162
G1 X125.97 Y153.79 E5283.96451
G1 X125.49 Y153.19 E5283.97735
G1 X125.47 Y153.16 E5283.97794
G1 X126.02 Y152.81 E5283.98883
G1 X126.36 Y152.56 E5283.99580
G1 X126.79 Y153.10 E5284.00729
G1 X127.43 Y153.60 E5284.02079
G1 X127.80 Y153.76 E5284.02753
G1 X128.37 Y153.96 E5284.03749
G1 X128.86 Y154.02 E5284.04575
G1 X128.90 Y154.02 E5284.04643
G1 X129.12 Y154.02 E5284.05002
G1 X129.66 Y153.98 E5284.05917
G1 X129.76 Y153.96 E5284.06086
G1 X130.05 Y153.87 E5284.06578
G1 X130.54 Y153.67 E5284.07467
G1 X130.71 Y153.59 E5284.07767
G1 X131.35 Y153.11 E5284.09115
G0 F12000 X131.10 Y153.73
G1 F1800 E5281.09115
G0 F12000 X133.01 Y155.72
G1 F1800 E5284.09115
G1 F540 X133.51 Y155.12 E5284.10411
G1 X133.89 Y155.33 E5284.11137
G1 X133.20 Y156.03 E5284.12770
G1 X133.15 Y156.09 E5284.12907
G1 X132.01 Y156.86 E5284.15190
G1 X131.43 Y157.10 E5284.16243
G1 X131.60 Y156.85 E5284.16758
G1 X131.65 Y156.50 E5284.17346
G1 X132.91 Y155.84 E5284.19705
G1 X132.97 Y155.80 E5284.19825
G1 X133.01 Y155.72 E5284.19970
G1 F1800 E5281.19970
G0 F12000 X135.15 Y152.09
G1 F1800 E5284.19970
G1 F540 X135.32 Y151.54 E5284.20932
G1 X135.38 Y151.33 E5284.21291
G1 X135.42 Y151.28 E5284.21401
G1 X135.28 Y149.75 E5284.23949
G1 X135.44 Y149.50 E5284.24443
G1 X135.63 Y149.09 E5284.25197
G1 X135.78 Y149.88 E5284.26529
G1 X135.76 Y151.28 E5284.28870
G1 X135.62 Y151.89 E5284.29912
G1 X135.53 Y152.29 E5284.30594
G1 X135.15 Y152.09 E5284.31321
;LAYER:232
G0 F12000 X135.16 Y152.10 Z23.50
;TYPE:WALL-OUTER
G1 F540 X135.43 Y151.26 E5284.32797
G1 X135.78 Y150.66 E5284.33953
G1 X135.78 Y151.28 E5284.34977
G1 X135.55 Y152.31 E5284.36738
G1 X135.16 Y152.10 E5284.37478
G1 F1800 E5281.37478
G0 F12000 X131.69 Y153.38
;TYPE:WALL-INNER
G1 F1800 E5284.37478
G1 F540 X131.69 Y153.74 E5284.38072
G1 X131.33 Y154.03 E5284.38851
G1 X130.78 Y154.34 E5284.39901
G1 X130.12 Y154.58 E5284.41072
G1 X129.40 Y154.71 E5284.42290
G1 X129.35 Y154.71 E5284.42363
G1 X128.70 Y154.70 E5284.43449
G1 X128.66 Y154.69 E5284.43515
G1 X128.04 Y154.57 E5284.44567
G1 X127.39 Y154.32 E5284.45725
G1 X126.74 Y153.94 E5284.46979
G1 X126.26 Y153.51 E5284.48050
G1 X126.08 Y153.28 E5284.48538
G1 X126.27 Y153.16 E5284.48918
G1 X126.45 Y153.39 E5284.49405
G1 X127.02 Y153.85 E5284.50627
G1 X127.15 Y153.94 E5284.50892
G1 X127.75 Y154.22 E5284.51981
G1 X128.11 Y154.35 E5284.52628
G1 X128.84 Y154.45 E5284.53845
G1 X129.13 Y154.46 E5284.54329
G1 X129.71 Y154.40 E5284.55291
G1 X130.07 Y154.34 E5284.55910
G1 X130.59 Y154.13 E5284.56831
G1 X130.98 Y153.94 E5284.57565
G1 X131.46 Y153.58 E5284.58555
G1 X131.69 Y153.38 E5284.59068
G0 F12000 X131.40 Y153.10
;TYPE:WALL-OUTER
G1 F540 X131.87 Y152.50 E5284.60324
G1 X131.88 Y152.48 E5284.60367
G1 X132.09 Y152.63 E5284.60794
G1 X132.09 Y153.93 E5284.62953
G1 X131.56 Y154.37 E5284.64107
G1 X130.95 Y154.71 E5284.65265
G1 X130.22 Y154.97 E5284.66552
G1 X129.45 Y155.10 E5284.67853
G1 X129.36 Y155.11 E5284.67999
G1 X128.68 Y155.10 E5284.69133
G1 X128.59 Y155.09 E5284.69280
G1 X127.94 Y154.96 E5284.70397
G1 X127.21 Y154.68 E5284.71684
G1 X126.53 Y154.28 E5284.72994
G1 X126.50 Y154.26 E5284.73063
G1 X125.97 Y153.79 E5284.74236
G1 X125.48 Y153.19 E5284.75530
G1 X126.36 Y152.63 E5284.77250
G1 X126.74 Y153.10 E5284.78261
G1 X127.27 Y153.53 E5284.79395
G1 X127.35 Y153.60 E5284.79573
G1 X127.90 Y153.84 E5284.80574
G1 X128.21 Y153.96 E5284.81124
G1 X128.87 Y154.05 E5284.82229
G1 X129.12 Y154.06 E5284.82638
G1 X129.65 Y154.01 E5284.83531
G1 X129.96 Y153.95 E5284.84052
G1 X130.42 Y153.76 E5284.84886
G1 X130.77 Y153.59 E5284.85533
G1 X131.21 Y153.27 E5284.86439
G1 X131.40 Y153.10 E5284.86864
G0 F12000 X131.09 Y153.72
G1 F1800 E5281.86864
G0 F12000 X132.98 Y155.79
G1 F1800 E5284.86864
G1 F540 X133.53 Y155.12 E5284.88309
G1 X133.92 Y155.34 E5284.89047
G1 X133.18 Y156.09 E5284.90799
G1 X133.16 Y156.11 E5284.90842
G1 X132.78 Y156.36 E5284.91595
G1 X132.91 Y156.18 E5284.91967
G1 X132.98 Y155.79 E5284.92608
G1 F1800 E5281.92608
G0 F12000 X131.69 Y148.15
;TYPE:WALL-INNER
G1 F1800 E5284.92608
G1 F540 X131.23 Y147.77 E5284.93606
G1 X130.98 Y147.58 E5284.94123
G1 X130.16 Y147.22 E5284.95613
G1 X130.03 Y147.17 E5284.95847
G1 X129.39 Y147.08 E5284.96911
G1 X129.10 Y147.07 E5284.97394
G1 X128.53 Y147.10 E5284.98344
G1 X128.10 Y147.18 E5284.99079
G1 X127.56 Y147.40 E5285.00043
G1 X127.14 Y147.59 E5285.00814
G1 X126.45 Y148.13 E5285.02270
G1 X126.27 Y148.36 E5285.02757
G1 X126.07 Y148.24 E5285.03147
G1 X126.22 Y148.06 E5285.03529
G1 X126.74 Y147.59 E5285.04700
G1 X127.33 Y147.22 E5285.05857
G1 X127.99 Y146.97 E5285.07021
G1 X128.67 Y146.83 E5285.08179
G1 X129.37 Y146.81 E5285.09342
G1 X130.06 Y146.92 E5285.10510
G1 X130.72 Y147.15 E5285.11671
G1 X131.34 Y147.49 E5285.12839
G1 X131.69 Y147.79 E5285.13613
G1 X131.69 Y148.15 E5285.14207
G0 F12000 X131.40 Y148.42
;TYPE:WALL-OUTER
G1 F540 X130.98 Y148.09 E5285.15103
G1 X130.78 Y147.93 E5285.15533
G1 X130.01 Y147.59 E5285.16925
G1 X129.93 Y147.56 E5285.17070
G1 X129.35 Y147.48 E5285.18033
G1 X129.11 Y147.47 E5285.18446
G1 X128.58 Y147.50 E5285.19324
G1 X128.21 Y147.56 E5285.19953
G1 X127.72 Y147.76 E5285.20829
G1 X127.35 Y147.93 E5285.21503
G1 X126.74 Y148.42 E5285.22804
G1 X126.36 Y148.89 E5285.23817
G1 X125.78 Y148.53 E5285.24950
G1 X125.48 Y148.34 E5285.25537
G1 X125.93 Y147.78 E5285.26728
G1 X126.50 Y147.27 E5285.28004
G1 X127.16 Y146.86 E5285.29284
G1 X127.87 Y146.58 E5285.30563
G1 X128.63 Y146.43 E5285.31842
G1 X129.40 Y146.41 E5285.33122
G1 X130.16 Y146.53 E5285.34411
G1 X130.88 Y146.78 E5285.35679
G1 X131.56 Y147.16 E5285.36968
G1 X132.09 Y147.60 E5285.38121
G1 X132.09 Y148.90 E5285.40277
G1 X131.88 Y149.04 E5285.40708
G1 X131.87 Y149.02 E5285.40748
G1 X131.40 Y148.42 E5285.42011
G0 F12000 X131.09 Y147.70
;LAYER:233
G0 X131.05 Y147.59 Z23.60
;TYPE:WALL-INNER
G1 F540 X130.51 Y147.33 E5285.43004
G1 X130.16 Y147.18 E5285.43650
G1 X129.56 Y147.07 E5285.44659
G1 X129.10 Y147.04 E5285.45432
G1 X128.56 Y147.07 E5285.46333
G1 X128.32 Y147.11 E5285.46728
G1 X127.95 Y147.19 E5285.47350
G1 X127.28 Y147.49 E5285.48571
G1 X127.07 Y147.60 E5285.48980
G1 X126.40 Y148.14 E5285.50400
G1 X126.26 Y148.31 E5285.50781
G1 X126.09 Y148.21 E5285.51112
G1 X126.21 Y148.06 E5285.51441
G1 X126.74 Y147.59 E5285.52609
G1 X127.33 Y147.22 E5285.53763
G1 X127.99 Y146.97 E5285.54937
G1 X128.67 Y146.83 E5285.56092
G1 X129.37 Y146.81 E5285.57253
G1 X130.06 Y146.92 E5285.58418
G1 X130.72 Y147.15 E5285.59582
G1 X131.33 Y147.49 E5285.60748
G1 X131.69 Y147.79 E5285.61522
G1 X131.69 Y148.11 E5285.62054
G1 X131.27 Y147.75 E5285.62969
G1 X131.05 Y147.59 E5285.63423
G0 F12000 X130.84 Y147.93
;TYPE:WALL-OUTER
G1 F540 X130.35 Y147.69 E5285.64332
G1 X130.04 Y147.57 E5285.64886
G1 X129.50 Y147.47 E5285.65804
G1 X129.33 Y147.45 E5285.66095
G1 X129.10 Y147.44 E5285.66469
G1 X128.60 Y147.47 E5285.67308
G1 X128.08 Y147.57 E5285.68186
G1 X127.46 Y147.84 E5285.69315
G1 X127.29 Y147.94 E5285.69638
G1 X126.69 Y148.42 E5285.70920
G1 X126.35 Y148.84 E5285.71824
G1 X125.50 Y148.31 E5285.73488
G1 X125.92 Y147.78 E5285.74627
G1 X126.50 Y147.27 E5285.75902
G1 X127.15 Y146.86 E5285.77181
G1 X127.87 Y146.58 E5285.78460
G1 X128.62 Y146.43 E5285.79742
G1 X129.39 Y146.41 E5285.81018
G1 X130.16 Y146.53 E5285.82310
G1 X130.88 Y146.78 E5285.83575
G1 X131.56 Y147.16 E5285.84865
G1 X132.09 Y147.60 E5285.86017
G1 X132.09 Y148.82 E5285.88046
G1 X131.87 Y148.97 E5285.88491
G1 X131.44 Y148.42 E5285.89643
G1 X131.02 Y148.07 E5285.90566
G1 X130.84 Y147.93 E5285.90937
G1 F1800 E5282.90937
G0 F12000 X131.69 Y153.42
;TYPE:WALL-INNER
G1 F1800 E5285.90937
G1 F540 X131.69 Y153.74 E5285.91469
G1 X131.30 Y154.05 E5285.92294
G1 X130.74 Y154.37 E5285.93376
G1 X130.09 Y154.59 E5285.94506
G1 X129.40 Y154.71 E5285.95684
G1 X129.34 Y154.71 E5285.95769
G1 X128.69 Y154.70 E5285.96860
G1 X128.66 Y154.69 E5285.96907
G1 X128.03 Y154.57 E5285.97973
G1 X127.33 Y154.30 E5285.99222
G1 X126.78 Y153.97 E5286.00295
G1 X126.23 Y153.49 E5286.01502
G1 X126.09 Y153.32 E5286.01875
G1 X126.26 Y153.21 E5286.02206
G1 X126.40 Y153.39 E5286.02587
G1 X127.08 Y153.93 E5286.04029
G1 X127.67 Y154.22 E5286.05133
G1 X127.97 Y154.34 E5286.05659
G1 X128.61 Y154.46 E5286.06754
G1 X129.11 Y154.49 E5286.07585
G1 X129.62 Y154.45 E5286.08438
G1 X130.17 Y154.34 E5286.09365
G1 X131.05 Y153.94 E5286.10976
G1 X131.53 Y153.56 E5286.11986
G1 X131.69 Y153.42 E5286.12346
G0 F12000 X131.44 Y153.10
;TYPE:WALL-OUTER
G1 F540 X131.87 Y152.55 E5286.13498
G1 X132.09 Y152.71 E5286.13942
G1 X132.09 Y153.93 E5286.15972
G1 X131.60 Y154.33 E5286.17031
G1 X131.52 Y154.39 E5286.17196
G1 X130.93 Y154.72 E5286.18320
G1 X130.88 Y154.74 E5286.18407
G1 X130.21 Y154.97 E5286.19580
G1 X129.44 Y155.10 E5286.20889
G1 X129.36 Y155.11 E5286.21013
G1 X128.67 Y155.10 E5286.22166
G1 X128.59 Y155.09 E5286.22294
G1 X127.92 Y154.96 E5286.23429
G1 X127.19 Y154.68 E5286.24743
G1 X126.54 Y154.29 E5286.25991
G1 X125.95 Y153.78 E5286.27289
G1 X125.50 Y153.21 E5286.28495
G1 X125.93 Y152.94 E5286.29343
G1 X126.34 Y152.68 E5286.30160
G1 X126.69 Y153.10 E5286.31069
G1 X127.29 Y153.59 E5286.32361
G1 X127.84 Y153.85 E5286.33373
G1 X128.08 Y153.96 E5286.33811
G1 X128.66 Y154.06 E5286.34788
G1 X129.11 Y154.09 E5286.35533
G1 X129.57 Y154.05 E5286.36302
G1 X130.05 Y153.96 E5286.37114
G1 X130.84 Y153.59 E5286.38564
G1 X131.27 Y153.25 E5286.39482
G1 X131.44 Y153.10 E5286.39861
G0 F12000 X131.09 Y153.82
;LAYER:234
G0 X131.13 Y153.92 Z23.70
;TYPE:WALL-INNER
G1 F540 X131.69 Y153.45 E5286.41067
G1 X131.69 Y153.74 E5286.41539
G1 X131.35 Y154.01 E5286.42267
G1 X131.31 Y154.04 E5286.42352
G1 X130.76 Y154.35 E5286.43384
G1 X130.08 Y154.59 E5286.44594
G1 X129.39 Y154.71 E5286.45758
G1 X129.35 Y154.71 E5286.45828
G1 X128.71 Y154.70 E5286.46880
G1 X127.99 Y154.56 E5286.48111
G1 X127.37 Y154.32 E5286.49212
G1 X126.77 Y153.96 E5286.50380
G1 X126.21 Y153.47 E5286.51604
G1 X126.11 Y153.34 E5286.51889
G1 X126.25 Y153.25 E5286.52163
G1 X126.35 Y153.39 E5286.52448
G1 X127.02 Y153.93 E5286.53870
G1 X127.86 Y154.34 E5286.55431
G1 X128.48 Y154.47 E5286.56490
G1 X128.88 Y154.52 E5286.57148
G1 X129.13 Y154.52 E5286.57568
G1 X129.85 Y154.44 E5286.58773
G1 X130.30 Y154.33 E5286.59548
G1 X130.98 Y154.00 E5286.60793
G1 X131.13 Y153.92 E5286.61085
G0 F12000 X130.90 Y153.59
;TYPE:WALL-OUTER
G1 F540 X131.48 Y153.10 E5286.62342
G1 X131.86 Y152.62 E5286.63363
G1 X132.09 Y152.76 E5286.63805
G1 X132.09 Y153.93 E5286.65748
G1 X131.59 Y154.33 E5286.66815
G1 X131.52 Y154.38 E5286.66963
G1 X130.93 Y154.71 E5286.68082
G1 X130.20 Y154.97 E5286.69374
G1 X129.43 Y155.10 E5286.70672
G1 X129.37 Y155.11 E5286.70777
G1 X128.68 Y155.10 E5286.71925
G1 X127.90 Y154.95 E5286.73241
G1 X127.20 Y154.68 E5286.74487
G1 X126.53 Y154.28 E5286.75781
G1 X125.94 Y153.77 E5286.77078
G1 X125.52 Y153.24 E5286.78214
G1 X126.08 Y152.88 E5286.79322
G1 X126.34 Y152.72 E5286.79836
G1 X126.64 Y153.10 E5286.80646
G1 X127.24 Y153.59 E5286.81929
G1 X127.99 Y153.96 E5286.83317
G1 X128.55 Y154.07 E5286.84272
G1 X128.91 Y154.12 E5286.84868
G1 X129.11 Y154.12 E5286.85209
G1 X129.78 Y154.04 E5286.86330
G1 X130.17 Y153.95 E5286.86994
G1 X130.79 Y153.65 E5286.88150
G1 X130.90 Y153.59 E5286.88358
G1 F1800 E5283.88358
G0 F12000 X131.69 Y148.07
;TYPE:WALL-INNER
G1 F1800 E5286.88358
G1 F540 X131.12 Y147.60 E5286.89584
G1 X130.44 Y147.26 E5286.90849
G1 X130.27 Y147.18 E5286.91155
G1 X129.58 Y147.04 E5286.92323
G1 X129.10 Y147.00 E5286.93134
G1 X128.65 Y147.03 E5286.93877
G1 X128.05 Y147.14 E5286.94890
G1 X127.84 Y147.19 E5286.95247
G1 X127.28 Y147.46 E5286.96291
G1 X127.02 Y147.60 E5286.96782
G1 X126.35 Y148.14 E5286.98214
G1 X126.25 Y148.27 E5286.98491
G1 X126.11 Y148.19 E5286.98766
G1 X126.21 Y148.05 E5286.99049
G1 X126.73 Y147.59 E5287.00212
G1 X127.33 Y147.22 E5287.01365
G1 X127.98 Y146.97 E5287.02538
G1 X128.66 Y146.83 E5287.03693
G1 X129.36 Y146.81 E5287.04856
G1 X130.06 Y146.93 E5287.06028
G1 X130.71 Y147.15 E5287.07179
G1 X131.32 Y147.49 E5287.08345
G1 X131.69 Y147.79 E5287.09122
G1 X131.69 Y148.07 E5287.09595
G0 F12000 X131.48 Y148.42
;TYPE:WALL-OUTER
G1 F540 X130.90 Y147.93 E5287.10861
G1 X130.27 Y147.62 E5287.12032
G1 X130.15 Y147.57 E5287.12253
G1 X129.52 Y147.44 E5287.13319
G1 X129.10 Y147.40 E5287.14023
G1 X128.70 Y147.43 E5287.14687
G1 X128.14 Y147.53 E5287.15635
G1 X127.98 Y147.57 E5287.15906
G1 X127.46 Y147.82 E5287.16873
G1 X127.24 Y147.94 E5287.17286
G1 X126.64 Y148.42 E5287.18571
G1 X126.34 Y148.80 E5287.19372
G1 X125.52 Y148.29 E5287.20995
G1 X125.92 Y147.78 E5287.22074
G1 X126.50 Y147.26 E5287.23364
G1 X127.15 Y146.86 E5287.24636
G1 X127.86 Y146.58 E5287.25912
G1 X128.62 Y146.43 E5287.27195
G1 X129.39 Y146.41 E5287.28472
G1 X130.15 Y146.53 E5287.29761
G1 X130.88 Y146.78 E5287.31034
G1 X131.55 Y147.16 E5287.32313
G1 X132.09 Y147.60 E5287.33470
G1 X132.09 Y148.77 E5287.35410
G1 X131.86 Y148.91 E5287.35858
G1 X131.48 Y148.42 E5287.36876
G0 F12000 X131.09 Y147.70
;LAYER:235
G0 X131.17 Y147.60 Z23.80
;TYPE:WALL-INNER
G1 F540 X130.61 Y147.31 E5287.37914
G1 X130.37 Y147.19 E5287.38362
G1 X129.54 Y147.01 E5287.39786
G1 X129.09 Y146.97 E5287.40525
G1 X128.69 Y146.99 E5287.41197
G1 X128.09 Y147.11 E5287.42210
G1 X127.76 Y147.19 E5287.42781
G1 X126.97 Y147.60 E5287.44263
G1 X126.44 Y148.04 E5287.45402
G1 X126.31 Y148.15 E5287.45682
G1 X126.25 Y148.24 E5287.45866
G1 X126.12 Y148.16 E5287.46105
G1 X126.21 Y148.05 E5287.46337
G1 X126.73 Y147.59 E5287.47490
G1 X127.33 Y147.22 E5287.48665
G1 X127.98 Y146.97 E5287.49821
G1 X128.66 Y146.83 E5287.50978
G1 X129.36 Y146.81 E5287.52140
G1 X130.05 Y146.93 E5287.53312
G1 X130.71 Y147.15 E5287.54461
G1 X131.32 Y147.49 E5287.55634
G1 X131.68 Y147.79 E5287.56407
G1 X131.68 Y148.03 E5287.56818
G1 X131.17 Y147.60 E5287.57935
G0 F12000 X130.94 Y147.94
;TYPE:WALL-OUTER
G1 F540 X130.43 Y147.67 E5287.58891
G1 X130.23 Y147.57 E5287.59266
G1 X129.47 Y147.40 E5287.60558
G1 X129.28 Y147.38 E5287.60889
G1 X129.09 Y147.37 E5287.61189
G1 X128.74 Y147.39 E5287.61782
G1 X128.18 Y147.50 E5287.62730
G1 X127.90 Y147.57 E5287.63208
G1 X127.19 Y147.94 E5287.64540
G1 X126.70 Y148.34 E5287.65593
G1 X126.61 Y148.43 E5287.65804
G1 X126.34 Y148.76 E5287.66523
G1 X125.54 Y148.27 E5287.68092
G1 X125.91 Y147.78 E5287.69118
G1 X126.49 Y147.27 E5287.70400
G1 X127.15 Y146.86 E5287.71687
G1 X127.86 Y146.58 E5287.72960
G1 X128.62 Y146.43 E5287.74237
G1 X129.38 Y146.41 E5287.75515
G1 X130.15 Y146.53 E5287.76803
G1 X130.87 Y146.78 E5287.78073
G1 X131.55 Y147.16 E5287.79360
G1 X132.08 Y147.60 E5287.80512
G1 X132.08 Y148.67 E5287.82295
G1 X132.08 Y148.72 E5287.82378
G1 X131.85 Y148.86 E5287.82816
G1 X131.53 Y148.42 E5287.83720
G1 X130.94 Y147.94 E5287.84983
G1 F1800 E5284.84983
G0 F12000 X131.68 Y153.49
;TYPE:WALL-INNER
G1 F1800 E5287.84983
G1 F540 X131.68 Y153.74 E5287.85392
G1 X131.36 Y154.00 E5287.86090
G1 X130.75 Y154.35 E5287.87251
G1 X130.09 Y154.59 E5287.88412
G1 X129.37 Y154.71 E5287.89630
G1 X129.35 Y154.71 E5287.89672
G1 X128.71 Y154.70 E5287.90736
G1 X127.97 Y154.56 E5287.91985
G1 X127.36 Y154.32 E5287.93066
G1 X126.76 Y153.96 E5287.94230
G1 X126.23 Y153.50 E5287.95405
G1 X126.13 Y153.36 E5287.95685
G1 X126.25 Y153.29 E5287.95920
G1 X126.32 Y153.38 E5287.96112
G1 X126.96 Y153.92 E5287.97514
G1 X127.60 Y154.25 E5287.98709
G1 X127.77 Y154.33 E5287.99022
G1 X128.16 Y154.43 E5287.99683
G1 X128.69 Y154.53 E5288.00591
G1 X129.12 Y154.56 E5288.01297
G1 X129.77 Y154.48 E5288.02396
G1 X130.36 Y154.33 E5288.03409
G1 X130.94 Y154.04 E5288.04487
G1 X131.17 Y153.92 E5288.04914
G1 X131.68 Y153.49 E5288.06026
G0 F12000 X131.52 Y153.10
;TYPE:WALL-OUTER
G1 F540 X131.86 Y152.67 E5288.06929
G1 X132.08 Y152.81 E5288.07364
G1 X132.08 Y153.93 E5288.09230
G1 X131.59 Y154.33 E5288.10297
G1 X130.92 Y154.72 E5288.11577
G1 X130.19 Y154.97 E5288.12855
G1 X129.42 Y155.10 E5288.14154
G1 X129.37 Y155.11 E5288.14252
G1 X128.66 Y155.10 E5288.15417
G1 X127.89 Y154.95 E5288.16733
G1 X127.18 Y154.68 E5288.17986
G1 X126.53 Y154.29 E5288.19256
G1 X125.94 Y153.77 E5288.20555
G1 X125.53 Y153.26 E5288.21642
G1 X126.23 Y152.83 E5288.23009
G1 X126.34 Y152.76 E5288.23224
G1 X126.61 Y153.10 E5288.23948
G1 X127.19 Y153.59 E5288.25206
G1 X127.77 Y153.90 E5288.26310
G1 X127.90 Y153.95 E5288.26547
G1 X128.74 Y154.13 E5288.27969
G1 X129.10 Y154.15 E5288.28574
G1 X129.70 Y154.08 E5288.29576
G1 X130.22 Y153.95 E5288.30473
G1 X130.76 Y153.69 E5288.31466
G1 X130.94 Y153.59 E5288.31815
G1 X131.52 Y153.10 E5288.33073
;LAYER:236
G0 F12000 X131.68 Y153.53 Z23.90
;TYPE:WALL-INNER
G1 F540 X131.68 Y153.74 E5288.33422
G1 X131.35 Y154.01 E5288.34130
G1 X130.72 Y154.37 E5288.35344
G1 X130.06 Y154.60 E5288.36495
G1 X129.37 Y154.71 E5288.37667
G1 X129.35 Y154.71 E5288.37694
G1 X128.66 Y154.69 E5288.38838
G1 X128.00 Y154.56 E5288.39956
G1 X127.33 Y154.31 E5288.41144
G1 X127.32 Y154.30 E5288.41165
G1 X126.75 Y153.96 E5288.42278
G1 X126.20 Y153.47 E5288.43492
G1 X126.14 Y153.39 E5288.43670
G1 X126.25 Y153.32 E5288.43884
G1 X126.29 Y153.38 E5288.44002
G1 X126.89 Y153.90 E5288.45325
G1 X127.69 Y154.33 E5288.46833
G1 X128.42 Y154.51 E5288.48086
G1 X128.85 Y154.58 E5288.48813
G1 X129.11 Y154.58 E5288.49233
G1 X129.47 Y154.56 E5288.49847
G1 X130.08 Y154.42 E5288.50883
G1 X130.44 Y154.33 E5288.51503
G1 X131.21 Y153.92 E5288.52941
G1 X131.68 Y153.53 E5288.53962
G0 F12000 X131.56 Y153.10
;TYPE:WALL-OUTER
G1 F540 X131.85 Y152.71 E5288.54774
G1 X132.08 Y152.85 E5288.55207
G1 X132.08 Y153.93 E5288.57005
G1 X131.58 Y154.34 E5288.58083
G1 X130.90 Y154.72 E5288.59381
G1 X130.18 Y154.98 E5288.60644
G1 X129.41 Y155.11 E5288.61950
G1 X129.37 Y155.11 E5288.62020
G1 X128.64 Y155.09 E5288.63226
G1 X128.60 Y155.09 E5288.63299
G1 X127.90 Y154.95 E5288.64485
G1 X127.17 Y154.68 E5288.65778
G1 X126.52 Y154.28 E5288.67053
G1 X125.91 Y153.75 E5288.68384
G1 X125.54 Y153.28 E5288.69390
G1 X126.00 Y153.01 E5288.70275
G1 X126.33 Y152.80 E5288.70936
G1 X126.58 Y153.10 E5288.71588
G1 X127.12 Y153.57 E5288.72777
G1 X127.84 Y153.95 E5288.74127
G1 X128.50 Y154.12 E5288.75267
G1 X128.89 Y154.18 E5288.75916
G1 X129.10 Y154.18 E5288.76266
G1 X129.42 Y154.16 E5288.76802
G1 X129.99 Y154.03 E5288.77773
G1 X130.30 Y153.95 E5288.78303
G1 X130.98 Y153.59 E5288.79594
G1 X131.56 Y153.10 E5288.80847
G1 F1800 E5285.80847
G0 F12000 X131.68 Y148.00
;TYPE:WALL-INNER
G1 F1800 E5288.80847
G1 F540 X131.21 Y147.60 E5288.81863
G1 X130.60 Y147.28 E5288.83019
G1 X130.44 Y147.19 E5288.83323
G1 X129.85 Y147.04 E5288.84326
G1 X129.30 Y146.95 E5288.85261
G1 X129.09 Y146.94 E5288.85610
G1 X128.73 Y146.96 E5288.86199
G1 X128.15 Y147.07 E5288.87181
G1 X127.69 Y147.20 E5288.87978
G1 X126.94 Y147.59 E5288.89380
G1 X126.51 Y147.96 E5288.90336
G1 X126.29 Y148.15 E5288.90810
G1 X126.25 Y148.20 E5288.90926
G1 X126.14 Y148.13 E5288.91140
G1 X126.21 Y148.05 E5288.91321
G1 X126.72 Y147.59 E5288.92475
G1 X127.32 Y147.22 E5288.93643
G1 X127.98 Y146.97 E5288.94808
G1 X128.66 Y146.83 E5288.95961
G1 X129.35 Y146.81 E5288.97124
G1 X130.05 Y146.93 E5288.98296
G1 X130.70 Y147.15 E5288.99443
G1 X131.32 Y147.49 E5289.00616
G1 X131.68 Y147.79 E5289.01388
G1 X131.68 Y148.00 E5289.01739
G0 F12000 X131.57 Y148.43
;TYPE:WALL-OUTER
G1 F540 X130.99 Y147.94 E5289.03004
G1 X130.42 Y147.63 E5289.04079
G1 X130.29 Y147.57 E5289.04303
G1 X129.77 Y147.43 E5289.05210
G1 X129.26 Y147.35 E5289.06067
G1 X129.09 Y147.34 E5289.06348
G1 X128.78 Y147.36 E5289.06864
G1 X128.25 Y147.46 E5289.07771
G1 X127.84 Y147.57 E5289.08475
G1 X127.17 Y147.92 E5289.09728
G1 X126.77 Y148.26 E5289.10602
G1 X126.58 Y148.42 E5289.11014
G1 X126.34 Y148.73 E5289.11663
G1 X125.54 Y148.25 E5289.13208
G1 X125.91 Y147.78 E5289.14206
G1 X126.49 Y147.26 E5289.15488
G1 X127.15 Y146.86 E5289.16775
G1 X127.86 Y146.58 E5289.18045
G1 X128.61 Y146.43 E5289.19324
G1 X129.38 Y146.41 E5289.20601
G1 X130.15 Y146.53 E5289.21889
G1 X130.87 Y146.78 E5289.23157
G1 X131.54 Y147.16 E5289.24445
G1 X132.08 Y147.60 E5289.25597
G1 X132.08 Y148.54 E5289.27162
G1 X132.08 Y148.68 E5289.27396
G1 X131.85 Y148.81 E5289.27829
G1 X131.57 Y148.43 E5289.28631
G0 F12000 X131.08 Y147.70
;LAYER:237
G0 X131.25 Y147.60 Z24.00
;TYPE:WALL-INNER
G1 F540 X130.50 Y147.20 E5289.30053
G1 X129.93 Y147.04 E5289.31045
G1 X129.53 Y146.95 E5289.31726
G1 X128.97 Y146.93 E5289.32658
G1 X128.59 Y146.95 E5289.33275
G1 X128.03 Y147.09 E5289.34246
G1 X127.63 Y147.20 E5289.34933
G1 X127.08 Y147.50 E5289.35978
G1 X126.88 Y147.61 E5289.36360
G1 X126.27 Y148.15 E5289.37707
G1 X126.24 Y148.18 E5289.37786
G1 X126.14 Y148.13 E5289.37969
G1 X126.20 Y148.05 E5289.38133
G1 X126.72 Y147.59 E5289.39287
G1 X127.32 Y147.22 E5289.40455
G1 X127.97 Y146.97 E5289.41620
G1 X128.65 Y146.83 E5289.42771
G1 X129.35 Y146.81 E5289.43934
G1 X130.05 Y146.93 E5289.45106
G1 X130.70 Y147.15 E5289.46253
G1 X131.31 Y147.49 E5289.47426
G1 X131.68 Y147.79 E5289.48200
G1 X131.67 Y147.97 E5289.48506
G1 X131.25 Y147.60 E5289.49436
G0 F12000 X131.03 Y147.94
;TYPE:WALL-OUTER
G1 F540 X130.35 Y147.57 E5289.50715
G1 X129.83 Y147.43 E5289.51615
G1 X129.48 Y147.35 E5289.52213
G1 X128.97 Y147.33 E5289.53058
G1 X128.65 Y147.35 E5289.53589
G1 X128.13 Y147.47 E5289.54478
G1 X127.78 Y147.57 E5289.55077
G1 X127.27 Y147.85 E5289.56048
G1 X127.11 Y147.94 E5289.56353
G1 X126.56 Y148.42 E5289.57576
G1 X126.33 Y148.70 E5289.58172
G1 X125.70 Y148.33 E5289.59391
G1 X125.54 Y148.24 E5289.59686
G1 X125.91 Y147.78 E5289.60674
G1 X126.48 Y147.26 E5289.61952
G1 X127.14 Y146.86 E5289.63239
G1 X127.86 Y146.58 E5289.64509
G1 X128.61 Y146.43 E5289.65786
G1 X129.38 Y146.41 E5289.67064
G1 X130.14 Y146.53 E5289.68352
G1 X130.86 Y146.78 E5289.69620
G1 X131.54 Y147.16 E5289.70907
G1 X132.07 Y147.60 E5289.72059
G1 X132.07 Y148.64 E5289.73787
G1 X131.85 Y148.77 E5289.74229
G1 X131.58 Y148.43 E5289.74956
G1 X131.19 Y148.08 E5289.75831
G1 X131.03 Y147.94 E5289.76189
G1 F1800 E5286.76189
G0 F12000 X131.68 Y153.55
;TYPE:WALL-INNER
G1 F1800 E5289.76189
G1 F540 X131.67 Y153.74 E5289.76495
G1 X131.34 Y154.01 E5289.77211
G1 X130.73 Y154.36 E5289.78374
G1 X130.05 Y154.60 E5289.79584
G1 X129.35 Y154.71 E5289.80764
G1 X128.66 Y154.70 E5289.81905
G1 X128.00 Y154.56 E5289.83034
G1 X127.35 Y154.31 E5289.84190
G1 X126.75 Y153.95 E5289.85355
G1 X126.22 Y153.49 E5289.86517
G1 X126.14 Y153.39 E5289.86726
G1 X126.23 Y153.34 E5289.86903
G1 X126.27 Y153.38 E5289.86988
G1 X126.88 Y153.92 E5289.88345
G1 X127.63 Y154.32 E5289.89765
G1 X128.20 Y154.49 E5289.90753
G1 X128.60 Y154.58 E5289.91427
G1 X129.09 Y154.59 E5289.92250
G1 X129.60 Y154.56 E5289.93091
G1 X130.30 Y154.39 E5289.94290
G1 X130.50 Y154.32 E5289.94654
G1 X131.25 Y153.92 E5289.96070
G1 X131.68 Y153.55 E5289.96996
G0 F12000 X131.47 Y153.20
;TYPE:WALL-OUTER
G1 F540 X131.58 Y153.10 E5289.97242
G1 X131.85 Y152.75 E5289.97967
G1 X132.07 Y152.89 E5289.98404
G1 X132.07 Y153.93 E5290.00131
G1 X131.57 Y154.34 E5290.01215
G1 X130.90 Y154.72 E5290.02491
G1 X130.16 Y154.98 E5290.03806
G1 X130.13 Y154.99 E5290.03856
G1 X129.40 Y155.11 E5290.05088
G1 X129.36 Y155.11 E5290.05146
G1 X128.63 Y155.09 E5290.06362
G1 X128.60 Y155.09 E5290.06419
G1 X127.89 Y154.95 E5290.07616
G1 X127.16 Y154.67 E5290.08913
G1 X126.51 Y154.28 E5290.10183
G1 X125.93 Y153.77 E5290.11466
G1 X125.54 Y153.28 E5290.12504
G1 X126.33 Y152.82 E5290.14021
G1 X126.56 Y153.10 E5290.14618
G1 X127.11 Y153.59 E5290.15844
G1 X127.78 Y153.95 E5290.17116
G1 X128.30 Y154.10 E5290.18013
G1 X128.65 Y154.18 E5290.18607
G1 X129.09 Y154.19 E5290.19338
G1 X129.54 Y154.17 E5290.20084
G1 X130.19 Y154.00 E5290.21200
G1 X130.35 Y153.95 E5290.21484
G1 X131.03 Y153.59 E5290.22760
G1 X131.47 Y153.20 E5290.23744
;LAYER:238
G0 F12000 X131.67 Y153.57 Z24.10
;TYPE:WALL-INNER
G1 F540 X131.67 Y153.74 E5290.24018
G1 X131.33 Y154.01 E5290.24749
G1 X130.70 Y154.37 E5290.25947
G1 X130.07 Y154.59 E5290.27066
G1 X129.35 Y154.71 E5290.28283
G1 X128.65 Y154.70 E5290.29437
G1 X127.99 Y154.56 E5290.30563
G1 X127.33 Y154.31 E5290.31729
G1 X126.74 Y153.95 E5290.32887
G1 X126.21 Y153.49 E5290.34055
G1 X126.15 Y153.41 E5290.34228
G1 X126.22 Y153.36 E5290.34380
G1 X126.24 Y153.38 E5290.34415
G1 X126.85 Y153.91 E5290.35773
G1 X127.56 Y154.31 E5290.37130
G1 X128.18 Y154.50 E5290.38195
G1 X128.47 Y154.57 E5290.38703
G1 X129.09 Y154.60 E5290.39727
G1 X129.71 Y154.56 E5290.40755
G1 X130.54 Y154.32 E5290.42205
G1 X131.15 Y153.99 E5290.43346
G1 X131.29 Y153.91 E5290.43623
G1 X131.67 Y153.57 E5290.44473
G0 F12000 X131.60 Y153.10
;TYPE:WALL-OUTER
G1 F540 X131.84 Y152.79 E5290.45126
G1 X132.07 Y152.93 E5290.45569
G1 X132.07 Y153.93 E5290.47230
G1 X131.56 Y154.34 E5290.48324
G1 X130.89 Y154.73 E5290.49614
G1 X130.84 Y154.75 E5290.49690
G1 X130.16 Y154.98 E5290.50888
G1 X129.40 Y155.11 E5290.52175
G1 X129.36 Y155.11 E5290.52237
G1 X128.62 Y155.09 E5290.53471
G1 X128.60 Y155.09 E5290.53511
G1 X127.88 Y154.95 E5290.54725
G1 X127.16 Y154.67 E5290.56015
G1 X126.50 Y154.27 E5290.57297
G1 X125.92 Y153.77 E5290.58573
G1 X125.55 Y153.29 E5290.59579
G1 X126.32 Y152.84 E5290.61077
G1 X126.53 Y153.10 E5290.61632
G1 X127.08 Y153.59 E5290.62858
G1 X127.72 Y153.94 E5290.64074
G1 X128.28 Y154.11 E5290.65052
G1 X128.53 Y154.18 E5290.65477
G1 X129.09 Y154.20 E5290.66398
G1 X129.64 Y154.17 E5290.67316
G1 X130.39 Y153.95 E5290.68621
G1 X130.95 Y153.65 E5290.69680
G1 X131.05 Y153.59 E5290.69882
G1 X131.60 Y153.10 E5290.71094
G1 F1800 E5287.71094
G0 F12000 X131.67 Y147.95
;TYPE:WALL-INNER
G1 F1800 E5290.71094
G1 F540 X131.28 Y147.61 E5290.71952
G1 X130.55 Y147.20 E5290.73355
G1 X129.96 Y147.03 E5290.74372
G1 X129.66 Y146.95 E5290.74891
G1 X129.08 Y146.92 E5290.75847
G1 X128.47 Y146.95 E5290.76874
G1 X127.59 Y147.20 E5290.78391
G1 X126.85 Y147.61 E5290.79795
G1 X126.24 Y148.15 E5290.81151
G1 X126.22 Y148.17 E5290.81189
G1 X126.14 Y148.12 E5290.81343
G1 X126.20 Y148.05 E5290.81489
G1 X126.72 Y147.59 E5290.82651
G1 X127.32 Y147.22 E5290.83815
G1 X127.97 Y146.97 E5290.84976
G1 X128.65 Y146.83 E5290.86131
G1 X129.35 Y146.81 E5290.87293
G1 X130.04 Y146.92 E5290.88462
G1 X130.70 Y147.15 E5290.89614
G1 X131.31 Y147.49 E5290.90784
G1 X131.67 Y147.79 E5290.91558
G1 X131.67 Y147.95 E5290.91834
G0 F12000 X131.60 Y148.43
;TYPE:WALL-OUTER
G1 F540 X131.05 Y147.94 E5290.93049
G1 X130.39 Y147.57 E5290.94305
G1 X129.85 Y147.41 E5290.95239
G1 X129.60 Y147.35 E5290.95679
G1 X129.08 Y147.32 E5290.96535
G1 X128.53 Y147.35 E5290.97453
G1 X127.74 Y147.57 E5290.98815
G1 X127.08 Y147.94 E5291.00071
G1 X126.53 Y148.43 E5291.01296
G1 X126.32 Y148.69 E5291.01849
G1 X125.55 Y148.23 E5291.03347
G1 X125.91 Y147.78 E5291.04315
G1 X126.48 Y147.26 E5291.05595
G1 X127.14 Y146.86 E5291.06882
G1 X127.85 Y146.58 E5291.08153
G1 X128.61 Y146.43 E5291.09430
G1 X129.37 Y146.41 E5291.10707
G1 X130.14 Y146.53 E5291.11996
G1 X130.86 Y146.78 E5291.13262
G1 X131.53 Y147.16 E5291.14549
G1 X132.07 Y147.60 E5291.15701
G1 X132.07 Y148.60 E5291.17361
G1 X131.84 Y148.73 E5291.17805
G1 X131.60 Y148.43 E5291.18460
G0 F12000 X131.07 Y147.70
;LAYER:239
G0 X131.31 Y147.61 Z24.20
;TYPE:WALL-INNER
G1 F540 X130.60 Y147.21 E5291.19815
G1 X129.92 Y147.00 E5291.21002
G1 X129.74 Y146.95 E5291.21305
G1 X129.18 Y146.91 E5291.22241
G1 X128.99 Y146.91 E5291.22562
G1 X128.45 Y146.95 E5291.23461
G1 X128.37 Y146.96 E5291.23591
G1 X127.80 Y147.13 E5291.24580
G1 X127.55 Y147.21 E5291.25021
G1 X126.83 Y147.61 E5291.26397
G1 X126.21 Y148.15 E5291.27750
G1 X126.15 Y148.11 E5291.27878
G1 X126.19 Y148.05 E5291.27999
G1 X126.72 Y147.58 E5291.29174
G1 X127.31 Y147.22 E5291.30326
G1 X127.97 Y146.97 E5291.31498
G1 X128.64 Y146.83 E5291.32646
G1 X129.34 Y146.81 E5291.33810
G1 X130.04 Y146.93 E5291.34982
G1 X130.69 Y147.15 E5291.36129
G1 X131.31 Y147.49 E5291.37300
G1 X131.67 Y147.79 E5291.38073
G1 X131.67 Y147.94 E5291.38320
G1 X131.31 Y147.61 E5291.39122
G0 F12000 X131.07 Y147.94
;TYPE:WALL-OUTER
G1 F540 X130.44 Y147.58 E5291.40334
G1 X129.81 Y147.38 E5291.41433
G1 X129.68 Y147.35 E5291.41658
G1 X129.16 Y147.31 E5291.42512
G1 X129.00 Y147.31 E5291.42788
G1 X128.48 Y147.35 E5291.43651
G1 X128.45 Y147.35 E5291.43706
G1 X127.92 Y147.51 E5291.44628
G1 X127.70 Y147.57 E5291.44995
G1 X127.06 Y147.94 E5291.46230
G1 X126.50 Y148.43 E5291.47457
G1 X126.32 Y148.67 E5291.47971
G1 X125.55 Y148.22 E5291.49449
G1 X125.90 Y147.78 E5291.50400
G1 X126.48 Y147.26 E5291.51685
G1 X127.14 Y146.86 E5291.52962
G1 X127.85 Y146.58 E5291.54237
G1 X128.60 Y146.43 E5291.55516
G1 X129.37 Y146.41 E5291.56792
G1 X130.13 Y146.53 E5291.58080
G1 X130.86 Y146.78 E5291.59348
G1 X131.53 Y147.16 E5291.60634
G1 X132.07 Y147.60 E5291.61786
G1 X132.07 Y148.57 E5291.63402
G1 X131.84 Y148.70 E5291.63840
G1 X131.62 Y148.43 E5291.64430
G1 X131.07 Y147.94 E5291.65642
G1 F1800 E5288.65642
G0 F12000 X131.67 Y153.59
;TYPE:WALL-INNER
G1 F1800 E5291.65642
G1 F540 X131.67 Y153.74 E5291.65885
G1 X131.33 Y154.01 E5291.66616
G1 X130.69 Y154.38 E5291.67827
G1 X130.06 Y154.59 E5291.68944
G1 X129.34 Y154.71 E5291.70147
G1 X128.65 Y154.70 E5291.71303
G1 X127.96 Y154.56 E5291.72476
G1 X127.33 Y154.31 E5291.73596
G1 X126.73 Y153.95 E5291.74762
G1 X126.20 Y153.49 E5291.75928
G1 X126.15 Y153.41 E5291.76080
G1 X126.21 Y153.38 E5291.76204
G1 X126.83 Y153.91 E5291.77558
G1 X127.55 Y154.32 E5291.78937
G1 X128.37 Y154.57 E5291.80373
G1 X128.90 Y154.61 E5291.81243
G1 X129.09 Y154.61 E5291.81571
G1 X129.75 Y154.57 E5291.82661
G1 X130.58 Y154.32 E5291.84110
G1 X131.31 Y153.91 E5291.85493
G1 X131.67 Y153.59 E5291.86298
G0 F12000 X131.61 Y153.10
;TYPE:WALL-OUTER
G1 F540 X131.84 Y152.82 E5291.86891
G1 X132.07 Y152.95 E5291.87328
G1 X132.07 Y153.93 E5291.88947
G1 X131.55 Y154.35 E5291.90052
G1 X130.87 Y154.74 E5291.91360
G1 X130.16 Y154.98 E5291.92612
G1 X129.39 Y155.11 E5291.93904
G1 X129.36 Y155.11 E5291.93948
G1 X128.61 Y155.09 E5291.95200
G1 X128.60 Y155.09 E5291.95220
G1 X127.85 Y154.95 E5291.96487
G1 X127.15 Y154.67 E5291.97735
G1 X126.49 Y154.27 E5291.99022
G1 X125.92 Y153.76 E5292.00298
G1 X125.55 Y153.30 E5292.01279
G1 X126.32 Y152.85 E5292.02758
G1 X126.50 Y153.10 E5292.03272
G1 X127.06 Y153.59 E5292.04500
G1 X127.71 Y153.95 E5292.05736
G1 X128.45 Y154.18 E5292.07026
G1 X128.91 Y154.21 E5292.07801
G1 X129.08 Y154.21 E5292.08085
G1 X129.68 Y154.18 E5292.09073
G1 X130.42 Y153.95 E5292.10370
G1 X131.07 Y153.59 E5292.11606
G1 X131.61 Y153.10 E5292.12818
G0 F12000 X131.07 Y153.82
;LAYER:240
G0 X131.32 Y153.91 Z24.30
;TYPE:WALL-INNER
G1 F540 X131.66 Y153.61 E5292.13576
G1 X131.66 Y153.74 E5292.13789
G1 X131.32 Y154.02 E5292.14526
G1 X130.71 Y154.37 E5292.15698
G1 X130.04 Y154.60 E5292.16878
G1 X129.34 Y154.71 E5292.18053
G1 X128.66 Y154.70 E5292.19184
G1 X127.97 Y154.56 E5292.20353
G1 X127.32 Y154.31 E5292.21504
G1 X126.72 Y153.94 E5292.22677
G1 X126.20 Y153.48 E5292.23839
G1 X126.15 Y153.42 E5292.23962
G1 X126.22 Y153.38 E5292.24091
G1 X126.73 Y153.85 E5292.25247
G1 X126.81 Y153.91 E5292.25407
G1 X127.52 Y154.32 E5292.26768
G1 X128.19 Y154.53 E5292.27932
G1 X128.32 Y154.57 E5292.28173
G1 X128.93 Y154.62 E5292.29187
G1 X129.09 Y154.62 E5292.29453
G1 X129.81 Y154.57 E5292.30644
G1 X130.61 Y154.32 E5292.32049
G1 X131.32 Y153.91 E5292.33409
G0 F12000 X131.09 Y153.59
;TYPE:WALL-OUTER
G1 F540 X131.63 Y153.10 E5292.34625
G1 X131.84 Y152.84 E5292.35176
G1 X132.06 Y152.97 E5292.35607
G1 X132.06 Y153.93 E5292.37203
G1 X131.54 Y154.35 E5292.38317
G1 X130.87 Y154.73 E5292.39597
G1 X130.13 Y154.99 E5292.40902
G1 X129.37 Y155.11 E5292.42188
G1 X128.61 Y155.09 E5292.43446
G1 X127.86 Y154.95 E5292.44725
G1 X127.14 Y154.67 E5292.45998
G1 X126.48 Y154.27 E5292.47287
G1 X125.91 Y153.76 E5292.48563
G1 X125.55 Y153.31 E5292.49520
G1 X126.31 Y152.87 E5292.50989
G1 X126.50 Y153.10 E5292.51484
G1 X127.00 Y153.55 E5292.52607
G1 X127.04 Y153.59 E5292.52692
G1 X127.68 Y153.95 E5292.53919
G1 X128.30 Y154.15 E5292.55006
G1 X128.40 Y154.18 E5292.55173
G1 X128.95 Y154.22 E5292.56097
G1 X129.08 Y154.22 E5292.56312
G1 X129.73 Y154.18 E5292.57395
G1 X130.45 Y153.95 E5292.58651
G1 X131.09 Y153.59 E5292.59870
G1 F1800 E5289.59870
G0 F12000 X131.66 Y147.92
;TYPE:WALL-INNER
G1 F1800 E5292.59870
G1 F540 X131.32 Y147.61 E5292.60627
G1 X130.61 Y147.21 E5292.61988
G1 X129.81 Y146.96 E5292.63379
G1 X129.01 Y146.90 E5292.64717
G1 X128.32 Y146.95 E5292.65866
G1 X127.52 Y147.21 E5292.67264
G1 X126.98 Y147.51 E5292.68297
G1 X126.80 Y147.62 E5292.68647
G1 X126.34 Y148.03 E5292.69671
G1 X126.22 Y148.14 E5292.69947
G1 X126.15 Y148.10 E5292.70078
G1 X126.20 Y148.04 E5292.70203
G1 X126.72 Y147.58 E5292.71364
G1 X127.31 Y147.22 E5292.72508
G1 X127.96 Y146.97 E5292.73681
G1 X128.64 Y146.83 E5292.74827
G1 X129.34 Y146.81 E5292.75993
G1 X130.04 Y146.92 E5292.77163
G1 X130.69 Y147.15 E5292.78310
G1 X131.30 Y147.49 E5292.79476
G1 X131.66 Y147.79 E5292.80255
G1 X131.66 Y147.92 E5292.80468
G0 F12000 X131.63 Y148.43
;TYPE:WALL-OUTER
G1 F540 X131.09 Y147.94 E5292.81685
G1 X130.45 Y147.57 E5292.82904
G1 X129.73 Y147.35 E5292.84154
G1 X129.02 Y147.30 E5292.85347
G1 X128.40 Y147.35 E5292.86381
G1 X127.68 Y147.57 E5292.87633
G1 X127.18 Y147.86 E5292.88591
G1 X127.03 Y147.94 E5292.88868
G1 X126.50 Y148.43 E5292.90070
G1 X126.31 Y148.66 E5292.90564
G1 X125.55 Y148.22 E5292.92034
G1 X125.91 Y147.76 E5292.92989
G1 X126.48 Y147.26 E5292.94261
G1 X127.13 Y146.86 E5292.95531
G1 X127.85 Y146.58 E5292.96806
G1 X128.60 Y146.43 E5292.98083
G1 X129.37 Y146.41 E5292.99361
G1 X130.13 Y146.53 E5293.00647
G1 X130.85 Y146.78 E5293.01915
G1 X131.53 Y147.16 E5293.03202
G1 X132.06 Y147.60 E5293.04353
G1 X132.06 Y148.56 E5293.05948
G1 X131.84 Y148.69 E5293.06381
G1 X131.63 Y148.43 E5293.06931
;LAYER:241
G0 F12000 X131.66 Y147.90 Z24.40
;TYPE:WALL-INNER
G1 F540 X131.34 Y147.61 E5293.07640
G1 X130.63 Y147.21 E5293.08999
G1 X130.08 Y147.03 E5293.09961
G1 X129.85 Y146.96 E5293.10364
G1 X129.23 Y146.90 E5293.11394
G1 X129.06 Y146.89 E5293.11686
G1 X128.29 Y146.96 E5293.12972
G1 X127.64 Y147.16 E5293.14093
G1 X127.50 Y147.21 E5293.14353
G1 X126.79 Y147.62 E5293.15705
G1 X126.22 Y148.13 E5293.16985
G1 X126.15 Y148.09 E5293.17118
G1 X126.19 Y148.05 E5293.17210
G1 X126.71 Y147.59 E5293.18373
G1 X127.31 Y147.22 E5293.19532
G1 X127.96 Y146.97 E5293.20703
G1 X128.64 Y146.83 E5293.21849
G1 X129.34 Y146.81 E5293.23013
G1 X130.03 Y146.92 E5293.24182
G1 X130.69 Y147.15 E5293.25334
G1 X131.30 Y147.49 E5293.26496
G1 X131.66 Y147.79 E5293.27276
G1 X131.66 Y147.90 E5293.27459
G0 F12000 X132.06 Y147.60
;TYPE:WALL-OUTER
G1 F540 X132.06 Y148.54 E5293.29031
G1 X131.84 Y148.67 E5293.29460
G1 X131.65 Y148.43 E5293.29974
G1 X131.10 Y147.94 E5293.31186
G1 X130.47 Y147.57 E5293.32407
G1 X129.77 Y147.35 E5293.33628
G1 X129.21 Y147.30 E5293.34569
G1 X129.07 Y147.29 E5293.34800
G1 X128.37 Y147.35 E5293.35970
G1 X127.66 Y147.57 E5293.37204
G1 X127.03 Y147.94 E5293.38414
G1 X126.50 Y148.43 E5293.39613
G1 X126.31 Y148.65 E5293.40092
G1 X125.55 Y148.21 E5293.41552
G1 X125.90 Y147.77 E5293.42471
G1 X126.47 Y147.26 E5293.43755
G1 X127.13 Y146.86 E5293.45032
G1 X127.84 Y146.58 E5293.46307
G1 X128.60 Y146.43 E5293.47584
G1 X129.36 Y146.41 E5293.48860
G1 X130.13 Y146.53 E5293.50148
G1 X130.85 Y146.78 E5293.51415
G1 X131.52 Y147.16 E5293.52702
G1 X132.06 Y147.60 E5293.53853
G1 F1800 E5290.53853
G0 F12000 X131.66 Y153.63
;TYPE:WALL-INNER
G1 F1800 E5293.53853
G1 F540 X131.66 Y153.74 E5293.54036
G1 X131.30 Y154.03 E5293.54803
G1 X130.69 Y154.37 E5293.55972
G1 X130.04 Y154.60 E5293.57111
G1 X129.34 Y154.71 E5293.58291
G1 X128.65 Y154.70 E5293.59439
G1 X127.96 Y154.56 E5293.60605
G1 X127.31 Y154.31 E5293.61771
G1 X126.72 Y153.94 E5293.62924
G1 X126.19 Y153.48 E5293.64091
G1 X126.15 Y153.43 E5293.64191
G1 X126.22 Y153.39 E5293.64323
G1 X126.79 Y153.91 E5293.65603
G1 X127.38 Y154.25 E5293.66731
G1 X127.50 Y154.32 E5293.66952
G1 X128.28 Y154.57 E5293.68329
G1 X128.92 Y154.63 E5293.69391
G1 X129.09 Y154.63 E5293.69667
G1 X129.69 Y154.59 E5293.70679
G1 X129.85 Y154.57 E5293.70951
G1 X130.63 Y154.32 E5293.72309
G1 X131.34 Y153.91 E5293.73665
G1 X131.66 Y153.63 E5293.74376
G0 F12000 X132.06 Y153.40
;TYPE:WALL-OUTER
G1 F540 X132.06 Y153.93 E5293.75250
G1 X131.52 Y154.36 E5293.76397
G1 X130.85 Y154.74 E5293.77680
G1 X130.14 Y154.99 E5293.78936
G1 X129.37 Y155.11 E5293.80234
G1 X128.60 Y155.09 E5293.81501
G1 X127.85 Y154.95 E5293.82779
G1 X127.13 Y154.67 E5293.84057
G1 X126.48 Y154.27 E5293.85337
G1 X125.90 Y153.75 E5293.86626
G1 X125.55 Y153.32 E5293.87545
G1 X126.31 Y152.88 E5293.89006
G1 X126.50 Y153.10 E5293.89486
G1 X127.03 Y153.58 E5293.90684
G1 X127.66 Y153.95 E5293.91894
G1 X128.36 Y154.18 E5293.93125
G1 X128.94 Y154.23 E5293.94096
G1 X129.08 Y154.23 E5293.94313
G1 X129.65 Y154.19 E5293.95278
G1 X129.77 Y154.18 E5293.95472
G1 X130.47 Y153.95 E5293.96692
G1 X131.10 Y153.59 E5293.97911
G1 X131.65 Y153.10 E5293.99129
G1 X131.84 Y152.85 E5293.99640
G1 X132.06 Y152.98 E5294.00067
G1 X132.06 Y153.40 E5294.00766
;LAYER:242
G0 F12000 X131.66 Y153.63 Z24.50
;TYPE:WALL-INNER
G1 F540 X131.66 Y153.74 E5294.00940
G1 X131.29 Y154.03 E5294.01716
G1 X130.69 Y154.37 E5294.02865
G1 X130.03 Y154.60 E5294.04025
G1 X129.34 Y154.71 E5294.05197
G1 X128.64 Y154.70 E5294.06356
G1 X127.95 Y154.56 E5294.07522
G1 X127.38 Y154.34 E5294.08540
G1 X127.26 Y154.28 E5294.08757
G1 X126.65 Y153.89 E5294.09970
G1 X126.16 Y153.44 E5294.11088
G1 X126.22 Y153.40 E5294.11217
G1 X126.79 Y153.91 E5294.12489
G1 X127.49 Y154.32 E5294.13837
G1 X128.26 Y154.57 E5294.15186
G1 X128.85 Y154.63 E5294.16170
G1 X129.09 Y154.65 E5294.16570
G1 X129.87 Y154.57 E5294.17871
G1 X130.49 Y154.37 E5294.18958
G1 X130.64 Y154.32 E5294.19225
G1 X131.35 Y153.91 E5294.20577
G1 X131.66 Y153.63 E5294.21268
G0 F12000 X132.05 Y153.93
;TYPE:WALL-OUTER
G1 F540 X131.52 Y154.36 E5294.22413
G1 X130.85 Y154.74 E5294.23683
G1 X130.13 Y154.99 E5294.24958
G1 X129.36 Y155.11 E5294.26248
G1 X128.59 Y155.09 E5294.27529
G1 X127.84 Y154.95 E5294.28802
G1 X127.22 Y154.71 E5294.29910
G1 X127.07 Y154.64 E5294.30183
G1 X126.64 Y154.38 E5294.31021
G1 X126.39 Y154.20 E5294.31528
G1 X125.81 Y153.66 E5294.32851
G1 X125.55 Y153.32 E5294.33557
G1 X126.31 Y152.88 E5294.35018
G1 X126.49 Y153.10 E5294.35485
G1 X127.03 Y153.58 E5294.36686
G1 X127.66 Y153.95 E5294.37894
G1 X128.35 Y154.18 E5294.39103
G1 X128.88 Y154.23 E5294.40003
G1 X129.08 Y154.25 E5294.40335
G1 X129.79 Y154.18 E5294.41510
G1 X130.37 Y153.98 E5294.42530
G1 X130.48 Y153.95 E5294.42723
G1 X131.11 Y153.59 E5294.43933
G1 X131.64 Y153.10 E5294.45132
G1 X131.83 Y152.87 E5294.45630
G1 X132.05 Y152.99 E5294.46057
G1 X132.05 Y153.93 E5294.47608
G1 F1800 E5291.47608
G0 F12000 X131.65 Y147.89
;TYPE:WALL-INNER
G1 F1800 E5294.47608
G1 F540 X131.35 Y147.62 E5294.48294
G1 X130.65 Y147.21 E5294.49647
G1 X129.87 Y146.96 E5294.51000
G1 X129.23 Y146.89 E5294.52077
G1 X129.03 Y146.88 E5294.52411
G1 X128.26 Y146.96 E5294.53685
G1 X127.49 Y147.21 E5294.55037
G1 X126.79 Y147.62 E5294.56387
G1 X126.22 Y148.13 E5294.57655
G1 X126.16 Y148.09 E5294.57783
G1 X126.63 Y147.64 E5294.58867
G1 X127.27 Y147.24 E5294.60129
G1 X127.38 Y147.19 E5294.60319
G1 X127.95 Y146.97 E5294.61343
G1 X128.64 Y146.83 E5294.62510
G1 X129.33 Y146.81 E5294.63667
G1 X130.03 Y146.92 E5294.64838
G1 X130.68 Y147.15 E5294.65985
G1 X131.29 Y147.49 E5294.67149
G1 X131.65 Y147.79 E5294.67928
G1 X131.65 Y147.89 E5294.68102
G0 F12000 X132.06 Y147.60
;TYPE:WALL-OUTER
G1 F540 X132.06 Y148.53 E5294.69652
G1 X131.83 Y148.66 E5294.70085
G1 X131.65 Y148.43 E5294.70578
G1 X131.11 Y147.94 E5294.71780
G1 X130.48 Y147.57 E5294.72992
G1 X129.79 Y147.35 E5294.74203
G1 X129.20 Y147.29 E5294.75193
G1 X129.04 Y147.28 E5294.75460
G1 X128.35 Y147.35 E5294.76611
G1 X127.66 Y147.57 E5294.77821
G1 X127.03 Y147.94 E5294.79032
G1 X126.49 Y148.43 E5294.80231
G1 X126.31 Y148.64 E5294.80697
G1 X125.55 Y148.20 E5294.82168
G1 X125.81 Y147.86 E5294.82881
G1 X126.38 Y147.33 E5294.84180
G1 X127.08 Y146.89 E5294.85549
G1 X127.22 Y146.82 E5294.85814
G1 X127.84 Y146.58 E5294.86921
G1 X128.59 Y146.43 E5294.88194
G1 X129.36 Y146.41 E5294.89470
G1 X130.12 Y146.53 E5294.90756
G1 X130.84 Y146.78 E5294.92024
G1 X131.52 Y147.16 E5294.93308
G1 X132.06 Y147.60 E5294.94461
;LAYER:243
G0 F12000 X131.65 Y147.79 Z24.60
;TYPE:WALL-INNER
G1 F540 X131.65 Y147.89 E5294.94635
G1 X131.34 Y147.62 E5294.95322
G1 X130.64 Y147.21 E5294.96672
G1 X129.87 Y146.96 E5294.98020
G1 X129.22 Y146.89 E5294.99111
G1 X129.03 Y146.88 E5294.99421
G1 X128.39 Y146.94 E5295.00499
G1 X128.23 Y146.96 E5295.00759
G1 X127.49 Y147.21 E5295.02066
G1 X126.78 Y147.62 E5295.03415
G1 X126.22 Y148.12 E5295.04677
G1 X126.16 Y148.09 E5295.04789
G1 X126.50 Y147.75 E5295.05582
G1 X127.09 Y147.34 E5295.06783
G1 X127.71 Y147.05 E5295.07914
G1 X128.33 Y146.88 E5295.08993
G1 X128.38 Y146.87 E5295.09070
G1 X128.89 Y146.82 E5295.09925
G1 X129.08 Y146.81 E5295.10238
G1 X129.51 Y146.84 E5295.10957
G1 X129.57 Y146.84 E5295.11056
G1 X130.01 Y146.92 E5295.11807
G1 X130.68 Y147.15 E5295.12985
G1 X131.29 Y147.49 E5295.14139
G1 X131.65 Y147.79 E5295.14918
G0 F12000 X132.05 Y147.60
;TYPE:WALL-OUTER
G1 F540 X132.05 Y148.52 E5295.16448
G1 X131.82 Y148.65 E5295.16886
G1 X131.64 Y148.43 E5295.17364
G1 X131.11 Y147.94 E5295.18564
G1 X130.48 Y147.57 E5295.19774
G1 X129.79 Y147.35 E5295.20982
G1 X129.19 Y147.29 E5295.21987
G1 X129.04 Y147.28 E5295.22227
G1 X128.44 Y147.34 E5295.23238
G1 X128.32 Y147.35 E5295.23428
G1 X127.65 Y147.57 E5295.24606
G1 X127.02 Y147.94 E5295.25816
G1 X126.48 Y148.43 E5295.27019
G1 X126.32 Y148.64 E5295.27472
G1 X125.55 Y148.20 E5295.28939
G1 X125.71 Y147.99 E5295.29378
G1 X126.24 Y147.45 E5295.30642
G1 X126.89 Y146.99 E5295.31961
G1 X127.53 Y146.69 E5295.33147
G1 X127.58 Y146.67 E5295.33223
G1 X128.23 Y146.49 E5295.34344
G1 X128.31 Y146.47 E5295.34488
G1 X128.86 Y146.42 E5295.35408
G1 X129.08 Y146.41 E5295.35777
G1 X129.53 Y146.44 E5295.36514
G1 X129.60 Y146.44 E5295.36639
G1 X130.12 Y146.53 E5295.37511
G1 X130.84 Y146.78 E5295.38785
G1 X131.51 Y147.16 E5295.40069
G1 X132.05 Y147.60 E5295.41220
G1 F1800 E5292.41220
G0 F12000 X131.65 Y153.63
;TYPE:WALL-INNER
G1 F1800 E5295.41220
G1 F540 X131.65 Y153.74 E5295.41394
G1 X131.29 Y154.03 E5295.42167
G1 X130.68 Y154.37 E5295.43332
G1 X130.02 Y154.60 E5295.44498
G1 X129.57 Y154.68 E5295.45250
G1 X129.51 Y154.68 E5295.45344
G1 X129.07 Y154.72 E5295.46094
G1 X128.38 Y154.66 E5295.47240
G1 X127.71 Y154.48 E5295.48390
G1 X127.09 Y154.19 E5295.49538
G1 X126.52 Y153.79 E5295.50689
G1 X126.16 Y153.43 E5295.51528
G1 X126.22 Y153.40 E5295.51640
G1 X126.79 Y153.91 E5295.52907
G1 X127.49 Y154.32 E5295.54254
G1 X128.26 Y154.57 E5295.55603
G1 X128.88 Y154.63 E5295.56637
G1 X129.10 Y154.65 E5295.57013
G1 X129.87 Y154.57 E5295.58297
G1 X130.64 Y154.32 E5295.59648
G1 X131.34 Y153.91 E5295.60997
G1 X131.65 Y153.63 E5295.61686
G0 F12000 X132.05 Y153.83
;TYPE:WALL-OUTER
G1 F540 X132.05 Y153.93 E5295.61841
G1 X131.52 Y154.36 E5295.62984
G1 X130.84 Y154.74 E5295.64272
G1 X130.12 Y154.99 E5295.65547
G1 X129.60 Y155.08 E5295.66420
G1 X129.53 Y155.08 E5295.66542
G1 X129.09 Y155.12 E5295.67266
G1 X129.04 Y155.12 E5295.67348
G1 X128.31 Y155.06 E5295.68575
G1 X127.57 Y154.86 E5295.69842
G1 X126.89 Y154.54 E5295.71103
G1 X126.26 Y154.10 E5295.72378
G1 X125.75 Y153.59 E5295.73573
G1 X125.56 Y153.32 E5295.74122
G1 X126.17 Y152.97 E5295.75294
G1 X126.32 Y152.88 E5295.75583
G1 X126.48 Y153.10 E5295.76037
G1 X127.02 Y153.59 E5295.77244
G1 X127.65 Y153.95 E5295.78451
G1 X128.34 Y154.18 E5295.79660
G1 X128.91 Y154.23 E5295.80610
G1 X129.09 Y154.25 E5295.80918
G1 X129.79 Y154.18 E5295.82073
G1 X130.48 Y153.95 E5295.83284
G1 X131.11 Y153.58 E5295.84493
G1 X131.64 Y153.10 E5295.85693
G1 X131.82 Y152.88 E5295.86170
G1 X132.05 Y153.01 E5295.86606
G1 X132.05 Y153.83 E5295.87980
;LAYER:244
G0 F12000 X131.65 Y153.74 Z24.70
;TYPE:WALL-INNER
G1 F540 X131.36 Y153.98 E5295.88602
G1 X131.19 Y154.09 E5295.88939
G1 X130.71 Y154.35 E5295.89851
G1 X130.42 Y154.48 E5295.90378
G1 X129.85 Y154.63 E5295.91353
G1 X129.74 Y154.66 E5295.91551
G1 X129.23 Y154.70 E5295.92401
G1 X129.03 Y154.71 E5295.92734
G1 X128.42 Y154.66 E5295.93746
G1 X127.72 Y154.48 E5295.94953
G1 X127.09 Y154.19 E5295.96098
G1 X126.53 Y153.80 E5295.97232
G1 X126.17 Y153.43 E5295.98087
G1 X126.22 Y153.40 E5295.98181
G1 X126.77 Y153.90 E5295.99413
G1 X127.37 Y154.24 E5296.00557
G1 X127.50 Y154.32 E5296.00802
G1 X128.28 Y154.57 E5296.02166
G1 X128.85 Y154.63 E5296.03135
G1 X129.10 Y154.64 E5296.03546
G1 X129.85 Y154.57 E5296.04798
G1 X130.64 Y154.32 E5296.06169
G1 X131.34 Y153.91 E5296.07521
G1 X131.65 Y153.63 E5296.08208
G1 X131.65 Y153.74 E5296.08385
G0 F12000 X132.05 Y153.93
;TYPE:WALL-OUTER
G1 F540 X131.59 Y154.30 E5296.09360
G1 X131.41 Y154.43 E5296.09742
G1 X130.87 Y154.72 E5296.10747
G1 X130.55 Y154.86 E5296.11334
G1 X129.95 Y155.01 E5296.12359
G1 X129.80 Y155.06 E5296.12619
G1 X129.25 Y155.10 E5296.13542
G1 X129.02 Y155.11 E5296.13928
G1 X128.35 Y155.06 E5296.15036
G1 X127.58 Y154.86 E5296.16366
G1 X126.90 Y154.54 E5296.17616
G1 X126.27 Y154.10 E5296.18889
G1 X125.73 Y153.56 E5296.20159
G1 X125.56 Y153.32 E5296.20644
G1 X126.32 Y152.88 E5296.22109
G1 X126.50 Y153.12 E5296.22602
G1 X127.01 Y153.57 E5296.23733
G1 X127.66 Y153.95 E5296.24982
G1 X128.36 Y154.18 E5296.26205
G1 X128.88 Y154.23 E5296.27084
G1 X129.09 Y154.24 E5296.27432
G1 X129.77 Y154.18 E5296.28564
G1 X130.47 Y153.95 E5296.29790
G1 X131.10 Y153.58 E5296.31001
G1 X131.64 Y153.10 E5296.32200
G1 X131.81 Y152.88 E5296.32663
G1 X132.05 Y153.02 E5296.33107
G1 X132.05 Y153.93 E5296.34619
G1 F1800 E5293.34619
G0 F12000 X131.65 Y147.89
;TYPE:WALL-INNER
G1 F1800 E5296.34619
G1 F540 X131.34 Y147.62 E5296.35308
G1 X130.64 Y147.21 E5296.36658
G1 X129.99 Y147.00 E5296.37796
G1 X129.85 Y146.96 E5296.38031
G1 X129.25 Y146.90 E5296.39039
G1 X129.05 Y146.89 E5296.39376
G1 X128.28 Y146.96 E5296.40654
G1 X127.50 Y147.21 E5296.42023
G1 X126.88 Y147.56 E5296.43214
G1 X126.78 Y147.62 E5296.43390
G1 X126.22 Y148.12 E5296.44650
G1 X126.17 Y148.09 E5296.44748
G1 X126.53 Y147.73 E5296.45599
G1 X126.98 Y147.42 E5296.46509
G1 X127.10 Y147.34 E5296.46745
G1 X127.72 Y147.05 E5296.47890
G1 X128.39 Y146.87 E5296.49040
G1 X129.08 Y146.82 E5296.50196
G1 X129.74 Y146.87 E5296.51288
G1 X130.38 Y147.04 E5296.52403
G1 X130.41 Y147.05 E5296.52453
G1 X130.87 Y147.25 E5296.53277
G1 X131.37 Y147.56 E5296.54258
G1 X131.65 Y147.78 E5296.54857
G1 X131.65 Y147.89 E5296.55038
G0 F12000 X132.05 Y147.60
;TYPE:WALL-OUTER
G1 F540 X132.05 Y148.51 E5296.56553
G1 X131.81 Y148.64 E5296.56999
G1 X131.64 Y148.43 E5296.57464
G1 X131.10 Y147.94 E5296.58662
G1 X130.47 Y147.57 E5296.59872
G1 X129.87 Y147.38 E5296.60934
G1 X129.77 Y147.35 E5296.61098
G1 X129.22 Y147.29 E5296.62019
G1 X129.06 Y147.29 E5296.62295
G1 X128.36 Y147.35 E5296.63455
G1 X127.66 Y147.57 E5296.64679
G1 X127.08 Y147.91 E5296.65798
G1 X127.02 Y147.94 E5296.65903
G1 X126.48 Y148.43 E5296.67113
G1 X126.32 Y148.64 E5296.67555
G1 X125.56 Y148.20 E5296.69015
G1 X125.73 Y147.97 E5296.69502
G1 X126.17 Y147.52 E5296.70540
G1 X126.27 Y147.42 E5296.70779
G1 X126.89 Y146.99 E5296.72039
G1 X127.58 Y146.67 E5296.73299
G1 X128.32 Y146.47 E5296.74567
G1 X128.84 Y146.43 E5296.75436
G1 X129.10 Y146.42 E5296.75864
G1 X129.80 Y146.47 E5296.77043
G1 X130.49 Y146.65 E5296.78223
G1 X130.55 Y146.67 E5296.78326
G1 X131.05 Y146.90 E5296.79245
G1 X131.60 Y147.23 E5296.80318
G1 X132.05 Y147.60 E5296.81273
;LAYER:245
G0 F12000 X131.64 Y147.78 Z24.80
;TYPE:WALL-INNER
G1 F540 X131.64 Y147.90 E5296.81471
G1 X131.34 Y147.62 E5296.82164
G1 X130.73 Y147.27 E5296.83317
G1 X130.62 Y147.21 E5296.83539
G1 X129.83 Y146.96 E5296.84911
G1 X129.19 Y146.90 E5296.85981
G1 X128.98 Y146.90 E5296.86322
G1 X128.31 Y146.95 E5296.87441
G1 X127.52 Y147.21 E5296.88831
G1 X126.80 Y147.61 E5296.90195
G1 X126.36 Y148.01 E5296.91193
G1 X126.23 Y148.12 E5296.91473
G1 X126.18 Y148.09 E5296.91574
G1 X126.54 Y147.73 E5296.92421
G1 X127.11 Y147.34 E5296.93574
G1 X127.73 Y147.04 E5296.94724
G1 X128.28 Y146.90 E5296.95663
G1 X128.41 Y146.87 E5296.95890
G1 X129.06 Y146.82 E5296.96974
G1 X129.72 Y146.87 E5296.98071
G1 X130.39 Y147.05 E5296.99229
G1 X130.91 Y147.29 E5297.00186
G1 X131.02 Y147.34 E5297.00386
G1 X131.59 Y147.72 E5297.01518
G1 X131.64 Y147.78 E5297.01649
G0 F12000 X131.84 Y147.41
;TYPE:WALL-OUTER
G1 F540 X132.04 Y147.60 E5297.02113
G1 X132.04 Y148.50 E5297.03614
G1 X131.80 Y148.64 E5297.04072
G1 X131.63 Y148.43 E5297.04525
G1 X131.10 Y147.94 E5297.05727
G1 X130.54 Y147.62 E5297.06804
G1 X130.46 Y147.57 E5297.06953
G1 X129.75 Y147.35 E5297.08184
G1 X129.17 Y147.30 E5297.09155
G1 X129.00 Y147.30 E5297.09441
G1 X128.39 Y147.35 E5297.10456
G1 X127.68 Y147.57 E5297.11699
G1 X127.04 Y147.94 E5297.12922
G1 X126.49 Y148.43 E5297.14137
G1 X126.33 Y148.64 E5297.14587
G1 X125.77 Y148.32 E5297.15651
G1 X125.56 Y148.20 E5297.16050
G1 X125.75 Y147.96 E5297.16554
G1 X126.28 Y147.43 E5297.17808
G1 X126.91 Y146.99 E5297.19082
G1 X127.59 Y146.67 E5297.20345
G1 X128.34 Y146.47 E5297.21632
G1 X128.88 Y146.43 E5297.22526
G1 X129.07 Y146.42 E5297.22837
G1 X129.78 Y146.47 E5297.24036
G1 X130.52 Y146.67 E5297.25306
G1 X131.22 Y146.99 E5297.26591
G1 X131.84 Y147.41 E5297.27827
G1 F1800 E5294.27827
G0 F12000 X131.64 Y153.63
;TYPE:WALL-INNER
G1 F1800 E5297.27827
G1 F540 X131.64 Y153.75 E5297.28028
G1 X131.03 Y154.19 E5297.29279
G1 X130.38 Y154.48 E5297.30457
G1 X129.77 Y154.65 E5297.31518
G1 X129.25 Y154.69 E5297.32380
G1 X129.08 Y154.70 E5297.32658
G1 X128.49 Y154.66 E5297.33652
G1 X128.41 Y154.66 E5297.33778
G1 X127.73 Y154.48 E5297.34945
G1 X127.10 Y154.19 E5297.36101
G1 X126.54 Y153.79 E5297.37244
G1 X126.18 Y153.43 E5297.38095
G1 X126.23 Y153.40 E5297.38196
G1 X126.80 Y153.91 E5297.39473
G1 X127.51 Y154.32 E5297.40832
G1 X128.16 Y154.53 E5297.41967
G1 X128.31 Y154.57 E5297.42230
G1 X128.92 Y154.62 E5297.43234
G1 X129.12 Y154.62 E5297.43579
G1 X129.82 Y154.57 E5297.44743
G1 X130.62 Y154.32 E5297.46134
G1 X131.33 Y153.91 E5297.47500
G1 X131.64 Y153.63 E5297.48193
G0 F12000 X132.04 Y153.93
;TYPE:WALL-OUTER
G1 F540 X131.88 Y154.08 E5297.48572
G1 X131.22 Y154.53 E5297.49892
G1 X130.53 Y154.86 E5297.51175
G1 X129.84 Y155.04 E5297.52360
G1 X129.28 Y155.09 E5297.53280
G1 X129.08 Y155.10 E5297.53626
G1 X128.44 Y155.06 E5297.54679
G1 X128.35 Y155.06 E5297.54841
G1 X127.83 Y154.92 E5297.55734
G1 X127.59 Y154.86 E5297.56141
G1 X126.91 Y154.54 E5297.57396
G1 X126.28 Y154.10 E5297.58675
G1 X125.75 Y153.56 E5297.59928
G1 X125.56 Y153.32 E5297.60429
G1 X126.33 Y152.88 E5297.61895
G1 X126.49 Y153.10 E5297.62345
G1 X127.04 Y153.59 E5297.63561
G1 X127.68 Y153.95 E5297.64781
G1 X128.28 Y154.14 E5297.65841
G1 X128.39 Y154.18 E5297.66027
G1 X128.94 Y154.22 E5297.66942
G1 X129.11 Y154.22 E5297.67231
G1 X129.75 Y154.18 E5297.68287
G1 X130.46 Y153.95 E5297.69531
G1 X131.10 Y153.59 E5297.70754
G1 X131.63 Y153.10 E5297.71959
G1 X131.80 Y152.89 E5297.72411
G1 X132.04 Y153.02 E5297.72868
G1 X132.04 Y153.93 E5297.74370
;LAYER:246
G0 F12000 X131.64 Y153.74 Z24.90
;TYPE:WALL-INNER
G1 F540 X131.59 Y153.79 E5297.74485
G1 X131.00 Y154.19 E5297.75662
G1 X130.38 Y154.48 E5297.76812
G1 X129.68 Y154.66 E5297.78003
G1 X129.18 Y154.69 E5297.78840
G1 X129.03 Y154.69 E5297.79098
G1 X128.45 Y154.66 E5297.80059
G1 X127.75 Y154.48 E5297.81264
G1 X127.11 Y154.19 E5297.82421
G1 X126.55 Y153.79 E5297.83575
G1 X126.19 Y153.43 E5297.84422
G1 X126.24 Y153.40 E5297.84533
G1 X126.82 Y153.91 E5297.85819
G1 X127.53 Y154.32 E5297.87186
G1 X128.25 Y154.54 E5297.88426
G1 X128.37 Y154.57 E5297.88635
G1 X128.95 Y154.61 E5297.89611
G1 X129.06 Y154.62 E5297.89795
G1 X129.65 Y154.58 E5297.90770
G1 X129.78 Y154.57 E5297.90984
G1 X130.59 Y154.32 E5297.92393
G1 X131.31 Y153.91 E5297.93773
G1 X131.64 Y153.63 E5297.94495
G1 X131.64 Y153.74 E5297.94685
G0 F12000 X131.84 Y154.10
;TYPE:WALL-OUTER
G1 F540 X131.20 Y154.54 E5297.95977
G1 X130.51 Y154.86 E5297.97240
G1 X129.75 Y155.05 E5297.98553
G1 X129.20 Y155.09 E5297.99472
G1 X129.03 Y155.09 E5297.99754
G1 X128.51 Y155.06 E5298.00612
G1 X128.39 Y155.06 E5298.00817
G1 X127.61 Y154.86 E5298.02147
G1 X126.91 Y154.53 E5298.03429
G1 X126.29 Y154.10 E5298.04699
G1 X125.75 Y153.56 E5298.05955
G1 X125.57 Y153.32 E5298.06458
G1 X126.34 Y152.88 E5298.07928
G1 X126.51 Y153.10 E5298.08391
G1 X127.06 Y153.59 E5298.09604
G1 X127.69 Y153.95 E5298.10826
G1 X128.36 Y154.15 E5298.11986
G1 X128.44 Y154.18 E5298.12121
G1 X128.97 Y154.21 E5298.13008
G1 X129.06 Y154.22 E5298.13149
G1 X129.62 Y154.18 E5298.14084
G1 X129.70 Y154.18 E5298.14218
G1 X130.43 Y153.95 E5298.15493
G1 X131.08 Y153.59 E5298.16730
G1 X131.53 Y153.19 E5298.17726
G1 X131.65 Y153.08 E5298.17996
G1 X131.79 Y152.89 E5298.18398
G1 X132.04 Y153.03 E5298.18867
G1 X132.04 Y153.92 E5298.20347
G1 X131.84 Y154.10 E5298.20793
G1 F1800 E5295.20793
G0 F12000 X131.64 Y147.90
;TYPE:WALL-INNER
G1 F1800 E5298.20793
G1 F540 X131.31 Y147.61 E5298.21515
G1 X130.59 Y147.21 E5298.22896
G1 X129.98 Y147.02 E5298.23953
G1 X129.76 Y146.95 E5298.24334
G1 X129.23 Y146.91 E5298.25226
G1 X129.04 Y146.91 E5298.25541
G1 X128.37 Y146.95 E5298.26659
G1 X127.68 Y147.16 E5298.27852
G1 X127.53 Y147.21 E5298.28112
G1 X126.82 Y147.61 E5298.29474
G1 X126.24 Y148.13 E5298.30761
G1 X126.19 Y148.09 E5298.30872
G1 X126.55 Y147.73 E5298.31721
G1 X127.11 Y147.34 E5298.32873
G1 X127.71 Y147.06 E5298.33970
G1 X128.32 Y146.90 E5298.35015
G1 X128.44 Y146.87 E5298.35221
G1 X128.91 Y146.84 E5298.36011
G1 X129.07 Y146.83 E5298.36269
G1 X129.68 Y146.87 E5298.37293
G1 X130.17 Y146.99 E5298.38125
G1 X130.38 Y147.05 E5298.38479
G1 X131.01 Y147.34 E5298.39639
G1 X131.45 Y147.64 E5298.40535
G1 X131.64 Y147.78 E5298.40923
G1 X131.64 Y147.90 E5298.41117
G0 F12000 X132.04 Y147.61
;TYPE:WALL-OUTER
G1 F540 X132.04 Y148.50 E5298.42596
G1 X131.79 Y148.64 E5298.43068
G1 X131.62 Y148.41 E5298.43540
G1 X131.08 Y147.94 E5298.44732
G1 X130.43 Y147.57 E5298.45970
G1 X129.87 Y147.40 E5298.46950
G1 X129.69 Y147.35 E5298.47255
G1 X129.21 Y147.31 E5298.48060
G1 X129.05 Y147.31 E5298.48328
G1 X128.44 Y147.35 E5298.49343
G1 X127.80 Y147.54 E5298.50453
G1 X127.69 Y147.57 E5298.50638
G1 X127.06 Y147.94 E5298.51860
G1 X126.51 Y148.43 E5298.53073
G1 X126.34 Y148.64 E5298.53535
G1 X125.58 Y148.21 E5298.54996
G1 X125.75 Y147.96 E5298.55500
G1 X126.29 Y147.43 E5298.56756
G1 X126.91 Y146.99 E5298.58025
G1 X127.55 Y146.70 E5298.59193
G1 X127.61 Y146.67 E5298.59306
G1 X128.22 Y146.51 E5298.60349
G1 X128.38 Y146.47 E5298.60618
G1 X128.90 Y146.44 E5298.61484
G1 X129.07 Y146.43 E5298.61775
G1 X129.75 Y146.47 E5298.62903
G1 X130.27 Y146.60 E5298.63793
G1 X130.51 Y146.67 E5298.64204
G1 X131.21 Y146.99 E5298.65490
G1 X131.68 Y147.31 E5298.66442
G1 X131.90 Y147.48 E5298.66895
G1 X132.04 Y147.61 E5298.67215
;LAYER:247
G0 F12000 X131.63 Y147.79 Z25.00
;TYPE:WALL-INNER
G1 F540 X131.63 Y147.92 E5298.67418
G1 X131.29 Y147.61 E5298.68190
G1 X130.56 Y147.20 E5298.69572
G1 X129.92 Y147.01 E5298.70685
G1 X129.68 Y146.95 E5298.71105
G1 X129.05 Y146.92 E5298.72151
G1 X128.44 Y146.95 E5298.73155
G1 X127.58 Y147.20 E5298.74656
G1 X126.84 Y147.61 E5298.76057
G1 X126.26 Y148.13 E5298.77358
G1 X126.19 Y148.10 E5298.77480
G1 X126.56 Y147.73 E5298.78336
G1 X127.04 Y147.40 E5298.79316
G1 X127.12 Y147.34 E5298.79484
G1 X127.60 Y147.12 E5298.80353
G1 X127.77 Y147.05 E5298.80658
G1 X128.29 Y146.92 E5298.81556
G1 X128.49 Y146.87 E5298.81894
G1 X129.08 Y146.84 E5298.82878
G1 X129.62 Y146.87 E5298.83775
G1 X130.35 Y147.05 E5298.85036
G1 X130.99 Y147.34 E5298.86203
G1 X131.58 Y147.74 E5298.87386
G1 X131.63 Y147.79 E5298.87511
G0 F12000 X131.83 Y147.43
;TYPE:WALL-OUTER
G1 F540 X132.03 Y147.62 E5298.87971
G1 X132.03 Y148.50 E5298.89430
G1 X131.78 Y148.64 E5298.89915
G1 X131.60 Y148.42 E5298.90381
G1 X131.05 Y147.94 E5298.91598
G1 X130.41 Y147.57 E5298.92835
G1 X129.81 Y147.40 E5298.93860
G1 X129.62 Y147.35 E5298.94202
G1 X129.05 Y147.32 E5298.95146
G1 X128.51 Y147.35 E5298.96040
G1 X127.73 Y147.57 E5298.97388
G1 X127.07 Y147.94 E5298.98640
G1 X126.53 Y148.42 E5298.99851
G1 X126.35 Y148.64 E5299.00326
G1 X125.58 Y148.20 E5299.01803
G1 X125.76 Y147.96 E5299.02312
G1 X126.30 Y147.43 E5299.03572
G1 X126.81 Y147.06 E5299.04620
G1 X126.93 Y146.99 E5299.04847
G1 X127.64 Y146.67 E5299.06139
G1 X128.19 Y146.53 E5299.07086
G1 X128.43 Y146.47 E5299.07504
G1 X128.93 Y146.44 E5299.08337
G1 X129.08 Y146.44 E5299.08575
G1 X129.66 Y146.47 E5299.09554
G1 X129.69 Y146.47 E5299.09589
G1 X130.49 Y146.67 E5299.10964
G1 X131.19 Y146.99 E5299.12242
G1 X131.83 Y147.43 E5299.13541
G1 F1800 E5296.13541
G0 F12000 X131.63 Y153.61
;TYPE:WALL-INNER
G1 F1800 E5299.13541
G1 F540 X131.63 Y153.73 E5299.13742
G1 X131.57 Y153.79 E5299.13887
G1 X131.00 Y154.19 E5299.15050
G1 X130.44 Y154.44 E5299.16062
G1 X130.36 Y154.48 E5299.16212
G1 X129.84 Y154.61 E5299.17102
G1 X129.63 Y154.66 E5299.17456
G1 X129.01 Y154.68 E5299.18486
G1 X128.49 Y154.66 E5299.19357
G1 X127.77 Y154.48 E5299.20592
G1 X127.12 Y154.19 E5299.21772
G1 X126.56 Y153.79 E5299.22913
G1 X126.19 Y153.43 E5299.23773
G1 X126.26 Y153.39 E5299.23892
G1 X126.84 Y153.91 E5299.25192
G1 X127.57 Y154.32 E5299.26589
G1 X128.20 Y154.51 E5299.27676
G1 X128.45 Y154.57 E5299.28103
G1 X129.05 Y154.60 E5299.29099
G1 X129.68 Y154.57 E5299.30154
G1 X130.32 Y154.39 E5299.31263
G1 X130.56 Y154.32 E5299.31682
G1 X131.29 Y153.91 E5299.33060
G1 X131.63 Y153.61 E5299.33832
G0 F12000 X132.03 Y153.91
;TYPE:WALL-OUTER
G1 F540 X131.82 Y154.10 E5299.34303
G1 X131.19 Y154.53 E5299.35578
G1 X130.60 Y154.81 E5299.36662
G1 X130.49 Y154.86 E5299.36866
G1 X129.94 Y154.99 E5299.37808
G1 X129.69 Y155.05 E5299.38237
G1 X129.15 Y155.08 E5299.39131
G1 X129.01 Y155.08 E5299.39362
G1 X128.43 Y155.05 E5299.40331
G1 X127.96 Y154.94 E5299.41144
G1 X127.64 Y154.85 E5299.41695
G1 X126.93 Y154.54 E5299.42990
G1 X126.30 Y154.10 E5299.44255
G1 X125.76 Y153.56 E5299.45528
G1 X125.58 Y153.32 E5299.46029
G1 X126.35 Y152.88 E5299.47505
G1 X126.53 Y153.10 E5299.47984
G1 X127.07 Y153.59 E5299.49194
G1 X127.73 Y153.95 E5299.50444
G1 X128.31 Y154.12 E5299.51449
G1 X128.51 Y154.18 E5299.51798
G1 X129.05 Y154.20 E5299.52690
G1 X129.62 Y154.18 E5299.53636
G1 X130.21 Y154.01 E5299.54662
G1 X130.41 Y153.95 E5299.55001
G1 X131.05 Y153.59 E5299.56237
G1 X131.61 Y153.10 E5299.57463
G1 X131.78 Y152.88 E5299.57919
G1 X132.03 Y153.03 E5299.58411
G1 X132.03 Y153.91 E5299.59871
;LAYER:248
G0 F12000 X131.63 Y153.72 Z25.10
;TYPE:WALL-INNER
G1 F540 X130.98 Y154.19 E5299.61206
G1 X130.46 Y154.42 E5299.62159
G1 X130.33 Y154.47 E5299.62393
G1 X129.83 Y154.60 E5299.63247
G1 X129.57 Y154.65 E5299.63691
G1 X129.09 Y154.67 E5299.64490
G1 X128.56 Y154.65 E5299.65359
G1 X127.87 Y154.49 E5299.66542
G1 X127.14 Y154.18 E5299.67856
G1 X126.57 Y153.79 E5299.69007
G1 X126.21 Y153.43 E5299.69862
G1 X126.28 Y153.39 E5299.69990
G1 X126.75 Y153.82 E5299.71057
G1 X126.87 Y153.92 E5299.71315
G1 X127.62 Y154.32 E5299.72735
G1 X128.27 Y154.51 E5299.73844
G1 X128.56 Y154.57 E5299.74348
G1 X129.04 Y154.59 E5299.75150
G1 X129.57 Y154.57 E5299.76025
G1 X130.51 Y154.33 E5299.77638
G1 X131.26 Y153.92 E5299.79060
G1 X131.63 Y153.59 E5299.79887
G1 X131.63 Y153.72 E5299.80102
G0 F12000 X131.81 Y154.10
;TYPE:WALL-OUTER
G1 F540 X131.17 Y154.54 E5299.81384
G1 X130.62 Y154.79 E5299.82401
G1 X130.45 Y154.86 E5299.82693
G1 X129.93 Y154.99 E5299.83597
G1 X129.62 Y155.05 E5299.84125
G1 X129.09 Y155.07 E5299.85005
G1 X128.51 Y155.05 E5299.85964
G1 X127.75 Y154.88 E5299.87264
G1 X126.95 Y154.53 E5299.88707
G1 X126.31 Y154.10 E5299.89988
G1 X125.77 Y153.56 E5299.91264
G1 X125.59 Y153.32 E5299.91760
G1 X126.34 Y152.89 E5299.93208
G1 X126.37 Y152.88 E5299.93254
G1 X126.55 Y153.10 E5299.93729
G1 X127.02 Y153.52 E5299.94773
G1 X127.10 Y153.59 E5299.94951
G1 X127.78 Y153.95 E5299.96229
G1 X128.37 Y154.12 E5299.97250
G1 X128.62 Y154.18 E5299.97676
G1 X129.04 Y154.19 E5299.98390
G1 X129.51 Y154.18 E5299.99165
G1 X130.36 Y153.95 E5300.00622
G1 X131.03 Y153.59 E5300.01890
G1 X131.58 Y153.10 E5300.03117
G1 X131.76 Y152.88 E5300.03587
G1 X132.03 Y153.03 E5300.04102
G1 X132.03 Y153.90 E5300.05543
G1 X131.81 Y154.10 E5300.06042
G1 F1800 E5297.06042
G0 F12000 X131.63 Y147.94
;TYPE:WALL-INNER
G1 F1800 E5300.06042
G1 F540 X131.26 Y147.61 E5300.06863
G1 X130.65 Y147.28 E5300.08014
G1 X130.50 Y147.20 E5300.08291
G1 X129.91 Y147.03 E5300.09323
G1 X129.56 Y146.95 E5300.09917
G1 X129.04 Y146.93 E5300.10779
G1 X128.55 Y146.95 E5300.11600
G1 X127.88 Y147.12 E5300.12756
G1 X127.62 Y147.20 E5300.13203
G1 X127.03 Y147.52 E5300.14312
G1 X126.86 Y147.61 E5300.14628
G1 X126.28 Y148.13 E5300.15933
G1 X126.21 Y148.09 E5300.16064
G1 X126.56 Y147.75 E5300.16877
G1 X127.06 Y147.40 E5300.17896
G1 X127.14 Y147.34 E5300.18063
G1 X127.80 Y147.05 E5300.19254
G1 X128.29 Y146.93 E5300.20105
G1 X128.56 Y146.87 E5300.20566
G1 X128.99 Y146.85 E5300.21266
G1 X129.55 Y146.87 E5300.22205
G1 X130.07 Y146.98 E5300.23084
G1 X130.32 Y147.05 E5300.23522
G1 X130.81 Y147.26 E5300.24415
G1 X130.97 Y147.34 E5300.24703
G1 X131.56 Y147.74 E5300.25897
G1 X131.63 Y147.81 E5300.26050
G1 X131.63 Y147.94 E5300.26265
G0 F12000 X131.58 Y148.42
;TYPE:WALL-OUTER
G1 F540 X131.03 Y147.94 E5300.27488
G1 X130.46 Y147.63 E5300.28558
G1 X130.36 Y147.57 E5300.28759
G1 X129.81 Y147.42 E5300.29706
G1 X129.51 Y147.35 E5300.30221
G1 X129.04 Y147.33 E5300.30993
G1 X128.61 Y147.35 E5300.31718
G1 X127.98 Y147.51 E5300.32790
G1 X127.77 Y147.57 E5300.33155
G1 X127.10 Y147.94 E5300.34434
G1 X126.55 Y148.42 E5300.35652
G1 X126.37 Y148.64 E5300.36122
G1 X125.59 Y148.20 E5300.37608
G1 X125.77 Y147.96 E5300.38101
G1 X126.30 Y147.44 E5300.39344
G1 X126.83 Y147.07 E5300.40422
G1 X126.96 Y146.99 E5300.40666
G1 X127.67 Y146.67 E5300.41958
G1 X128.21 Y146.54 E5300.42891
G1 X128.51 Y146.47 E5300.43403
G1 X129.00 Y146.45 E5300.44209
G1 X129.58 Y146.47 E5300.45177
G1 X129.61 Y146.47 E5300.45227
G1 X130.15 Y146.59 E5300.46149
G1 X130.46 Y146.67 E5300.46675
G1 X130.97 Y146.90 E5300.47618
G1 X131.17 Y146.99 E5300.47970
G1 X131.81 Y147.43 E5300.49266
G1 X132.03 Y147.63 E5300.49764
G1 X132.03 Y148.45 E5300.51131
G1 X132.03 Y148.49 E5300.51196
G1 X131.76 Y148.64 E5300.51716
G1 X131.58 Y148.42 E5300.52184
;LAYER:249
G0 F12000 X131.63 Y147.96 Z25.20
;TYPE:WALL-INNER
G1 F540 X131.23 Y147.61 E5300.53063
G1 X130.72 Y147.33 E5300.54028
G1 X130.45 Y147.20 E5300.54522
G1 X129.85 Y147.04 E5300.55553
G1 X129.38 Y146.95 E5300.56355
G1 X129.03 Y146.94 E5300.56939
G1 X128.65 Y146.96 E5300.57567
G1 X128.15 Y147.07 E5300.58419
G1 X127.62 Y147.22 E5300.59339
G1 X126.91 Y147.60 E5300.60673
G1 X126.40 Y148.04 E5300.61791
G1 X126.30 Y148.13 E5300.62016
G1 X126.23 Y148.09 E5300.62149
G1 X126.59 Y147.74 E5300.62982
G1 X127.18 Y147.34 E5300.64172
G1 X127.83 Y147.05 E5300.65357
G1 X128.32 Y146.94 E5300.66199
G1 X128.66 Y146.87 E5300.66768
G1 X129.09 Y146.86 E5300.67483
G1 X129.45 Y146.87 E5300.68087
G1 X130.22 Y147.03 E5300.69382
G1 X130.29 Y147.05 E5300.69510
G1 X130.95 Y147.34 E5300.70709
G1 X131.54 Y147.75 E5300.71903
G1 X131.63 Y147.82 E5300.72086
G1 X131.63 Y147.96 E5300.72314
G0 F12000 X131.55 Y148.42
;TYPE:WALL-OUTER
G1 F540 X131.00 Y147.94 E5300.73538
G1 X130.53 Y147.69 E5300.74423
G1 X130.31 Y147.57 E5300.74841
G1 X129.77 Y147.43 E5300.75772
G1 X129.34 Y147.35 E5300.76494
G1 X129.04 Y147.34 E5300.76998
G1 X128.71 Y147.36 E5300.77550
G1 X127.77 Y147.59 E5300.79149
G1 X127.14 Y147.94 E5300.80346
G1 X126.66 Y148.34 E5300.81384
G1 X126.56 Y148.43 E5300.81603
G1 X126.39 Y148.64 E5300.82058
G1 X125.61 Y148.20 E5300.83557
G1 X125.78 Y147.97 E5300.84038
G1 X126.33 Y147.43 E5300.85324
G1 X126.98 Y146.99 E5300.86625
G1 X127.46 Y146.78 E5300.87493
G1 X127.71 Y146.67 E5300.87940
G1 X128.25 Y146.54 E5300.88863
G1 X128.62 Y146.47 E5300.89488
G1 X129.09 Y146.46 E5300.90280
G1 X129.50 Y146.47 E5300.90956
G1 X130.32 Y146.65 E5300.92348
G1 X130.42 Y146.67 E5300.92517
G1 X131.15 Y146.99 E5300.93843
G1 X131.79 Y147.43 E5300.95131
G1 X132.03 Y147.64 E5300.95664
G1 X132.03 Y148.49 E5300.97071
G1 X131.74 Y148.65 E5300.97616
G1 X131.55 Y148.42 E5300.98099
G1 F1800 E5297.98099
G0 F12000 X131.63 Y153.57
;TYPE:WALL-INNER
G1 F1800 E5300.98099
G1 F540 X131.63 Y153.70 E5300.98316
G1 X131.47 Y153.83 E5300.98647
G1 X130.96 Y154.18 E5300.99690
G1 X130.29 Y154.47 E5301.00898
G1 X129.46 Y154.65 E5301.02308
G1 X129.10 Y154.66 E5301.02917
G1 X128.63 Y154.65 E5301.03694
G1 X128.12 Y154.54 E5301.04552
G1 X127.84 Y154.48 E5301.05036
G1 X127.17 Y154.18 E5301.06246
G1 X126.59 Y153.79 E5301.07424
G1 X126.22 Y153.43 E5301.08266
G1 X126.29 Y153.39 E5301.08399
G1 X126.76 Y153.79 E5301.09421
G1 X126.91 Y153.92 E5301.09751
G1 X127.57 Y154.28 E5301.10995
G1 X127.68 Y154.33 E5301.11200
G1 X128.31 Y154.50 E5301.12284
G1 X128.78 Y154.58 E5301.13066
G1 X129.04 Y154.58 E5301.13505
G1 X129.39 Y154.58 E5301.14093
G1 X130.14 Y154.42 E5301.15361
G1 X130.46 Y154.33 E5301.15909
G1 X131.08 Y154.00 E5301.17082
G1 X131.24 Y153.91 E5301.17377
G1 X131.63 Y153.57 E5301.18242
G0 F12000 X131.55 Y153.10
;TYPE:WALL-OUTER
G1 F540 X131.74 Y152.88 E5301.18728
G1 X132.03 Y153.04 E5301.19272
G1 X132.03 Y153.88 E5301.20677
G1 X131.72 Y154.15 E5301.21349
G1 X131.15 Y154.53 E5301.22499
G1 X130.42 Y154.85 E5301.23820
G1 X129.91 Y154.97 E5301.24698
G1 X129.51 Y155.05 E5301.25375
G1 X129.09 Y155.07 E5301.26061
G1 X128.58 Y155.05 E5301.26914
G1 X128.04 Y154.94 E5301.27828
G1 X127.71 Y154.86 E5301.28391
G1 X126.98 Y154.53 E5301.29721
G1 X126.33 Y154.10 E5301.31019
G1 X125.78 Y153.56 E5301.32295
G1 X125.61 Y153.32 E5301.32787
G1 X126.17 Y153.00 E5301.33868
G1 X126.39 Y152.88 E5301.34288
G1 X126.59 Y153.12 E5301.34799
G1 X127.14 Y153.59 E5301.36002
G1 X127.75 Y153.92 E5301.37168
G1 X127.82 Y153.95 E5301.37292
G1 X128.40 Y154.10 E5301.38281
G1 X128.81 Y154.18 E5301.38986
G1 X129.04 Y154.18 E5301.39361
G1 X129.34 Y154.18 E5301.39868
G1 X130.04 Y154.03 E5301.41052
G1 X130.31 Y153.95 E5301.41512
G1 X130.89 Y153.65 E5301.42604
G1 X131.00 Y153.59 E5301.42818
G1 X131.55 Y153.10 E5301.44038
;LAYER:250
G0 F12000 X131.62 Y153.55 Z25.30
;TYPE:WALL-INNER
G1 F540 X131.62 Y153.69 E5301.44279
G1 X131.51 Y153.79 E5301.44516
G1 X131.03 Y154.11 E5301.45488
G1 X130.92 Y154.18 E5301.45702
G1 X130.38 Y154.42 E5301.46689
G1 X130.25 Y154.47 E5301.46918
G1 X129.33 Y154.65 E5301.48476
G1 X129.10 Y154.66 E5301.48852
G1 X128.56 Y154.62 E5301.49758
G1 X128.04 Y154.51 E5301.50648
G1 X127.88 Y154.47 E5301.50916
G1 X127.36 Y154.25 E5301.51856
G1 X127.21 Y154.19 E5301.52132
G1 X126.61 Y153.79 E5301.53320
G1 X126.25 Y153.43 E5301.54165
G1 X126.32 Y153.39 E5301.54304
G1 X126.96 Y153.93 E5301.55681
G1 X127.75 Y154.33 E5301.57161
G1 X128.37 Y154.48 E5301.58216
G1 X128.82 Y154.55 E5301.58981
G1 X129.08 Y154.56 E5301.59407
G1 X129.66 Y154.50 E5301.60381
G1 X130.38 Y154.33 E5301.61622
G1 X131.18 Y153.92 E5301.63107
G1 X131.62 Y153.55 E5301.64074
G0 F12000 X131.53 Y153.10
;TYPE:WALL-OUTER
G1 F540 X131.71 Y152.88 E5301.64557
G1 X132.02 Y153.05 E5301.65146
G1 X132.02 Y153.87 E5301.66506
G1 X131.76 Y154.10 E5301.67083
G1 X131.11 Y154.54 E5301.68389
G1 X130.54 Y154.78 E5301.69416
G1 X130.37 Y154.85 E5301.69727
G1 X129.85 Y154.97 E5301.70613
G1 X129.37 Y155.05 E5301.71425
G1 X129.10 Y155.06 E5301.71876
G1 X128.51 Y155.01 E5301.72858
G1 X127.95 Y154.90 E5301.73806
G1 X127.75 Y154.85 E5301.74143
G1 X127.20 Y154.62 E5301.75132
G1 X127.01 Y154.53 E5301.75485
G1 X126.36 Y154.10 E5301.76784
G1 X125.81 Y153.56 E5301.78073
G1 X125.63 Y153.32 E5301.78561
G1 X126.42 Y152.88 E5301.80071
G1 X126.60 Y153.10 E5301.80543
G1 X127.18 Y153.59 E5301.81803
G1 X127.89 Y153.95 E5301.83130
G1 X128.44 Y154.09 E5301.84075
G1 X128.86 Y154.15 E5301.84775
G1 X129.06 Y154.16 E5301.85119
G1 X129.59 Y154.11 E5301.86001
G1 X130.25 Y153.95 E5301.87117
G1 X130.96 Y153.59 E5301.88444
G1 X131.53 Y153.10 E5301.89692
G1 F1800 E5298.89692
G0 F12000 X131.62 Y147.98
;TYPE:WALL-INNER
G1 F1800 E5301.89692
G1 F540 X131.17 Y147.60 E5301.90670
G1 X130.50 Y147.25 E5301.91926
G1 X130.38 Y147.19 E5301.92156
G1 X129.77 Y147.04 E5301.93195
G1 X129.24 Y146.97 E5301.94086
G1 X128.99 Y146.97 E5301.94510
G1 X128.51 Y147.01 E5301.95303
G1 X127.75 Y147.19 E5301.96597
G1 X126.96 Y147.60 E5301.98084
G1 X126.32 Y148.13 E5301.99464
G1 X126.25 Y148.09 E5301.99602
G1 X126.62 Y147.74 E5302.00455
G1 X127.20 Y147.34 E5302.01621
G1 X127.69 Y147.13 E5302.02515
G1 X127.88 Y147.05 E5302.02845
G1 X128.34 Y146.95 E5302.03634
G1 X128.84 Y146.87 E5302.04475
G1 X129.09 Y146.87 E5302.04893
G1 X129.33 Y146.88 E5302.05292
G1 X129.86 Y146.97 E5302.06194
G1 X130.24 Y147.05 E5302.06837
G1 X130.93 Y147.35 E5302.08076
G1 X131.43 Y147.68 E5302.09077
G1 X131.62 Y147.84 E5302.09502
G1 X131.62 Y147.98 E5302.09726
G0 F12000 X131.53 Y148.42
;TYPE:WALL-OUTER
G1 F540 X131.03 Y148.00 E5302.10809
G1 X130.95 Y147.94 E5302.10977
G1 X130.32 Y147.61 E5302.12156
G1 X130.24 Y147.57 E5302.12305
G1 X129.70 Y147.44 E5302.13243
G1 X129.21 Y147.37 E5302.14061
G1 X129.00 Y147.37 E5302.14405
G1 X128.58 Y147.41 E5302.15114
G1 X127.89 Y147.57 E5302.16285
G1 X127.18 Y147.94 E5302.17614
G1 X126.60 Y148.42 E5302.18876
G1 X126.42 Y148.64 E5302.19346
G1 X125.63 Y148.20 E5302.20858
G1 X125.80 Y147.97 E5302.21342
G1 X126.36 Y147.43 E5302.22636
G1 X127.01 Y146.99 E5302.23930
G1 X127.54 Y146.76 E5302.24890
G1 X127.75 Y146.67 E5302.25282
G1 X128.25 Y146.56 E5302.26132
G1 X128.81 Y146.47 E5302.27060
G1 X129.09 Y146.47 E5302.27542
G1 X129.37 Y146.48 E5302.28003
G1 X129.93 Y146.57 E5302.28938
G1 X130.36 Y146.67 E5302.29684
G1 X131.11 Y146.99 E5302.31043
G1 X131.67 Y147.36 E5302.32155
G1 X132.02 Y147.66 E5302.32918
G1 X132.02 Y148.47 E5302.34275
G1 X131.71 Y148.65 E5302.34863
G1 X131.53 Y148.42 E5302.35350
;LAYER:251
G0 F12000 X131.62 Y148.00 Z25.40
;TYPE:WALL-INNER
G1 F540 X131.12 Y147.60 E5302.36413
G1 X130.50 Y147.28 E5302.37565
G1 X130.29 Y147.19 E5302.37964
G1 X129.59 Y147.04 E5302.39155
G1 X129.25 Y147.00 E5302.39717
G1 X129.01 Y147.00 E5302.40110
G1 X128.56 Y147.03 E5302.40857
G1 X127.93 Y147.16 E5302.41935
G1 X127.82 Y147.19 E5302.42126
G1 X127.19 Y147.50 E5302.43280
G1 X126.99 Y147.60 E5302.43661
G1 X126.36 Y148.14 E5302.45038
G1 X126.28 Y148.09 E5302.45191
G1 X126.64 Y147.74 E5302.46037
G1 X127.18 Y147.38 E5302.47112
G1 X127.22 Y147.35 E5302.47200
G1 X127.89 Y147.07 E5302.48411
G1 X128.41 Y146.96 E5302.49280
G1 X128.87 Y146.89 E5302.50064
G1 X129.11 Y146.89 E5302.50458
G1 X129.53 Y146.93 E5302.51163
G1 X130.07 Y147.03 E5302.52070
G1 X130.19 Y147.05 E5302.52271
G1 X130.89 Y147.35 E5302.53535
G1 X131.56 Y147.80 E5302.54889
G1 X131.62 Y147.86 E5302.55021
G1 X131.62 Y148.00 E5302.55258
G0 F12000 X131.50 Y148.41
;TYPE:WALL-OUTER
G1 F540 X130.90 Y147.93 E5302.56526
G1 X130.33 Y147.65 E5302.57592
G1 X130.16 Y147.57 E5302.57903
G1 X129.52 Y147.43 E5302.58989
G1 X129.22 Y147.40 E5302.59489
G1 X129.03 Y147.40 E5302.59818
G1 X128.62 Y147.43 E5302.60491
G1 X128.02 Y147.55 E5302.61511
G1 X127.96 Y147.57 E5302.61619
G1 X127.38 Y147.85 E5302.62692
G1 X127.22 Y147.94 E5302.62991
G1 X126.64 Y148.42 E5302.64245
G1 X126.45 Y148.65 E5302.64729
G1 X125.83 Y148.30 E5302.65913
G1 X125.65 Y148.20 E5302.66254
G1 X125.83 Y147.97 E5302.66747
G1 X126.39 Y147.43 E5302.68040
G1 X126.97 Y147.04 E5302.69202
G1 X127.04 Y146.99 E5302.69338
G1 X127.74 Y146.70 E5302.70608
G1 X127.81 Y146.67 E5302.70720
G1 X128.34 Y146.56 E5302.71630
G1 X128.84 Y146.50 E5302.72462
G1 X129.12 Y146.49 E5302.72928
G1 X129.59 Y146.53 E5302.73713
G1 X130.14 Y146.63 E5302.74649
G1 X130.31 Y146.67 E5302.74937
G1 X131.07 Y146.99 E5302.76316
G1 X131.51 Y147.27 E5302.77175
G1 X131.82 Y147.49 E5302.77806
G1 X132.02 Y147.68 E5302.78261
G1 X132.02 Y148.46 E5302.79557
G1 X131.68 Y148.64 E5302.80198
G1 X131.50 Y148.41 E5302.80688
G1 F1800 E5299.80688
G0 F12000 X131.62 Y153.53
;TYPE:WALL-INNER
G1 F1800 E5302.80688
G1 F540 X131.62 Y153.67 E5302.80924
G1 X131.50 Y153.78 E5302.81196
G1 X130.89 Y154.18 E5302.82411
G1 X130.36 Y154.40 E5302.83366
G1 X130.19 Y154.47 E5302.83659
G1 X129.77 Y154.56 E5302.84376
G1 X129.21 Y154.63 E5302.85317
G1 X129.09 Y154.64 E5302.85520
G1 X128.61 Y154.60 E5302.86315
G1 X127.93 Y154.47 E5302.87476
G1 X127.23 Y154.18 E5302.88736
G1 X126.65 Y153.79 E5302.89898
G1 X126.28 Y153.43 E5302.90746
G1 X126.36 Y153.39 E5302.90895
G1 X127.00 Y153.93 E5302.92288
G1 X127.83 Y154.34 E5302.93822
G1 X128.47 Y154.47 E5302.94909
G1 X128.88 Y154.52 E5302.95602
G1 X129.05 Y154.53 E5302.95880
G1 X129.72 Y154.47 E5302.97002
G1 X130.30 Y154.34 E5302.97988
G1 X131.12 Y153.93 E5302.99512
G1 X131.62 Y153.53 E5303.00578
G0 F12000 X131.47 Y153.13
;TYPE:WALL-OUTER
G1 F540 X131.52 Y153.08 E5303.00698
G1 X131.68 Y152.88 E5303.01126
G1 X132.02 Y153.07 E5303.01768
G1 X132.02 Y153.84 E5303.03062
G1 X131.74 Y154.09 E5303.03680
G1 X131.08 Y154.53 E5303.05005
G1 X130.50 Y154.78 E5303.06040
G1 X130.31 Y154.85 E5303.06381
G1 X129.83 Y154.96 E5303.07202
G1 X129.25 Y155.03 E5303.08183
G1 X129.08 Y155.04 E5303.08455
G1 X128.56 Y155.00 E5303.09332
G1 X127.81 Y154.85 E5303.10592
G1 X127.04 Y154.53 E5303.11991
G1 X126.39 Y154.10 E5303.13280
G1 X125.83 Y153.56 E5303.14572
G1 X125.66 Y153.32 E5303.15065
G1 X126.45 Y152.88 E5303.16585
G1 X126.64 Y153.10 E5303.17071
G1 X127.22 Y153.59 E5303.18330
G1 X127.96 Y153.96 E5303.19702
G1 X128.53 Y154.08 E5303.20673
G1 X128.91 Y154.12 E5303.21309
G1 X129.04 Y154.13 E5303.21517
G1 X129.66 Y154.07 E5303.22553
G1 X130.16 Y153.96 E5303.23417
G1 X130.90 Y153.59 E5303.24787
G1 X131.47 Y153.13 E5303.25997
;LAYER:252
G0 F12000 X131.62 Y153.49 Z25.50
;TYPE:WALL-INNER
G1 F540 X131.62 Y153.64 E5303.26244
G1 X131.46 Y153.78 E5303.26599
G1 X130.85 Y154.18 E5303.27800
G1 X130.13 Y154.47 E5303.29088
G1 X129.68 Y154.55 E5303.29852
G1 X129.24 Y154.61 E5303.30594
G1 X129.07 Y154.61 E5303.30880
G1 X128.50 Y154.56 E5303.31824
G1 X127.99 Y154.47 E5303.32689
G1 X127.27 Y154.18 E5303.33977
G1 X126.67 Y153.78 E5303.35173
G1 X126.31 Y153.43 E5303.36015
G1 X126.39 Y153.38 E5303.36182
G1 X126.40 Y153.39 E5303.36202
G1 X126.90 Y153.81 E5303.37285
G1 X127.07 Y153.94 E5303.37631
G1 X127.69 Y154.24 E5303.38781
G1 X127.95 Y154.34 E5303.39249
G1 X128.52 Y154.45 E5303.40209
G1 X129.02 Y154.50 E5303.41045
G1 X129.51 Y154.47 E5303.41864
G1 X130.20 Y154.34 E5303.43022
G1 X130.81 Y154.06 E5303.44151
G1 X131.07 Y153.93 E5303.44640
G1 X131.62 Y153.49 E5303.45795
G0 F12000 X131.45 Y153.11
;TYPE:WALL-OUTER
G1 F540 X131.64 Y152.88 E5303.46294
G1 X132.01 Y153.08 E5303.46994
G1 X132.01 Y153.82 E5303.48218
G1 X131.70 Y154.10 E5303.48917
G1 X131.04 Y154.53 E5303.50232
G1 X130.57 Y154.72 E5303.51073
G1 X130.25 Y154.85 E5303.51660
G1 X129.75 Y154.95 E5303.52501
G1 X129.26 Y155.00 E5303.53311
G1 X129.06 Y155.01 E5303.53659
G1 X128.45 Y154.96 E5303.54667
G1 X127.88 Y154.85 E5303.55637
G1 X127.09 Y154.53 E5303.57051
G1 X126.42 Y154.10 E5303.58384
G1 X125.86 Y153.55 E5303.59682
G1 X125.68 Y153.32 E5303.60168
G1 X126.48 Y152.88 E5303.61698
G1 X126.68 Y153.11 E5303.62202
G1 X127.15 Y153.50 E5303.63218
G1 X127.28 Y153.59 E5303.63481
G1 X127.85 Y153.87 E5303.64543
G1 X128.07 Y153.96 E5303.64928
G1 X128.57 Y154.06 E5303.65785
G1 X129.02 Y154.09 E5303.66538
G1 X129.46 Y154.07 E5303.67270
G1 X130.07 Y153.96 E5303.68304
G1 X130.64 Y153.70 E5303.69333
G1 X130.85 Y153.59 E5303.69736
G1 X131.45 Y153.11 E5303.71010
G0 F12000 X131.01 Y153.72
G1 F1800 E5300.71010
G0 F12000 X131.62 Y148.04
;TYPE:WALL-INNER
G1 F1800 E5303.71010
G1 F540 X131.07 Y147.59 E5303.72179
G1 X130.54 Y147.34 E5303.73159
G1 X130.20 Y147.18 E5303.73782
G1 X129.59 Y147.07 E5303.74802
G1 X129.26 Y147.04 E5303.75355
G1 X129.01 Y147.03 E5303.75779
G1 X128.53 Y147.07 E5303.76585
G1 X127.93 Y147.19 E5303.77594
G1 X127.06 Y147.59 E5303.79187
G1 X126.40 Y148.13 E5303.80601
G1 X126.39 Y148.14 E5303.80626
G1 X126.31 Y148.09 E5303.80795
G1 X126.67 Y147.74 E5303.81637
G1 X127.18 Y147.40 E5303.82661
G1 X127.27 Y147.35 E5303.82832
G1 X127.99 Y147.06 E5303.84122
G1 X128.41 Y146.97 E5303.84837
G1 X128.87 Y146.92 E5303.85611
G1 X129.10 Y146.91 E5303.85987
G1 X129.51 Y146.94 E5303.86664
G1 X130.14 Y147.06 E5303.87728
G1 X130.80 Y147.32 E5303.88915
G1 X130.85 Y147.34 E5303.89006
G1 X131.46 Y147.74 E5303.90214
G1 X131.62 Y147.89 E5303.90570
G1 X131.62 Y148.04 E5303.90818
G0 F12000 X131.45 Y148.42
;TYPE:WALL-OUTER
G1 F540 X130.85 Y147.93 E5303.92103
G1 X130.37 Y147.70 E5303.92995
G1 X130.08 Y147.57 E5303.93531
G1 X129.54 Y147.47 E5303.94444
G1 X129.24 Y147.44 E5303.94942
G1 X129.02 Y147.43 E5303.95304
G1 X128.58 Y147.47 E5303.96047
G1 X128.06 Y147.57 E5303.96921
G1 X127.28 Y147.93 E5303.98358
G1 X126.68 Y148.42 E5303.99633
G1 X126.48 Y148.65 E5304.00138
G1 X125.67 Y148.21 E5304.01673
G1 X125.86 Y147.97 E5304.02178
G1 X126.42 Y147.42 E5304.03472
G1 X126.97 Y147.07 E5304.04564
G1 X127.09 Y146.99 E5304.04798
G1 X127.58 Y146.79 E5304.05676
G1 X127.88 Y146.67 E5304.06218
G1 X128.34 Y146.58 E5304.07001
G1 X128.85 Y146.52 E5304.07845
G1 X129.11 Y146.51 E5304.08279
G1 X129.55 Y146.55 E5304.09015
G1 X130.25 Y146.67 E5304.10193
G1 X130.97 Y146.96 E5304.11478
G1 X131.04 Y146.99 E5304.11611
G1 X131.70 Y147.43 E5304.12932
G1 X132.01 Y147.71 E5304.13630
G1 X132.01 Y148.44 E5304.14854
G1 X131.64 Y148.65 E5304.15559
G1 X131.45 Y148.42 E5304.16048
;LAYER:253
G0 F12000 X131.61 Y148.07 Z25.60
;TYPE:WALL-INNER
G1 F540 X131.03 Y147.60 E5304.17290
G1 X130.36 Y147.29 E5304.18514
G1 X130.05 Y147.18 E5304.19076
G1 X129.36 Y147.07 E5304.20236
G1 X129.01 Y147.06 E5304.20815
G1 X128.47 Y147.11 E5304.21706
G1 X128.05 Y147.18 E5304.22421
G1 X127.14 Y147.59 E5304.24082
G1 X126.45 Y148.13 E5304.25537
G1 X126.43 Y148.15 E5304.25578
G1 X126.34 Y148.09 E5304.25763
G1 X126.69 Y147.75 E5304.26592
G1 X127.32 Y147.35 E5304.27817
G1 X127.83 Y147.15 E5304.28731
G1 X128.06 Y147.06 E5304.29142
G1 X128.95 Y146.94 E5304.30640
G1 X129.09 Y146.94 E5304.30878
G1 X129.60 Y146.98 E5304.31727
G1 X130.05 Y147.06 E5304.32483
G1 X130.81 Y147.35 E5304.33844
G1 X131.42 Y147.75 E5304.35043
G1 X131.61 Y147.92 E5304.35468
G1 X131.61 Y148.07 E5304.35727
G0 F12000 X131.40 Y148.42
;TYPE:WALL-OUTER
G1 F540 X130.82 Y147.94 E5304.36981
G1 X130.21 Y147.66 E5304.38097
G1 X129.95 Y147.56 E5304.38563
G1 X129.32 Y147.47 E5304.39614
G1 X129.02 Y147.46 E5304.40118
G1 X128.53 Y147.50 E5304.40941
G1 X128.17 Y147.57 E5304.41544
G1 X127.34 Y147.93 E5304.43040
G1 X126.73 Y148.42 E5304.44350
G1 X126.52 Y148.65 E5304.44861
G1 X125.70 Y148.20 E5304.46417
G1 X125.89 Y147.97 E5304.46914
G1 X126.45 Y147.43 E5304.48205
G1 X127.13 Y147.00 E5304.49555
G1 X127.68 Y146.78 E5304.50533
G1 X127.95 Y146.67 E5304.51020
G1 X128.47 Y146.59 E5304.51885
G1 X128.93 Y146.54 E5304.52668
G1 X129.11 Y146.54 E5304.52963
G1 X129.65 Y146.58 E5304.53862
G1 X130.16 Y146.67 E5304.54723
G1 X131.00 Y147.00 E5304.56214
G1 X131.67 Y147.43 E5304.57543
G1 X132.01 Y147.74 E5304.58307
G1 X132.01 Y148.39 E5304.59394
G1 X132.01 Y148.43 E5304.59462
G1 X131.60 Y148.65 E5304.60235
G1 X131.40 Y148.42 E5304.60738
G1 F1800 E5301.60738
G0 F12000 X131.61 Y153.45
;TYPE:WALL-INNER
G1 F1800 E5304.60738
G1 F540 X131.61 Y153.61 E5304.61001
G1 X131.42 Y153.78 E5304.61419
G1 X130.93 Y154.10 E5304.62403
G1 X130.82 Y154.17 E5304.62619
G1 X130.29 Y154.38 E5304.63571
G1 X130.07 Y154.46 E5304.63961
G1 X129.51 Y154.56 E5304.64892
G1 X129.18 Y154.58 E5304.65449
G1 X129.03 Y154.59 E5304.65694
G1 X128.59 Y154.55 E5304.66436
G1 X128.06 Y154.46 E5304.67328
G1 X127.56 Y154.28 E5304.68218
G1 X127.32 Y154.18 E5304.68649
G1 X126.71 Y153.79 E5304.69855
G1 X126.34 Y153.43 E5304.70707
G1 X126.43 Y153.38 E5304.70890
G1 X126.45 Y153.40 E5304.70930
G1 X126.95 Y153.80 E5304.72003
G1 X127.14 Y153.94 E5304.72382
G1 X127.57 Y154.15 E5304.73191
G1 X128.09 Y154.35 E5304.74109
G1 X128.68 Y154.44 E5304.75114
G1 X129.03 Y154.46 E5304.75694
G1 X129.82 Y154.39 E5304.77010
G1 X130.07 Y154.34 E5304.77443
G1 X131.01 Y153.94 E5304.79128
G1 X131.61 Y153.45 E5304.80421
G0 F12000 X131.40 Y153.11
;TYPE:WALL-OUTER
G1 F540 X131.60 Y152.88 E5304.80928
G1 X132.01 Y153.09 E5304.81698
G1 X132.01 Y153.79 E5304.82860
G1 X131.67 Y154.09 E5304.83621
G1 X131.15 Y154.44 E5304.84663
G1 X131.00 Y154.53 E5304.84952
G1 X130.43 Y154.76 E5304.85963
G1 X130.17 Y154.85 E5304.86434
G1 X129.56 Y154.95 E5304.87451
G1 X129.20 Y154.98 E5304.88051
G1 X129.02 Y154.99 E5304.88354
G1 X128.53 Y154.95 E5304.89167
G1 X127.95 Y154.85 E5304.90146
G1 X127.42 Y154.65 E5304.91096
G1 X127.14 Y154.53 E5304.91603
G1 X126.45 Y154.10 E5304.92946
G1 X125.89 Y153.56 E5304.94249
G1 X125.70 Y153.32 E5304.94749
G1 X126.52 Y152.87 E5304.96306
G1 X126.72 Y153.11 E5304.96821
G1 X127.20 Y153.48 E5304.97826
G1 X127.34 Y153.59 E5304.98131
G1 X128.19 Y153.96 E5304.99667
G1 X128.72 Y154.04 E5305.00565
G1 X129.03 Y154.06 E5305.01067
G1 X129.76 Y154.00 E5305.02296
G1 X129.96 Y153.96 E5305.02623
G1 X130.80 Y153.59 E5305.04147
G1 X131.40 Y153.11 E5305.05441
G0 F12000 X131.01 Y153.69
;LAYER:254
G0 X130.93 Y153.94 Z25.70
;TYPE:WALL-INNER
G1 F540 X131.61 Y153.41 E5305.06872
G1 X131.61 Y153.58 E5305.07150
G1 X131.39 Y153.77 E5305.07628
G1 X130.87 Y154.10 E5305.08654
G1 X130.76 Y154.17 E5305.08864
G1 X130.21 Y154.38 E5305.09842
G1 X129.98 Y154.46 E5305.10254
G1 X129.54 Y154.53 E5305.10989
G1 X129.17 Y154.56 E5305.11605
G1 X129.12 Y154.56 E5305.11686
G1 X128.58 Y154.53 E5305.12589
G1 X128.16 Y154.46 E5305.13306
G1 X127.53 Y154.24 E5305.14403
G1 X127.36 Y154.17 E5305.14712
G1 X126.74 Y153.78 E5305.15936
G1 X126.37 Y153.43 E5305.16778
G1 X126.47 Y153.38 E5305.16969
G1 X126.49 Y153.40 E5305.17016
G1 X127.21 Y153.95 E5305.18524
G1 X127.96 Y154.26 E5305.19870
G1 X128.25 Y154.35 E5305.20377
G1 X128.72 Y154.41 E5305.21167
G1 X129.02 Y154.43 E5305.21668
G1 X129.59 Y154.40 E5305.22613
G1 X129.98 Y154.33 E5305.23281
G1 X130.46 Y154.15 E5305.24131
G1 X130.93 Y153.94 E5305.24975
G0 F12000 X130.72 Y153.59
;TYPE:WALL-OUTER
G1 F540 X131.35 Y153.11 E5305.26298
G1 X131.56 Y152.87 E5305.26825
G1 X132.01 Y153.11 E5305.27665
G1 X132.01 Y153.76 E5305.28748
G1 X131.63 Y154.09 E5305.29584
G1 X131.09 Y154.44 E5305.30653
G1 X130.94 Y154.53 E5305.30941
G1 X130.35 Y154.75 E5305.31982
G1 X130.08 Y154.85 E5305.32471
G1 X129.58 Y154.93 E5305.33302
G1 X129.19 Y154.96 E5305.33958
G1 X129.12 Y154.96 E5305.34066
G1 X128.54 Y154.93 E5305.35040
G1 X128.05 Y154.85 E5305.35860
G1 X127.39 Y154.61 E5305.37026
G1 X127.18 Y154.53 E5305.37403
G1 X126.49 Y154.10 E5305.38758
G1 X125.92 Y153.56 E5305.40072
G1 X125.73 Y153.32 E5305.40560
G1 X126.42 Y152.95 E5305.41860
G1 X126.57 Y152.87 E5305.42137
G1 X126.77 Y153.11 E5305.42645
G1 X127.41 Y153.60 E5305.43995
G1 X128.10 Y153.89 E5305.45227
G1 X128.34 Y153.96 E5305.45645
G1 X128.76 Y154.02 E5305.46350
G1 X129.02 Y154.03 E5305.46789
G1 X129.54 Y154.00 E5305.47659
G1 X129.88 Y153.94 E5305.48228
G1 X130.72 Y153.59 E5305.49737
G1 F1800 E5302.49737
G0 F12000 X131.61 Y148.11
;TYPE:WALL-INNER
G1 F1800 E5305.49737
G1 F540 X131.08 Y147.69 E5305.50855
G1 X130.91 Y147.58 E5305.51193
G1 X130.28 Y147.30 E5305.52344
G1 X129.89 Y147.17 E5305.53015
G1 X129.34 Y147.10 E5305.53938
G1 X129.00 Y147.09 E5305.54503
G1 X128.45 Y147.14 E5305.55433
G1 X128.22 Y147.18 E5305.55810
G1 X127.46 Y147.47 E5305.57171
G1 X127.20 Y147.59 E5305.57641
G1 X126.55 Y148.07 E5305.58988
G1 X126.47 Y148.14 E5305.59161
G1 X126.37 Y148.09 E5305.59357
G1 X126.73 Y147.75 E5305.60179
G1 X127.36 Y147.35 E5305.61411
G1 X127.97 Y147.12 E5305.62504
G1 X128.14 Y147.07 E5305.62801
G1 X128.69 Y146.99 E5305.63727
G1 X129.10 Y146.97 E5305.64408
G1 X129.69 Y147.02 E5305.65382
G1 X130.05 Y147.09 E5305.65994
G1 X130.76 Y147.36 E5305.67262
G1 X131.39 Y147.75 E5305.68490
G1 X131.61 Y147.94 E5305.68973
G1 X131.61 Y148.11 E5305.69254
G0 F12000 X131.35 Y148.42
;TYPE:WALL-OUTER
G1 F540 X130.84 Y148.02 E5305.70336
G1 X130.71 Y147.93 E5305.70587
G1 X130.13 Y147.68 E5305.71644
G1 X129.80 Y147.56 E5305.72220
G1 X129.31 Y147.50 E5305.73039
G1 X129.01 Y147.50 E5305.73538
G1 X128.50 Y147.54 E5305.74404
G1 X128.33 Y147.56 E5305.74688
G1 X127.61 Y147.83 E5305.75954
G1 X127.41 Y147.93 E5305.76330
G1 X126.80 Y148.39 E5305.77600
G1 X126.76 Y148.42 E5305.77684
G1 X126.57 Y148.65 E5305.78172
G1 X125.74 Y148.20 E5305.79750
G1 X125.92 Y147.97 E5305.80242
G1 X126.49 Y147.43 E5305.81542
G1 X127.18 Y147.00 E5305.82903
G1 X127.84 Y146.74 E5305.84077
G1 X128.05 Y146.68 E5305.84445
G1 X128.65 Y146.59 E5305.85453
G1 X129.12 Y146.57 E5305.86234
G1 X129.75 Y146.62 E5305.87277
G1 X130.16 Y146.70 E5305.87972
G1 X130.94 Y147.00 E5305.89365
G1 X131.63 Y147.43 E5305.90724
G1 X132.01 Y147.76 E5305.91555
G1 X132.01 Y148.42 E5305.92645
G1 X131.56 Y148.65 E5305.93481
G1 X131.35 Y148.42 E5305.94006
;LAYER:255
G0 F12000 X131.60 Y148.15 Z25.80
;TYPE:WALL-INNER
G1 F540 X131.57 Y148.12 E5305.94089
G1 X131.09 Y147.76 E5305.95086
G1 X130.82 Y147.57 E5305.95621
G1 X130.08 Y147.28 E5305.96948
G1 X129.67 Y147.17 E5305.97655
G1 X129.33 Y147.13 E5305.98226
G1 X129.02 Y147.13 E5305.98737
G1 X128.49 Y147.16 E5305.99620
G1 X127.88 Y147.33 E5306.00675
G1 X127.29 Y147.58 E5306.01745
G1 X126.58 Y148.11 E5306.03220
G1 X126.53 Y148.16 E5306.03333
G1 X126.41 Y148.09 E5306.03564
G1 X126.78 Y147.75 E5306.04414
G1 X127.31 Y147.42 E5306.05443
G1 X127.41 Y147.36 E5306.05640
G1 X128.25 Y147.07 E5306.07121
G1 X128.66 Y147.01 E5306.07814
G1 X129.11 Y147.00 E5306.08559
G1 X129.77 Y147.05 E5306.09661
G1 X130.09 Y147.13 E5306.10201
G1 X130.56 Y147.30 E5306.11040
G1 X130.70 Y147.35 E5306.11281
G1 X131.35 Y147.75 E5306.12550
G1 X131.60 Y147.97 E5306.13106
G1 X131.60 Y148.15 E5306.13412
G0 F12000 X131.30 Y148.41
;TYPE:WALL-OUTER
G1 F540 X130.85 Y148.08 E5306.14336
G1 X130.63 Y147.93 E5306.14785
G1 X129.96 Y147.66 E5306.15994
G1 X129.60 Y147.56 E5306.16605
G1 X129.31 Y147.53 E5306.17097
G1 X129.03 Y147.53 E5306.17553
G1 X128.55 Y147.56 E5306.18352
G1 X128.02 Y147.71 E5306.19277
G1 X127.49 Y147.93 E5306.20232
G1 X126.84 Y148.41 E5306.21575
G1 X126.62 Y148.65 E5306.22113
G1 X126.27 Y148.47 E5306.22777
G1 X125.77 Y148.20 E5306.23717
G1 X125.94 Y147.98 E5306.24177
G1 X126.54 Y147.43 E5306.25541
G1 X127.11 Y147.07 E5306.26652
G1 X127.24 Y147.00 E5306.26909
G1 X127.72 Y146.82 E5306.27753
G1 X128.17 Y146.67 E5306.28538
G1 X128.63 Y146.61 E5306.29316
G1 X129.12 Y146.59 E5306.30133
G1 X129.84 Y146.66 E5306.31323
G1 X130.21 Y146.75 E5306.31956
G1 X130.71 Y146.93 E5306.32851
G1 X130.88 Y147.00 E5306.33156
G1 X131.56 Y147.41 E5306.34471
G1 X131.59 Y147.43 E5306.34543
G1 X132.00 Y147.79 E5306.35444
G1 X132.00 Y148.39 E5306.36451
G1 X131.52 Y148.65 E5306.37369
G1 X131.30 Y148.41 E5306.37907
G1 F1800 E5303.37907
G0 F12000 X131.60 Y153.37
;TYPE:WALL-INNER
G1 F1800 E5306.37907
G1 F540 X131.60 Y153.55 E5306.38204
G1 X131.35 Y153.77 E5306.38763
G1 X130.93 Y154.03 E5306.39596
G1 X130.71 Y154.17 E5306.40018
G1 X129.87 Y154.46 E5306.41486
G1 X129.34 Y154.52 E5306.42379
G1 X129.13 Y154.53 E5306.42727
G1 X128.71 Y154.52 E5306.43436
G1 X128.26 Y154.46 E5306.44182
G1 X127.41 Y154.16 E5306.45674
G1 X126.78 Y153.77 E5306.46907
G1 X126.41 Y153.43 E5306.47752
G1 X126.53 Y153.37 E5306.47984
G1 X126.56 Y153.41 E5306.48063
G1 X127.27 Y153.94 E5306.49544
G1 X127.89 Y154.19 E5306.50653
G1 X128.48 Y154.36 E5306.51669
G1 X128.98 Y154.40 E5306.52503
G1 X129.31 Y154.39 E5306.53055
G1 X129.68 Y154.36 E5306.53678
G1 X130.36 Y154.15 E5306.54851
G1 X130.83 Y153.95 E5306.55700
G1 X131.39 Y153.55 E5306.56846
G1 X131.58 Y153.40 E5306.57249
G1 X131.60 Y153.37 E5306.57309
G0 F12000 X131.30 Y153.11
;TYPE:WALL-OUTER
G1 F540 X131.51 Y152.87 E5306.57834
G1 X132.00 Y153.13 E5306.58754
G1 X132.00 Y153.73 E5306.59746
G1 X131.60 Y154.09 E5306.60655
G1 X130.88 Y154.53 E5306.62054
G1 X130.40 Y154.71 E5306.62895
G1 X129.96 Y154.85 E5306.63667
G1 X129.38 Y154.92 E5306.64637
G1 X129.12 Y154.93 E5306.65070
G1 X128.68 Y154.91 E5306.65814
G1 X128.17 Y154.85 E5306.66661
G1 X127.24 Y154.53 E5306.68296
G1 X126.54 Y154.09 E5306.69664
G1 X125.95 Y153.56 E5306.70982
G1 X125.77 Y153.33 E5306.71483
G1 X126.27 Y153.05 E5306.72432
G1 X126.62 Y152.87 E5306.73094
G1 X126.83 Y153.11 E5306.73621
G1 X127.47 Y153.59 E5306.74948
