;-- START GCODE --
;Sliced for Type A Machines Series 1
;Sliced at: Sun 26-07-2015 21:14:04
;Basic settings: Layer height: 0.1 Walls: 0.8 Fill: 15
;Print Speed: 80 Support: 0
;Retraction Speed: 30 Retraction Distance: 3
;Print time: #P_TIME#
;Filament used: #F_AMNT#m #F_WGHT#g
;Filament cost: #F_COST#
M106 S255	 ;start with the fan on
G21        ;metric values
G90        ;absolute positioning
M106 S255    ;start with the fan on
G28     ;move to endstops
G29		;allows for auto-levelling
G1 X150 Y5  Z15.0 F12000 ;center and move the platform down 15mm
M109 S220 ;Heat To temp
G92 E0                  ;zero the extruded length
G1 F200 E30              ;extrude 30mm of feed stock
G92 E0                  ;zero the extruded length again
G1 X175 Y25  Z0 F12000 ;remove bugger
G1 X220 F12000 ;remove bugger
G1 X150 Y150  Z15 F12000 ;recenter and begin
G1 F12000

;Layer count: 280
;LAYER:0
M106 S255
G0 F12000 X114.52 Y122.20 Z0.30
;TYPE:SKIRT
G1 F2700 X117.39 Y119.90 E0.18347
G1 X117.94 Y119.46 E0.21849
G1 X120.98 Y117.52 E0.39870
G1 X121.60 Y117.12 E0.43559
G1 X124.77 Y115.55 E0.61181
G1 X124.77 Y115.55 E0.61186
G1 X125.49 Y115.19 E0.65211
G1 X128.66 Y114.04 E0.82025
G1 X129.94 Y113.57 E0.88820
G1 X134.69 Y112.90 E1.12792
G1 X136.05 Y112.89 E1.19537
G1 X136.39 Y112.87 E1.21237
G1 X140.32 Y112.97 E1.40860
G1 X140.68 Y112.96 E1.42647
G1 X141.12 Y112.95 E1.44873
G1 X144.36 Y113.07 E1.61019
G1 X145.14 Y113.09 E1.64936
G1 X145.63 Y113.09 E1.67386
G1 X148.43 Y113.33 E1.81397
G1 X149.70 Y113.43 E1.87735
G1 X153.51 Y113.92 E2.06914
G1 X154.08 Y113.99 E2.09802
G1 X157.50 Y114.72 E2.27222
G1 X157.50 Y114.72 E2.27227
G1 X158.12 Y114.85 E2.30409
G1 X161.27 Y115.85 E2.46888
G1 X162.02 Y116.08 E2.50788
G1 X163.94 Y117.01 E2.61455
G1 X164.79 Y117.40 E2.66113
G1 X165.82 Y117.88 E2.71768
G1 X167.42 Y119.12 E2.81875
G1 X168.00 Y119.51 E2.85375
G1 X169.24 Y120.33 E2.92789
G1 X170.51 Y121.96 E3.03073
G1 X170.94 Y122.41 E3.06192
G1 X172.40 Y123.96 E3.16815
G1 X172.80 Y124.49 E3.20130
G1 X173.95 Y125.36 E3.27306
G1 X174.91 Y126.49 E3.34708
G1 X176.14 Y127.32 E3.42139
G1 X177.40 Y128.59 E3.51075
G1 X179.13 Y129.63 E3.61138
G1 X180.47 Y130.95 E3.70497
G1 X182.86 Y132.19 E3.83960
G1 X184.09 Y133.41 E3.92550
G1 X187.61 Y135.08 E4.12028
G1 X188.42 Y135.80 E4.17437
G1 X192.13 Y137.45 E4.37670
G1 X194.19 Y138.92 E4.50285
G1 X195.07 Y139.65 E4.56019
G1 X196.65 Y141.17 E4.66976
G1 X196.66 Y141.17 E4.66983
G1 X198.62 Y143.06 E4.80586
G1 X200.31 Y145.23 E4.94329
G1 X201.33 Y146.79 E5.03603
G1 X201.33 Y146.79 E5.03608
G1 X202.41 Y148.43 E5.13416
G1 X203.36 Y151.82 E5.30993
G1 X203.66 Y153.18 E5.37911
G1 X204.06 Y155.03 E5.47368
G1 X203.59 Y158.46 E5.64641
G1 X203.31 Y159.98 E5.72344
G1 X203.00 Y161.76 E5.81376
G1 X201.55 Y164.29 E5.95908
G1 X200.36 Y166.24 E6.07336
G1 X199.43 Y167.76 E6.16177
G1 X198.38 Y168.74 E6.23381
G1 X196.05 Y171.15 E6.40105
G1 X192.47 Y172.11 E6.58580
G1 X190.50 Y172.64 E6.68761
G1 X189.46 Y172.99 E6.74264
G1 X187.89 Y173.52 E6.82505
G1 X185.15 Y174.14 E6.96538
G1 X184.83 Y174.29 E6.98297
G1 X183.38 Y174.97 E7.06271
G1 X182.30 Y175.77 E7.12993
G1 X180.97 Y176.77 E7.21287
G1 X179.01 Y177.83 E7.32408
G1 X178.98 Y177.89 E7.32742
G1 X177.47 Y178.73 E7.41333
G1 X177.25 Y179.20 E7.43938
G1 X175.24 Y180.36 E7.55504
G1 X174.80 Y181.47 E7.61447
G1 X172.45 Y182.99 E7.75415
G1 X171.58 Y184.31 E7.83293
G1 X169.21 Y185.92 E7.97578
G1 X168.04 Y186.83 E8.04991
G1 X167.32 Y187.40 E8.09573
G1 X165.44 Y188.45 E8.20303
G1 X164.17 Y189.03 E8.27292
G1 X163.74 Y189.23 E8.29658
G1 X162.32 Y189.77 E8.37205
G1 X161.15 Y190.17 E8.43395
G1 X160.60 Y190.36 E8.46277
G1 X157.97 Y191.03 E8.59857
G1 X157.24 Y191.22 E8.63583
G1 X155.89 Y191.40 E8.70401
G1 X154.52 Y191.64 E8.77343
G1 X153.83 Y191.76 E8.80838
G1 X152.88 Y191.83 E8.85551
G1 X149.54 Y192.07 E9.02267
G1 X147.38 Y192.09 E9.13069
G1 X146.99 Y192.10 E9.15015
G1 X144.75 Y192.03 E9.26180
G1 X143.03 Y191.95 E9.34751
G1 X140.85 Y191.79 E9.45691
G1 X140.30 Y191.75 E9.48437
G1 X138.43 Y191.60 E9.57775
G1 X137.02 Y191.43 E9.64866
G1 X134.24 Y191.21 E9.78778
G1 X133.28 Y191.08 E9.83606
G1 X129.85 Y190.81 E10.00805
G1 X128.93 Y190.69 E10.05409
G1 X126.70 Y190.34 E10.16685
G1 X126.70 Y190.35 E10.16690
G1 X124.74 Y190.05 E10.26550
G1 X123.09 Y189.46 E10.35305
G1 X121.69 Y188.70 E10.43252
G1 X119.17 Y187.34 E10.57553
G1 X116.53 Y185.52 E10.73527
G1 X115.65 Y184.91 E10.78887
G1 X113.89 Y183.41 E10.90436
G1 X112.73 Y182.34 E10.98313
G1 X112.25 Y181.90 E11.01558
G1 X110.20 Y179.78 E11.16232
G1 X109.62 Y179.11 E11.20649
G1 X107.12 Y176.06 E11.40331
G1 X106.51 Y175.18 E11.45696
G1 X105.53 Y173.69 E11.54577
G1 X104.15 Y170.69 E11.71060
G1 X103.24 Y168.10 E11.84779
G1 X102.76 Y166.73 E11.91996
G1 X102.45 Y165.52 E11.98245
G1 X101.96 Y163.71 E12.07617
G1 X101.96 Y163.71 E12.07622
G1 X101.69 Y162.74 E12.12634
G1 X101.42 Y160.93 E12.21745
G1 X101.13 Y159.25 E12.30248
G1 X101.13 Y159.25 E12.30253
G1 X100.98 Y158.34 E12.34843
G1 X100.86 Y156.14 E12.45859
G1 X100.78 Y154.63 E12.53385
G1 X100.73 Y153.84 E12.57324
G1 X100.85 Y151.41 E12.69492
G1 X100.90 Y150.08 E12.76118
G1 X100.93 Y149.33 E12.79857
G1 X101.51 Y145.55 E12.98956
G1 X101.61 Y144.89 E13.02275
G1 X102.57 Y141.21 E13.21251
G1 X102.72 Y140.59 E13.24443
G1 X104.06 Y137.02 E13.43457
G1 X104.07 Y137.02 E13.43462
G1 X104.28 Y136.43 E13.46616
G1 X105.97 Y133.06 E13.65394
G1 X106.27 Y132.47 E13.68736
G1 X108.30 Y129.30 E13.87516
G1 X108.64 Y128.76 E13.90702
G1 X110.99 Y125.83 E14.09413
G1 X111.42 Y125.31 E14.12795
G1 X114.05 Y122.68 E14.31362
G1 X114.52 Y122.20 E14.34692
G0 F12000 X114.79 Y122.50
G1 F2700 X117.64 Y120.21 E14.52933
G1 X118.17 Y119.78 E14.56328
G1 X121.20 Y117.85 E14.74237
G1 X121.20 Y117.86 E14.74242
G1 X121.80 Y117.47 E14.77826
G1 X124.95 Y115.91 E14.95337
G1 X125.65 Y115.56 E14.99254
G1 X128.79 Y114.41 E15.15956
G1 X130.03 Y113.96 E15.22544
G1 X134.72 Y113.30 E15.46173
G1 X136.06 Y113.29 E15.52864
G1 X136.39 Y113.27 E15.54503
G1 X140.32 Y113.37 E15.74092
G1 X140.69 Y113.36 E15.75963
G1 X141.12 Y113.35 E15.78095
G1 X144.34 Y113.47 E15.94146
G1 X145.13 Y113.49 E15.98138
G1 X145.61 Y113.49 E16.00518
G1 X148.45 Y113.73 E16.14719
G1 X149.66 Y113.83 E16.20767
G1 X153.46 Y114.31 E16.39891
G1 X154.02 Y114.39 E16.42693
G1 X157.41 Y115.11 E16.60017
G1 X158.02 Y115.24 E16.63122
G1 X161.13 Y116.22 E16.79375
G1 X161.87 Y116.46 E16.83267
G1 X163.73 Y117.35 E16.93563
G1 X164.67 Y117.79 E16.98750
G1 X165.61 Y118.22 E17.03909
G1 X167.19 Y119.44 E17.13838
G1 X167.78 Y119.84 E17.17427
G1 X168.97 Y120.63 E17.24519
G1 X170.21 Y122.22 E17.34601
G1 X170.65 Y122.69 E17.37798
G1 X172.10 Y124.22 E17.48294
G1 X172.51 Y124.78 E17.51780
G1 X173.67 Y125.65 E17.59024
G1 X174.63 Y126.79 E17.66466
G1 X175.88 Y127.63 E17.73986
G1 X177.16 Y128.91 E17.82989
G1 X178.89 Y129.95 E17.93052
G1 X180.23 Y131.27 E18.02471
G1 X182.62 Y132.52 E18.15932
G1 X183.85 Y133.74 E18.24561
G1 X187.39 Y135.42 E18.44090
G1 X188.20 Y136.14 E18.49535
G1 X191.93 Y137.80 E18.69868
G1 X193.94 Y139.23 E18.82202
G1 X194.80 Y139.95 E18.87794
G1 X196.38 Y141.46 E18.98705
G1 X198.33 Y143.32 E19.12145
G1 X199.99 Y145.47 E19.25661
G1 X201.00 Y147.01 E19.34863
G1 X202.05 Y148.60 E19.44353
G1 X202.97 Y151.92 E19.61565
G1 X203.26 Y153.26 E19.68428
G1 X203.26 Y153.26 E19.68433
G1 X203.66 Y155.04 E19.77531
G1 X203.20 Y158.40 E19.94407
G1 X202.92 Y159.91 E20.02068
G1 X202.61 Y161.62 E20.10761
G1 X201.21 Y164.09 E20.24918
G1 X200.01 Y166.04 E20.36322
G1 X199.12 Y167.50 E20.44887
G1 X198.10 Y168.45 E20.51847
G1 X195.84 Y170.80 E20.68095
G1 X192.37 Y171.72 E20.85979
G1 X192.37 Y171.72 E20.85984
G1 X190.38 Y172.26 E20.96306
G1 X189.33 Y172.61 E21.01829
G1 X189.33 Y172.61 E21.01834
G1 X187.78 Y173.14 E21.09972
G1 X185.01 Y173.76 E21.24128
G1 X184.66 Y173.93 E21.26096
G1 X184.66 Y173.93 E21.26101
G1 X183.17 Y174.63 E21.34294
G1 X182.06 Y175.45 E21.41198
G1 X180.75 Y176.44 E21.49360
G1 X178.73 Y177.53 E21.60861
G1 X178.69 Y177.59 E21.61205
G1 X177.16 Y178.44 E21.69917
G1 X176.94 Y178.91 E21.72546
G1 X174.92 Y180.08 E21.84168
G1 X174.47 Y181.20 E21.90170
G1 X172.16 Y182.70 E22.03940
G1 X171.29 Y184.02 E22.11826
G1 X168.97 Y185.59 E22.25780
G1 X167.79 Y186.52 E22.33264
G1 X167.10 Y187.07 E22.37701
G1 X165.26 Y188.09 E22.48193
G1 X164.00 Y188.67 E22.55102
G1 X164.00 Y188.67 E22.55107
G1 X163.58 Y188.87 E22.57408
G1 X162.19 Y189.39 E22.64855
G1 X161.02 Y189.79 E22.71017
G1 X160.49 Y189.98 E22.73810
G1 X157.82 Y190.65 E22.87540
G1 X157.16 Y190.82 E22.90931
G1 X155.83 Y191.01 E22.97663
G1 X154.48 Y191.24 E23.04493
G1 X153.78 Y191.36 E23.08044
G1 X152.86 Y191.43 E23.12652
G1 X149.53 Y191.67 E23.29303
G1 X147.37 Y191.69 E23.40045
G1 X146.99 Y191.70 E23.41956
G1 X144.77 Y191.63 E23.53062
G1 X143.06 Y191.55 E23.61587
G1 X140.88 Y191.39 E23.72503
G1 X140.33 Y191.35 E23.75244
G1 X138.47 Y191.20 E23.84536
G1 X137.08 Y191.03 E23.91542
G1 X134.29 Y190.81 E24.05514
G1 X133.33 Y190.68 E24.10352
G1 X129.89 Y190.41 E24.27552
G1 X128.99 Y190.29 E24.32085
G1 X126.75 Y189.95 E24.43385
G1 X124.84 Y189.66 E24.53009
G1 X123.25 Y189.09 E24.61419
G1 X121.88 Y188.35 E24.69212
G1 X119.38 Y187.00 E24.83402
G1 X116.76 Y185.19 E24.99294
G1 X115.90 Y184.59 E25.04525
G1 X114.15 Y183.11 E25.15940
G1 X113.00 Y182.04 E25.23774
G1 X113.00 Y182.04 E25.23781
G1 X112.53 Y181.61 E25.26970
G1 X110.50 Y179.51 E25.41532
G1 X109.93 Y178.86 E25.45867
G1 X107.44 Y175.82 E25.65439
G1 X106.84 Y174.95 E25.70701
G1 X105.88 Y173.50 E25.79411
G1 X104.52 Y170.54 E25.95651
G1 X103.61 Y167.97 E26.09271
G1 X103.14 Y166.62 E26.16396
G1 X102.82 Y165.35 E26.22908
G1 X102.34 Y163.60 E26.31965
G1 X102.08 Y162.65 E26.36863
G1 X101.81 Y160.87 E26.45858
G1 X101.52 Y159.17 E26.54478
G1 X101.38 Y158.30 E26.58871
G1 X101.26 Y156.12 E26.69772
G1 X101.17 Y154.61 E26.77309
G1 X101.13 Y153.84 E26.81142
G1 X101.25 Y151.35 E26.93575
G1 X101.30 Y150.10 E26.99846
G1 X101.33 Y149.37 E27.03476
G1 X101.90 Y145.61 E27.22458
G1 X102.00 Y144.97 E27.25682
G1 X102.95 Y141.31 E27.44548
G1 X103.11 Y140.71 E27.47642
G1 X104.44 Y137.16 E27.66547
G1 X104.65 Y136.59 E27.69606
G1 X106.34 Y133.21 E27.88455
G1 X106.35 Y133.21 E27.88460
G1 X106.62 Y132.66 E27.91510
G1 X108.65 Y129.50 E28.10274
G1 X108.97 Y128.99 E28.13274
G1 X111.32 Y126.07 E28.31981
G1 X111.72 Y125.57 E28.35143
G1 X114.33 Y122.96 E28.53601
G1 X114.79 Y122.50 E28.56821
G0 F12000 X115.06 Y122.80
G1 F2700 X117.88 Y120.53 E28.74899
G1 X118.40 Y120.11 E28.78241
G1 X121.39 Y118.20 E28.95930
G1 X122.00 Y117.81 E28.99516
G1 X125.12 Y116.27 E29.16910
G1 X125.81 Y115.93 E29.20727
G1 X128.94 Y114.79 E29.37339
G1 X130.13 Y114.35 E29.43694
G1 X134.75 Y113.70 E29.66976
G1 X136.08 Y113.69 E29.73601
G1 X136.40 Y113.67 E29.75190
G1 X140.34 Y113.77 E29.94839
G1 X140.71 Y113.76 E29.96685
G1 X141.12 Y113.75 E29.98742
G1 X144.36 Y113.87 E30.14908
G1 X145.13 Y113.89 E30.18760
G1 X145.59 Y113.89 E30.21075
G1 X148.39 Y114.13 E30.35081
G1 X149.62 Y114.22 E30.41224
G1 X153.41 Y114.71 E30.60292
G1 X153.95 Y114.78 E30.63014
G1 X157.33 Y115.50 E30.80256
G1 X157.92 Y115.62 E30.83265
G1 X161.03 Y116.61 E30.99545
G1 X161.72 Y116.83 E31.03174
G1 X163.62 Y117.74 E31.13649
G1 X164.46 Y118.13 E31.18285
G1 X165.41 Y118.57 E31.23482
G1 X166.94 Y119.75 E31.33173
G1 X167.60 Y120.20 E31.37136
G1 X168.69 Y120.93 E31.43676
G1 X169.91 Y122.49 E31.53548
G1 X170.36 Y122.96 E31.56833
G1 X171.79 Y124.47 E31.67195
G1 X172.22 Y125.06 E31.70859
G1 X173.40 Y125.94 E31.78167
G1 X174.37 Y127.09 E31.85654
G1 X175.63 Y127.94 E31.93261
G1 X176.91 Y129.23 E32.02320
G1 X178.64 Y130.26 E32.12394
G1 X179.99 Y131.60 E32.21870
G1 X182.38 Y132.85 E32.35330
G1 X183.62 Y134.07 E32.43998
G1 X187.16 Y135.75 E32.63572
G1 X187.98 Y136.48 E32.69034
G1 X191.73 Y138.15 E32.89493
G1 X193.70 Y139.55 E33.01551
G1 X194.53 Y140.25 E33.06994
G1 X196.10 Y141.75 E33.17824
G1 X198.03 Y143.59 E33.31130
G1 X199.66 Y145.70 E33.44423
G1 X200.67 Y147.23 E33.53548
G1 X201.68 Y148.76 E33.62725
G1 X202.58 Y152.02 E33.79566
G1 X202.87 Y153.35 E33.86378
G1 X203.25 Y155.06 E33.95124
G1 X202.80 Y158.33 E34.11597
G1 X202.53 Y159.82 E34.19147
G1 X202.53 Y159.82 E34.19152
G1 X202.23 Y161.48 E34.27572
G1 X200.86 Y163.88 E34.41358
G1 X199.67 Y165.83 E34.52732
G1 X198.81 Y167.25 E34.61024
G1 X197.81 Y168.18 E34.67812
G1 X195.63 Y170.44 E34.83506
G1 X192.26 Y171.34 E35.00875
G1 X190.27 Y171.87 E35.11170
G1 X189.20 Y172.24 E35.16815
G1 X187.67 Y172.75 E35.24850
G1 X184.89 Y173.38 E35.39097
G1 X184.49 Y173.56 E35.41302
G1 X184.49 Y173.56 E35.41307
G1 X183.01 Y174.26 E35.49433
G1 X182.99 Y174.26 E35.49545
G1 X181.82 Y175.13 E35.56813
G1 X180.54 Y176.10 E35.64839
G1 X178.44 Y177.23 E35.76715
G1 X178.41 Y177.29 E35.77074
G1 X176.86 Y178.15 E35.85911
G1 X176.63 Y178.63 E35.88555
G1 X174.60 Y179.81 E36.00242
G1 X174.15 Y180.93 E36.06299
G1 X171.87 Y182.41 E36.19850
G1 X171.00 Y183.74 E36.27768
G1 X168.74 Y185.27 E36.41395
G1 X167.55 Y186.20 E36.48943
G1 X166.87 Y186.73 E36.53227
G1 X165.08 Y187.74 E36.63480
G1 X163.87 Y188.29 E36.70131
G1 X163.43 Y188.50 E36.72550
G1 X162.05 Y189.02 E36.79891
G1 X160.87 Y189.42 E36.86101
G1 X160.38 Y189.59 E36.88736
G1 X157.72 Y190.26 E37.02377
G1 X157.72 Y190.26 E37.02382
G1 X157.09 Y190.43 E37.05666
G1 X155.76 Y190.61 E37.12364
G1 X154.38 Y190.85 E37.19335
G1 X153.73 Y190.97 E37.22643
G1 X152.83 Y191.03 E37.27146
G1 X149.51 Y191.27 E37.43732
G1 X147.37 Y191.29 E37.54409
G1 X146.99 Y191.30 E37.56290
G1 X144.78 Y191.23 E37.67331
G1 X143.08 Y191.15 E37.75817
G1 X140.91 Y190.99 E37.86707
G1 X140.36 Y190.95 E37.89443
G1 X138.51 Y190.81 E37.98686
G1 X137.13 Y190.64 E38.05622
G1 X134.33 Y190.42 E38.19649
G1 X133.38 Y190.28 E38.24431
G1 X129.93 Y190.01 E38.41696
G1 X129.04 Y189.90 E38.46154
G1 X126.82 Y189.55 E38.57389
G1 X126.82 Y189.56 E38.57394
G1 X124.94 Y189.27 E38.66871
G1 X123.42 Y188.73 E38.74939
G1 X122.06 Y188.00 E38.82600
G1 X122.06 Y188.00 E38.82605
G1 X119.58 Y186.66 E38.96661
G1 X116.99 Y184.86 E39.12441
G1 X116.14 Y184.27 E39.17575
G1 X114.42 Y182.81 E39.28845
G1 X113.28 Y181.76 E39.36577
G1 X112.81 Y181.32 E39.39776
G1 X110.80 Y179.24 E39.54224
G1 X110.24 Y178.60 E39.58479
G1 X107.76 Y175.58 E39.77941
G1 X107.17 Y174.73 E39.83102
G1 X106.23 Y173.30 E39.91636
G1 X104.89 Y170.39 E40.07630
G1 X103.99 Y167.83 E40.21154
G1 X103.53 Y166.50 E40.28196
G1 X103.21 Y165.25 E40.34625
G1 X102.73 Y163.50 E40.43708
G1 X102.48 Y162.57 E40.48492
G1 X102.22 Y160.91 E40.56886
G1 X101.92 Y159.10 E40.66022
G1 X101.78 Y158.26 E40.70302
G1 X101.66 Y156.10 E40.81089
G1 X101.57 Y154.59 E40.88640
G1 X101.53 Y153.84 E40.92369
G1 X101.65 Y151.37 E41.04687
G1 X101.70 Y150.11 E41.10978
G1 X101.73 Y149.41 E41.14498
G1 X102.30 Y145.67 E41.33365
G1 X102.39 Y145.05 E41.36487
G1 X103.34 Y141.41 E41.55250
G1 X103.49 Y140.83 E41.58241
G1 X104.81 Y137.31 E41.77038
G1 X105.02 Y136.75 E41.79997
G1 X106.69 Y133.42 E41.98573
G1 X106.97 Y132.86 E42.01692
G1 X108.95 Y129.76 E42.20042
G1 X109.30 Y129.22 E42.23243
G1 X111.63 Y126.32 E42.41836
G1 X112.02 Y125.84 E42.44892
G1 X114.62 Y123.24 E42.63237
G1 X115.06 Y122.80 E42.66355
G0 F12000 X115.33 Y123.10
G1 F2700 X118.13 Y120.84 E42.84322
G1 X118.64 Y120.44 E42.87551
G1 X121.63 Y118.53 E43.05240
G1 X122.19 Y118.16 E43.08613
G1 X125.30 Y116.63 E43.25898
G1 X125.97 Y116.30 E43.29608
G1 X129.07 Y115.16 E43.46108
G1 X130.23 Y114.74 E43.52251
G1 X134.78 Y114.10 E43.75195
G1 X136.09 Y114.08 E43.81701
G1 X136.41 Y114.07 E43.83295
G1 X140.34 Y114.17 E44.02903
G1 X140.72 Y114.16 E44.04805
G1 X141.12 Y114.15 E44.06801
G1 X144.34 Y114.27 E44.22873
G1 X145.12 Y114.29 E44.26800
G1 X145.57 Y114.29 E44.29045
G1 X148.41 Y114.53 E44.43236
G1 X149.58 Y114.62 E44.49089
G1 X153.36 Y115.11 E44.68107
G1 X153.88 Y115.17 E44.70743
G1 X157.25 Y115.89 E44.87903
G1 X157.82 Y116.01 E44.90816
G1 X160.89 Y116.99 E45.06886
G1 X161.58 Y117.20 E45.10493
G1 X163.45 Y118.10 E45.20872
G1 X164.29 Y118.50 E45.25492
G1 X165.20 Y118.91 E45.30459
G1 X166.72 Y120.09 E45.40079
G1 X167.34 Y120.51 E45.43798
G1 X168.41 Y121.22 E45.50245
G1 X169.60 Y122.75 E45.59911
G1 X170.07 Y123.24 E45.63280
G1 X171.48 Y124.73 E45.73511
G1 X171.94 Y125.35 E45.77347
G1 X173.12 Y126.23 E45.84716
G1 X174.10 Y127.39 E45.92270
G1 X175.37 Y128.25 E45.99942
G1 X176.66 Y129.55 E46.09057
G1 X178.40 Y130.58 E46.19143
G1 X179.75 Y131.93 E46.28682
G1 X182.15 Y133.18 E46.42138
G1 X183.39 Y134.40 E46.50844
G1 X186.94 Y136.09 E46.70474
G1 X187.76 Y136.82 E46.75961
G1 X191.53 Y138.50 E46.96529
G1 X193.45 Y139.87 E47.08308
G1 X194.27 Y140.55 E47.13610
G1 X195.83 Y142.04 E47.24386
G1 X197.73 Y143.86 E47.37530
G1 X199.34 Y145.93 E47.50591
G1 X200.33 Y147.45 E47.59645
G1 X201.31 Y148.93 E47.68512
G1 X202.19 Y152.11 E47.84980
G1 X202.49 Y153.45 E47.91817
G1 X202.49 Y153.45 E47.91822
G1 X202.84 Y155.08 E48.00135
G1 X202.41 Y158.27 E48.16209
G1 X202.13 Y159.76 E48.23785
G1 X201.85 Y161.34 E48.31794
G1 X200.52 Y163.68 E48.45206
G1 X199.33 Y165.62 E48.56552
G1 X198.49 Y166.99 E48.64575
G1 X197.53 Y167.89 E48.71130
G1 X195.42 Y170.08 E48.86333
G1 X192.16 Y170.95 E49.03150
G1 X190.15 Y171.49 E49.13527
G1 X189.07 Y171.86 E49.19215
G1 X187.57 Y172.37 E49.27144
G1 X184.76 Y173.00 E49.41510
G1 X184.32 Y173.20 E49.43930
G1 X184.32 Y173.20 E49.43935
G1 X182.89 Y173.87 E49.51795
G1 X182.82 Y173.88 E49.52149
G1 X182.75 Y173.94 E49.52600
G1 X181.62 Y174.78 E49.59618
G1 X180.32 Y175.76 E49.67744
G1 X178.16 Y176.93 E49.80007
G1 X178.12 Y176.99 E49.80376
G1 X176.55 Y177.87 E49.89338
G1 X176.32 Y178.35 E49.91998
G1 X174.28 Y179.53 E50.03757
G1 X173.83 Y180.67 E50.09864
G1 X171.58 Y182.12 E50.23201
G1 X171.57 Y182.14 E50.23331
G1 X170.71 Y183.45 E50.31141
G1 X168.50 Y184.95 E50.44452
G1 X167.30 Y185.89 E50.52057
G1 X166.65 Y186.40 E50.56189
G1 X164.90 Y187.38 E50.66206
G1 X163.67 Y187.94 E50.72959
G1 X163.27 Y188.13 E50.75133
G1 X161.92 Y188.64 E50.82364
G1 X160.74 Y189.04 E50.88549
G1 X160.26 Y189.21 E50.91103
G1 X157.63 Y189.88 E51.04658
G1 X157.01 Y190.04 E51.07838
G1 X155.69 Y190.22 E51.14484
G1 X154.34 Y190.45 E51.21325
G1 X153.68 Y190.57 E51.24674
G1 X152.80 Y190.63 E51.29071
G1 X149.50 Y190.87 E51.45592
G1 X147.37 Y190.89 E51.56209
G1 X147.00 Y190.90 E51.58055
G1 X144.80 Y190.83 E51.69037
G1 X143.11 Y190.75 E51.77477
G1 X140.94 Y190.59 E51.88323
G1 X140.94 Y190.59 E51.88328
G1 X140.39 Y190.55 E51.91079
G1 X138.55 Y190.41 E52.00271
G1 X137.16 Y190.24 E52.07248
G1 X134.37 Y190.02 E52.21214
G1 X133.42 Y189.88 E52.26017
G1 X129.97 Y189.61 E52.43272
G1 X129.10 Y189.50 E52.47660
G1 X126.87 Y189.16 E52.58915
G1 X125.04 Y188.88 E52.68159
G1 X123.58 Y188.36 E52.75882
G1 X122.25 Y187.65 E52.83391
G1 X119.79 Y186.32 E52.97338
G1 X117.21 Y184.53 E53.13004
G1 X117.21 Y184.53 E53.13009
G1 X116.38 Y183.95 E53.18046
G1 X114.68 Y182.51 E53.29178
G1 X113.54 Y181.46 E53.36938
G1 X113.09 Y181.04 E53.40010
G1 X111.09 Y178.97 E53.54349
G1 X110.54 Y178.34 E53.58522
G1 X108.08 Y175.34 E53.77872
G1 X107.51 Y174.51 E53.82928
G1 X106.58 Y173.11 E53.91293
G1 X105.26 Y170.24 E54.07043
G1 X104.37 Y167.70 E54.20468
G1 X103.91 Y166.38 E54.27424
G1 X103.59 Y165.15 E54.33765
G1 X103.12 Y163.40 E54.42823
G1 X103.12 Y163.40 E54.42828
G1 X102.87 Y162.49 E54.47559
G1 X102.60 Y160.75 E54.56326
G1 X102.31 Y159.04 E54.64997
G1 X102.17 Y158.21 E54.69167
G1 X102.06 Y156.12 E54.79603
G1 X101.97 Y154.56 E54.87400
G1 X101.93 Y153.84 E54.91024
G1 X102.05 Y151.39 E55.03237
G1 X102.10 Y150.13 E55.09543
G1 X102.10 Y150.13 E55.09548
G1 X102.12 Y149.45 E55.12957
G1 X102.69 Y145.73 E55.31713
G1 X102.78 Y145.13 E55.34734
G1 X103.73 Y141.51 E55.53390
G1 X103.87 Y140.95 E55.56283
G1 X105.18 Y137.48 E55.74804
G1 X105.39 Y136.91 E55.77830
G1 X107.06 Y133.57 E55.96460
G1 X107.31 Y133.06 E55.99314
G1 X109.32 Y129.93 E56.17854
G1 X109.62 Y129.46 E56.20654
G1 X111.94 Y126.57 E56.39130
G1 X112.31 Y126.11 E56.42083
G1 X114.90 Y123.53 E56.60318
G1 X115.33 Y123.10 E56.63331
G0 F12000 X115.59 Y123.39
G1 F2700 X118.38 Y121.15 E56.81188
G1 X118.87 Y120.76 E56.84307
G1 X121.84 Y118.87 E57.01884
G1 X122.39 Y118.51 E57.05151
G1 X125.46 Y117.00 E57.22244
G1 X126.12 Y116.67 E57.25928
G1 X129.21 Y115.54 E57.42300
G1 X130.33 Y115.13 E57.48252
G1 X134.81 Y114.50 E57.70853
G1 X136.11 Y114.48 E57.77309
G1 X136.41 Y114.47 E57.78833
G1 X140.33 Y114.57 E57.98407
G1 X140.72 Y114.56 E58.00358
G1 X141.11 Y114.55 E58.02300
G1 X144.31 Y114.67 E58.18267
G1 X145.12 Y114.69 E58.22273
G1 X145.55 Y114.69 E58.24459
G1 X148.34 Y114.93 E58.38424
G1 X149.54 Y115.02 E58.44398
G1 X153.31 Y115.50 E58.63356
G1 X153.81 Y115.57 E58.65916
G1 X157.17 Y116.28 E58.83015
G1 X157.17 Y116.28 E58.83020
G1 X157.71 Y116.40 E58.85814
G1 X160.77 Y117.37 E59.01790
G1 X161.43 Y117.58 E59.05256
G1 X163.28 Y118.46 E59.15492
G1 X164.12 Y118.86 E59.20146
G1 X164.99 Y119.25 E59.24887
G1 X166.48 Y120.41 E59.34323
G1 X167.12 Y120.84 E59.38135
G1 X168.14 Y121.52 E59.44258
G1 X169.30 Y123.02 E59.53714
G1 X169.78 Y123.52 E59.57171
G1 X171.17 Y124.99 E59.67268
G1 X171.65 Y125.63 E59.71265
G1 X172.84 Y126.53 E59.78715
G1 X173.82 Y127.69 E59.86305
G1 X175.12 Y128.56 E59.94074
G1 X176.41 Y129.87 E60.03246
G1 X178.15 Y130.90 E60.13342
G1 X179.52 Y132.25 E60.22938
G1 X181.91 Y133.50 E60.36394
G1 X183.15 Y134.73 E60.45125
G1 X186.72 Y136.43 E60.64815
G1 X187.54 Y137.16 E60.70323
G1 X191.33 Y138.84 E60.91007
G1 X193.21 Y140.18 E61.02510
G1 X194.00 Y140.85 E61.07667
G1 X195.55 Y142.33 E61.18363
G1 X197.43 Y144.13 E61.31373
G1 X199.01 Y146.16 E61.44210
G1 X200.00 Y147.67 E61.53188
G1 X200.94 Y149.10 E61.61742
G1 X201.81 Y152.21 E61.77842
G1 X202.09 Y153.52 E61.84547
G1 X202.44 Y155.09 E61.92578
G1 X202.01 Y158.21 E62.08255
G1 X201.74 Y159.69 E62.15785
G1 X201.47 Y161.21 E62.23459
G1 X200.17 Y163.47 E62.36498
G1 X198.99 Y165.41 E62.47815
G1 X198.18 Y166.74 E62.55563
G1 X197.26 Y167.60 E62.61874
G1 X195.21 Y169.72 E62.76594
G1 X192.06 Y170.56 E62.92832
G1 X190.03 Y171.11 E63.03324
G1 X188.94 Y171.48 E63.09053
G1 X187.46 Y171.98 E63.16878
G1 X184.62 Y172.62 E63.31376
G1 X184.16 Y172.84 E63.33952
G1 X182.77 Y173.49 E63.41591
G1 X182.65 Y173.51 E63.42204
G1 X182.51 Y173.62 E63.43116
G1 X181.34 Y174.49 E63.50334
G1 X180.10 Y175.42 E63.58089
G1 X177.88 Y176.63 E63.70735
G1 X177.84 Y176.69 E63.71109
G1 X176.25 Y177.58 E63.80187
G1 X176.01 Y178.06 E63.82876
G1 X173.96 Y179.25 E63.94702
G1 X173.50 Y180.40 E64.00860
G1 X171.29 Y181.83 E64.13986
G1 X171.22 Y181.94 E64.14666
G1 X170.42 Y183.16 E64.21955
G1 X168.26 Y184.62 E64.34931
G1 X167.05 Y185.57 E64.42604
G1 X166.43 Y186.07 E64.46583
G1 X164.72 Y187.02 E64.56365
G1 X163.50 Y187.58 E64.63040
G1 X163.12 Y187.76 E64.65154
G1 X161.78 Y188.26 E64.72279
G1 X160.61 Y188.67 E64.78433
G1 X160.61 Y188.66 E64.78438
G1 X160.15 Y188.83 E64.80910
G1 X157.53 Y189.49 E64.94381
G1 X156.93 Y189.64 E64.97454
G1 X155.62 Y189.82 E65.04039
G1 X154.27 Y190.06 E65.10900
G1 X153.63 Y190.17 E65.14153
G1 X152.77 Y190.24 E65.18451
G1 X149.48 Y190.47 E65.34907
G1 X147.36 Y190.49 E65.45459
G1 X147.00 Y190.50 E65.47270
G1 X144.81 Y190.43 E65.58186
G1 X143.13 Y190.35 E65.66587
G1 X140.97 Y190.19 E65.77407
G1 X140.97 Y190.19 E65.77412
G1 X140.42 Y190.15 E65.80159
G1 X138.59 Y190.01 E65.89301
G1 X137.20 Y189.84 E65.96302
G1 X134.42 Y189.62 E66.10224
G1 X133.46 Y189.49 E66.15041
G1 X130.01 Y189.22 E66.32297
G1 X129.16 Y189.10 E66.36608
G1 X126.93 Y188.76 E66.47838
G1 X125.14 Y188.49 E66.56891
G1 X123.74 Y187.99 E66.64275
G1 X122.44 Y187.29 E66.71630
G1 X120.00 Y185.98 E66.85467
G1 X117.44 Y184.20 E67.01021
G1 X116.63 Y183.64 E67.05962
G1 X114.95 Y182.21 E67.16955
G1 X113.81 Y181.16 E67.24677
G1 X113.37 Y180.75 E67.27692
G1 X111.39 Y178.70 E67.41918
G1 X110.85 Y178.08 E67.46010
G1 X108.40 Y175.10 E67.65252
G1 X107.84 Y174.28 E67.70201
G1 X106.93 Y172.91 E67.78399
G1 X105.63 Y170.09 E67.93897
G1 X104.75 Y167.57 E68.07227
G1 X104.29 Y166.27 E68.14100
G1 X103.98 Y165.05 E68.20358
G1 X103.50 Y163.30 E68.29446
G1 X103.50 Y163.30 E68.29451
G1 X103.26 Y162.40 E68.34063
G1 X103.01 Y160.78 E68.42280
G1 X102.71 Y158.97 E68.51416
G1 X102.71 Y158.97 E68.51421
G1 X102.57 Y158.17 E68.55481
G1 X102.46 Y156.06 E68.66032
G1 X102.37 Y154.54 E68.73613
G1 X102.33 Y153.84 E68.77132
G1 X102.45 Y151.47 E68.88930
G1 X102.50 Y150.15 E68.95556
G1 X102.52 Y149.49 E68.98856
G1 X103.09 Y145.79 E69.17496
G1 X103.18 Y145.21 E69.20421
G1 X104.11 Y141.62 E69.38968
G1 X104.25 Y141.07 E69.41763
G1 X105.56 Y137.59 E69.60342
G1 X105.75 Y137.07 E69.63098
G1 X107.42 Y133.75 E69.81619
G1 X107.66 Y133.25 E69.84370
G1 X109.65 Y130.16 E70.02749
G1 X109.95 Y129.69 E70.05502
G1 X112.25 Y126.82 E70.23864
G1 X112.61 Y126.38 E70.26711
G1 X115.18 Y123.81 E70.44837
G1 X115.59 Y123.39 E70.47747
G0 F12000 X115.86 Y123.69
G1 F2700 X118.64 Y121.46 E70.65534
G1 X119.11 Y121.09 E70.68507
G1 X122.06 Y119.20 E70.85976
G1 X122.59 Y118.86 E70.89135
G1 X125.64 Y117.35 E71.06117
G1 X125.64 Y117.35 E71.06122
G1 X126.28 Y117.03 E71.09692
G1 X129.35 Y115.91 E71.25975
G1 X130.43 Y115.52 E71.31699
G1 X134.84 Y114.90 E71.53957
G1 X136.12 Y114.89 E71.60328
G1 X136.42 Y114.87 E71.61822
G1 X140.33 Y114.97 E71.81356
G1 X140.71 Y114.96 E71.83217
G1 X140.71 Y114.96 E71.83222
G1 X141.11 Y114.95 E71.85248
G1 X144.34 Y115.07 E72.01340
G1 X145.09 Y115.09 E72.05107
G1 X145.09 Y115.08 E72.05112
G1 X145.53 Y115.09 E72.07322
G1 X148.35 Y115.33 E72.21438
G1 X149.50 Y115.42 E72.27161
G1 X153.25 Y115.90 E72.46064
G1 X153.75 Y115.96 E72.48544
G1 X157.08 Y116.67 E72.65556
G1 X157.08 Y116.67 E72.65561
G1 X157.61 Y116.79 E72.68263
G1 X160.65 Y117.75 E72.84151
G1 X161.28 Y117.95 E72.87471
G1 X163.05 Y118.80 E72.97276
G1 X163.96 Y119.22 E73.02253
G1 X164.78 Y119.60 E73.06760
G1 X166.24 Y120.73 E73.15964
G1 X166.93 Y121.19 E73.20114
G1 X167.86 Y121.82 E73.25726
G1 X169.00 Y123.27 E73.34933
G1 X169.50 Y123.79 E73.38515
G1 X170.87 Y125.24 E73.48481
G1 X171.36 Y125.92 E73.52645
G1 X172.57 Y126.82 E73.60166
G1 X173.56 Y127.99 E73.67803
G1 X174.86 Y128.87 E73.75654
G1 X176.16 Y130.19 E73.84893
G1 X177.90 Y131.22 E73.94989
G1 X179.28 Y132.58 E74.04645
G1 X181.67 Y133.83 E74.18097
G1 X182.92 Y135.07 E74.26877
G1 X186.50 Y136.76 E74.46614
G1 X187.32 Y137.50 E74.52154
G1 X191.13 Y139.19 E74.72941
G1 X192.96 Y140.50 E74.84162
G1 X193.73 Y141.14 E74.89181
G1 X195.27 Y142.62 E74.99805
G1 X197.14 Y144.40 E75.12671
G1 X198.69 Y146.40 E75.25284
G1 X199.66 Y147.89 E75.34182
G1 X200.57 Y149.27 E75.42423
G1 X201.42 Y152.31 E75.58155
G1 X201.70 Y153.61 E75.64813
G1 X202.03 Y155.11 E75.72486
G1 X201.62 Y158.14 E75.87760
G1 X201.35 Y159.62 E75.95249
G1 X201.09 Y161.07 E76.02579
G1 X199.83 Y163.27 E76.15245
G1 X198.65 Y165.20 E76.26532
G1 X197.87 Y166.48 E76.34012
G1 X196.97 Y167.32 E76.40153
G1 X195.00 Y169.37 E76.54323
G1 X191.95 Y170.18 E76.70029
G1 X191.95 Y170.18 E76.70034
G1 X189.93 Y170.72 E76.80515
G1 X188.82 Y171.09 E76.86308
G1 X187.35 Y171.60 E76.94080
G1 X184.49 Y172.24 E77.08701
G1 X183.98 Y172.47 E77.11490
G1 X183.98 Y172.47 E77.11495
G1 X182.65 Y173.10 E77.18869
G1 X182.48 Y173.13 E77.19715
G1 X182.26 Y173.31 E77.21112
G1 X181.14 Y174.14 E77.28077
G1 X179.89 Y175.09 E77.35908
G1 X177.59 Y176.33 E77.48929
G1 X177.55 Y176.40 E77.49321
G1 X175.94 Y177.29 E77.58529
G1 X175.71 Y177.78 E77.61233
G1 X173.65 Y178.98 E77.73117
G1 X173.18 Y180.13 E77.79336
G1 X171.01 Y181.54 E77.92244
G1 X170.89 Y181.72 E77.93339
G1 X170.13 Y182.88 E78.00234
G1 X168.03 Y184.30 E78.12891
G1 X166.82 Y185.24 E78.20521
G1 X166.21 Y185.73 E78.24456
G1 X164.53 Y186.66 E78.33998
G1 X163.33 Y187.22 E78.40597
G1 X162.96 Y187.39 E78.42643
G1 X161.64 Y187.89 E78.49668
G1 X160.48 Y188.29 E78.55793
G1 X160.03 Y188.44 E78.58180
G1 X157.46 Y189.09 E78.71395
G1 X156.85 Y189.25 E78.74532
G1 X155.56 Y189.43 E78.81043
G1 X154.18 Y189.67 E78.88056
G1 X153.58 Y189.77 E78.91091
G1 X152.74 Y189.84 E78.95283
G1 X149.46 Y190.07 E79.11674
G1 X147.36 Y190.09 E79.22166
G1 X147.00 Y190.09 E79.23943
G1 X144.83 Y190.03 E79.34799
G1 X143.16 Y189.95 E79.43155
G1 X141.00 Y189.79 E79.53950
G1 X141.00 Y189.79 E79.53955
G1 X140.45 Y189.75 E79.56696
G1 X138.63 Y189.61 E79.65794
G1 X137.23 Y189.44 E79.72825
G1 X134.46 Y189.22 E79.86692
G1 X133.50 Y189.09 E79.91525
G1 X130.06 Y188.82 E80.08775
G1 X129.21 Y188.71 E80.13016
G1 X126.99 Y188.37 E80.24226
G1 X125.23 Y188.10 E80.33086
G1 X123.91 Y187.63 E80.40126
G1 X122.64 Y186.94 E80.47314
G1 X120.21 Y185.64 E80.61055
G1 X117.67 Y183.87 E80.76499
G1 X116.87 Y183.32 E80.81342
G1 X115.21 Y181.91 E80.92198
G1 X114.08 Y180.87 E80.99877
G1 X113.64 Y180.47 E81.02839
G1 X111.68 Y178.43 E81.16949
G1 X111.15 Y177.82 E81.20959
G1 X108.72 Y174.86 E81.40092
G1 X108.17 Y174.06 E81.44937
G1 X107.28 Y172.72 E81.52964
G1 X106.00 Y169.94 E81.68219
G1 X105.12 Y167.44 E81.81448
G1 X104.68 Y166.15 E81.88231
G1 X104.39 Y165.03 E81.94015
G1 X103.89 Y163.18 E82.03573
G1 X103.65 Y162.32 E82.08027
G1 X103.40 Y160.67 E82.16365
G1 X103.10 Y158.90 E82.25294
G1 X102.97 Y158.12 E82.29242
G1 X102.86 Y156.03 E82.39678
G1 X102.77 Y154.51 E82.47274
G1 X102.73 Y153.83 E82.50683
G1 X102.85 Y151.43 E82.62672
G1 X102.90 Y150.16 E82.69018
G1 X102.92 Y149.52 E82.72208
G1 X103.48 Y145.85 E82.90737
G1 X103.57 Y145.29 E82.93561
G1 X104.50 Y141.72 E83.12000
G1 X104.64 Y141.19 E83.14699
G1 X105.93 Y137.75 E83.33022
G1 X105.93 Y137.75 E83.33027
G1 X106.12 Y137.23 E83.35830
G1 X107.78 Y133.93 E83.54242
G1 X108.01 Y133.45 E83.56890
G1 X110.00 Y130.36 E83.75211
G1 X110.27 Y129.92 E83.77811
G1 X112.57 Y127.07 E83.96064
G1 X112.91 Y126.64 E83.98804
G1 X115.46 Y124.09 E84.16813
G1 X115.86 Y123.69 E84.19622
G0 F12000 X116.13 Y123.99
G1 F2700 X118.89 Y121.77 E84.37301
G1 X119.34 Y121.41 E84.40162
G1 X122.27 Y119.54 E84.57518
G1 X122.79 Y119.21 E84.60573
G1 X125.83 Y117.70 E84.77523
G1 X126.44 Y117.40 E84.80914
G1 X129.49 Y116.29 E84.97081
G1 X130.52 Y115.91 E85.02596
G1 X134.87 Y115.30 E85.24508
G1 X136.13 Y115.28 E85.30774
G1 X136.43 Y115.27 E85.32258
G1 X140.31 Y115.37 E85.51657
G1 X140.74 Y115.36 E85.53813
G1 X141.11 Y115.35 E85.55640
G1 X144.31 Y115.47 E85.71631
G1 X145.09 Y115.49 E85.75483
G1 X145.09 Y115.48 E85.75488
G1 X145.51 Y115.49 E85.77624
G1 X148.30 Y115.73 E85.91574
G1 X149.46 Y115.81 E85.97362
G1 X153.20 Y116.30 E86.16209
G1 X153.68 Y116.36 E86.18604
G1 X157.00 Y117.06 E86.35525
G1 X157.51 Y117.17 E86.38141
G1 X160.54 Y118.14 E86.54033
G1 X160.54 Y118.14 E86.54038
G1 X161.13 Y118.32 E86.57121
G1 X162.92 Y119.18 E86.67020
G1 X163.83 Y119.60 E86.71986
G1 X164.57 Y119.94 E86.76074
G1 X166.01 Y121.06 E86.85167
G1 X166.67 Y121.51 E86.89148
G1 X167.59 Y122.11 E86.94627
G1 X168.69 Y123.53 E87.03600
G1 X169.21 Y124.07 E87.07294
G1 X170.56 Y125.50 E87.17127
G1 X171.07 Y126.20 E87.21465
G1 X172.29 Y127.11 E87.29051
G1 X173.29 Y128.29 E87.36743
G1 X174.60 Y129.18 E87.44669
G1 X175.91 Y130.50 E87.53954
G1 X177.66 Y131.54 E87.64075
G1 X179.04 Y132.91 E87.73780
G1 X181.43 Y134.16 E87.87236
G1 X182.69 Y135.40 E87.96056
G1 X186.27 Y137.10 E88.15844
G1 X187.10 Y137.84 E88.21412
G1 X190.93 Y139.54 E88.42311
G1 X192.72 Y140.82 E88.53252
G1 X193.47 Y141.44 E88.58126
G1 X195.00 Y142.91 E88.68687
G1 X196.84 Y144.67 E88.81401
G1 X198.36 Y146.63 E88.93786
G1 X199.33 Y148.11 E89.02610
G1 X199.33 Y148.11 E89.02615
G1 X200.20 Y149.44 E89.10543
G1 X201.03 Y152.40 E89.25902
G1 X201.31 Y153.69 E89.32509
G1 X201.63 Y155.13 E89.39825
G1 X201.22 Y158.08 E89.54702
G1 X200.95 Y159.55 E89.62146
G1 X200.71 Y160.93 E89.69141
G1 X199.48 Y163.07 E89.81433
G1 X198.31 Y164.99 E89.92692
G1 X197.55 Y166.23 E89.99895
G1 X196.69 Y167.03 E90.05801
G1 X194.78 Y169.01 E90.19483
G1 X191.85 Y169.79 E90.34611
G1 X189.80 Y170.34 E90.45217
G1 X188.69 Y170.72 E90.51087
G1 X187.24 Y171.21 E90.58706
G1 X184.36 Y171.85 E90.73435
G1 X183.81 Y172.11 E90.76450
G1 X182.53 Y172.72 E90.83556
G1 X182.31 Y172.76 E90.84655
G1 X182.02 Y172.99 E90.86514
G1 X180.87 Y173.84 E90.93654
G1 X179.67 Y174.75 E91.01142
G1 X177.31 Y176.03 E91.14552
G1 X177.26 Y176.10 E91.14947
G1 X175.63 Y177.00 E91.24268
G1 X175.40 Y177.50 E91.27000
G1 X173.32 Y178.70 E91.38953
G1 X172.85 Y179.87 E91.45220
G1 X170.72 Y181.25 E91.57904
G1 X170.55 Y181.50 E91.59420
G1 X169.84 Y182.59 E91.65929
G1 X167.80 Y183.97 E91.78212
G1 X166.56 Y184.94 E91.86056
G1 X165.98 Y185.40 E91.89736
G1 X164.35 Y186.31 E91.99042
G1 X163.17 Y186.85 E92.05559
G1 X162.81 Y187.02 E92.07541
G1 X161.51 Y187.51 E92.14464
G1 X160.35 Y187.91 E92.20558
G1 X159.92 Y188.06 E92.22866
G1 X157.36 Y188.71 E92.36002
G1 X157.36 Y188.71 E92.36007
G1 X156.78 Y188.86 E92.39026
G1 X155.52 Y189.03 E92.45350
G1 X154.11 Y189.27 E92.52505
G1 X153.53 Y189.38 E92.55448
G1 X152.71 Y189.44 E92.59536
G1 X149.45 Y189.67 E92.75861
G1 X147.36 Y189.69 E92.86289
G1 X147.01 Y189.69 E92.88035
G1 X144.84 Y189.63 E92.98827
G1 X143.18 Y189.55 E93.07142
G1 X141.03 Y189.39 E93.17913
G1 X141.03 Y189.39 E93.17918
G1 X140.48 Y189.35 E93.20654
G1 X138.67 Y189.21 E93.29701
G1 X137.29 Y189.04 E93.36648
G1 X134.50 Y188.83 E93.50579
G1 X133.54 Y188.69 E93.55427
G1 X130.10 Y188.42 E93.72677
G1 X129.27 Y188.31 E93.76843
G1 X127.06 Y187.97 E93.87997
G1 X125.33 Y187.71 E93.96702
G1 X124.07 Y187.26 E94.03397
G1 X122.83 Y186.59 E94.10438
G1 X122.83 Y186.59 E94.10443
G1 X120.42 Y185.30 E94.24070
G1 X117.90 Y183.54 E94.39399
G1 X117.90 Y183.54 E94.39404
G1 X117.12 Y183.00 E94.44148
G1 X115.48 Y181.61 E94.54868
G1 X114.35 Y180.57 E94.62505
G1 X113.92 Y180.18 E94.65411
G1 X111.97 Y178.16 E94.79412
G1 X111.46 Y177.57 E94.83340
G1 X109.04 Y174.62 E95.02356
G1 X108.50 Y173.84 E95.07104
G1 X107.64 Y172.52 E95.14956
G1 X106.37 Y169.79 E95.29965
G1 X105.50 Y167.31 E95.43099
G1 X105.06 Y166.04 E95.49797
G1 X104.76 Y164.85 E95.55891
G1 X104.27 Y163.08 E95.65083
G1 X104.04 Y162.24 E95.69423
G1 X103.79 Y160.61 E95.77650
G1 X103.50 Y158.84 E95.86609
G1 X103.37 Y158.08 E95.90444
G1 X103.26 Y156.01 E96.00761
G1 X103.17 Y154.49 E96.08367
G1 X103.13 Y153.83 E96.11671
G1 X103.25 Y151.50 E96.23295
G1 X103.30 Y150.18 E96.29920
G1 X103.30 Y150.18 E96.29925
G1 X103.32 Y149.56 E96.33006
G1 X103.88 Y145.91 E96.51413
G1 X103.96 Y145.37 E96.54137
G1 X104.89 Y141.82 E96.72472
G1 X105.02 Y141.31 E96.75073
G1 X106.31 Y137.87 E96.93428
G1 X106.49 Y137.39 E96.95986
G1 X108.13 Y134.11 E97.14284
G1 X108.36 Y133.65 E97.16834
G1 X110.33 Y130.58 E97.35047
G1 X110.60 Y130.15 E97.37553
G1 X112.88 Y127.32 E97.55682
G1 X113.21 Y126.91 E97.58316
G1 X115.75 Y124.37 E97.76219
G1 X116.13 Y123.99 E97.78921
G0 F12000 X116.40 Y124.29
G1 F2700 X119.14 Y122.08 E97.96487
G1 X119.14 Y122.08 E97.96492
G1 X119.57 Y121.74 E97.99249
G1 X122.47 Y119.89 E98.16422
G1 X122.98 Y119.56 E98.19447
G1 X126.01 Y118.06 E98.36283
G1 X126.60 Y117.77 E98.39570
G1 X129.62 Y116.66 E98.55631
G1 X130.62 Y116.30 E98.60933
G1 X134.90 Y115.70 E98.82501
G1 X136.15 Y115.69 E98.88723
G1 X136.43 Y115.67 E98.90137
G1 X140.31 Y115.77 E99.09496
G1 X140.75 Y115.76 E99.11702
G1 X141.11 Y115.75 E99.13474
G1 X144.29 Y115.87 E99.29371
G1 X145.08 Y115.89 E99.33303
G1 X145.08 Y115.89 E99.33308
G1 X145.49 Y115.89 E99.35373
G1 X148.28 Y116.13 E99.49344
G1 X149.42 Y116.21 E99.55007
G1 X153.15 Y116.69 E99.73799
G1 X153.61 Y116.75 E99.76112
G1 X156.91 Y117.46 E99.92952
G1 X157.41 Y117.56 E99.95471
G1 X160.41 Y118.52 E100.11177
G1 X160.41 Y118.51 E100.11182
G1 X160.99 Y118.70 E100.14216
G1 X162.76 Y119.55 E100.24023
G1 X163.66 Y119.97 E100.28963
G1 X164.36 Y120.29 E100.32832
G1 X165.78 Y121.39 E100.41784
G1 X166.45 Y121.84 E100.45822
G1 X167.31 Y122.41 E100.50973
G1 X168.40 Y123.80 E100.59771
G1 X168.92 Y124.34 E100.63518
G1 X170.25 Y125.76 E100.73217
G1 X170.79 Y126.48 E100.77723
G1 X172.01 Y127.41 E100.85380
G1 X173.02 Y128.59 E100.93129
G1 X174.35 Y129.49 E101.01131
G1 X175.67 Y130.82 E101.10480
G1 X177.41 Y131.86 E101.20601
G1 X178.80 Y133.23 E101.30370
G1 X181.19 Y134.48 E101.43826
G1 X182.46 Y135.73 E101.52684
G1 X186.05 Y137.44 E101.72516
G1 X186.88 Y138.18 E101.78110
G1 X190.73 Y139.89 E101.99127
G1 X192.47 Y141.13 E102.09789
G1 X193.20 Y141.74 E102.14518
G1 X194.72 Y143.19 E102.25008
G1 X196.54 Y144.94 E102.37577
G1 X198.03 Y146.86 E102.49735
G1 X199.00 Y148.33 E102.58486
G1 X199.84 Y149.60 E102.66103
G1 X200.64 Y152.50 E102.81090
G1 X200.92 Y153.78 E102.87646
G1 X201.22 Y155.14 E102.94604
G1 X200.83 Y158.02 E103.09082
G1 X200.56 Y159.48 E103.16486
G1 X200.32 Y160.79 E103.23136
G1 X199.14 Y162.86 E103.35055
G1 X197.97 Y164.78 E103.46285
G1 X197.24 Y165.97 E103.53217
G1 X196.41 Y166.75 E103.58897
G1 X194.57 Y168.65 E103.72082
G1 X191.75 Y169.41 E103.86683
G1 X189.68 Y169.96 E103.97351
G1 X188.56 Y170.34 E104.03264
G1 X187.13 Y170.82 E104.10778
G1 X184.23 Y171.47 E104.25608
G1 X183.64 Y171.75 E104.28856
G1 X182.40 Y172.34 E104.35696
G1 X182.14 Y172.38 E104.37039
G1 X181.77 Y172.68 E104.39377
G1 X180.66 Y173.50 E104.46296
G1 X179.45 Y174.41 E104.53827
G1 X177.02 Y175.73 E104.67612
G1 X176.98 Y175.80 E104.68025
G1 X175.32 Y176.72 E104.77467
G1 X175.09 Y177.21 E104.80216
G1 X173.01 Y178.42 E104.92232
G1 X172.53 Y179.60 E104.98557
G1 X170.43 Y180.96 E105.11033
G1 X170.23 Y181.26 E105.12861
G1 X170.23 Y181.26 E105.12866
G1 X169.55 Y182.30 E105.19087
G1 X167.56 Y183.66 E105.31091
G1 X166.31 Y184.63 E105.38955
G1 X165.76 Y185.06 E105.42483
G1 X164.17 Y185.95 E105.51550
G1 X163.00 Y186.49 E105.57991
G1 X162.65 Y186.65 E105.59910
G1 X161.37 Y187.13 E105.66727
G1 X160.22 Y187.53 E105.72790
G1 X159.80 Y187.68 E105.75013
G1 X157.23 Y188.33 E105.88228
G1 X156.70 Y188.46 E105.90984
G1 X155.45 Y188.63 E105.97269
G1 X154.04 Y188.88 E106.04417
G1 X153.48 Y188.98 E106.07264
G1 X152.68 Y189.04 E106.11247
G1 X149.43 Y189.27 E106.27508
G1 X147.35 Y189.29 E106.37875
G1 X147.35 Y189.29 E106.37880
G1 X147.01 Y189.29 E106.39592
G1 X144.86 Y189.23 E106.50323
G1 X143.20 Y189.15 E106.58594
G1 X141.05 Y188.99 E106.69349
G1 X140.51 Y188.95 E106.72070
G1 X138.71 Y188.81 E106.81067
G1 X137.32 Y188.65 E106.88049
G1 X134.55 Y188.43 E107.01926
G1 X133.60 Y188.29 E107.06708
G1 X130.14 Y188.02 E107.24033
G1 X129.32 Y187.91 E107.28128
G1 X127.12 Y187.58 E107.39258
G1 X125.43 Y187.32 E107.47775
G1 X124.23 Y186.89 E107.54125
G1 X123.01 Y186.24 E107.61030
G1 X120.63 Y184.95 E107.74528
G1 X118.13 Y183.22 E107.89741
G1 X117.36 Y182.68 E107.94391
G1 X115.74 Y181.31 E108.04975
G1 X114.62 Y180.28 E108.12569
G1 X114.20 Y179.89 E108.15422
G1 X112.27 Y177.89 E108.29309
G1 X111.76 Y177.31 E108.33157
G1 X109.36 Y174.38 E108.52063
G1 X108.83 Y173.61 E108.56707
G1 X107.98 Y172.33 E108.64388
G1 X106.74 Y169.64 E108.79150
G1 X105.88 Y167.17 E108.92188
G1 X105.44 Y165.92 E108.98802
G1 X105.14 Y164.76 E109.04809
G1 X104.66 Y162.97 E109.14031
G1 X104.44 Y162.15 E109.18262
G1 X104.19 Y160.58 E109.26221
G1 X103.89 Y158.77 E109.35357
G1 X103.77 Y158.03 E109.39082
G1 X103.66 Y155.99 E109.49278
G1 X103.57 Y154.48 E109.56844
G1 X103.57 Y154.48 E109.56849
G1 X103.53 Y153.83 E109.60108
G1 X103.65 Y151.47 E109.71872
G1 X103.70 Y150.21 E109.78198
G1 X103.72 Y149.60 E109.81233
G1 X104.28 Y145.97 E109.99525
G1 X104.35 Y145.45 E110.02153
G1 X105.28 Y141.92 E110.20380
G1 X105.40 Y141.43 E110.22882
G1 X106.69 Y138.01 E110.41132
G1 X106.86 Y137.55 E110.43588
G1 X108.48 Y134.31 E110.61658
G1 X108.71 Y133.85 E110.64226
G1 X110.67 Y130.79 E110.82322
G1 X110.93 Y130.39 E110.84732
G1 X113.19 Y127.57 E111.02747
G1 X113.51 Y127.18 E111.05277
G1 X116.03 Y124.66 E111.23068
G1 X116.40 Y124.29 E111.25664
G0 F12000 X116.67 Y124.59
G1 F2700 X119.39 Y122.39 E111.43121
G1 X119.39 Y122.40 E111.43126
G1 X119.81 Y122.06 E111.45776
G1 X122.70 Y120.22 E111.62912
G1 X123.18 Y119.91 E111.65753
G1 X126.18 Y118.43 E111.82418
G1 X126.76 Y118.14 E111.85660
G1 X129.76 Y117.04 E112.01609
G1 X130.72 Y116.69 E112.06699
G1 X134.93 Y116.10 E112.27930
G1 X136.16 Y116.08 E112.34062
G1 X136.44 Y116.07 E112.35446
G1 X140.31 Y116.17 E112.54770
G1 X140.76 Y116.16 E112.57031
G1 X141.11 Y116.15 E112.58743
G1 X144.31 Y116.27 E112.74755
G1 X145.07 Y116.29 E112.78552
G1 X145.07 Y116.28 E112.78557
G1 X145.47 Y116.29 E112.80553
G1 X148.19 Y116.52 E112.94177
G1 X149.38 Y116.61 E113.00081
G1 X153.10 Y117.09 E113.18822
G1 X153.54 Y117.15 E113.21051
G1 X156.83 Y117.85 E113.37823
G1 X157.30 Y117.95 E113.40231
G1 X160.29 Y118.90 E113.55845
G1 X160.84 Y119.07 E113.58738
G1 X162.55 Y119.89 E113.68175
G1 X163.46 Y120.31 E113.73197
G1 X164.15 Y120.63 E113.77016
G1 X165.55 Y121.71 E113.85800
G1 X166.23 Y122.17 E113.89918
G1 X167.03 Y122.71 E113.94746
G1 X168.09 Y124.06 E114.03323
G1 X168.63 Y124.62 E114.07166
G1 X169.94 Y126.01 E114.16733
G1 X170.50 Y126.77 E114.21429
G1 X171.74 Y127.70 E114.29140
G1 X172.75 Y128.89 E114.36935
G1 X174.09 Y129.80 E114.45019
G1 X175.42 Y131.14 E114.54424
G1 X177.16 Y132.18 E114.64561
G1 X178.56 Y133.56 E114.74375
G1 X180.95 Y134.81 E114.87838
G1 X182.22 Y136.06 E114.96739
G1 X185.82 Y137.77 E115.16625
G1 X186.66 Y138.52 E115.22242
G1 X190.53 Y140.24 E115.43367
G1 X192.23 Y141.45 E115.53754
G1 X192.93 Y142.04 E115.58337
G1 X194.44 Y143.48 E115.68764
G1 X196.24 Y145.21 E115.81185
G1 X197.71 Y147.09 E115.93111
G1 X198.66 Y148.55 E116.01792
G1 X198.66 Y148.55 E116.01799
G1 X199.47 Y149.77 E116.09099
G1 X200.25 Y152.59 E116.23724
G1 X200.53 Y153.87 E116.30223
G1 X200.81 Y155.16 E116.36829
G1 X200.43 Y157.96 E116.50904
G1 X200.17 Y159.41 E116.58262
G1 X199.94 Y160.65 E116.64573
G1 X198.79 Y162.66 E116.76117
G1 X197.62 Y164.58 E116.87322
G1 X196.93 Y165.72 E116.93981
G1 X196.13 Y166.46 E116.99421
G1 X194.36 Y168.29 E117.12126
G1 X191.64 Y169.02 E117.26174
G1 X189.56 Y169.58 E117.36924
G1 X188.43 Y169.96 E117.42880
G1 X187.03 Y170.44 E117.50289
G1 X184.10 Y171.09 E117.65237
G1 X183.47 Y171.39 E117.68703
G1 X183.47 Y171.39 E117.68708
G1 X182.28 Y171.95 E117.75276
G1 X181.97 Y172.00 E117.76867
G1 X181.53 Y172.36 E117.79680
G1 X180.39 Y173.20 E117.86738
G1 X179.24 Y174.07 E117.93955
G1 X176.74 Y175.43 E118.08128
G1 X176.69 Y175.50 E118.08545
G1 X175.02 Y176.43 E118.18114
G1 X174.78 Y176.93 E118.20886
G1 X172.69 Y178.15 E118.32964
G1 X172.21 Y179.33 E118.39344
G1 X170.15 Y180.67 E118.51599
G1 X169.89 Y181.06 E118.53946
G1 X169.25 Y182.02 E118.59677
G1 X167.33 Y183.32 E118.71294
G1 X166.07 Y184.31 E118.79286
G1 X165.54 Y184.73 E118.82653
G1 X163.99 Y185.59 E118.91487
G1 X162.85 Y186.12 E118.97729
G1 X162.50 Y186.28 E118.99704
G1 X161.24 Y186.76 E119.06419
G1 X160.09 Y187.15 E119.12451
G1 X160.09 Y187.15 E119.12456
G1 X159.69 Y187.29 E119.14600
G1 X157.14 Y187.94 E119.27727
G1 X156.62 Y188.07 E119.30376
G1 X155.39 Y188.24 E119.36580
G1 X153.97 Y188.49 E119.43764
G1 X153.97 Y188.48 E119.43769
G1 X153.43 Y188.58 E119.46521
G1 X152.65 Y188.64 E119.50404
G1 X149.41 Y188.87 E119.66599
G1 X147.35 Y188.89 E119.76907
G1 X147.35 Y188.89 E119.76912
G1 X147.01 Y188.90 E119.78588
G1 X144.88 Y188.83 E119.89255
G1 X143.23 Y188.75 E119.97486
G1 X141.08 Y188.59 E120.08216
G1 X140.54 Y188.56 E120.10932
G1 X138.75 Y188.42 E120.19885
G1 X137.36 Y188.25 E120.26876
G1 X134.59 Y188.03 E120.40717
G1 X133.64 Y187.89 E120.45536
G1 X130.18 Y187.62 E120.62840
G1 X129.38 Y187.52 E120.66855
G1 X127.18 Y187.18 E120.77969
G1 X125.53 Y186.93 E120.86296
G1 X124.39 Y186.53 E120.92302
G1 X123.20 Y185.88 E120.99052
G1 X120.84 Y184.61 E121.12440
G1 X118.36 Y182.89 E121.27539
G1 X117.61 Y182.37 E121.32092
G1 X116.01 Y181.01 E121.42537
G1 X114.90 Y179.99 E121.50050
G1 X114.48 Y179.61 E121.52889
G1 X112.56 Y177.62 E121.66664
G1 X112.07 Y177.05 E121.70430
G1 X109.68 Y174.14 E121.89226
G1 X109.16 Y173.39 E121.93770
G1 X108.33 Y172.13 E122.01278
G1 X107.11 Y169.49 E122.15796
G1 X106.26 Y167.04 E122.28735
G1 X105.83 Y165.81 E122.35259
G1 X105.53 Y164.66 E122.41187
G1 X105.05 Y162.87 E122.50436
G1 X104.83 Y162.07 E122.54553
G1 X104.59 Y160.51 E122.62427
G1 X104.28 Y158.71 E122.71563
G1 X104.16 Y157.99 E122.75176
G1 X104.06 Y155.97 E122.85257
G1 X103.97 Y154.44 E122.92894
G1 X103.93 Y153.83 E122.95988
G1 X104.05 Y151.49 E123.07647
G1 X104.10 Y150.22 E123.13993
G1 X104.10 Y150.22 E123.13998
G1 X104.12 Y149.64 E123.16918
G1 X104.67 Y146.03 E123.35099
G1 X104.75 Y145.53 E123.37626
G1 X105.66 Y142.02 E123.55744
G1 X105.78 Y141.55 E123.58149
G1 X107.06 Y138.15 E123.76286
G1 X107.22 Y137.71 E123.78643
G1 X108.84 Y134.49 E123.96617
G1 X109.06 Y134.04 E123.99067
G1 X111.00 Y131.01 E124.17055
G1 X111.25 Y130.62 E124.19366
G1 X113.49 Y127.83 E124.37204
G1 X113.49 Y127.83 E124.37209
G1 X113.81 Y127.44 E124.39700
G1 X116.31 Y124.94 E124.57378
G1 X116.67 Y124.59 E124.59872
G0 F12000 X116.93 Y124.88
G1 F2700 X119.64 Y122.71 E124.77218
G1 X120.04 Y122.39 E124.79759
G1 X122.92 Y120.55 E124.96786
G1 X123.38 Y120.26 E124.99524
G1 X126.36 Y118.78 E125.16135
G1 X126.92 Y118.51 E125.19210
G1 X129.90 Y117.42 E125.35051
G1 X130.82 Y117.08 E125.39930
G1 X134.96 Y116.50 E125.60818
G1 X136.17 Y116.48 E125.66835
G1 X136.44 Y116.47 E125.68219
G1 X140.33 Y116.57 E125.87603
G1 X140.77 Y116.56 E125.89814
G1 X141.10 Y116.55 E125.91471
G1 X144.29 Y116.67 E126.07383
G1 X145.07 Y116.69 E126.11265
G1 X145.07 Y116.69 E126.11269
G1 X145.45 Y116.69 E126.13190
G1 X148.19 Y116.92 E126.26891
G1 X149.34 Y117.01 E126.32619
G1 X153.05 Y117.49 E126.51305
G1 X153.48 Y117.54 E126.53453
G1 X156.75 Y118.24 E126.70143
G1 X156.75 Y118.24 E126.70148
G1 X157.20 Y118.34 E126.72459
G1 X160.17 Y119.28 E126.87984
G1 X160.69 Y119.44 E126.90730
G1 X162.38 Y120.25 E127.00042
G1 X163.29 Y120.68 E127.05079
G1 X163.95 Y120.98 E127.08674
G1 X165.31 Y122.03 E127.17273
G1 X166.01 Y122.50 E127.21481
G1 X166.76 Y123.01 E127.25992
G1 X167.79 Y124.33 E127.34346
G1 X168.34 Y124.90 E127.38290
G1 X169.64 Y126.27 E127.47720
G1 X170.21 Y127.05 E127.52573
G1 X171.46 Y127.99 E127.60365
G1 X172.48 Y129.19 E127.68206
G1 X173.83 Y130.11 E127.76377
G1 X175.17 Y131.45 E127.85828
G1 X176.92 Y132.50 E127.95985
G1 X178.32 Y133.89 E128.05863
G1 X180.72 Y135.14 E128.19323
G1 X181.99 Y136.40 E128.28263
G1 X185.60 Y138.11 E128.48193
G1 X186.44 Y138.86 E128.53843
G1 X190.33 Y140.59 E128.75077
G1 X191.98 Y141.77 E128.85181
G1 X192.67 Y142.34 E128.89623
G1 X194.17 Y143.77 E128.99986
G1 X194.17 Y143.77 E128.99993
G1 X195.94 Y145.47 E129.12262
G1 X197.38 Y147.33 E129.23965
G1 X198.33 Y148.77 E129.32572
G1 X199.10 Y149.94 E129.39558
G1 X199.86 Y152.69 E129.53809
G1 X200.14 Y153.95 E129.60259
G1 X200.41 Y155.18 E129.66506
G1 X200.04 Y157.89 E129.80183
G1 X199.77 Y159.33 E129.87461
G1 X199.78 Y159.33 E129.87466
G1 X199.56 Y160.51 E129.93478
G1 X198.45 Y162.46 E130.04651
G1 X197.28 Y164.37 E130.15822
G1 X196.62 Y165.46 E130.22210
G1 X195.84 Y166.18 E130.27480
G1 X194.15 Y167.93 E130.39632
G1 X191.54 Y168.63 E130.53122
G1 X189.46 Y169.19 E130.63888
G1 X188.31 Y169.58 E130.69922
G1 X186.92 Y170.05 E130.77266
G1 X183.97 Y170.71 E130.92333
G1 X183.30 Y171.03 E130.96009
G1 X183.30 Y171.03 E130.96014
G1 X182.16 Y171.57 E131.02319
G1 X181.80 Y171.63 E131.04158
G1 X181.28 Y172.04 E131.07443
G1 X180.15 Y172.88 E131.14458
G1 X179.02 Y173.74 E131.21540
G1 X176.46 Y175.12 E131.36096
G1 X176.41 Y175.20 E131.36523
G1 X174.71 Y176.14 E131.46211
G1 X174.47 Y176.65 E131.49005
G1 X172.37 Y177.87 E131.61155
G1 X171.88 Y179.06 E131.67584
G1 X169.86 Y180.38 E131.79633
G1 X169.56 Y180.82 E131.82300
G1 X168.97 Y181.73 E131.87726
G1 X167.09 Y183.00 E131.99016
G1 X165.82 Y184.00 E132.07072
G1 X165.31 Y184.40 E132.10291
G1 X163.81 Y185.24 E132.18885
G1 X162.66 Y185.76 E132.25172
G1 X162.66 Y185.76 E132.25177
G1 X162.34 Y185.91 E132.26967
G1 X161.10 Y186.38 E132.33581
G1 X159.97 Y186.77 E132.39537
G1 X159.97 Y186.77 E132.39542
G1 X159.57 Y186.91 E132.41648
G1 X157.06 Y187.54 E132.54564
G1 X156.54 Y187.68 E132.57228
G1 X155.35 Y187.84 E132.63245
G1 X153.90 Y188.09 E132.70572
G1 X153.38 Y188.18 E132.73232
G1 X152.62 Y188.24 E132.77009
G1 X149.40 Y188.47 E132.93139
G1 X147.34 Y188.49 E133.03387
G1 X147.34 Y188.49 E133.03392
G1 X147.01 Y188.50 E133.05034
G1 X144.89 Y188.43 E133.15641
G1 X143.25 Y188.35 E133.23827
G1 X141.11 Y188.20 E133.34532
G1 X140.57 Y188.16 E133.37243
G1 X138.79 Y188.02 E133.46145
G1 X137.39 Y187.85 E133.53171
G1 X134.64 Y187.63 E133.66963
G1 X133.68 Y187.50 E133.71781
G1 X130.22 Y187.22 E133.89091
G1 X129.44 Y187.12 E133.93035
G1 X127.23 Y186.79 E134.04154
G1 X127.23 Y186.78 E134.04159
G1 X125.63 Y186.54 E134.12267
G1 X124.56 Y186.16 E134.17929
G1 X123.39 Y185.53 E134.24528
G1 X121.05 Y184.27 E134.37803
G1 X118.58 Y182.56 E134.52780
G1 X117.85 Y182.05 E134.57250
G1 X116.28 Y180.71 E134.67553
G1 X115.17 Y179.70 E134.75031
G1 X114.76 Y179.32 E134.77814
G1 X112.86 Y177.35 E134.91475
G1 X112.38 Y176.79 E134.95160
G1 X110.00 Y173.90 E135.13846
G1 X109.50 Y173.16 E135.18283
G1 X108.69 Y171.94 E135.25618
G1 X107.49 Y169.34 E135.39891
G1 X106.63 Y166.91 E135.52728
G1 X106.21 Y165.69 E135.59172
G1 X105.92 Y164.56 E135.65019
G1 X105.43 Y162.76 E135.74293
G1 X105.22 Y161.99 E135.78297
G1 X104.98 Y160.44 E135.86084
G1 X104.68 Y158.65 E135.95175
G1 X104.56 Y157.95 E135.98723
G1 X104.46 Y155.98 E136.08544
G1 X104.37 Y154.42 E136.16341
G1 X104.33 Y153.82 E136.19325
G1 X104.45 Y151.51 E136.30873
G1 X104.50 Y150.22 E136.37299
G1 X104.52 Y149.67 E136.40050
G1 X105.07 Y146.09 E136.58114
G1 X105.07 Y146.09 E136.58119
G1 X105.14 Y145.61 E136.60549
G1 X106.05 Y142.12 E136.78560
G1 X106.16 Y141.67 E136.80862
G1 X107.44 Y138.29 E136.98892
G1 X107.59 Y137.87 E137.01152
G1 X109.21 Y134.65 E137.19122
G1 X109.41 Y134.24 E137.21366
G1 X111.32 Y131.26 E137.39065
G1 X111.32 Y131.26 E137.39070
G1 X111.58 Y130.85 E137.41460
G1 X113.81 Y128.08 E137.59185
G1 X114.10 Y127.71 E137.61566
G1 X116.59 Y125.22 E137.79134
G1 X116.93 Y124.88 E137.81519
G0 F12000 X117.20 Y125.18
G1 F2700 X119.89 Y123.02 E137.98755
G1 X120.27 Y122.71 E138.01189
G1 X123.13 Y120.89 E138.18104
G1 X123.58 Y120.60 E138.20737
G1 X126.53 Y119.14 E138.37185
G1 X127.08 Y118.88 E138.40208
G1 X130.03 Y117.79 E138.55935
G1 X130.91 Y117.47 E138.60605
G1 X134.99 Y116.89 E138.81146
G1 X136.18 Y116.89 E138.87053
G1 X136.45 Y116.87 E138.88432
G1 X140.33 Y116.97 E139.07786
G1 X140.78 Y116.96 E139.10047
G1 X141.10 Y116.95 E139.11644
G1 X144.22 Y117.07 E139.27237
G1 X145.08 Y117.08 E139.31483
G1 X145.43 Y117.09 E139.33269
G1 X148.14 Y117.32 E139.46799
G1 X149.29 Y117.41 E139.52597
G1 X153.00 Y117.88 E139.71228
G1 X153.41 Y117.94 E139.73290
G1 X156.66 Y118.63 E139.89891
G1 X156.66 Y118.63 E139.89896
G1 X157.10 Y118.72 E139.92125
G1 X160.05 Y119.66 E140.07556
G1 X160.55 Y119.82 E140.10161
G1 X162.23 Y120.62 E140.19482
G1 X163.15 Y121.05 E140.24537
G1 X163.74 Y121.32 E140.27763
G1 X165.06 Y122.35 E140.36124
G1 X165.79 Y122.84 E140.40485
G1 X166.48 Y123.30 E140.44670
G1 X167.49 Y124.59 E140.52807
G1 X168.05 Y125.17 E140.56851
G1 X169.33 Y126.53 E140.66150
G1 X169.93 Y127.34 E140.71174
G1 X171.19 Y128.28 E140.79031
G1 X172.21 Y129.50 E140.86943
G1 X173.58 Y130.42 E140.95179
G1 X174.92 Y131.77 E141.04700
G1 X176.67 Y132.81 E141.14855
G1 X178.09 Y134.21 E141.24786
G1 X180.48 Y135.46 E141.38248
G1 X181.76 Y136.73 E141.47216
G1 X185.38 Y138.44 E141.67205
G1 X186.22 Y139.20 E141.72879
G1 X190.13 Y140.94 E141.94227
G1 X191.74 Y142.08 E142.04052
G1 X192.40 Y142.63 E142.08349
G1 X193.89 Y144.06 E142.18645
G1 X195.65 Y145.74 E142.30770
G1 X197.06 Y147.56 E142.42248
G1 X197.99 Y148.99 E142.50776
G1 X198.73 Y150.11 E142.57449
G1 X199.48 Y152.79 E142.71328
G1 X199.75 Y154.04 E142.77726
G1 X200.00 Y155.19 E142.83617
G1 X199.64 Y157.83 E142.96897
G1 X199.38 Y159.26 E143.04168
G1 X199.18 Y160.37 E143.09799
G1 X198.11 Y162.25 E143.20597
G1 X196.94 Y164.16 E143.31743
G1 X196.30 Y165.21 E143.37859
G1 X195.57 Y165.89 E143.42832
G1 X193.94 Y167.58 E143.54553
G1 X191.44 Y168.25 E143.67496
G1 X189.33 Y168.81 E143.78365
G1 X188.18 Y169.20 E143.84422
G1 X186.81 Y169.67 E143.91662
G1 X183.84 Y170.33 E144.06824
G1 X183.13 Y170.66 E144.10744
G1 X182.04 Y171.18 E144.16778
G1 X181.62 Y171.25 E144.18865
G1 X181.04 Y171.73 E144.22626
G1 X179.91 Y172.56 E144.29605
G1 X178.80 Y173.40 E144.36551
G1 X176.17 Y174.82 E144.51481
G1 X176.12 Y174.90 E144.51923
G1 X174.41 Y175.85 E144.61729
G1 X174.16 Y176.36 E144.64550
G1 X172.05 Y177.59 E144.76767
G1 X171.56 Y178.80 E144.83247
G1 X169.57 Y180.09 E144.95076
G1 X169.22 Y180.62 E144.98250
G1 X168.67 Y181.44 E145.03200
G1 X166.86 Y182.68 E145.14162
G1 X165.57 Y183.68 E145.22286
G1 X165.09 Y184.06 E145.25355
G1 X163.63 Y184.88 E145.33708
G1 X162.52 Y185.39 E145.39818
G1 X162.18 Y185.54 E145.41644
G1 X160.97 Y186.01 E145.48148
G1 X159.84 Y186.39 E145.54083
G1 X159.46 Y186.53 E145.56104
G1 X156.96 Y187.16 E145.68943
G1 X156.96 Y187.16 E145.68948
G1 X156.47 Y187.28 E145.71498
G1 X155.26 Y187.45 E145.77586
G1 X153.85 Y187.69 E145.84714
G1 X153.85 Y187.69 E145.84719
G1 X153.33 Y187.79 E145.87364
G1 X152.59 Y187.84 E145.91036
G1 X149.38 Y188.07 E146.07102
G1 X147.36 Y188.09 E146.17170
G1 X147.02 Y188.09 E146.18891
G1 X144.91 Y188.03 E146.29438
G1 X143.28 Y187.95 E146.37584
G1 X141.14 Y187.80 E146.48259
G1 X140.60 Y187.76 E146.50971
G1 X138.83 Y187.62 E146.59823
G1 X137.43 Y187.45 E146.66874
G1 X134.68 Y187.24 E146.80621
G1 X133.72 Y187.10 E146.85459
G1 X130.26 Y186.83 E147.02763
G1 X129.49 Y186.73 E147.06632
G1 X127.30 Y186.39 E147.17706
G1 X125.72 Y186.15 E147.25649
G1 X124.72 Y185.79 E147.30966
G1 X123.58 Y185.18 E147.37411
G1 X121.26 Y183.93 E147.50578
G1 X118.81 Y182.23 E147.65452
G1 X118.09 Y181.73 E147.69811
G1 X116.54 Y180.41 E147.79980
G1 X115.44 Y179.40 E147.87458
G1 X115.04 Y179.03 E147.90138
G1 X113.16 Y177.08 E148.03690
G1 X112.68 Y176.53 E148.07294
G1 X110.32 Y173.65 E148.25870
G1 X109.83 Y172.94 E148.30202
G1 X109.04 Y171.74 E148.37368
G1 X107.86 Y169.19 E148.51397
G1 X107.01 Y166.78 E148.64134
G1 X106.59 Y165.57 E148.70494
G1 X106.32 Y164.51 E148.75995
G1 X105.82 Y162.66 E148.85522
G1 X105.82 Y162.66 E148.85527
G1 X105.61 Y161.90 E148.89457
G1 X105.38 Y160.38 E148.97154
G1 X105.07 Y158.57 E149.06290
G1 X105.08 Y158.57 E149.06295
G1 X104.96 Y157.90 E149.09686
G1 X104.86 Y155.93 E149.19538
G1 X104.77 Y154.41 E149.27154
G1 X104.77 Y154.41 E149.27159
G1 X104.73 Y153.82 E149.30088
G1 X104.84 Y151.57 E149.41342
G1 X104.90 Y150.24 E149.47968
G1 X104.92 Y149.71 E149.50609
G1 X105.46 Y146.16 E149.68562
G1 X105.53 Y145.69 E149.70887
G1 X106.44 Y142.22 E149.88794
G1 X106.55 Y141.79 E149.90998
G1 X107.81 Y138.43 E150.08922
G1 X107.96 Y138.03 E150.11076
G1 X109.56 Y134.82 E150.28939
G1 X109.75 Y134.44 E150.31081
G1 X111.68 Y131.44 E150.48845
G1 X111.90 Y131.09 E150.50957
G1 X114.12 Y128.32 E150.68631
G1 X114.40 Y127.98 E150.70843
G1 X116.88 Y125.51 E150.88302
G1 X117.20 Y125.18 E150.90580
G0 F12000 X117.47 Y125.48
G1 F2700 X120.14 Y123.33 E151.07703
G1 X120.51 Y123.04 E151.10031
G1 X123.34 Y121.23 E151.26781
G1 X123.34 Y121.23 E151.26786
G1 X123.77 Y120.95 E151.29364
G1 X126.72 Y119.50 E151.45750
G1 X127.23 Y119.24 E151.48619
G1 X130.17 Y118.17 E151.64239
G1 X131.01 Y117.86 E151.68697
G1 X135.02 Y117.30 E151.88895
G1 X136.20 Y117.28 E151.94763
G1 X136.46 Y117.27 E151.96067
G1 X140.33 Y117.37 E152.15376
G1 X140.77 Y117.36 E152.17607
G1 X141.10 Y117.35 E152.19234
G1 X144.20 Y117.47 E152.34732
G1 X145.07 Y117.48 E152.39053
G1 X145.41 Y117.49 E152.40774
G1 X148.15 Y117.72 E152.54469
G1 X149.25 Y117.81 E152.59997
G1 X152.95 Y118.28 E152.78573
G1 X153.34 Y118.33 E152.80555
G1 X156.58 Y119.02 E152.97073
G1 X156.58 Y119.02 E152.97078
G1 X157.00 Y119.11 E152.99205
G1 X159.93 Y120.04 E153.14548
G1 X160.40 Y120.19 E153.17011
G1 X162.04 Y120.97 E153.26078
G1 X162.98 Y121.41 E153.31265
G1 X163.53 Y121.67 E153.34278
G1 X164.84 Y122.68 E153.42568
G1 X165.56 Y123.17 E153.46909
G1 X166.21 Y123.60 E153.50769
G1 X167.18 Y124.85 E153.58654
G1 X167.76 Y125.45 E153.62825
G1 X169.02 Y126.78 E153.71994
G1 X169.64 Y127.62 E153.77189
G1 X170.91 Y128.58 E153.85116
G1 X171.94 Y129.79 E153.93060
G1 X173.32 Y130.73 E154.01389
G1 X174.67 Y132.09 E154.10970
G1 X176.42 Y133.13 E154.21134
G1 X177.85 Y134.54 E154.31122
G1 X180.24 Y135.79 E154.44582
G1 X181.53 Y137.06 E154.53613
G1 X185.15 Y138.78 E154.73638
G1 X186.00 Y139.54 E154.79340
G1 X189.94 Y141.29 E155.00791
G1 X191.49 Y142.40 E155.10345
G1 X192.13 Y142.93 E155.14495
G1 X193.61 Y144.35 E155.24728
G1 X195.35 Y146.01 E155.36698
G1 X196.73 Y147.79 E155.47948
G1 X197.66 Y149.21 E155.56404
G1 X198.36 Y150.27 E155.62764
G1 X199.09 Y152.88 E155.76278
G1 X199.36 Y154.12 E155.82620
G1 X199.60 Y155.21 E155.88154
G1 X199.25 Y157.77 E156.01036
G1 X198.99 Y159.19 E156.08267
G1 X198.80 Y160.24 E156.13553
G1 X197.76 Y162.05 E156.23984
G1 X195.99 Y164.95 E156.40941
G1 X195.30 Y165.60 E156.45671
G1 X193.73 Y167.22 E156.56916
G1 X191.34 Y167.86 E156.69284
G1 X191.34 Y167.86 E156.69289
G1 X189.21 Y168.43 E156.80261
G1 X188.05 Y168.82 E156.86396
G1 X186.70 Y169.28 E156.93494
G1 X183.71 Y169.95 E157.08774
G1 X182.96 Y170.31 E157.12937
G1 X181.91 Y170.80 E157.18683
G1 X181.46 Y170.88 E157.21009
G1 X180.79 Y171.41 E157.25245
G1 X179.70 Y172.22 E157.32057
G1 X179.70 Y172.22 E157.32062
G1 X178.59 Y173.06 E157.38999
G1 X175.89 Y174.52 E157.54308
G1 X175.84 Y174.60 E157.54765
G1 X174.10 Y175.56 E157.64696
G1 X173.86 Y176.08 E157.67533
G1 X171.73 Y177.31 E157.79808
G1 X171.71 Y177.36 E157.80034
G1 X171.71 Y177.36 E157.80039
G1 X171.24 Y178.53 E157.86353
G1 X169.28 Y179.79 E157.97962
G1 X168.89 Y180.40 E158.01554
G1 X168.88 Y180.40 E158.01559
G1 X168.38 Y181.16 E158.06118
G1 X166.62 Y182.36 E158.16757
G1 X165.33 Y183.37 E158.24945
G1 X164.87 Y183.73 E158.27861
G1 X163.45 Y184.52 E158.35980
G1 X162.33 Y185.04 E158.42108
G1 X162.03 Y185.18 E158.43771
G1 X160.83 Y185.63 E158.50170
G1 X159.71 Y186.02 E158.56080
G1 X159.34 Y186.14 E158.58013
G1 X156.84 Y186.77 E158.70881
G1 X156.39 Y186.89 E158.73212
G1 X155.19 Y187.06 E158.79244
G1 X153.78 Y187.30 E158.86394
G1 X153.28 Y187.39 E158.88937
G1 X152.56 Y187.44 E158.92504
G1 X149.37 Y187.67 E159.08510
G1 X147.36 Y187.69 E159.18523
G1 X147.02 Y187.69 E159.20200
G1 X144.92 Y187.63 E159.30687
G1 X143.30 Y187.55 E159.38788
G1 X141.17 Y187.40 E159.49438
G1 X140.63 Y187.36 E159.52144
G1 X138.87 Y187.22 E159.60946
G1 X137.48 Y187.05 E159.67932
G1 X134.72 Y186.84 E159.81724
G1 X133.78 Y186.70 E159.86501
G1 X130.30 Y186.43 E160.03877
G1 X129.55 Y186.33 E160.07675
G1 X127.36 Y186.00 E160.18748
G1 X127.36 Y185.99 E160.18753
G1 X125.82 Y185.76 E160.26484
G1 X124.88 Y185.43 E160.31456
G1 X123.78 Y184.83 E160.37742
G1 X121.47 Y183.59 E160.50802
G1 X119.04 Y181.90 E160.65568
G1 X118.34 Y181.41 E160.69830
G1 X116.81 Y180.11 E160.79858
G1 X115.71 Y179.10 E160.87297
G1 X115.32 Y178.75 E160.89924
G1 X113.45 Y176.81 E161.03360
G1 X112.99 Y176.28 E161.06882
G1 X110.64 Y173.41 E161.25348
G1 X110.16 Y172.72 E161.29576
G1 X109.39 Y171.55 E161.36570
G1 X108.23 Y169.04 E161.50353
G1 X107.39 Y166.65 E161.62995
G1 X106.98 Y165.46 E161.69265
G1 X106.69 Y164.36 E161.74947
G1 X106.20 Y162.55 E161.84273
G1 X106.00 Y161.82 E161.88059
G1 X105.76 Y160.26 E161.95913
G1 X105.47 Y158.51 E162.04806
G1 X105.36 Y157.86 E162.08085
G1 X105.26 Y155.91 E162.17822
G1 X105.17 Y154.37 E162.25498
G1 X105.13 Y153.82 E162.28272
G1 X105.25 Y151.55 E162.39596
G1 X105.30 Y150.27 E162.46017
G1 X105.30 Y150.27 E162.46022
G1 X105.32 Y149.75 E162.48599
G1 X105.86 Y146.22 E162.66435
G1 X105.92 Y145.77 E162.68665
G1 X106.82 Y142.32 E162.86464
G1 X106.93 Y141.91 E162.88571
G1 X108.18 Y138.57 E163.06381
G1 X108.33 Y138.18 E163.08439
G1 X109.92 Y135.00 E163.26186
G1 X110.10 Y134.64 E163.28230
G1 X112.02 Y131.66 E163.45885
G1 X112.23 Y131.32 E163.47901
G1 X114.44 Y128.58 E163.65455
G1 X114.70 Y128.25 E163.67563
G1 X117.16 Y125.79 E163.84909
G1 X117.47 Y125.48 E163.87086
G0 F12000 X117.74 Y125.78
G1 F2700 X120.39 Y123.64 E164.04098
G1 X120.74 Y123.36 E164.06316
G1 X123.56 Y121.56 E164.23015
G1 X123.97 Y121.30 E164.25430
G1 X126.90 Y119.86 E164.41711
G1 X127.39 Y119.61 E164.44469
G1 X130.31 Y118.54 E164.59971
G1 X131.11 Y118.25 E164.64226
G1 X135.05 Y117.69 E164.84082
G1 X136.21 Y117.69 E164.89859
G1 X136.46 Y117.67 E164.91134
G1 X140.33 Y117.77 E165.10408
G1 X140.79 Y117.76 E165.12704
G1 X141.10 Y117.75 E165.14261
G1 X144.22 Y117.87 E165.29873
G1 X145.06 Y117.89 E165.34055
G1 X145.40 Y117.89 E165.35711
G1 X148.08 Y118.12 E165.49176
G1 X149.22 Y118.20 E165.54834
G1 X152.90 Y118.68 E165.73349
G1 X153.27 Y118.72 E165.75250
G1 X156.50 Y119.41 E165.91702
G1 X156.90 Y119.50 E165.93722
G1 X159.82 Y120.43 E166.09023
G1 X160.25 Y120.56 E166.11292
G1 X161.87 Y121.34 E166.20238
G1 X162.81 Y121.78 E166.25425
G1 X163.32 Y122.01 E166.28218
G1 X164.61 Y123.00 E166.36330
G1 X165.36 Y123.51 E166.40865
G1 X165.93 Y123.90 E166.44300
G1 X166.88 Y125.12 E166.52018
G1 X167.47 Y125.72 E166.56234
G1 X168.71 Y127.04 E166.65272
G1 X169.35 Y127.91 E166.70650
G1 X170.63 Y128.87 E166.78631
G1 X171.67 Y130.09 E166.86628
G1 X173.06 Y131.04 E166.95040
G1 X174.42 Y132.41 E167.04671
G1 X176.18 Y133.45 E167.14850
G1 X177.61 Y134.87 E167.24908
G1 X180.00 Y136.12 E167.38357
G1 X181.29 Y137.39 E167.47403
G1 X184.93 Y139.12 E167.67498
G1 X185.77 Y139.87 E167.73134
G1 X185.78 Y139.88 E167.73222
G1 X189.74 Y141.64 E167.94793
G1 X191.25 Y142.72 E168.04065
G1 X191.87 Y143.23 E168.08074
G1 X193.34 Y144.64 E168.18240
G1 X195.05 Y146.28 E168.30064
G1 X196.40 Y148.03 E168.41087
G1 X197.33 Y149.43 E168.49467
G1 X197.99 Y150.44 E168.55514
G1 X198.70 Y152.98 E168.68657
G1 X198.97 Y154.21 E168.74947
G1 X198.97 Y154.21 E168.74952
G1 X199.19 Y155.22 E168.80132
G1 X198.85 Y157.70 E168.92611
G1 X198.59 Y159.12 E168.99796
G1 X198.42 Y160.10 E169.04749
G1 X197.42 Y161.85 E169.14800
G1 X195.68 Y164.70 E169.31459
G1 X195.01 Y165.32 E169.36020
G1 X193.52 Y166.86 E169.46707
G1 X191.23 Y167.47 E169.58539
G1 X189.11 Y168.04 E169.69506
G1 X187.92 Y168.44 E169.75761
G1 X186.59 Y168.90 E169.82758
G1 X183.58 Y169.57 E169.98157
G1 X182.79 Y169.94 E170.02529
G1 X181.79 Y170.41 E170.08012
G1 X181.28 Y170.50 E170.10585
G1 X180.55 Y171.09 E170.15294
G1 X179.44 Y171.92 E170.22191
G1 X178.37 Y172.72 E170.28874
G1 X175.60 Y174.22 E170.44570
G1 X175.56 Y174.30 E170.45027
G1 X173.79 Y175.28 E170.55085
G1 X173.55 Y175.80 E170.57944
G1 X171.41 Y177.04 E170.70284
G1 X171.34 Y177.20 E170.71179
G1 X170.91 Y178.26 E170.76876
G1 X169.00 Y179.50 E170.88269
G1 X168.55 Y180.17 E170.92279
G1 X168.09 Y180.87 E170.96451
G1 X166.38 Y182.03 E171.06760
G1 X165.08 Y183.05 E171.15011
G1 X164.65 Y183.40 E171.17775
G1 X163.27 Y184.17 E171.25659
G1 X162.18 Y184.67 E171.31633
G1 X161.87 Y184.81 E171.33311
G1 X160.69 Y185.25 E171.39605
G1 X159.57 Y185.64 E171.45520
G1 X159.23 Y185.76 E171.47336
G1 X156.74 Y186.39 E171.60119
G1 X156.74 Y186.39 E171.60124
G1 X156.31 Y186.50 E171.62350
G1 X155.15 Y186.66 E171.68201
G1 X153.71 Y186.91 E171.75492
G1 X153.23 Y186.99 E171.77934
G1 X152.53 Y187.04 E171.81401
G1 X149.35 Y187.27 E171.97337
G1 X147.35 Y187.29 E172.07300
G1 X147.03 Y187.29 E172.08932
G1 X144.94 Y187.23 E172.19354
G1 X143.32 Y187.16 E172.27415
G1 X141.20 Y187.00 E172.38040
G1 X140.66 Y186.96 E172.40741
G1 X138.91 Y186.82 E172.49498
G1 X137.52 Y186.65 E172.56500
G1 X134.77 Y186.44 E172.70251
G1 X133.82 Y186.30 E172.75043
G1 X130.34 Y186.03 E172.92419
G1 X129.60 Y185.94 E172.96142
G1 X127.42 Y185.60 E173.07175
G1 X125.92 Y185.37 E173.14734
G1 X125.05 Y185.06 E173.19364
G1 X123.96 Y184.48 E173.25507
G1 X123.96 Y184.48 E173.25512
G1 X121.68 Y183.25 E173.38452
G1 X119.27 Y181.57 E173.53088
G1 X118.58 Y181.10 E173.57265
G1 X117.07 Y179.81 E173.67158
G1 X115.98 Y178.81 E173.74554
G1 X115.60 Y178.46 E173.77121
G1 X113.75 Y176.54 E173.90451
G1 X113.29 Y176.02 E173.93896
G1 X110.96 Y173.17 E174.12245
G1 X110.49 Y172.49 E174.16369
G1 X109.74 Y171.35 E174.23197
G1 X108.60 Y168.89 E174.36731
G1 X107.77 Y166.51 E174.49273
G1 X107.36 Y165.34 E174.55458
G1 X107.08 Y164.26 E174.61053
G1 X106.59 Y162.45 E174.70410
G1 X106.39 Y161.74 E174.74082
G1 X106.17 Y160.25 E174.81613
G1 X105.86 Y158.44 E174.90749
G1 X105.76 Y157.81 E174.93911
G1 X105.66 Y155.89 E175.03528
G1 X105.57 Y154.35 E175.11220
G1 X105.57 Y154.35 E175.11225
G1 X105.53 Y153.82 E175.13894
G1 X105.64 Y151.60 E175.24969
G1 X105.64 Y151.60 E175.24974
G1 X105.70 Y150.27 E175.31599
G1 X105.72 Y149.79 E175.34021
G1 X106.25 Y146.29 E175.51681
G1 X106.32 Y145.85 E175.53875
G1 X107.21 Y142.42 E175.71566
G1 X107.31 Y142.03 E175.73574
G1 X108.55 Y138.73 E175.91200
G1 X108.55 Y138.73 E175.91205
G1 X108.69 Y138.34 E175.93238
G1 X110.28 Y135.18 E176.10878
G1 X110.45 Y134.83 E176.12821
G1 X112.35 Y131.88 E176.30365
G1 X112.56 Y131.55 E176.32279
G1 X114.75 Y128.83 E176.49719
G1 X115.00 Y128.51 E176.51725
G1 X117.44 Y126.07 E176.68958
G1 X117.74 Y125.78 E176.71029
G0 F12000 X118.00 Y126.08
G1 F2700 X120.64 Y123.96 E176.87910
G1 X120.97 Y123.69 E176.90042
G1 X123.77 Y121.91 E177.06589
G1 X124.17 Y121.65 E177.08943
G1 X127.07 Y120.22 E177.25106
G1 X127.55 Y119.98 E177.27759
G1 X130.45 Y118.92 E177.43160
G1 X131.21 Y118.64 E177.47193
G1 X135.08 Y118.09 E177.66711
G1 X136.22 Y118.08 E177.72368
G1 X136.47 Y118.07 E177.73648
G1 X140.33 Y118.17 E177.92887
G1 X140.80 Y118.16 E177.95237
G1 X141.09 Y118.15 E177.96725
G1 X144.20 Y118.27 E178.12247
G1 X145.06 Y118.28 E178.16503
G1 X145.38 Y118.29 E178.18090
G1 X148.05 Y118.52 E178.31470
G1 X149.17 Y118.60 E178.37108
G1 X152.84 Y119.07 E178.55573
G1 X153.21 Y119.12 E178.57394
G1 X156.41 Y119.80 E178.73758
G1 X156.79 Y119.88 E178.75681
G1 X159.69 Y120.80 E178.90841
G1 X160.10 Y120.94 E178.93021
G1 X161.72 Y121.71 E179.01972
G1 X162.62 Y122.13 E179.06934
G1 X163.11 Y122.36 E179.09612
G1 X164.37 Y123.33 E179.17525
G1 X165.13 Y123.84 E179.22149
G1 X165.66 Y124.19 E179.25279
G1 X166.58 Y125.38 E179.32769
G1 X167.18 Y126.00 E179.37095
G1 X168.41 Y127.30 E179.45996
G1 X169.06 Y128.19 E179.51523
G1 X170.36 Y129.16 E179.59593
G1 X171.40 Y130.40 E179.67647
G1 X172.81 Y131.35 E179.76130
G1 X174.18 Y132.73 E179.85832
G1 X175.93 Y133.77 E179.96011
G1 X177.33 Y135.16 E180.05857
G1 X177.33 Y135.16 E180.05864
G1 X177.37 Y135.19 E180.06125
G1 X179.76 Y136.44 E180.19581
G1 X181.04 Y137.70 E180.28521
G1 X181.06 Y137.72 E180.28673
G1 X184.71 Y139.46 E180.48815
G1 X185.50 Y140.17 E180.54161
G1 X185.57 Y140.22 E180.54571
G1 X189.54 Y141.99 E180.76245
G1 X191.00 Y143.03 E180.85237
G1 X191.60 Y143.53 E180.89104
G1 X193.06 Y144.93 E180.99203
G1 X194.75 Y146.55 E181.10876
G1 X196.08 Y148.26 E181.21676
G1 X196.99 Y149.65 E181.29980
G1 X197.62 Y150.61 E181.35714
G1 X198.31 Y153.07 E181.48485
G1 X198.58 Y154.30 E181.54724
G1 X198.78 Y155.24 E181.59547
G1 X198.46 Y157.64 E181.71628
G1 X198.20 Y159.05 E181.78773
G1 X198.04 Y159.96 E181.83380
G1 X197.07 Y161.64 E181.93063
G1 X195.36 Y164.44 E182.09420
G1 X194.72 Y165.04 E182.13811
G1 X193.31 Y166.50 E182.23944
G1 X191.13 Y167.09 E182.35225
G1 X188.99 Y167.66 E182.46274
G1 X187.80 Y168.06 E182.52545
G1 X187.80 Y168.06 E182.52550
G1 X186.48 Y168.51 E182.59468
G1 X183.45 Y169.19 E182.74962
G1 X182.62 Y169.58 E182.79555
G1 X181.67 Y170.03 E182.84789
G1 X181.11 Y170.13 E182.87616
G1 X180.30 Y170.78 E182.92793
G1 X179.20 Y171.60 E182.99651
G1 X178.15 Y172.38 E183.06196
G1 X175.32 Y173.92 E183.22278
G1 X175.27 Y174.00 E183.22746
G1 X173.49 Y174.99 E183.32918
G1 X173.24 Y175.51 E183.35799
G1 X171.09 Y176.76 E183.48197
G1 X170.97 Y177.05 E183.49777
G1 X170.59 Y178.00 E183.54849
G1 X168.71 Y179.22 E183.66032
G1 X168.22 Y179.95 E183.70451
G1 X167.80 Y180.59 E183.74237
G1 X166.15 Y181.71 E183.84220
G1 X164.83 Y182.74 E183.92535
G1 X164.42 Y183.06 E183.95146
G1 X163.09 Y183.81 E184.02791
G1 X162.00 Y184.31 E184.08765
G1 X161.72 Y184.44 E184.10301
G1 X160.56 Y184.88 E184.16493
G1 X159.45 Y185.26 E184.22348
G1 X159.45 Y185.26 E184.22353
G1 X159.11 Y185.38 E184.24116
G1 X156.65 Y186.00 E184.36811
G1 X156.24 Y186.10 E184.38929
G1 X155.08 Y186.26 E184.44724
G1 X153.63 Y186.51 E184.52086
G1 X153.18 Y186.59 E184.54377
G1 X152.51 Y186.64 E184.57738
G1 X149.33 Y186.87 E184.73609
G1 X147.34 Y186.89 E184.83528
G1 X147.03 Y186.90 E184.85109
G1 X144.95 Y186.83 E184.95472
G1 X143.35 Y186.76 E185.03493
G1 X141.23 Y186.60 E185.14083
G1 X140.69 Y186.56 E185.16784
G1 X138.95 Y186.43 E185.25491
G1 X137.55 Y186.25 E185.32528
G1 X134.81 Y186.04 E185.46224
G1 X133.86 Y185.91 E185.51031
G1 X130.39 Y185.63 E185.68407
G1 X129.66 Y185.54 E185.72054
G1 X127.48 Y185.20 E185.83068
G1 X127.48 Y185.21 E185.83073
G1 X126.02 Y184.98 E185.90440
G1 X125.21 Y184.69 E185.94725
G1 X124.15 Y184.12 E186.00716
G1 X121.89 Y182.91 E186.13544
G1 X119.50 Y181.24 E186.28084
G1 X118.83 Y180.78 E186.32153
G1 X117.33 Y179.51 E186.41907
G1 X116.25 Y178.51 E186.49262
G1 X115.88 Y178.17 E186.51776
G1 X114.04 Y176.27 E186.64989
G1 X113.60 Y175.76 E186.68353
G1 X111.28 Y172.93 E186.86592
G1 X110.82 Y172.27 E186.90616
G1 X110.09 Y171.16 E186.97267
G1 X108.97 Y168.74 E187.10556
G1 X108.14 Y166.38 E187.23002
G1 X107.74 Y165.23 E187.29103
G1 X107.47 Y164.16 E187.34615
G1 X106.97 Y162.34 E187.43998
G1 X106.79 Y161.65 E187.47561
G1 X106.56 Y160.14 E187.55183
G1 X106.26 Y158.37 E187.64137
G1 X106.16 Y157.77 E187.67189
G1 X106.06 Y155.87 E187.76691
G1 X105.97 Y154.33 E187.84397
G1 X105.93 Y153.81 E187.86962
G1 X106.04 Y151.59 E187.98066
G1 X106.10 Y150.29 E188.04567
G1 X106.11 Y149.83 E188.06878
G1 X106.65 Y146.34 E188.24488
G1 X106.71 Y145.93 E188.26521
G1 X107.60 Y142.52 E188.44104
G1 X107.60 Y142.52 E188.44109
G1 X107.69 Y142.15 E188.46018
G1 X108.93 Y138.85 E188.63610
G1 X108.93 Y138.85 E188.63615
G1 X109.06 Y138.50 E188.65470
G1 X110.63 Y135.37 E188.82938
G1 X110.80 Y135.03 E188.84836
G1 X112.69 Y132.09 E189.02272
G1 X112.88 Y131.78 E189.04088
G1 X115.06 Y129.08 E189.21414
G1 X115.30 Y128.78 E189.23310
G1 X117.73 Y126.36 E189.40437
G1 X118.00 Y126.08 E189.42402
G0 F12000 X118.27 Y126.37
G1 F2700 X120.89 Y124.27 E189.59174
G1 X121.21 Y124.02 E189.61193
G1 X123.99 Y122.24 E189.77674
G1 X124.36 Y122.00 E189.79880
G1 X127.25 Y120.57 E189.95934
G1 X127.71 Y120.35 E189.98484
G1 X130.58 Y119.29 E190.13764
G1 X131.31 Y119.03 E190.17594
G1 X135.11 Y118.49 E190.36765
G1 X136.24 Y118.48 E190.42393
G1 X136.48 Y118.47 E190.43587
G1 X140.32 Y118.57 E190.62787
G1 X140.81 Y118.56 E190.65202
G1 X141.09 Y118.55 E190.66625
G1 X144.19 Y118.67 E190.82062
G1 X145.05 Y118.69 E190.86383
G1 X145.35 Y118.69 E190.87900
G1 X148.04 Y118.92 E191.01330
G1 X149.13 Y119.00 E191.06818
G1 X152.79 Y119.47 E191.25227
G1 X153.14 Y119.52 E191.26963
G1 X156.33 Y120.19 E191.43250
G1 X156.69 Y120.27 E191.45077
G1 X159.58 Y121.19 E191.60183
G1 X159.96 Y121.31 E191.62181
G1 X161.55 Y122.07 E191.70989
G1 X162.46 Y122.50 E191.75988
G1 X162.90 Y122.70 E191.78431
G1 X164.14 Y123.66 E191.86233
G1 X164.90 Y124.17 E191.90800
G1 X164.90 Y124.17 E191.90805
G1 X165.38 Y124.49 E191.93701
G1 X166.28 Y125.64 E192.00974
G1 X166.89 Y126.28 E192.05388
G1 X168.10 Y127.56 E192.14161
G1 X168.78 Y128.47 E192.19863
G1 X170.08 Y129.46 E192.27997
G1 X171.13 Y130.70 E192.36104
G1 X172.55 Y131.66 E192.44667
G1 X173.93 Y133.04 E192.54428
G1 X175.68 Y134.09 E192.64614
G1 X177.05 Y135.44 E192.74217
G1 X177.13 Y135.52 E192.74778
G1 X179.52 Y136.77 E192.88234
G1 X180.76 Y137.99 E192.96873
G1 X180.83 Y138.06 E192.97364
G1 X184.48 Y139.79 E193.17555
G1 X185.24 Y140.47 E193.22615
G1 X185.34 Y140.56 E193.23318
G1 X189.34 Y142.34 E193.45121
G1 X190.76 Y143.35 E193.53835
G1 X191.33 Y143.83 E193.57561
G1 X192.78 Y145.22 E193.67589
G1 X194.46 Y146.82 E193.79121
G1 X195.75 Y148.49 E193.89689
G1 X196.66 Y149.87 E193.97918
G1 X197.26 Y150.78 E194.03342
G1 X197.92 Y153.17 E194.15740
G1 X198.19 Y154.39 E194.21955
G1 X198.19 Y154.39 E194.21960
G1 X198.38 Y155.26 E194.26400
G1 X198.06 Y157.58 E194.38083
G1 X197.81 Y158.98 E194.45182
G1 X197.81 Y158.98 E194.45187
G1 X197.65 Y159.82 E194.49454
G1 X196.73 Y161.44 E194.58764
G1 X195.05 Y164.19 E194.74821
G1 X194.44 Y164.75 E194.78972
G1 X193.10 Y166.15 E194.88622
G1 X191.03 Y166.70 E194.99334
G1 X188.86 Y167.28 E195.10503
G1 X187.67 Y167.69 E195.16801
G1 X186.38 Y168.12 E195.23609
G1 X183.32 Y168.81 E195.39222
G1 X182.45 Y169.22 E195.44045
G1 X181.55 Y169.64 E195.48997
G1 X180.94 Y169.75 E195.52067
G1 X180.06 Y170.46 E195.57726
G1 X178.96 Y171.28 E195.64541
G1 X177.94 Y172.05 E195.70950
G1 X175.03 Y173.62 E195.87409
G1 X174.98 Y173.70 E195.87895
G1 X173.18 Y174.70 E195.98188
G1 X172.93 Y175.23 E196.01087
G1 X170.77 Y176.48 E196.13548
G1 X170.60 Y176.90 E196.15810
G1 X170.60 Y176.90 E196.15815
G1 X170.27 Y177.73 E196.20263
G1 X168.42 Y178.92 E196.31226
G1 X167.89 Y179.73 E196.36063
G1 X167.51 Y180.30 E196.39456
G1 X165.91 Y181.39 E196.49115
G1 X164.59 Y182.42 E196.57455
G1 X164.20 Y182.73 E196.59959
G1 X162.90 Y183.45 E196.67363
G1 X161.83 Y183.94 E196.73259
G1 X161.56 Y184.07 E196.74730
G1 X160.42 Y184.50 E196.80820
G1 X159.32 Y184.88 E196.86651
G1 X159.00 Y184.99 E196.88325
G1 X156.56 Y185.61 E197.00870
G1 X156.16 Y185.71 E197.02952
G1 X155.02 Y185.87 E197.08682
G1 X153.56 Y186.12 E197.16059
G1 X153.13 Y186.20 E197.18258
G1 X152.48 Y186.25 E197.21515
G1 X149.32 Y186.47 E197.37320
G1 X147.34 Y186.49 E197.47189
G1 X147.03 Y186.50 E197.48726
G1 X144.97 Y186.43 E197.59024
G1 X143.37 Y186.36 E197.67005
G1 X141.26 Y186.20 E197.77570
G1 X140.72 Y186.16 E197.80266
G1 X138.99 Y186.03 E197.88923
G1 X137.58 Y185.86 E197.95994
G1 X134.86 Y185.64 E198.09636
G1 X133.90 Y185.51 E198.14469
G1 X130.43 Y185.24 E198.31829
G1 X129.72 Y185.14 E198.35406
G1 X127.54 Y184.81 E198.46413
G1 X126.12 Y184.59 E198.53574
G1 X125.37 Y184.33 E198.57514
G1 X124.34 Y183.77 E198.63352
G1 X122.10 Y182.56 E198.76068
G1 X119.72 Y180.91 E198.90498
G1 X119.07 Y180.46 E198.94469
G1 X117.60 Y179.21 E199.04079
G1 X116.52 Y178.22 E199.11398
G1 X116.16 Y177.89 E199.13856
G1 X114.33 Y176.00 E199.26956
G1 X113.90 Y175.50 E199.30238
G1 X111.60 Y172.69 E199.48368
G1 X111.15 Y172.04 E199.52288
G1 X110.44 Y170.96 E199.58769
G1 X109.34 Y168.59 E199.71815
G1 X108.52 Y166.25 E199.84161
G1 X108.13 Y165.11 E199.90178
G1 X107.86 Y164.06 E199.95602
G1 X107.36 Y162.24 E200.05016
G1 X107.18 Y161.57 E200.08465
G1 X106.95 Y160.08 E200.15976
G1 X106.65 Y158.31 E200.24955
G1 X106.55 Y157.73 E200.27895
G1 X106.46 Y155.85 E200.37282
G1 X106.36 Y154.30 E200.44999
G1 X106.33 Y153.81 E200.47458
G1 X106.44 Y151.61 E200.58452
G1 X106.50 Y150.31 E200.64973
G1 X106.51 Y149.86 E200.67174
G1 X107.04 Y146.40 E200.84668
G1 X107.10 Y146.01 E200.86600
G1 X107.98 Y142.62 E201.04080
G1 X108.08 Y142.27 E201.05892
G1 X109.31 Y138.99 E201.23374
G1 X109.43 Y138.66 E201.25129
G1 X110.99 Y135.54 E201.42550
G1 X111.00 Y135.54 E201.42555
G1 X111.15 Y135.23 E201.44291
G1 X113.03 Y132.31 E201.61615
G1 X113.21 Y132.02 E201.63330
G1 X115.37 Y129.33 E201.80539
G1 X115.60 Y129.05 E201.82335
G1 X118.01 Y126.64 E201.99346
G1 X118.27 Y126.37 E202.01209
G0 F12000 X118.54 Y126.67
G1 F2700 X121.15 Y124.58 E202.17884
G1 X121.44 Y124.34 E202.19779
G1 X124.21 Y122.58 E202.36146
G1 X124.56 Y122.35 E202.38247
G1 X127.43 Y120.93 E202.54189
G1 X127.87 Y120.72 E202.56634
G1 X131.40 Y119.42 E202.75426
G1 X135.14 Y118.89 E202.94254
G1 X136.25 Y118.88 E202.99787
G1 X136.48 Y118.87 E203.00961
G1 X140.30 Y118.97 E203.20025
G1 X140.83 Y118.96 E203.22645
G1 X140.83 Y118.96 E203.22650
G1 X141.09 Y118.95 E203.23958
G1 X144.20 Y119.07 E203.39500
G1 X145.04 Y119.08 E203.43692
G1 X145.34 Y119.09 E203.45149
G1 X147.99 Y119.32 E203.58428
G1 X149.09 Y119.40 E203.63961
G1 X152.74 Y119.87 E203.82316
G1 X153.07 Y119.91 E203.83970
G1 X156.25 Y120.59 E204.00168
G1 X156.25 Y120.59 E204.00173
G1 X156.59 Y120.66 E204.01912
G1 X159.46 Y121.57 E204.16919
G1 X159.46 Y121.57 E204.16924
G1 X159.81 Y121.68 E204.18785
G1 X161.36 Y122.42 E204.27360
G1 X162.30 Y122.86 E204.32547
G1 X162.69 Y123.04 E204.34699
G1 X163.90 Y123.98 E204.42317
G1 X164.68 Y124.50 E204.46974
G1 X165.10 Y124.79 E204.49546
G1 X165.97 Y125.90 E204.56592
G1 X166.60 Y126.55 E204.61111
G1 X167.79 Y127.81 E204.69751
G1 X168.49 Y128.76 E204.75638
G1 X169.80 Y129.75 E204.83826
G1 X170.86 Y131.00 E204.91975
G1 X172.29 Y131.97 E205.00628
G1 X173.68 Y133.36 E205.10438
G1 X175.44 Y134.41 E205.20643
G1 X176.77 Y135.73 E205.30009
G1 X176.77 Y135.73 E205.30016
G1 X176.90 Y135.85 E205.30870
G1 X179.29 Y137.10 E205.44326
G1 X180.47 Y138.27 E205.52669
G1 X180.59 Y138.39 E205.53494
G1 X184.26 Y140.13 E205.73735
G1 X184.97 Y140.77 E205.78509
G1 X185.12 Y140.90 E205.79537
G1 X189.14 Y142.69 E206.01443
G1 X190.51 Y143.67 E206.09877
G1 X191.06 Y144.13 E206.13458
G1 X194.16 Y147.09 E206.34806
G1 X195.43 Y148.72 E206.45147
G1 X196.32 Y150.09 E206.53300
G1 X196.89 Y150.94 E206.58407
G1 X197.53 Y153.27 E206.70442
G1 X197.80 Y154.47 E206.76580
G1 X197.97 Y155.27 E206.80687
G1 X197.66 Y157.51 E206.91968
G1 X197.41 Y158.91 E206.99026
G1 X197.27 Y159.68 E207.02954
G1 X196.38 Y161.24 E207.11891
G1 X194.74 Y163.93 E207.27646
G1 X194.18 Y164.46 E207.31490
G1 X192.89 Y165.79 E207.40723
G1 X190.92 Y166.31 E207.50897
G1 X188.76 Y166.90 E207.62065
G1 X187.53 Y167.31 E207.68500
G1 X186.27 Y167.74 E207.75186
G1 X183.19 Y168.43 E207.90927
G1 X182.28 Y168.86 E207.95940
G1 X181.43 Y169.26 E208.00640
G1 X180.77 Y169.37 E208.03964
G1 X179.81 Y170.14 E208.10084
G1 X178.72 Y170.95 E208.16863
G1 X177.72 Y171.71 E208.23140
G1 X174.75 Y173.32 E208.39984
G1 X174.70 Y173.40 E208.40472
G1 X172.87 Y174.41 E208.50883
G1 X172.62 Y174.94 E208.53811
G1 X170.45 Y176.21 E208.66330
G1 X170.23 Y176.75 E208.69273
G1 X169.94 Y177.46 E208.73098
G1 X168.13 Y178.63 E208.83845
G1 X167.55 Y179.51 E208.89100
G1 X167.22 Y180.01 E208.92104
G1 X165.67 Y181.06 E209.01432
G1 X164.34 Y182.11 E209.09879
G1 X163.98 Y182.40 E209.12192
G1 X162.72 Y183.09 E209.19361
G1 X161.66 Y183.58 E209.25176
G1 X161.41 Y183.70 E209.26585
G1 X160.28 Y184.12 E209.32569
G1 X159.18 Y184.50 E209.38389
G1 X158.88 Y184.61 E209.39962
G1 X156.46 Y185.22 E209.52436
G1 X156.08 Y185.32 E209.54394
G1 X154.98 Y185.47 E209.59933
G1 X153.49 Y185.73 E209.67457
G1 X153.49 Y185.72 E209.67462
G1 X153.08 Y185.80 E209.69570
G1 X152.45 Y185.85 E209.72721
G1 X149.30 Y186.07 E209.88462
G1 X147.33 Y186.09 E209.98281
G1 X147.03 Y186.09 E209.99773
G1 X144.98 Y186.03 E210.10010
G1 X143.39 Y185.96 E210.17946
G1 X140.75 Y185.76 E210.31177
G1 X139.03 Y185.63 E210.39789
G1 X137.64 Y185.46 E210.46771
G1 X134.90 Y185.25 E210.60477
G1 X133.94 Y185.11 E210.65320
G1 X130.47 Y184.84 E210.82685
G1 X129.77 Y184.75 E210.86187
G1 X127.60 Y184.41 E210.97160
G1 X127.60 Y184.41 E210.97165
G1 X126.22 Y184.20 E211.04144
G1 X125.54 Y183.96 E211.07746
G1 X122.31 Y182.22 E211.26039
G1 X119.95 Y180.59 E211.40350
G1 X119.95 Y180.59 E211.40357
G1 X119.31 Y180.14 E211.44234
G1 X117.87 Y178.91 E211.53709
G1 X116.79 Y177.93 E211.60985
G1 X116.44 Y177.60 E211.63386
G1 X114.63 Y175.73 E211.76378
G1 X114.21 Y175.24 E211.79578
G1 X111.92 Y172.45 E211.97594
G1 X111.48 Y171.82 E212.01414
G1 X110.79 Y170.76 E212.07719
G1 X109.71 Y168.44 E212.20519
G1 X108.90 Y166.12 E212.32769
G1 X108.51 Y165.00 E212.38697
G1 X108.25 Y163.98 E212.43920
G1 X107.75 Y162.13 E212.53478
G1 X107.57 Y161.49 E212.56820
G1 X107.35 Y160.02 E212.64214
G1 X107.05 Y158.25 E212.73203
G1 X107.05 Y158.25 E212.73208
G1 X106.95 Y157.68 E212.76057
G1 X106.86 Y155.83 E212.85329
G1 X106.76 Y154.28 E212.93060
G1 X106.73 Y153.81 E212.95410
G1 X106.84 Y151.63 E213.06294
G1 X106.89 Y150.32 E213.12835
G1 X106.91 Y149.90 E213.14932
G1 X107.44 Y146.46 E213.32310
G1 X107.49 Y146.09 E213.34141
G1 X108.37 Y142.73 E213.51511
G1 X108.37 Y142.73 E213.51516
G1 X108.46 Y142.39 E213.53230
G1 X109.68 Y139.13 E213.70600
G1 X109.80 Y138.82 E213.72258
G1 X111.35 Y135.72 E213.89548
G1 X111.50 Y135.43 E213.91201
G1 X113.36 Y132.52 E214.08417
G1 X113.36 Y132.52 E214.08422
G1 X113.53 Y132.25 E214.10043
G1 X115.68 Y129.58 E214.27135
G1 X115.89 Y129.31 E214.28821
G1 X118.29 Y126.92 E214.45723
G1 X118.54 Y126.67 E214.47483
G0 F12000 X118.81 Y126.97
G1 F2700 X121.40 Y124.89 E214.64049
G1 X121.40 Y124.89 E214.64056
G1 X121.68 Y124.67 E214.65847
G1 X124.42 Y122.92 E214.82080
G1 X124.76 Y122.70 E214.84099
G1 X127.60 Y121.29 E214.99909
G1 X128.02 Y121.08 E215.02265
G1 X131.50 Y119.81 E215.20738
G1 X135.17 Y119.29 E215.39223
G1 X136.25 Y119.28 E215.44636
G1 X136.49 Y119.27 E215.45811
G1 X140.32 Y119.37 E215.64935
G1 X140.84 Y119.36 E215.67510
G1 X140.84 Y119.36 E215.67515
G1 X141.09 Y119.35 E215.68768
G1 X144.18 Y119.47 E215.84205
G1 X145.04 Y119.48 E215.88482
G1 X145.32 Y119.49 E215.89869
G1 X147.98 Y119.72 E216.03188
G1 X149.05 Y119.80 E216.08581
G1 X152.69 Y120.26 E216.26880
G1 X153.00 Y120.30 E216.28449
G1 X156.49 Y121.05 E216.46211
G1 X159.33 Y121.95 E216.61093
G1 X159.66 Y122.05 E216.62845
G1 X161.19 Y122.79 E216.71295
G1 X162.12 Y123.22 E216.76433
G1 X162.12 Y123.22 E216.76438
G1 X162.49 Y123.39 E216.78430
G1 X163.66 Y124.30 E216.85855
G1 X164.46 Y124.83 E216.90619
G1 X164.83 Y125.08 E216.92864
G1 X165.67 Y126.16 E216.99679
G1 X166.31 Y126.83 E217.04308
G1 X167.48 Y128.07 E217.12813
G1 X168.19 Y129.02 E217.18726
G1 X168.20 Y129.05 E217.18868
G1 X169.53 Y130.04 E217.27131
G1 X170.59 Y131.30 E217.35333
G1 X172.04 Y132.28 E217.44060
G1 X173.43 Y133.68 E217.53931
G1 X175.19 Y134.73 E217.64144
G1 X176.49 Y136.01 E217.73270
G1 X176.66 Y136.18 E217.74428
G1 X179.05 Y137.42 E217.87877
G1 X180.20 Y138.56 E217.95934
G1 X180.36 Y138.72 E217.97081
G1 X184.03 Y140.47 E218.17382
G1 X184.71 Y141.06 E218.21866
G1 X184.90 Y141.24 E218.23198
G1 X188.94 Y143.03 E218.45224
G1 X190.27 Y143.98 E218.53380
G1 X190.80 Y144.43 E218.56815
G1 X193.86 Y147.35 E218.77948
G1 X195.10 Y148.96 E218.88065
G1 X195.99 Y150.31 E218.96146
G1 X196.52 Y151.11 E219.00939
G1 X197.15 Y153.36 E219.12601
G1 X197.41 Y154.56 E219.18687
G1 X197.57 Y155.29 E219.22437
G1 X197.27 Y157.45 E219.33320
G1 X197.02 Y158.83 E219.40324
G1 X197.02 Y158.83 E219.40329
G1 X196.89 Y159.54 E219.43928
G1 X196.04 Y161.03 E219.52491
G1 X194.43 Y163.68 E219.67946
G1 X193.89 Y164.18 E219.71620
G1 X192.68 Y165.43 E219.80300
G1 X190.82 Y165.93 E219.89911
G1 X188.64 Y166.51 E220.01172
G1 X187.41 Y166.93 E220.07639
G1 X187.41 Y166.93 E220.07644
G1 X186.16 Y167.35 E220.14235
G1 X183.06 Y168.05 E220.30078
G1 X182.10 Y168.50 E220.35336
G1 X181.30 Y168.87 E220.39755
G1 X180.60 Y169.00 E220.43321
G1 X179.57 Y169.83 E220.49924
G1 X178.49 Y170.63 E220.56661
G1 X177.50 Y171.37 E220.62803
G1 X174.47 Y173.02 E220.80026
G1 X174.41 Y173.10 E220.80525
G1 X172.57 Y174.13 E220.91057
G1 X172.54 Y174.19 E220.91396
G1 X172.31 Y174.66 E220.94007
G1 X170.13 Y175.93 E221.06591
G1 X169.86 Y176.60 E221.10207
G1 X169.62 Y177.19 E221.13413
G1 X167.85 Y178.34 E221.23939
G1 X167.22 Y179.29 E221.29615
G1 X166.93 Y179.73 E221.32231
G1 X165.44 Y180.74 E221.41236
G1 X164.09 Y181.79 E221.49747
G1 X163.75 Y182.06 E221.51903
G1 X162.54 Y182.74 E221.58838
G1 X161.50 Y183.22 E221.64537
G1 X161.25 Y183.33 E221.65919
G1 X160.15 Y183.75 E221.71802
G1 X159.05 Y184.13 E221.77591
G1 X158.77 Y184.22 E221.79085
G1 X156.35 Y184.84 E221.91521
G1 X156.00 Y184.93 E221.93326
G1 X154.92 Y185.07 E221.98784
G1 X153.43 Y185.33 E222.06338
G1 X153.03 Y185.40 E222.08349
G1 X152.42 Y185.45 E222.11401
G1 X149.28 Y185.67 E222.27076
G1 X147.33 Y185.69 E222.36845
G1 X147.04 Y185.69 E222.38292
G1 X145.00 Y185.63 E222.48465
G1 X143.42 Y185.56 E222.56361
G1 X140.78 Y185.36 E222.69562
G1 X139.07 Y185.23 E222.78124
G1 X137.67 Y185.06 E222.85141
G1 X134.94 Y184.85 E222.98797
G1 X133.99 Y184.71 E223.03579
G1 X130.51 Y184.44 E223.21010
G1 X129.83 Y184.35 E223.24441
G1 X127.66 Y184.02 E223.35403
G1 X126.31 Y183.81 E223.42180
G1 X125.70 Y183.59 E223.45437
G1 X122.52 Y181.88 E223.63469
G1 X120.18 Y180.26 E223.77664
G1 X120.18 Y180.26 E223.77669
G1 X119.56 Y179.83 E223.81454
G1 X118.13 Y178.62 E223.90788
G1 X117.06 Y177.63 E223.98029
G1 X116.72 Y177.31 E224.00370
G1 X114.92 Y175.46 E224.13249
G1 X114.52 Y174.99 E224.16368
G1 X112.24 Y172.21 E224.34274
G1 X111.82 Y171.60 E224.37990
G1 X111.14 Y170.57 E224.44125
G1 X110.08 Y168.29 E224.56677
G1 X109.28 Y165.99 E224.68833
G1 X108.89 Y164.88 E224.74674
G1 X108.63 Y163.86 E224.79939
G1 X108.13 Y162.03 E224.89399
G1 X107.96 Y161.41 E224.92627
G1 X107.74 Y159.96 E224.99910
G1 X107.44 Y158.18 E225.08945
G1 X107.35 Y157.64 E225.11663
G1 X107.25 Y155.82 E225.20770
G1 X107.16 Y154.26 E225.28567
G1 X107.16 Y154.26 E225.28572
G1 X107.14 Y153.81 E225.30816
G1 X107.24 Y151.65 E225.41585
G1 X107.30 Y150.34 E225.48146
G1 X107.31 Y149.94 E225.50133
G1 X107.83 Y146.52 E225.67395
G1 X107.89 Y146.18 E225.69130
G1 X108.76 Y142.83 E225.86393
G1 X108.84 Y142.51 E225.88005
G1 X110.06 Y139.28 E226.05267
G1 X110.17 Y138.98 E226.06827
G1 X111.71 Y135.90 E226.24024
G1 X111.85 Y135.62 E226.25562
G1 X113.69 Y132.75 E226.42600
G1 X113.86 Y132.48 E226.44188
G1 X115.99 Y129.83 E226.61163
G1 X116.19 Y129.58 E226.62746
G1 X118.57 Y127.20 E226.79538
G1 X118.81 Y126.97 E226.81189
G0 F12000 X119.08 Y127.27
G1 F2700 X121.65 Y125.20 E226.97645
G1 X121.91 Y124.99 E226.99327
G1 X124.64 Y123.25 E227.15473
G1 X124.64 Y123.25 E227.15478
G1 X124.96 Y123.05 E227.17372
G1 X127.78 Y121.65 E227.33086
G1 X127.78 Y121.65 E227.33091
G1 X128.18 Y121.45 E227.35327
G1 X131.60 Y120.20 E227.53479
G1 X135.20 Y119.69 E227.71622
G1 X136.28 Y119.68 E227.77010
G1 X136.50 Y119.67 E227.78095
G1 X140.32 Y119.77 E227.97179
G1 X140.84 Y119.76 E227.99784
G1 X141.09 Y119.75 E228.01002
G1 X144.16 Y119.87 E228.16370
G1 X145.03 Y119.89 E228.20691
G1 X145.30 Y119.89 E228.22013
G1 X147.93 Y120.11 E228.35203
G1 X149.01 Y120.19 E228.40625
G1 X152.64 Y120.66 E228.58869
G1 X152.94 Y120.70 E228.60358
G1 X156.38 Y121.43 E228.77936
G1 X159.21 Y122.33 E228.92751
G1 X159.52 Y122.43 E228.94340
G1 X161.03 Y123.15 E229.02717
G1 X161.96 Y123.59 E229.07821
G1 X162.28 Y123.73 E229.09578
G1 X163.44 Y124.63 E229.16887
G1 X164.23 Y125.17 E229.21680
G1 X164.55 Y125.38 E229.23600
G1 X165.37 Y126.43 E229.30223
G1 X166.02 Y127.11 E229.34919
G1 X167.18 Y128.33 E229.43298
G1 X167.87 Y129.26 E229.49092
G1 X167.92 Y129.33 E229.49527
G1 X169.25 Y130.33 E229.57851
G1 X170.32 Y131.60 E229.66110
G1 X171.78 Y132.59 E229.74913
G1 X173.18 Y134.00 E229.84837
G1 X174.94 Y135.05 E229.95063
G1 X176.21 Y136.30 E230.03950
G1 X176.42 Y136.50 E230.05407
G1 X178.81 Y137.75 E230.18856
G1 X179.91 Y138.84 E230.26606
G1 X180.13 Y139.05 E230.28109
G1 X183.81 Y140.80 E230.48444
G1 X184.69 Y141.58 E230.54299
G1 X188.74 Y143.38 E230.76424
G1 X190.03 Y144.30 E230.84303
G1 X190.53 Y144.72 E230.87594
G1 X193.56 Y147.62 E231.08515
G1 X194.78 Y149.19 E231.18401
G1 X195.66 Y150.53 E231.26410
G1 X196.15 Y151.28 E231.30890
G1 X196.76 Y153.46 E231.42180
G1 X197.01 Y154.64 E231.48216
G1 X197.16 Y155.31 E231.51608
G1 X196.88 Y157.39 E231.62092
G1 X196.62 Y158.76 E231.69065
G1 X196.51 Y159.40 E231.72314
G1 X195.69 Y160.83 E231.80504
G1 X194.11 Y163.42 E231.95656
G1 X193.60 Y163.90 E231.99161
G1 X192.47 Y165.07 E232.07283
G1 X188.52 Y166.13 E232.27692
G1 X187.28 Y166.55 E232.34200
G1 X187.28 Y166.55 E232.34205
G1 X186.05 Y166.97 E232.40691
G1 X182.93 Y167.67 E232.56646
G1 X181.94 Y168.13 E232.62125
G1 X181.18 Y168.49 E232.66285
G1 X180.43 Y168.62 E232.70090
G1 X179.32 Y169.51 E232.77168
G1 X178.25 Y170.31 E232.83830
G1 X177.28 Y171.04 E232.89875
G1 X174.18 Y172.72 E233.07471
G1 X174.13 Y172.80 E233.07988
G1 X172.26 Y173.84 E233.18630
G1 X172.18 Y174.01 E233.19596
G1 X172.01 Y174.38 E233.21611
G1 X169.81 Y175.65 E233.34251
G1 X169.49 Y176.45 E233.38551
G1 X169.49 Y176.45 E233.38556
G1 X169.29 Y176.93 E233.41137
G1 X167.56 Y178.05 E233.51448
G1 X166.88 Y179.07 E233.57542
G1 X166.64 Y179.44 E233.59769
G1 X165.20 Y180.42 E233.68443
G1 X163.85 Y181.48 E233.77018
G1 X163.53 Y181.73 E233.79025
G1 X162.36 Y182.38 E233.85721
G1 X161.33 Y182.85 E233.91356
G1 X161.10 Y182.96 E233.92664
G1 X160.01 Y183.37 E233.98437
G1 X158.92 Y183.75 E234.04203
G1 X158.66 Y183.84 E234.05607
G1 X156.25 Y184.45 E234.17963
G1 X155.93 Y184.53 E234.19658
G1 X154.82 Y184.68 E234.25227
G1 X153.36 Y184.94 E234.32609
G1 X153.36 Y184.94 E234.32614
G1 X152.98 Y185.00 E234.34549
G1 X152.39 Y185.05 E234.37496
G1 X149.27 Y185.27 E234.53111
G1 X147.32 Y185.29 E234.62825
G1 X147.04 Y185.29 E234.64227
G1 X145.01 Y185.23 E234.74340
G1 X143.44 Y185.16 E234.82191
G1 X140.81 Y184.97 E234.95363
G1 X139.11 Y184.83 E235.03875
G1 X137.71 Y184.66 E235.10910
G1 X134.99 Y184.45 E235.24527
G1 X134.03 Y184.31 E235.29324
G1 X130.55 Y184.04 E235.46755
G1 X129.88 Y183.95 E235.50110
G1 X127.72 Y183.62 E235.61043
G1 X127.72 Y183.62 E235.61048
G1 X126.41 Y183.42 E235.67644
G1 X125.86 Y183.23 E235.70557
G1 X122.73 Y181.54 E235.88320
G1 X119.80 Y179.51 E236.06090
G1 X118.40 Y178.31 E236.15289
G1 X117.33 Y177.34 E236.22488
G1 X117.00 Y177.03 E236.24773
G1 X115.22 Y175.19 E236.37538
G1 X114.82 Y174.73 E236.40576
G1 X112.56 Y171.97 E236.58372
G1 X112.15 Y171.37 E236.61983
G1 X111.49 Y170.38 E236.67947
G1 X110.45 Y168.13 E236.80257
G1 X109.66 Y165.85 E236.92312
G1 X109.28 Y164.76 E236.98070
G1 X109.02 Y163.76 E237.03248
G1 X108.52 Y161.93 E237.12727
G1 X108.52 Y161.93 E237.12732
G1 X108.35 Y161.32 E237.15861
G1 X108.14 Y159.90 E237.23023
G1 X107.84 Y158.11 E237.32078
G1 X107.75 Y157.59 E237.34695
G1 X107.65 Y155.79 E237.43732
G1 X107.66 Y155.79 E237.43737
G1 X107.56 Y154.23 E237.51499
G1 X107.54 Y153.81 E237.53638
G1 X107.64 Y151.67 E237.64298
G1 X107.69 Y150.35 E237.70879
G1 X107.71 Y149.98 E237.72756
G1 X108.23 Y146.58 E237.89902
G1 X108.28 Y146.25 E237.91541
G1 X109.15 Y142.93 E238.08695
G1 X109.15 Y142.93 E238.08700
G1 X109.22 Y142.63 E238.10214
G1 X110.43 Y139.41 E238.27369
G1 X110.53 Y139.14 E238.28826
G1 X112.07 Y136.08 E238.45914
G1 X112.19 Y135.82 E238.47351
G1 X114.03 Y132.96 E238.64295
G1 X114.19 Y132.71 E238.65764
G1 X116.31 Y130.08 E238.82626
G1 X116.49 Y129.85 E238.84102
G1 X118.86 Y127.49 E239.00782
G1 X119.08 Y127.27 E239.02330
G0 F12000 X119.34 Y127.56
G1 F2700 X122.14 Y125.32 E239.20252
G1 X124.85 Y123.59 E239.36285
G1 X125.15 Y123.39 E239.38069
G1 X127.96 Y122.01 E239.53672
G1 X128.34 Y121.82 E239.55805
G1 X131.70 Y120.59 E239.73629
G1 X135.23 Y120.09 E239.91429
G1 X136.29 Y120.08 E239.96718
G1 X136.50 Y120.07 E239.97787
G1 X140.32 Y120.17 E240.16842
G1 X140.85 Y120.16 E240.19501
G1 X141.09 Y120.15 E240.20654
G1 X144.17 Y120.27 E240.36067
G1 X145.03 Y120.28 E240.40323
G1 X145.28 Y120.29 E240.41580
G1 X147.91 Y120.51 E240.54750
G1 X147.91 Y120.52 E240.54755
G1 X148.97 Y120.59 E240.60087
G1 X152.87 Y121.09 E240.79684
G1 X156.28 Y121.82 E240.97089
G1 X159.09 Y122.71 E241.11803
G1 X159.09 Y122.71 E241.11808
G1 X159.37 Y122.80 E241.13260
G1 X160.85 Y123.51 E241.21465
G1 X161.79 Y123.95 E241.26652
G1 X161.79 Y123.95 E241.26657
G1 X162.07 Y124.08 E241.28164
G1 X163.20 Y124.95 E241.35295
G1 X164.01 Y125.50 E241.40178
G1 X164.28 Y125.68 E241.41779
G1 X165.06 Y126.69 E241.48146
G1 X165.73 Y127.38 E241.52976
G1 X166.87 Y128.58 E241.61217
G1 X167.54 Y129.50 E241.66897
G1 X167.63 Y129.62 E241.67628
G1 X168.97 Y130.63 E241.76008
G1 X170.05 Y131.90 E241.84313
G1 X171.53 Y132.90 E241.93207
G1 X172.94 Y134.31 E242.03187
G1 X174.70 Y135.37 E242.13424
G1 X175.93 Y136.58 E242.22071
G1 X176.18 Y136.83 E242.23821
G1 X178.57 Y138.08 E242.37272
G1 X179.90 Y139.39 E242.46568
G1 X183.59 Y141.14 E242.66947
G1 X184.47 Y141.92 E242.72827
G1 X188.54 Y143.73 E242.95068
G1 X189.78 Y144.62 E243.02668
G1 X190.26 Y145.02 E243.05817
G1 X193.26 Y147.89 E243.26520
G1 X194.45 Y149.42 E243.36185
G1 X195.32 Y150.75 E243.44115
G1 X195.78 Y151.45 E243.48281
G1 X196.37 Y153.56 E243.59208
G1 X196.62 Y154.73 E243.65187
G1 X196.75 Y155.32 E243.68226
G1 X196.48 Y157.32 E243.78308
G1 X196.23 Y158.69 E243.85231
G1 X196.23 Y158.69 E243.85236
G1 X196.13 Y159.26 E243.88151
G1 X195.35 Y160.62 E243.95965
G1 X193.80 Y163.17 E244.10820
G1 X193.34 Y163.60 E244.13986
G1 X192.26 Y164.72 E244.21727
G1 X188.40 Y165.75 E244.41665
G1 X187.15 Y166.17 E244.48222
G1 X185.94 Y166.58 E244.54602
G1 X182.80 Y167.29 E244.70676
G1 X181.06 Y168.10 E244.80259
G1 X180.26 Y168.25 E244.84312
G1 X179.08 Y169.19 E244.91866
G1 X178.01 Y169.99 E244.98520
G1 X177.07 Y170.70 E245.04395
G1 X173.90 Y172.42 E245.22380
G1 X173.84 Y172.50 E245.22902
G1 X171.96 Y173.55 E245.33657
G1 X171.82 Y173.84 E245.35245
G1 X171.70 Y174.09 E245.36665
G1 X169.50 Y175.37 E245.49362
G1 X169.12 Y176.30 E245.54348
G1 X168.97 Y176.66 E245.56306
G1 X167.27 Y177.76 E245.66407
G1 X166.55 Y178.85 E245.72907
G1 X166.35 Y179.16 E245.74741
G1 X164.97 Y180.09 E245.83092
G1 X163.60 Y181.16 E245.91724
G1 X163.31 Y181.39 E245.93592
G1 X162.18 Y182.02 E246.00047
G1 X161.16 Y182.49 E246.05614
G1 X160.94 Y182.59 E246.06846
G1 X159.88 Y183.00 E246.12516
G1 X158.79 Y183.37 E246.18247
G1 X158.54 Y183.46 E246.19577
G1 X156.16 Y184.06 E246.31845
G1 X155.85 Y184.14 E246.33437
G1 X154.78 Y184.28 E246.38800
G1 X153.29 Y184.54 E246.46343
G1 X153.29 Y184.54 E246.46348
G1 X152.93 Y184.61 E246.48187
G1 X152.36 Y184.65 E246.51029
G1 X149.25 Y184.87 E246.66579
G1 X147.31 Y184.89 E246.76248
G1 X147.04 Y184.89 E246.77601
G1 X145.03 Y184.83 E246.87648
G1 X143.47 Y184.76 E246.95460
G1 X140.84 Y184.57 E247.08601
G1 X139.15 Y184.44 E247.17068
G1 X137.74 Y184.26 E247.24134
G1 X135.03 Y184.05 E247.37695
G1 X134.07 Y183.92 E247.42513
G1 X130.59 Y183.64 E247.59934
G1 X129.94 Y183.56 E247.63219
G1 X126.51 Y183.03 E247.80535
G1 X126.03 Y182.86 E247.83102
G1 X122.94 Y181.20 E248.00602
G1 X120.05 Y179.19 E248.18165
G1 X118.66 Y178.01 E248.27226
G1 X117.61 Y177.04 E248.34382
G1 X117.28 Y176.74 E248.36610
G1 X115.52 Y174.92 E248.49266
G1 X115.13 Y174.47 E248.52223
G1 X112.88 Y171.73 E248.69909
G1 X112.48 Y171.15 E248.73413
G1 X111.84 Y170.18 E248.79207
G1 X110.83 Y167.99 E248.91270
G1 X110.03 Y165.72 E249.03228
G1 X109.66 Y164.65 E249.08897
G1 X109.41 Y163.66 E249.13997
G1 X108.75 Y161.24 E249.26524
G1 X108.53 Y159.84 E249.33570
G1 X108.23 Y158.04 E249.42666
G1 X108.15 Y157.55 E249.45155
G1 X108.05 Y155.76 E249.54078
G1 X107.96 Y154.21 E249.61854
G1 X107.94 Y153.80 E249.63884
G1 X108.04 Y151.70 E249.74409
G1 X108.04 Y151.70 E249.74414
G1 X108.09 Y150.37 E249.81039
G1 X108.11 Y150.01 E249.82807
G1 X108.62 Y146.64 E249.99841
G1 X108.67 Y146.34 E250.01374
G1 X109.53 Y143.03 E250.18425
G1 X109.53 Y143.03 E250.18430
G1 X109.60 Y142.75 E250.19846
G1 X110.81 Y139.56 E250.36889
G1 X110.90 Y139.30 E250.38247
G1 X112.42 Y136.26 E250.55210
G1 X112.54 Y136.02 E250.56558
G1 X114.37 Y133.17 E250.73437
G1 X114.51 Y132.95 E250.74765
G1 X116.62 Y130.33 E250.91502
G1 X116.62 Y130.33 E250.91509
G1 X116.79 Y130.12 E250.92890
G1 X119.14 Y127.77 E251.09460
G1 X119.34 Y127.56 E251.10902
G0 F12000 X119.61 Y127.86
G1 F2700 X122.38 Y125.64 E251.28603
G1 X125.35 Y123.74 E251.46209
G1 X128.50 Y122.19 E251.63724
G1 X131.79 Y120.98 E251.81229
G1 X135.26 Y120.49 E251.98687
G1 X136.30 Y120.48 E252.03860
G1 X136.51 Y120.47 E252.04930
G1 X140.32 Y120.57 E252.23939
G1 X141.08 Y120.55 E252.27757
G1 X144.16 Y120.67 E252.43100
G1 X145.26 Y120.69 E252.48588
G1 X147.87 Y120.91 E252.61688
G1 X148.93 Y120.99 E252.66991
G1 X152.80 Y121.49 E252.86452
G1 X156.18 Y122.21 E253.03672
G1 X159.22 Y123.17 E253.19612
G1 X160.68 Y123.87 E253.27694
G1 X161.62 Y124.31 E253.32870
G1 X161.86 Y124.42 E253.34171
G1 X162.96 Y125.27 E253.41078
G1 X163.79 Y125.83 E253.46101
G1 X164.00 Y125.97 E253.47374
G1 X164.76 Y126.95 E253.53548
G1 X165.44 Y127.66 E253.58449
G1 X166.56 Y128.84 E253.66559
G1 X167.34 Y129.90 E253.73138
G1 X168.70 Y130.92 E253.81589
G1 X169.78 Y132.20 E253.89944
G1 X171.27 Y133.20 E253.98912
G1 X172.69 Y134.63 E254.08959
G1 X174.45 Y135.68 E254.19199
G1 X175.94 Y137.16 E254.29662
G1 X178.33 Y138.40 E254.43103
G1 X179.66 Y139.72 E254.52430
G1 X183.36 Y141.47 E254.72872
G1 X184.24 Y142.26 E254.78762
G1 X188.34 Y144.08 E255.01126
G1 X189.53 Y144.93 E255.08447
G1 X190.00 Y145.32 E255.11450
G1 X192.97 Y148.16 E255.31941
G1 X194.12 Y149.65 E255.41379
G1 X195.41 Y151.62 E255.53086
G1 X195.98 Y153.65 E255.63640
G1 X196.35 Y155.34 E255.72251
G1 X196.09 Y157.26 E255.81935
G1 X195.75 Y159.13 E255.91386
G1 X195.01 Y160.42 E255.98834
G1 X193.49 Y162.91 E256.13384
G1 X193.04 Y163.33 E256.16430
G1 X192.05 Y164.36 E256.23568
G1 X188.29 Y165.37 E256.42984
G1 X185.83 Y166.20 E256.55912
G1 X182.67 Y166.90 E256.72086
G1 X180.94 Y167.72 E256.81636
G1 X180.09 Y167.87 E256.85937
G1 X178.84 Y168.88 E256.93963
G1 X177.77 Y169.67 E257.00582
G1 X176.85 Y170.36 E257.06321
G1 X173.62 Y172.11 E257.24683
G1 X173.56 Y172.21 E257.25220
G1 X171.66 Y173.26 E257.36075
G1 X171.46 Y173.66 E257.38302
G1 X171.39 Y173.81 E257.39126
G1 X169.18 Y175.09 E257.51879
G1 X168.65 Y176.40 E257.58889
G1 X166.99 Y177.47 E257.68767
G1 X166.06 Y178.87 E257.77133
G1 X164.73 Y179.77 E257.85158
G1 X163.09 Y181.06 E257.95569
G1 X162.00 Y181.67 E258.01785
G1 X161.00 Y182.13 E258.07292
G1 X160.79 Y182.22 E258.08442
G1 X159.74 Y182.62 E258.14010
G1 X158.43 Y183.07 E258.20960
G1 X156.06 Y183.67 E258.33136
G1 X155.77 Y183.75 E258.34625
G1 X154.72 Y183.89 E258.39922
G1 X152.88 Y184.21 E258.49235
G1 X149.24 Y184.47 E258.67457
G1 X147.31 Y184.49 E258.77076
G1 X147.05 Y184.49 E258.78383
G1 X145.04 Y184.43 E258.88371
G1 X143.49 Y184.36 E258.96137
G1 X139.19 Y184.04 E259.17660
G1 X137.79 Y183.87 E259.24686
G1 X137.79 Y183.87 E259.24691
G1 X135.07 Y183.66 E259.38277
G1 X134.12 Y183.52 E259.43105
G1 X130.63 Y183.25 E259.60531
G1 X130.00 Y183.16 E259.63740
G1 X126.61 Y182.65 E259.80844
G1 X126.19 Y182.50 E259.83069
G1 X123.15 Y180.86 E260.00306
G1 X120.29 Y178.87 E260.17656
G1 X118.93 Y177.72 E260.26579
G1 X117.56 Y176.45 E260.35872
G1 X115.81 Y174.65 E260.48412
G1 X115.43 Y174.21 E260.51287
G1 X113.20 Y171.49 E260.68863
G1 X112.81 Y170.93 E260.72266
G1 X112.19 Y169.99 E260.77884
G1 X111.20 Y167.83 E260.89706
G1 X110.04 Y164.53 E261.07149
G1 X109.79 Y163.56 E261.12161
G1 X109.14 Y161.15 E261.24605
G1 X108.93 Y159.78 E261.31540
G1 X108.55 Y157.51 E261.43039
G1 X108.45 Y155.74 E261.51847
G1 X108.34 Y153.80 E261.61563
G1 X108.44 Y151.71 E261.72002
G1 X108.51 Y150.05 E261.80276
G1 X109.06 Y146.41 E261.98636
G1 X109.92 Y143.13 E262.15574
G1 X109.99 Y142.87 E262.16893
G1 X111.18 Y139.70 E262.33821
G1 X111.18 Y139.70 E262.33826
G1 X111.27 Y139.46 E262.35092
G1 X112.89 Y136.22 E262.53193
G1 X114.71 Y133.39 E262.69961
G1 X114.84 Y133.18 E262.71187
G1 X117.09 Y130.38 E262.89089
G1 X119.61 Y127.86 E263.06883
G0 F12000 X120.14 Y128.46
;TYPE:WALL-INNER
G1 F2700 X122.84 Y126.29 E263.24172
G1 X125.50 Y124.60 E263.39881
G1 X125.74 Y124.44 E263.41332
G1 X128.49 Y123.08 E263.56611
G1 X128.82 Y122.92 E263.58434
G1 X131.99 Y121.76 E263.75281
G1 X135.32 Y121.29 E263.92058
G1 X136.33 Y121.28 E263.97097
G1 X136.52 Y121.27 E263.98062
G1 X140.32 Y121.37 E264.17011
G1 X140.89 Y121.36 E264.19851
G1 X141.08 Y121.35 E264.20794
G1 X144.13 Y121.47 E264.36057
G1 X145.01 Y121.48 E264.40413
G1 X145.22 Y121.49 E264.41461
G1 X147.81 Y121.71 E264.54440
G1 X148.85 Y121.79 E264.59647
G1 X152.66 Y122.28 E264.78831
G1 X155.97 Y122.98 E264.95711
G1 X158.73 Y123.86 E265.10142
G1 X158.93 Y123.92 E265.11182
G1 X160.34 Y124.60 E265.19006
G1 X161.29 Y125.04 E265.24222
G1 X161.44 Y125.11 E265.25066
G1 X162.49 Y125.92 E265.31681
G1 X163.34 Y126.50 E265.36812
G1 X163.45 Y126.57 E265.37448
G1 X164.16 Y127.48 E265.43189
G1 X164.87 Y128.21 E265.48298
G1 X165.94 Y129.35 E265.56119
G1 X166.58 Y130.21 E265.61461
G1 X166.77 Y130.47 E265.63051
G1 X168.15 Y131.50 E265.71645
G1 X169.24 Y132.80 E265.80096
G1 X170.75 Y133.82 E265.89216
G1 X172.19 Y135.27 E265.99387
G1 X173.96 Y136.32 E266.09649
G1 X175.09 Y137.44 E266.17576
G1 X175.47 Y137.81 E266.20222
G1 X177.85 Y139.06 E266.33662
G1 X179.20 Y140.38 E266.43074
G1 X182.92 Y142.15 E266.63610
G1 X183.81 Y142.94 E266.69560
G1 X187.94 Y144.78 E266.92145
G1 X189.04 Y145.56 E266.98876
G1 X189.47 Y145.92 E267.01632
G1 X192.37 Y148.69 E267.21675
G1 X193.47 Y150.12 E267.30661
G1 X194.32 Y151.41 E267.38374
G1 X194.68 Y151.95 E267.41601
G1 X195.20 Y153.85 E267.51434
G1 X195.45 Y154.99 E267.57235
G1 X195.54 Y155.37 E267.59212
G1 X195.29 Y157.14 E267.68095
G1 X195.05 Y158.48 E267.74895
G1 X194.98 Y158.85 E267.76782
G1 X194.32 Y160.01 E267.83434
G1 X192.86 Y162.40 E267.97429
G1 X192.48 Y162.75 E268.00009
G1 X191.62 Y163.64 E268.06162
G1 X188.06 Y164.60 E268.24572
G1 X186.77 Y165.03 E268.31392
G1 X185.62 Y165.42 E268.37421
G1 X182.41 Y166.14 E268.53847
G1 X180.69 Y166.95 E268.63303
G1 X179.75 Y167.12 E268.68105
G1 X178.35 Y168.24 E268.77018
G1 X177.29 Y169.03 E268.83623
G1 X176.42 Y169.68 E268.89063
G1 X173.05 Y171.51 E269.08210
G1 X172.99 Y171.61 E269.08768
G1 X171.05 Y172.68 E269.19842
G1 X170.77 Y173.24 E269.22946
G1 X168.54 Y174.54 E269.35834
G1 X168.01 Y175.84 E269.42862
G1 X168.00 Y175.86 E269.42947
G1 X166.41 Y176.89 E269.52403
G1 X165.55 Y178.19 E269.60156
G1 X165.48 Y178.30 E269.60830
G1 X164.26 Y179.13 E269.68190
G1 X162.86 Y180.22 E269.77035
G1 X162.64 Y180.39 E269.78442
G1 X161.63 Y180.96 E269.84188
G1 X160.66 Y181.40 E269.89528
G1 X159.47 Y181.87 E269.95922
G1 X158.40 Y182.24 E270.01551
G1 X158.20 Y182.31 E270.02606
G1 X155.86 Y182.90 E270.14649
G1 X155.61 Y182.96 E270.15931
G1 X154.59 Y183.10 E270.21062
G1 X153.08 Y183.36 E270.28697
G1 X152.77 Y183.42 E270.30268
G1 X152.27 Y183.45 E270.32779
G1 X149.21 Y183.67 E270.48085
G1 X147.30 Y183.69 E270.57634
G1 X147.06 Y183.69 E270.58832
G1 X145.07 Y183.63 E270.68745
G1 X143.54 Y183.56 E270.76416
G1 X140.93 Y183.37 E270.89452
G1 X139.28 Y183.24 E270.97709
G1 X137.87 Y183.07 E271.04775
G1 X135.17 Y182.86 E271.18327
G1 X134.21 Y182.72 E271.23145
G1 X130.72 Y182.45 E271.40610
G1 X130.11 Y182.37 E271.43689
G1 X126.81 Y181.87 E271.60358
G1 X126.51 Y181.76 E271.61900
G1 X123.56 Y180.17 E271.78610
G1 X120.78 Y178.24 E271.95534
G1 X119.46 Y177.12 E272.04191
G1 X118.42 Y176.16 E272.11228
