;-- START GCODE --
;Sliced for Type A Machines Series 1
;Sliced at: Fri 04-09-2015 00:21:38
;Basic settings: Layer height: 0.3 Walls: 1.4 Fill: 25
;Print Speed: 50 Support: 0
;Retraction Speed: 40 Retraction Distance: 1.2
;Print time: #P_TIME#
;Filament used: #F_AMNT#m #F_WGHT#g
;Filament cost: #F_COST#
M106 S255	 ;start with the fan on
G21        ;metric values
G90        ;absolute positioning
M106 S255    ;start with the fan on
G28     ;move to endstops
G29		;allows for auto-levelling
G1 X150 Y5  Z15.0 F12000 ;center and move the platform down 15mm
M109 S220 ;Heat To temp
G92 E0                  ;zero the extruded length
G1 F200 E30              ;extrude 30mm of feed stock
G92 E0                  ;zero the extruded length again
G1 X175 Y25  Z0 F12000 ;remove bugger
G1 X220 F12000 ;remove bugger
G1 X150 Y150  Z15 F12000 ;recenter and begin
G1 F12000

;Layer count: 112
;LAYER:0
M106 S255
G0 F12000 X100.36 Y132.80 Z0.30
;TYPE:SKIRT
G1 F2700 X102.50 Y131.22 E0.15458
G1 X104.87 Y130.21 E0.30443
G1 X106.97 Y129.93 E0.42768
G1 X147.96 Y129.93 E2.81004
G1 X147.96 Y127.98 E2.92303
G1 X147.96 Y127.51 E2.95047
G1 X148.04 Y125.78 E3.05112
G1 X148.34 Y123.81 E3.16699
G1 X148.81 Y121.89 E3.28205
G1 X149.50 Y119.98 E3.39986
G1 X150.36 Y118.18 E3.51580
G1 X151.37 Y116.47 E3.63117
G1 X152.56 Y114.89 E3.74615
G1 X153.90 Y113.39 E3.86329
G1 X155.41 Y112.04 E3.98076
G1 X156.97 Y110.88 E4.09419
G1 X158.68 Y109.84 E4.21024
G1 X160.51 Y108.98 E4.32768
G1 X162.37 Y108.31 E4.44276
G1 X164.33 Y107.82 E4.55978
G1 X166.29 Y107.54 E4.67516
G1 X168.29 Y107.43 E4.79145
G1 X170.28 Y107.54 E4.90711
G1 X172.24 Y107.82 E5.02237
G1 X174.19 Y108.31 E5.13908
G1 X176.06 Y108.98 E5.25456
G1 X177.89 Y109.84 E5.37208
G1 X179.59 Y110.87 E5.48812
G1 X181.17 Y112.05 E5.60233
G1 X182.66 Y113.39 E5.71904
G1 X184.01 Y114.88 E5.83550
G1 X185.19 Y116.47 E5.95106
G1 X186.22 Y118.19 E6.06766
G1 X187.07 Y119.98 E6.18237
G1 X187.75 Y121.85 E6.29825
G1 X188.24 Y123.83 E6.41639
G1 X188.52 Y125.80 E6.53233
G1 X188.61 Y127.55 E6.63422
G1 X188.61 Y129.93 E6.77232
G1 X198.17 Y129.93 E7.32797
G1 X200.24 Y130.23 E7.44931
G1 X202.66 Y131.23 E7.60192
G1 X204.81 Y132.88 E7.75955
G1 X206.44 Y135.04 E7.91658
G1 X207.43 Y137.45 E8.06795
G1 X207.72 Y139.50 E8.18822
G1 X207.72 Y164.57 E9.64574
G1 X207.72 Y165.54 E9.70172
G1 X207.42 Y167.63 E9.82467
G1 X206.39 Y170.05 E9.97746
G1 X204.79 Y172.13 E10.12988
G1 X202.66 Y173.78 E10.28680
G1 X200.12 Y174.82 E10.44586
G1 X198.07 Y175.07 E10.56619
G1 X188.61 Y175.07 E11.11603
G1 X188.61 Y177.02 E11.22908
G1 X188.61 Y177.51 E11.25738
G1 X188.52 Y179.21 E11.35677
G1 X188.24 Y181.19 E11.47266
G1 X187.74 Y183.15 E11.59007
G1 X187.07 Y185.02 E11.70589
G1 X186.22 Y186.82 E11.82138
G1 X185.19 Y188.53 E11.93726
G1 X184.01 Y190.13 E12.05310
G1 X182.67 Y191.61 E12.16922
G1 X181.19 Y192.95 E12.28530
G1 X179.58 Y194.14 E12.40130
G1 X177.87 Y195.16 E12.51736
G1 X176.06 Y196.02 E12.63386
G1 X174.20 Y196.68 E12.74840
G1 X172.26 Y197.18 E12.86493
G1 X170.26 Y197.47 E12.98238
G1 X168.29 Y197.57 E13.09702
G1 X166.31 Y197.47 E13.21236
G1 X164.31 Y197.18 E13.32987
G1 X162.36 Y196.68 E13.44669
G1 X160.51 Y196.02 E13.56085
G1 X158.70 Y195.16 E13.67728
G1 X156.99 Y194.14 E13.79336
G1 X155.39 Y192.96 E13.90857
G1 X153.90 Y191.61 E14.02536
G1 X152.56 Y190.12 E14.14216
G1 X151.37 Y188.52 E14.25751
G1 X150.36 Y186.83 E14.37211
G1 X149.49 Y185.02 E14.48883
G1 X148.81 Y183.11 E14.60654
G1 X148.34 Y181.20 E14.72090
G1 X148.04 Y179.23 E14.83708
G1 X147.96 Y177.43 E14.94146
G1 X147.96 Y175.07 E15.07857
G1 X107.03 Y175.07 E17.45774
G1 X104.88 Y174.81 E17.58373
G1 X102.37 Y173.72 E17.74207
G1 X100.28 Y172.11 E17.89589
G1 X98.68 Y169.99 E18.05046
G1 X97.64 Y167.52 E18.20590
G1 X97.38 Y165.43 E18.32825
G1 X97.38 Y139.51 E19.83460
G1 X97.66 Y137.44 E19.95631
G1 X98.69 Y134.97 E20.11151
G1 X100.36 Y132.80 E20.27073
G0 F12000 X100.69 Y133.14
G1 F2700 X102.73 Y131.62 E20.41829
G1 X105.00 Y130.67 E20.56134
G1 X107.00 Y130.39 E20.67907
G1 X148.43 Y130.39 E23.08672
G1 X148.43 Y127.98 E23.22674
G1 X148.43 Y127.52 E23.25353
G1 X148.51 Y125.83 E23.35221
G1 X148.80 Y123.90 E23.46544
G1 X149.26 Y122.02 E23.57792
G1 X149.93 Y120.16 E23.69289
G1 X150.77 Y118.40 E23.80621
G1 X151.76 Y116.73 E23.91892
G1 X152.92 Y115.18 E24.03133
G1 X154.23 Y113.72 E24.14575
G1 X155.70 Y112.40 E24.26050
G1 X157.23 Y111.26 E24.37140
G1 X158.90 Y110.25 E24.48479
G1 X160.69 Y109.41 E24.59945
G1 X162.51 Y108.76 E24.71196
G1 X164.42 Y108.28 E24.82621
G1 X166.34 Y108.00 E24.93895
G1 X168.29 Y107.90 E25.05262
G1 X170.23 Y108.00 E25.16560
G1 X172.15 Y108.28 E25.27828
G1 X174.05 Y108.76 E25.39230
G1 X175.88 Y109.41 E25.50512
G1 X177.67 Y110.25 E25.61993
G1 X179.34 Y111.26 E25.73329
G1 X180.88 Y112.41 E25.84493
G1 X182.34 Y113.72 E25.95897
G1 X183.65 Y115.17 E26.07272
G1 X184.81 Y116.73 E26.18565
G1 X185.81 Y118.41 E26.29955
G1 X186.64 Y120.16 E26.41164
G1 X187.30 Y121.99 E26.52485
G1 X187.78 Y123.92 E26.64025
G1 X188.06 Y125.84 E26.75354
G1 X188.14 Y127.56 E26.85346
G1 X188.14 Y130.39 E27.01800
G1 X198.14 Y130.39 E27.59876
G1 X200.11 Y130.68 E27.71476
G1 X202.43 Y131.64 E27.86043
G1 X204.48 Y133.21 E28.01082
G1 X206.03 Y135.27 E28.16070
G1 X206.98 Y137.57 E28.30516
G1 X207.26 Y139.53 E28.42015
G1 X207.26 Y164.57 E29.87570
G1 X207.25 Y165.50 E29.92975
G1 X206.97 Y167.50 E30.04726
G1 X205.98 Y169.81 E30.19309
G1 X204.46 Y171.80 E30.33855
G1 X202.42 Y173.37 E30.48834
G1 X200.01 Y174.37 E30.64005
G1 X198.04 Y174.61 E30.75511
G1 X188.14 Y174.61 E31.33035
G1 X188.14 Y177.02 E31.47042
G1 X188.14 Y177.49 E31.49809
G1 X188.06 Y179.17 E31.59556
G1 X187.78 Y181.10 E31.70880
G1 X187.30 Y183.01 E31.82344
G1 X186.64 Y184.84 E31.93662
G1 X185.81 Y186.60 E32.04946
G1 X184.81 Y188.27 E32.16267
G1 X183.65 Y189.83 E32.27593
G1 X182.34 Y191.28 E32.38934
G1 X180.89 Y192.59 E32.50279
G1 X179.32 Y193.75 E32.61611
G1 X177.65 Y194.75 E32.72946
G1 X175.88 Y195.59 E32.84331
G1 X174.06 Y196.24 E32.95526
G1 X172.17 Y196.72 E33.06908
G1 X170.21 Y197.00 E33.18384
G1 X168.29 Y197.10 E33.29586
G1 X166.35 Y197.00 E33.40857
G1 X164.40 Y196.72 E33.52333
G1 X162.50 Y196.24 E33.63744
G1 X160.69 Y195.59 E33.74909
G1 X158.92 Y194.75 E33.86278
G1 X157.24 Y193.75 E33.97624
G1 X155.69 Y192.60 E34.08879
G1 X154.23 Y191.28 E34.20290
G1 X152.92 Y189.82 E34.31702
G1 X151.76 Y188.26 E34.42971
G1 X150.77 Y186.61 E34.54173
G1 X149.93 Y184.84 E34.65575
G1 X149.26 Y182.98 E34.77074
G1 X148.80 Y181.11 E34.88247
G1 X148.50 Y179.18 E34.99601
G1 X148.43 Y177.42 E35.09829
G1 X148.43 Y174.61 E35.26190
G1 X107.06 Y174.61 E37.66647
G1 X105.00 Y174.35 E37.78690
G1 X102.61 Y173.32 E37.93795
G1 X100.61 Y171.78 E38.08480
G1 X99.08 Y169.75 E38.23237
G1 X98.10 Y167.40 E38.38062
G1 X97.85 Y165.40 E38.49759
G1 X97.85 Y139.55 E40.00039
G1 X98.12 Y137.56 E40.11677
G1 X99.10 Y135.21 E40.26483
G1 X100.69 Y133.14 E40.41675
G0 F12000 X101.02 Y133.47
G1 F2700 X102.96 Y132.03 E40.55729
G1 X105.12 Y131.12 E40.69346
G1 X107.03 Y130.86 E40.80579
G1 X148.89 Y130.86 E43.23867
G1 X148.89 Y127.98 E43.40577
G1 X148.89 Y127.53 E43.43192
G1 X148.97 Y125.87 E43.52856
G1 X149.26 Y123.99 E43.63915
G1 X149.71 Y122.16 E43.74900
G1 X150.36 Y120.34 E43.86126
G1 X151.18 Y118.62 E43.97193
G1 X152.15 Y116.99 E44.08200
G1 X153.28 Y115.48 E44.19175
G1 X154.56 Y114.05 E44.30349
G1 X156.00 Y112.76 E44.41549
G1 X157.49 Y111.65 E44.52389
G1 X159.12 Y110.66 E44.63461
G1 X160.87 Y109.84 E44.74652
G1 X162.65 Y109.21 E44.85638
G1 X164.51 Y108.74 E44.96798
G1 X166.38 Y108.47 E45.07808
G1 X168.29 Y108.36 E45.18908
G1 X170.18 Y108.47 E45.29938
G1 X172.06 Y108.74 E45.40948
G1 X173.92 Y109.20 E45.52080
G1 X175.70 Y109.84 E45.63097
G1 X177.44 Y110.66 E45.74303
G1 X179.07 Y111.65 E45.85372
G1 X180.58 Y112.77 E45.96278
G1 X182.01 Y114.05 E46.07415
G1 X183.28 Y115.47 E46.18523
G1 X184.42 Y116.99 E46.29550
G1 X185.40 Y118.63 E46.40677
G1 X186.21 Y120.34 E46.51625
G1 X186.85 Y122.12 E46.62677
G1 X187.32 Y124.00 E46.73941
G1 X187.59 Y125.89 E46.85005
G1 X187.68 Y127.57 E46.94805
G1 X187.68 Y130.86 E47.13898
G1 X198.10 Y130.86 E47.74484
G1 X199.99 Y131.13 E47.85556
G1 X202.19 Y132.05 E47.99427
G1 X204.15 Y133.54 E48.13737
G1 X205.62 Y135.50 E48.28012
G1 X206.53 Y137.69 E48.41767
G1 X206.79 Y139.56 E48.52737
G1 X206.79 Y164.57 E49.98095
G1 X206.79 Y165.47 E50.03302
G1 X206.51 Y167.38 E50.14517
G1 X205.58 Y169.57 E50.28403
G1 X204.13 Y171.47 E50.42256
G1 X202.18 Y172.97 E50.56515
G1 X199.89 Y173.91 E50.70956
G1 X198.01 Y174.14 E50.81930
G1 X187.68 Y174.14 E51.41999
G1 X187.68 Y177.02 E51.58715
G1 X187.68 Y177.48 E51.61406
G1 X187.59 Y179.12 E51.70961
G1 X187.32 Y181.01 E51.82021
G1 X186.85 Y182.87 E51.93215
G1 X186.21 Y184.66 E52.04268
G1 X185.40 Y186.38 E52.15287
G1 X184.42 Y188.01 E52.26340
G1 X183.28 Y189.54 E52.37404
G1 X182.01 Y190.95 E52.48477
G1 X180.59 Y192.23 E52.59559
G1 X179.06 Y193.36 E52.70622
G1 X177.43 Y194.34 E52.81690
G1 X175.70 Y195.16 E52.92807
G1 X173.93 Y195.79 E53.03743
G1 X172.08 Y196.26 E53.14862
G1 X170.17 Y196.54 E53.26054
G1 X168.29 Y196.63 E53.37001
G1 X166.40 Y196.54 E53.48011
G1 X164.49 Y196.26 E53.59216
G1 X162.63 Y195.79 E53.70356
G1 X160.87 Y195.16 E53.81262
G1 X159.14 Y194.34 E53.92364
G1 X157.50 Y193.36 E54.03438
G1 X155.98 Y192.24 E54.14436
G1 X154.56 Y190.95 E54.25576
G1 X153.28 Y189.53 E54.36716
G1 X152.15 Y188.01 E54.47723
G1 X151.18 Y186.39 E54.58662
G1 X150.36 Y184.66 E54.69799
G1 X149.71 Y182.84 E54.81021
G1 X149.26 Y181.02 E54.91936
G1 X148.97 Y179.13 E55.03025
G1 X148.89 Y177.41 E55.13049
G1 X148.89 Y174.14 E55.32055
G1 X107.08 Y174.14 E57.75052
G1 X105.12 Y173.90 E57.86538
G1 X102.85 Y172.92 E58.00922
G1 X100.95 Y171.45 E58.14903
G1 X99.49 Y169.52 E58.28953
G1 X98.55 Y167.28 E58.43067
G1 X98.31 Y165.37 E58.54225
G1 X98.31 Y139.58 E60.04157
G1 X98.57 Y137.69 E60.15254
G1 X99.50 Y135.45 E60.29357
G1 X101.02 Y133.47 E60.43815
G0 F12000 X101.35 Y133.81
G1 F2700 X103.19 Y132.44 E60.57164
G1 X105.24 Y131.57 E60.70093
G1 X107.07 Y131.32 E60.80787
G1 X149.36 Y131.32 E63.26597
G1 X149.36 Y127.98 E63.46010
G1 X149.36 Y127.55 E63.48561
G1 X149.44 Y125.92 E63.58028
G1 X149.71 Y124.08 E63.68821
G1 X150.16 Y122.29 E63.79549
G1 X150.79 Y120.52 E63.90497
G1 X151.59 Y118.84 E64.01293
G1 X152.54 Y117.25 E64.12043
G1 X153.64 Y115.77 E64.22756
G1 X154.89 Y114.38 E64.33659
G1 X156.29 Y113.12 E64.44582
G1 X157.75 Y112.04 E64.55165
G1 X159.34 Y111.08 E64.65971
G1 X161.04 Y110.27 E64.76894
G1 X162.78 Y109.65 E64.87619
G1 X164.60 Y109.19 E64.98506
G1 X166.43 Y108.93 E65.09257
G1 X168.29 Y108.83 E65.20089
G1 X170.14 Y108.93 E65.30857
G1 X171.97 Y109.19 E65.41597
G1 X173.78 Y109.65 E65.52460
G1 X175.52 Y110.27 E65.63216
G1 X177.22 Y111.08 E65.74148
G1 X178.81 Y112.04 E65.84952
G1 X180.29 Y113.13 E65.95601
G1 X181.68 Y114.38 E66.06466
G1 X182.93 Y115.77 E66.17310
G1 X184.03 Y117.25 E66.28067
G1 X184.99 Y118.85 E66.38923
G1 X185.78 Y120.52 E66.49617
G1 X186.41 Y122.26 E66.60402
G1 X186.87 Y124.09 E66.71390
G1 X187.13 Y125.93 E66.82190
G1 X187.21 Y127.58 E66.91792
G1 X187.21 Y131.32 E67.13529
G1 X198.07 Y131.32 E67.76627
G1 X199.86 Y131.59 E67.87163
G1 X201.96 Y132.45 E68.00344
G1 X203.81 Y133.88 E68.13932
G1 X205.22 Y135.74 E68.27490
G1 X206.07 Y137.82 E68.40560
G1 X206.32 Y139.59 E68.50990
G1 X206.32 Y164.57 E69.96156
G1 X206.32 Y165.43 E70.01172
G1 X206.06 Y167.25 E70.11841
G1 X205.17 Y169.34 E70.25034
G1 X203.79 Y171.13 E70.38187
G1 X201.95 Y172.56 E70.51733
G1 X199.77 Y173.46 E70.65449
G1 X197.98 Y173.68 E70.75890
G1 X187.21 Y173.68 E71.38499
G1 X187.21 Y177.02 E71.57918
G1 X187.21 Y177.47 E71.60545
G1 X187.13 Y179.08 E71.69908
G1 X186.86 Y180.92 E71.80703
G1 X186.41 Y182.74 E71.91622
G1 X185.78 Y184.48 E72.02409
G1 X184.99 Y186.16 E72.13167
G1 X184.03 Y187.75 E72.23955
G1 X182.93 Y189.24 E72.34749
G1 X181.68 Y190.62 E72.45559
G1 X180.30 Y191.87 E72.56373
G1 X178.81 Y192.98 E72.67174
G1 X177.21 Y193.93 E72.77974
G1 X175.52 Y194.73 E72.88821
G1 X173.79 Y195.34 E72.99498
G1 X171.99 Y195.81 E73.10346
G1 X170.12 Y196.08 E73.21269
G1 X168.29 Y196.17 E73.31953
G1 X166.44 Y196.08 E73.42707
G1 X164.58 Y195.81 E73.53636
G1 X162.77 Y195.34 E73.64507
G1 X161.04 Y194.73 E73.75153
G1 X159.36 Y193.93 E73.85985
G1 X157.76 Y192.97 E73.96793
G1 X156.28 Y191.87 E74.07528
G1 X154.89 Y190.62 E74.18401
G1 X153.64 Y189.23 E74.29273
G1 X152.54 Y187.75 E74.40015
G1 X151.59 Y186.17 E74.50695
G1 X150.79 Y184.48 E74.61562
G1 X150.16 Y182.71 E74.72511
G1 X149.72 Y180.93 E74.83170
G1 X149.43 Y179.09 E74.93982
G1 X149.36 Y177.40 E75.03803
G1 X149.36 Y173.68 E75.25460
G1 X107.11 Y173.68 E77.70996
G1 X105.25 Y173.44 E77.81932
G1 X103.09 Y172.51 E77.95584
G1 X101.28 Y171.12 E78.08861
G1 X99.90 Y169.28 E78.22211
G1 X99.00 Y167.16 E78.35611
G1 X98.78 Y165.34 E78.46230
G1 X98.78 Y139.61 E79.95807
G1 X99.02 Y137.81 E80.06366
G1 X99.91 Y135.68 E80.19762
G1 X101.35 Y133.81 E80.33492
G0 F12000 X101.68 Y134.14
G1 F2700 X103.43 Y132.85 E80.46138
G1 X105.37 Y132.03 E80.58385
G1 X107.10 Y131.79 E80.68527
G1 X149.82 Y131.79 E83.16866
G1 X149.82 Y127.98 E83.38981
G1 X149.83 Y127.56 E83.41469
G1 X149.90 Y125.96 E83.50737
G1 X150.17 Y124.17 E83.61266
G1 X150.60 Y122.42 E83.71736
G1 X151.22 Y120.69 E83.82406
G1 X152.00 Y119.06 E83.92940
G1 X152.93 Y117.51 E84.03426
G1 X154.00 Y116.07 E84.13878
G1 X155.22 Y114.71 E84.24505
G1 X156.59 Y113.48 E84.35156
G1 X158.01 Y112.42 E84.45490
G1 X159.56 Y111.49 E84.56030
G1 X161.22 Y110.70 E84.66682
G1 X162.92 Y110.10 E84.77142
G1 X164.69 Y109.65 E84.87758
G1 X166.47 Y109.39 E84.98240
G1 X168.29 Y109.30 E85.08810
G1 X170.09 Y109.40 E85.19310
G1 X171.88 Y109.65 E85.29791
G1 X173.65 Y110.10 E85.40383
G1 X175.35 Y110.70 E85.50877
G1 X177.00 Y111.49 E85.61536
G1 X178.56 Y112.42 E85.72068
G1 X179.99 Y113.49 E85.82464
G1 X181.35 Y114.71 E85.93057
G1 X182.56 Y116.06 E86.03630
G1 X183.64 Y117.51 E86.14130
G1 X184.58 Y119.07 E86.24715
G1 X185.34 Y120.69 E86.35146
G1 X185.96 Y122.40 E86.45666
G1 X186.41 Y124.19 E86.56384
G1 X186.67 Y125.98 E86.66913
G1 X186.75 Y127.59 E86.76317
G1 X186.75 Y131.79 E87.00700
G1 X198.03 Y131.79 E87.66314
G1 X199.74 Y132.04 E87.76316
G1 X201.72 Y132.86 E87.88798
G1 X203.48 Y134.21 E88.01665
G1 X204.81 Y135.97 E88.14504
G1 X205.62 Y137.94 E88.26881
G1 X205.86 Y139.63 E88.36783
G1 X205.86 Y164.57 E89.81757
G1 X205.85 Y165.40 E89.86576
G1 X205.61 Y167.12 E89.96705
G1 X204.77 Y169.10 E90.09197
G1 X203.46 Y170.80 E90.21654
G1 X201.71 Y172.15 E90.34487
G1 X199.65 Y173.00 E90.47468
G1 X197.96 Y173.21 E90.57377
G1 X186.75 Y173.21 E91.22532
G1 X186.75 Y177.02 E91.44653
G1 X186.74 Y177.46 E91.47216
G1 X186.67 Y179.03 E91.56387
G1 X186.41 Y180.82 E91.66912
G1 X185.96 Y182.60 E91.77562
G1 X185.35 Y184.31 E91.88082
G1 X184.57 Y185.94 E91.98575
G1 X183.64 Y187.49 E92.09099
G1 X182.56 Y188.94 E92.19628
G1 X181.35 Y190.29 E92.30170
G1 X180.00 Y191.51 E92.40716
G1 X178.55 Y192.59 E92.51252
G1 X176.99 Y193.52 E92.61786
G1 X175.35 Y194.30 E92.72362
G1 X173.66 Y194.90 E92.82782
G1 X171.89 Y195.35 E92.93359
G1 X170.08 Y195.61 E93.04011
G1 X168.29 Y195.70 E93.14440
G1 X166.49 Y195.61 E93.24926
G1 X164.67 Y195.35 E93.35579
G1 X162.91 Y194.90 E93.46180
G1 X161.22 Y194.30 E93.56567
G1 X159.58 Y193.52 E93.67136
G1 X158.02 Y192.59 E93.77678
G1 X156.58 Y191.51 E93.88147
G1 X155.22 Y190.29 E93.98752
G1 X154.00 Y188.94 E94.09353
G1 X152.93 Y187.49 E94.19833
G1 X152.00 Y185.95 E94.30255
G1 X151.22 Y184.31 E94.40852
G1 X150.60 Y182.57 E94.51523
G1 X150.17 Y180.84 E94.61925
G1 X149.90 Y179.04 E94.72472
G1 X149.82 Y177.39 E94.82090
G1 X149.82 Y173.21 E95.06391
G1 X107.14 Y173.21 E97.54467
G1 X105.37 Y172.99 E97.64847
G1 X103.33 Y172.11 E97.77773
G1 X101.62 Y170.78 E97.90345
G1 X100.31 Y169.05 E98.02989
G1 X99.46 Y167.03 E98.15685
G1 X99.25 Y165.31 E98.25759
G1 X99.25 Y139.64 E99.74988
G1 X99.48 Y137.93 E99.85006
G1 X100.32 Y135.92 E99.97692
G1 X101.68 Y134.14 E100.10696
G0 F12000 X102.01 Y134.48
G1 F2700 X103.66 Y133.25 E100.22640
G1 X105.49 Y132.48 E100.34201
G1 X107.13 Y132.26 E100.43804
G1 X150.29 Y132.26 E102.94665
G1 X150.29 Y127.99 E103.19483
G1 X150.29 Y127.57 E103.21912
G1 X150.36 Y126.01 E103.30977
G1 X150.63 Y124.26 E103.41242
G1 X151.05 Y122.56 E103.51448
G1 X151.65 Y120.88 E103.61840
G1 X152.41 Y119.28 E103.72114
G1 X153.31 Y117.77 E103.82337
G1 X154.36 Y116.36 E103.92523
G1 X155.55 Y115.04 E104.02882
G1 X156.88 Y113.84 E104.13262
G1 X158.27 Y112.81 E104.23338
G1 X159.79 Y111.90 E104.33615
G1 X161.40 Y111.14 E104.43992
G1 X163.05 Y110.55 E104.54187
G1 X164.78 Y110.11 E104.64533
G1 X166.52 Y109.86 E104.74756
G1 X168.29 Y109.77 E104.85052
G1 X170.05 Y109.86 E104.95291
G1 X171.79 Y110.11 E105.05514
G1 X173.51 Y110.54 E105.15835
G1 X175.17 Y111.13 E105.26064
G1 X176.78 Y111.90 E105.36448
G1 X178.29 Y112.81 E105.46717
G1 X179.70 Y113.85 E105.56851
G1 X181.02 Y115.04 E105.67177
G1 X182.20 Y116.36 E105.77482
G1 X183.25 Y117.77 E105.87716
G1 X184.16 Y119.29 E105.98033
G1 X184.91 Y120.88 E106.08209
G1 X185.51 Y122.53 E106.18463
G1 X185.95 Y124.28 E106.28900
G1 X186.20 Y126.02 E106.39166
G1 X186.28 Y127.61 E106.48377
G1 X186.28 Y132.26 E106.75398
G1 X198.00 Y132.26 E107.43523
G1 X199.61 Y132.49 E107.52992
G1 X201.49 Y133.27 E107.64781
G1 X203.14 Y134.54 E107.76922
G1 X204.40 Y136.20 E107.89047
G1 X205.17 Y138.06 E108.00734
G1 X205.39 Y139.66 E108.10102
G1 X205.39 Y164.57 E109.54884
G1 X205.39 Y165.37 E109.59510
G1 X205.16 Y167.00 E109.69093
G1 X204.36 Y168.87 E109.80892
G1 X203.13 Y170.47 E109.92652
G1 X201.48 Y171.74 E110.04768
G1 X199.53 Y172.55 E110.17020
G1 X197.93 Y172.74 E110.26402
G1 X186.28 Y172.74 E110.94096
G1 X186.28 Y177.01 E111.18920
G1 X186.28 Y177.44 E111.21414
G1 X186.20 Y178.99 E111.30399
G1 X185.95 Y180.74 E111.40659
G1 X185.51 Y182.47 E111.51033
G1 X184.91 Y184.13 E111.61288
G1 X184.16 Y185.72 E111.71519
G1 X183.25 Y187.23 E111.81777
G1 X182.20 Y188.65 E111.92039
G1 X181.02 Y189.96 E112.02318
G1 X179.71 Y191.15 E112.12597
G1 X178.29 Y192.20 E112.22863
G1 X176.77 Y193.11 E112.33134
G1 X175.17 Y193.87 E112.43440
G1 X173.52 Y194.45 E112.53600
G1 X171.80 Y194.89 E112.63914
G1 X170.03 Y195.15 E112.74290
G1 X168.29 Y195.23 E112.84456
G1 X166.53 Y195.15 E112.94681
G1 X164.76 Y194.89 E113.05063
G1 X163.04 Y194.45 E113.15395
G1 X161.40 Y193.87 E113.25522
G1 X159.80 Y193.11 E113.35821
G1 X158.28 Y192.20 E113.46095
G1 X156.87 Y191.15 E113.56307
G1 X155.55 Y189.96 E113.66640
G1 X154.36 Y188.64 E113.76969
G1 X153.31 Y187.23 E113.87187
G1 X152.41 Y185.73 E113.97352
G1 X151.65 Y184.13 E114.07680
G1 X151.05 Y182.44 E114.18074
G1 X150.63 Y180.75 E114.28217
G1 X150.36 Y179.00 E114.38500
G1 X150.29 Y177.38 E114.47908
G1 X150.29 Y172.74 E114.74859
G1 X107.17 Y172.74 E117.25476
G1 X105.49 Y172.53 E117.35299
G1 X103.57 Y171.70 E117.47499
G1 X101.95 Y170.45 E117.59371
G1 X100.71 Y168.81 E117.71314
G1 X99.91 Y166.91 E117.83291
G1 X99.71 Y165.29 E117.92827
G1 X99.71 Y139.67 E119.41701
G1 X99.93 Y138.06 E119.51186
G1 X100.72 Y136.15 E119.63165
G1 X102.01 Y134.48 E119.75431
G0 F12000 X102.34 Y134.81
G1 F2700 X103.89 Y133.66 E119.86673
G1 X105.62 Y132.93 E119.97544
G1 X107.16 Y132.72 E120.06608
G1 X150.76 Y132.72 E122.59991
G1 X150.76 Y127.99 E122.87512
G1 X150.76 Y127.58 E122.89877
G1 X150.83 Y126.06 E122.98744
G1 X151.09 Y124.36 E123.08744
G1 X151.50 Y122.69 E123.18694
G1 X152.08 Y121.05 E123.28808
G1 X152.82 Y119.50 E123.38812
G1 X153.70 Y118.03 E123.48777
G1 X154.72 Y116.66 E123.58701
G1 X155.88 Y115.37 E123.68785
G1 X157.18 Y114.21 E123.78893
G1 X158.53 Y113.20 E123.88720
G1 X160.01 Y112.31 E123.98725
G1 X161.58 Y111.57 E124.08831
G1 X163.19 Y110.99 E124.18766
G1 X164.87 Y110.57 E124.28837
G1 X166.56 Y110.32 E124.38801
G1 X168.29 Y110.23 E124.48830
G1 X170.00 Y110.32 E124.58801
G1 X171.70 Y110.57 E124.68760
G1 X173.37 Y110.99 E124.78812
G1 X174.99 Y111.56 E124.88774
G1 X176.56 Y112.31 E124.98888
G1 X178.04 Y113.20 E125.08896
G1 X179.40 Y114.21 E125.18772
G1 X180.69 Y115.37 E125.28826
G1 X181.84 Y116.65 E125.38867
G1 X182.87 Y118.03 E125.48832
G1 X183.75 Y119.51 E125.58882
G1 X184.48 Y121.05 E125.68798
G1 X185.07 Y122.67 E125.78785
G1 X185.49 Y124.37 E125.88946
G1 X185.74 Y126.07 E125.98948
G1 X185.81 Y127.62 E126.07962
G1 X185.81 Y132.72 E126.37627
G1 X197.97 Y132.72 E127.08263
G1 X199.49 Y132.94 E127.17197
G1 X201.25 Y133.67 E127.28293
G1 X202.81 Y134.87 E127.39709
G1 X203.99 Y136.44 E127.51121
G1 X204.71 Y138.19 E127.62116
G1 X204.93 Y139.69 E127.70956
G1 X204.93 Y164.57 E129.15540
G1 X204.92 Y165.33 E129.19975
G1 X204.70 Y166.87 E129.29018
G1 X203.96 Y168.63 E129.40115
G1 X202.79 Y170.14 E129.51182
G1 X201.24 Y171.34 E129.62581
G1 X199.41 Y172.09 E129.74109
G1 X197.90 Y172.28 E129.82951
G1 X185.81 Y172.28 E130.53192
G1 X185.81 Y177.01 E130.80719
G1 X185.81 Y177.43 E130.83148
G1 X185.74 Y178.94 E130.91941
G1 X185.49 Y180.64 E131.01931
G1 X185.07 Y182.33 E131.12036
G1 X184.48 Y183.95 E131.22026
G1 X183.75 Y185.50 E131.31997
G1 X182.87 Y186.97 E131.41982
G1 X181.84 Y188.35 E131.51979
G1 X180.69 Y189.63 E131.61994
G1 X179.41 Y190.79 E131.72006
G1 X178.03 Y191.81 E131.82005
G1 X176.55 Y192.70 E131.92010
G1 X174.99 Y193.44 E132.02054
G1 X173.38 Y194.00 E132.11948
G1 X171.71 Y194.43 E132.21992
G1 X169.99 Y194.68 E132.32099
G1 X168.29 Y194.77 E132.42003
G1 X166.58 Y194.68 E132.51966
G1 X164.85 Y194.43 E132.62073
G1 X163.18 Y194.00 E132.72135
G1 X161.58 Y193.43 E132.82007
G1 X160.02 Y192.70 E132.92037
G1 X158.54 Y191.81 E133.02045
G1 X157.17 Y190.79 E133.11991
G1 X155.88 Y189.63 E133.22061
G1 X154.72 Y188.35 E133.32119
G1 X153.70 Y186.97 E133.42071
G1 X152.83 Y185.51 E133.51972
G1 X152.08 Y183.95 E133.62036
G1 X151.50 Y182.31 E133.72158
G1 X151.09 Y180.66 E133.82044
G1 X150.83 Y178.95 E133.92056
G1 X150.76 Y177.37 E134.01260
G1 X150.76 Y172.28 E134.30856
G1 X107.20 Y172.28 E136.84012
G1 X105.62 Y172.08 E136.93279
G1 X103.81 Y171.30 E137.04757
G1 X102.28 Y170.12 E137.15925
G1 X101.12 Y168.58 E137.27162
G1 X100.37 Y166.79 E137.38428
G1 X100.18 Y165.26 E137.47425
G1 X100.18 Y139.70 E138.95944
G1 X100.38 Y138.18 E139.04895
G1 X101.13 Y136.39 E139.16165
G1 X102.34 Y134.81 E139.27702
G0 F12000 X102.67 Y135.15
G1 F2700 X104.13 Y134.07 E139.38238
G1 X105.74 Y133.39 E139.48430
G1 X107.19 Y133.19 E139.56942
G1 X151.22 Y133.19 E142.12853
G1 X151.22 Y127.99 E142.43077
G1 X151.22 Y127.59 E142.45378
G1 X151.29 Y126.10 E142.54053
G1 X151.54 Y124.45 E142.63783
G1 X151.94 Y122.83 E142.73469
G1 X152.51 Y121.23 E142.83312
G1 X153.24 Y119.72 E142.93053
G1 X154.09 Y118.29 E143.02747
G1 X155.08 Y116.95 E143.12414
G1 X156.21 Y115.70 E143.22226
G1 X157.47 Y114.57 E143.32063
G1 X158.79 Y113.59 E143.41636
G1 X160.23 Y112.72 E143.51375
G1 X161.76 Y112.00 E143.61206
G1 X163.32 Y111.44 E143.70881
G1 X164.96 Y111.03 E143.80681
G1 X166.61 Y110.79 E143.90376
G1 X168.29 Y110.70 E144.00143
G1 X169.96 Y110.79 E144.09851
G1 X171.61 Y111.03 E144.19546
G1 X173.24 Y111.44 E144.29329
G1 X174.81 Y112.00 E144.39026
G1 X176.34 Y112.72 E144.48869
G1 X177.78 Y113.59 E144.58609
G1 X179.10 Y114.57 E144.68224
G1 X180.36 Y115.70 E144.78010
G1 X181.48 Y116.95 E144.87784
G1 X182.48 Y118.29 E144.97487
G1 X183.34 Y119.73 E145.07265
G1 X184.05 Y121.23 E145.16921
G1 X184.62 Y122.81 E145.26643
G1 X185.03 Y124.46 E145.36529
G1 X185.27 Y126.11 E145.46265
G1 X185.35 Y127.63 E145.55088
G1 X185.35 Y133.19 E145.87392
G1 X197.93 Y133.19 E146.60538
G1 X199.36 Y133.40 E146.68944
G1 X201.02 Y134.08 E146.79342
G1 X202.48 Y135.20 E146.90032
G1 X203.59 Y136.67 E147.00730
G1 X204.26 Y138.31 E147.11035
G1 X204.46 Y139.72 E147.19346
G1 X204.46 Y164.57 E148.63733
G1 X204.46 Y165.30 E148.67976
G1 X204.25 Y166.74 E148.76472
G1 X203.55 Y168.39 E148.86876
G1 X202.46 Y169.81 E148.97248
G1 X201.01 Y170.93 E149.07935
G1 X199.29 Y171.64 E149.18730
G1 X197.87 Y171.81 E149.27045
G1 X185.35 Y171.81 E149.99825
G1 X185.35 Y177.01 E150.30055
G1 X185.35 Y177.42 E150.32414
G1 X185.27 Y178.90 E150.41021
G1 X185.03 Y180.55 E150.50747
G1 X184.62 Y182.19 E150.60576
G1 X184.05 Y183.77 E150.70300
G1 X183.34 Y185.28 E150.80008
G1 X182.48 Y186.71 E150.89727
G1 X181.48 Y188.06 E150.99458
G1 X180.36 Y189.30 E151.09206
G1 X179.11 Y190.43 E151.18954
G1 X177.77 Y191.42 E151.28684
G1 X176.33 Y192.28 E151.38426
G1 X174.81 Y193.00 E151.48199
G1 X173.25 Y193.56 E151.57833
G1 X171.62 Y193.98 E151.67612
G1 X169.94 Y194.22 E151.77443
G1 X168.29 Y194.30 E151.87086
G1 X166.62 Y194.22 E151.96786
G1 X164.95 Y193.98 E152.06624
G1 X163.31 Y193.56 E152.16415
G1 X161.76 Y193.00 E152.26028
G1 X160.24 Y192.28 E152.35793
G1 X158.80 Y191.42 E152.45533
G1 X157.46 Y190.43 E152.55217
G1 X156.21 Y189.30 E152.65016
G1 X155.08 Y188.05 E152.74802
G1 X154.09 Y186.71 E152.84497
G1 X153.24 Y185.29 E152.94135
G1 X152.51 Y183.77 E153.03928
G1 X151.94 Y182.17 E153.13772
G1 X151.54 Y180.56 E153.23400
G1 X151.29 Y178.91 E153.33149
G1 X151.22 Y177.36 E153.42143
G1 X151.22 Y171.81 E153.74390
G1 X107.23 Y171.81 E156.30086
G1 X105.74 Y171.63 E156.38802
G1 X104.04 Y170.89 E156.49551
G1 X102.62 Y169.79 E156.60014
G1 X101.53 Y168.35 E156.70551
G1 X100.82 Y166.67 E156.81104
G1 X100.64 Y165.23 E156.89561
G1 X100.64 Y139.74 E158.37732
G1 X100.84 Y138.30 E158.46138
G1 X101.54 Y136.62 E158.56705
G1 X102.67 Y135.15 E158.67512
G0 F12000 X103.00 Y135.49
G1 F2700 X104.36 Y134.48 E158.77345
G1 X105.86 Y133.84 E158.86852
G1 X107.22 Y133.65 E158.94825
G1 X151.69 Y133.65 E161.53259
G1 X151.69 Y127.99 E161.86185
G1 X151.69 Y127.60 E161.88428
G1 X151.76 Y126.15 E161.96900
G1 X152.00 Y124.54 E162.06365
G1 X152.39 Y122.96 E162.15794
G1 X152.94 Y121.41 E162.25359
G1 X153.65 Y119.94 E162.34830
G1 X154.48 Y118.55 E162.44265
G1 X155.44 Y117.25 E162.53666
G1 X156.54 Y116.03 E162.63211
G1 X157.76 Y114.93 E162.72776
G1 X159.05 Y113.97 E162.82092
G1 X160.45 Y113.13 E162.91568
G1 X161.94 Y112.43 E163.01126
G1 X163.46 Y111.89 E163.10531
G1 X165.05 Y111.48 E163.20063
G1 X166.66 Y111.25 E163.29500
G1 X168.29 Y111.17 E163.38999
G1 X169.91 Y111.25 E163.48440
G1 X171.52 Y111.48 E163.57869
G1 X173.10 Y111.88 E163.67389
G1 X174.63 Y112.43 E163.76822
G1 X176.12 Y113.13 E163.86387
G1 X177.52 Y113.97 E163.95860
G1 X178.81 Y114.93 E164.05222
G1 X180.03 Y116.03 E164.14736
G1 X181.12 Y117.24 E164.24243
G1 X182.09 Y118.55 E164.33680
G1 X182.93 Y119.95 E164.43191
G1 X183.62 Y121.41 E164.52585
G1 X184.17 Y122.94 E164.62040
G1 X184.58 Y124.55 E164.71651
G1 X184.81 Y126.16 E164.81124
G1 X184.88 Y127.64 E164.89748
G1 X184.88 Y133.65 E165.24697
G1 X197.90 Y133.65 E166.00360
G1 X199.24 Y133.85 E166.08225
G1 X200.78 Y134.49 E166.17932
G1 X202.14 Y135.53 E166.27897
G1 X203.18 Y136.90 E166.37881
G1 X203.81 Y138.43 E166.47493
G1 X203.99 Y139.76 E166.55270
G1 X203.99 Y164.57 E167.99471
G1 X203.99 Y165.26 E168.03516
G1 X203.80 Y166.62 E168.11473
G1 X203.14 Y168.15 E168.21176
G1 X202.13 Y169.47 E168.30852
G1 X200.77 Y170.52 E168.40822
G1 X199.17 Y171.18 E168.50887
G1 X197.84 Y171.35 E168.58669
G1 X184.88 Y171.35 E169.33995
G1 X184.88 Y177.01 E169.66927
G1 X184.88 Y177.41 E169.69223
G1 X184.81 Y178.85 E169.77638
G1 X184.57 Y180.46 E169.87094
G1 X184.17 Y182.06 E169.96647
G1 X183.62 Y183.59 E170.06110
G1 X182.93 Y185.06 E170.15555
G1 X182.09 Y186.45 E170.25011
G1 X181.12 Y187.76 E170.34475
G1 X180.03 Y188.97 E170.43956
G1 X178.82 Y190.06 E170.53437
G1 X177.51 Y191.04 E170.62905
G1 X176.11 Y191.87 E170.72375
G1 X174.63 Y192.57 E170.81878
G1 X173.11 Y193.11 E170.91261
G1 X171.53 Y193.52 E171.00765
G1 X169.90 Y193.75 E171.10325
G1 X168.29 Y193.83 E171.19706
G1 X166.66 Y193.75 E171.29150
G1 X165.04 Y193.52 E171.38705
G1 X163.45 Y193.11 E171.48233
G1 X161.94 Y192.57 E171.57583
G1 X160.46 Y191.87 E171.67083
G1 X159.06 Y191.03 E171.76552
G1 X157.76 Y190.07 E171.85975
G1 X156.54 Y188.97 E171.95506
G1 X155.44 Y187.75 E172.05025
G1 X154.48 Y186.45 E172.14453
G1 X153.65 Y185.07 E172.23833
G1 X152.94 Y183.59 E172.33356
G1 X152.39 Y182.04 E172.42928
G1 X152.00 Y180.47 E172.52299
G1 X151.76 Y178.86 E172.61771
G1 X151.69 Y177.35 E172.70568
G1 X151.69 Y171.35 E173.05459
G1 X107.26 Y171.35 E175.63696
G1 X105.86 Y171.17 E175.71855
G1 X104.28 Y170.49 E175.81878
G1 X102.95 Y169.46 E175.91636
G1 X101.93 Y168.11 E176.01471
G1 X101.28 Y166.55 E176.11317
G1 X101.11 Y165.20 E176.19230
G1 X101.11 Y139.77 E177.67046
G1 X101.29 Y138.43 E177.74918
G1 X101.94 Y136.86 E177.84776
G1 X103.00 Y135.49 E177.94849
G0 F12000 X103.33 Y135.82
G1 F2700 X104.59 Y134.88 E178.03980
G1 X105.99 Y134.29 E178.12800
G1 X107.26 Y134.12 E178.20232
G1 X152.15 Y134.12 E180.81189
G1 X152.15 Y127.99 E181.16817
G1 X152.16 Y127.61 E181.18997
G1 X152.22 Y126.19 E181.27271
G1 X152.46 Y124.63 E181.36472
G1 X152.84 Y123.10 E181.45636
G1 X153.37 Y121.59 E181.54923
G1 X154.06 Y120.16 E181.64137
G1 X154.87 Y118.81 E181.73309
G1 X155.80 Y117.55 E181.82448
G1 X156.87 Y116.36 E181.91721
G1 X158.06 Y115.29 E182.01011
G1 X159.31 Y114.36 E182.10077
G1 X160.67 Y113.54 E182.19287
G1 X162.11 Y112.86 E182.28569
G1 X163.59 Y112.33 E182.37715
G1 X165.14 Y111.94 E182.46977
G1 X166.70 Y111.72 E182.56148
G1 X168.29 Y111.63 E182.65380
G1 X169.86 Y111.72 E182.74553
G1 X171.43 Y111.94 E182.83725
G1 X172.97 Y112.33 E182.92968
G1 X174.46 Y112.86 E183.02141
G1 X175.90 Y113.54 E183.11431
G1 X177.26 Y114.36 E183.20641
G1 X178.51 Y115.29 E183.29745
G1 X179.70 Y116.36 E183.38988
G1 X180.76 Y117.54 E183.48228
G1 X181.70 Y118.81 E183.57398
G1 X182.52 Y120.17 E183.66643
G1 X183.19 Y121.59 E183.75780
G1 X183.73 Y123.08 E183.84965
G1 X184.12 Y124.64 E183.94300
G1 X184.34 Y126.20 E184.03503
G1 X184.42 Y127.65 E184.11940
G1 X184.42 Y134.12 E184.49528
G1 X197.87 Y134.12 E185.27702
G1 X199.12 Y134.30 E185.35038
G1 X200.55 Y134.90 E185.44047
G1 X201.81 Y135.86 E185.53290
G1 X202.77 Y137.14 E185.62556
G1 X203.35 Y138.56 E185.71482
G1 X203.53 Y139.79 E185.78725
G1 X203.53 Y164.57 E187.22729
G1 X203.53 Y165.23 E187.26582
G1 X203.34 Y166.49 E187.33993
G1 X202.74 Y167.92 E187.43004
G1 X201.80 Y169.14 E187.51982
G1 X200.54 Y170.12 E187.61235
G1 X199.05 Y170.73 E187.70570
G1 X197.81 Y170.88 E187.77826
G1 X184.42 Y170.88 E188.55692
G1 X184.42 Y177.01 E188.91326
G1 X184.41 Y177.39 E188.93553
G1 X184.34 Y178.81 E189.01781
G1 X184.12 Y180.37 E189.10973
G1 X183.73 Y181.92 E189.20250
G1 X183.19 Y183.41 E189.29448
G1 X182.52 Y184.84 E189.38631
G1 X181.70 Y186.19 E189.47820
G1 X180.76 Y187.47 E189.57019
G1 X179.70 Y188.64 E189.66232
G1 X178.52 Y189.70 E189.75446
G1 X177.25 Y190.65 E189.84648
G1 X175.89 Y191.46 E189.93850
G1 X174.46 Y192.14 E190.03087
G1 X172.98 Y192.67 E190.12211
G1 X171.44 Y193.06 E190.21445
G1 X169.85 Y193.29 E190.30735
G1 X168.29 Y193.37 E190.39854
G1 X166.71 Y193.29 E190.49037
G1 X165.13 Y193.06 E190.58322
G1 X163.59 Y192.67 E190.67573
G1 X162.11 Y192.14 E190.76670
G1 X160.68 Y191.46 E190.85900
G1 X159.32 Y190.65 E190.95105
G1 X158.05 Y189.71 E191.04266
G1 X156.87 Y188.64 E191.13526
G1 X155.80 Y187.46 E191.22773
G1 X154.87 Y186.19 E191.31940
G1 X154.06 Y184.85 E191.41061
G1 X153.37 Y183.41 E191.50314
G1 X152.84 Y181.90 E191.59608
G1 X152.46 Y180.38 E191.68722
G1 X152.22 Y178.81 E191.77929
G1 X152.15 Y177.34 E191.86517
G1 X152.15 Y170.88 E192.24058
G1 X107.29 Y170.88 E194.84834
G1 X105.99 Y170.72 E194.92437
G1 X104.52 Y170.08 E195.01736
G1 X103.29 Y169.13 E195.10794
G1 X102.34 Y167.88 E195.19927
G1 X101.73 Y166.43 E195.29055
G1 X101.58 Y165.17 E195.36424
G1 X101.58 Y139.80 E196.83897
G1 X101.75 Y138.55 E196.91229
G1 X102.35 Y137.09 E197.00379
G1 X103.33 Y135.82 E197.09722
G0 F12000 X103.66 Y136.16
G1 F2700 X104.82 Y135.29 E197.18148
G1 X106.11 Y134.75 E197.26287
G1 X107.29 Y134.59 E197.33168
G1 X152.38 Y134.59 E199.95258
G1 X152.55 Y134.57 E199.96272
G1 X152.56 Y134.57 E199.96314
G1 X152.57 Y134.57 E199.96364
G1 X152.59 Y134.56 E199.96482
G1 X152.59 Y134.55 E199.96511
G1 X152.59 Y134.55 E199.96519
G1 X152.60 Y134.53 E199.96642
G1 X152.60 Y134.52 E199.96719
G1 X152.62 Y134.34 E199.97804
G1 X152.62 Y127.99 E200.34682
G1 X152.62 Y127.63 E200.36804
G1 X152.69 Y126.24 E200.44874
G1 X152.92 Y124.72 E200.53811
G1 X153.28 Y123.23 E200.62717
G1 X153.80 Y121.77 E200.71727
G1 X154.47 Y120.38 E200.80675
G1 X155.25 Y119.07 E200.89585
G1 X156.17 Y117.84 E200.98466
G1 X157.20 Y116.69 E201.07463
G1 X158.35 Y115.65 E201.16481
G1 X159.57 Y114.75 E201.25290
G1 X160.89 Y113.95 E201.34232
G1 X162.29 Y113.29 E201.43244
G1 X163.73 Y112.78 E201.52130
G1 X165.23 Y112.40 E201.61116
G1 X166.75 Y112.18 E201.70023
G1 X168.29 Y112.10 E201.78993
G1 X169.82 Y112.18 E201.87898
G1 X171.34 Y112.40 E201.96812
G1 X172.83 Y112.78 E202.05786
G1 X174.28 Y113.29 E202.14692
G1 X175.68 Y113.95 E202.23711
G1 X177.00 Y114.75 E202.32651
G1 X178.22 Y115.66 E202.41500
G1 X179.37 Y116.69 E202.50472
G1 X180.40 Y117.84 E202.59448
G1 X181.31 Y119.06 E202.68353
G1 X182.11 Y120.39 E202.77325
G1 X182.76 Y121.77 E202.86204
G1 X183.28 Y123.21 E202.95123
G1 X183.66 Y124.73 E203.04187
G1 X183.88 Y126.25 E203.13120
G1 X183.95 Y127.66 E203.21360
G1 X183.95 Y134.36 E203.60255
G1 X183.96 Y134.51 E203.61147
G1 X183.97 Y134.52 E203.61225
G1 X183.98 Y134.55 E203.61415
G1 X183.99 Y134.56 E203.61505
G1 X184.00 Y134.57 E203.61560
G1 X184.01 Y134.57 E203.61617
G1 X184.01 Y134.57 E203.61647
G1 X184.19 Y134.59 E203.62685
G1 X197.83 Y134.59 E204.41975
G1 X198.99 Y134.75 E204.48777
G1 X200.31 Y135.30 E204.57092
G1 X201.47 Y136.19 E204.65615
G1 X202.36 Y137.37 E204.74163
G1 X202.90 Y138.68 E204.82399
G1 X203.06 Y139.82 E204.89114
G1 X203.06 Y164.56 E206.32919
G1 X203.06 Y165.19 E206.36581
G1 X202.89 Y166.37 E206.43451
G1 X202.33 Y167.68 E206.51764
G1 X201.46 Y168.81 E206.60045
G1 X200.30 Y169.71 E206.68581
G1 X198.93 Y170.27 E206.77192
G1 X197.78 Y170.41 E206.83909
G1 X184.20 Y170.41 E207.62868
G1 X184.03 Y170.43 E207.63853
G1 X184.00 Y170.44 E207.64032
G1 X183.99 Y170.44 E207.64084
G1 X183.98 Y170.45 E207.64173
G1 X183.97 Y170.46 E207.64228
G1 X183.97 Y170.48 E207.64371
G1 X183.96 Y170.49 E207.64438
G1 X183.95 Y170.66 E207.65405
G1 X183.95 Y177.01 E208.02342
G1 X183.95 Y177.38 E208.04504
G1 X183.88 Y178.76 E208.12541
G1 X183.66 Y180.28 E208.21462
G1 X183.28 Y181.78 E208.30470
G1 X182.76 Y183.23 E208.39403
G1 X182.10 Y184.62 E208.48321
G1 X181.31 Y185.94 E208.57247
G1 X180.40 Y187.17 E208.66176
G1 X179.37 Y188.31 E208.75125
G1 X178.22 Y189.34 E208.84075
G1 X176.99 Y190.26 E208.93007
G1 X175.67 Y191.05 E209.01944
G1 X174.28 Y191.71 E209.10913
G1 X172.84 Y192.22 E209.19778
G1 X171.34 Y192.60 E209.28748
G1 X169.81 Y192.82 E209.37761
G1 X168.29 Y192.90 E209.46618
G1 X166.75 Y192.82 E209.55539
G1 X165.22 Y192.60 E209.64554
G1 X163.72 Y192.22 E209.73535
G1 X162.29 Y191.71 E209.82372
G1 X160.90 Y191.05 E209.91334
G1 X159.58 Y190.26 E210.00270
G1 X158.35 Y189.35 E210.09169
G1 X157.20 Y188.31 E210.18161
G1 X156.17 Y187.16 E210.27136
G1 X155.25 Y185.93 E210.36041
G1 X154.47 Y184.62 E210.44904
G1 X153.80 Y183.23 E210.53886
G1 X153.28 Y181.77 E210.62905
G1 X152.92 Y180.29 E210.71761
G1 X152.69 Y178.77 E210.80703
G1 X152.62 Y177.33 E210.89087
G1 X152.62 Y170.65 E211.27907
G1 X152.60 Y170.48 E211.28899
G1 X152.60 Y170.47 E211.28947
G1 X152.59 Y170.45 E211.29103
G1 X152.59 Y170.44 E211.29124
G1 X152.58 Y170.44 E211.29179
G1 X152.56 Y170.43 E211.29291
G1 X152.54 Y170.43 E211.29405
G1 X152.37 Y170.41 E211.30408
G1 X107.32 Y170.41 E213.92272
G1 X106.11 Y170.26 E213.99318
G1 X104.76 Y169.68 E214.07891
G1 X103.62 Y168.80 E214.16245
G1 X102.75 Y167.64 E214.24677
G1 X102.19 Y166.31 E214.33094
G1 X102.04 Y165.14 E214.39923
G1 X102.04 Y139.83 E215.87042
G1 X102.20 Y138.67 E215.93840
G1 X102.76 Y137.33 E216.02281
G1 X103.66 Y136.16 E216.10895
G0 F12000 X103.99 Y136.49
G1 F2700 X105.06 Y135.70 E216.18622
G1 X106.24 Y135.20 E216.26071
G1 X107.32 Y135.05 E216.32413
G1 X152.40 Y135.05 E218.94450
G1 X152.63 Y135.03 E218.95750
G1 X152.71 Y135.01 E218.96235
G1 X152.78 Y134.99 E218.96681
G1 X152.86 Y134.93 E218.97268
G1 X152.92 Y134.89 E218.97680
G1 X152.97 Y134.83 E218.98146
G1 X153.02 Y134.75 E218.98679
G1 X153.05 Y134.68 E218.99137
G1 X153.06 Y134.60 E218.99562
G1 X153.09 Y134.35 E219.01043
G1 X153.09 Y127.99 E219.38003
G1 X153.09 Y127.64 E219.40055
G1 X153.15 Y126.28 E219.47927
G1 X153.37 Y124.81 E219.56598
G1 X153.73 Y123.36 E219.65248
G1 X154.24 Y121.95 E219.73980
G1 X154.88 Y120.60 E219.82658
G1 X155.64 Y119.33 E219.91309
G1 X156.53 Y118.14 E219.99924
G1 X157.53 Y117.02 E220.08654
G1 X158.65 Y116.01 E220.17396
G1 X159.83 Y115.14 E220.25956
G1 X161.11 Y114.36 E220.34629
G1 X162.47 Y113.72 E220.43372
G1 X163.87 Y113.22 E220.51987
G1 X165.32 Y112.86 E220.60709
G1 X166.79 Y112.64 E220.69352
G1 X168.29 Y112.56 E220.78054
G1 X169.77 Y112.64 E220.86698
G1 X171.25 Y112.86 E220.95342
G1 X172.70 Y113.22 E221.04051
G1 X174.10 Y113.72 E221.12693
G1 X175.46 Y114.36 E221.21439
G1 X176.74 Y115.14 E221.30117
G1 X177.92 Y116.02 E221.38705
G1 X179.04 Y117.02 E221.47405
G1 X180.04 Y118.13 E221.56109
G1 X180.93 Y119.32 E221.64753
G1 X181.69 Y120.61 E221.73459
G1 X182.33 Y121.95 E221.82075
G1 X182.84 Y123.35 E221.90735
G1 X183.20 Y124.82 E221.99517
G1 X183.42 Y126.29 E222.08185
G1 X183.48 Y127.68 E222.16233
G1 X183.48 Y134.38 E222.55192
G1 X183.50 Y134.58 E222.56370
G1 X183.52 Y134.67 E222.56897
G1 X183.56 Y134.77 E222.57544
G1 X183.60 Y134.83 E222.57912
G1 X183.64 Y134.88 E222.58320
G1 X183.72 Y134.94 E222.58868
G1 X183.78 Y134.98 E222.59341
G1 X183.86 Y135.02 E222.59844
G1 X183.94 Y135.03 E222.60299
G1 X184.17 Y135.05 E222.61622
G1 X197.80 Y135.05 E223.40848
G1 X198.87 Y135.21 E223.47116
G1 X200.08 Y135.71 E223.54738
G1 X201.14 Y136.53 E223.62535
G1 X201.95 Y137.60 E223.70370
G1 X202.45 Y138.80 E223.77915
G1 X202.60 Y139.85 E223.84095
G1 X202.60 Y164.56 E225.27709
G1 X202.59 Y165.16 E225.31179
G1 X202.44 Y166.24 E225.37503
G1 X201.93 Y167.44 E225.45121
G1 X201.13 Y168.48 E225.52703
G1 X200.07 Y169.30 E225.60530
G1 X198.81 Y169.82 E225.68406
G1 X197.76 Y169.95 E225.74596
G1 X184.18 Y169.95 E226.53479
G1 X183.96 Y169.97 E226.54815
G1 X183.86 Y169.99 E226.55401
G1 X183.78 Y170.02 E226.55910
G1 X183.71 Y170.07 E226.56387
G1 X183.65 Y170.11 E226.56799
G1 X183.60 Y170.17 E226.57265
G1 X183.56 Y170.23 E226.57675
G1 X183.52 Y170.34 E226.58329
G1 X183.50 Y170.42 E226.58801
G1 X183.48 Y170.63 E226.60038
G1 X183.48 Y177.01 E226.97125
G1 X183.48 Y177.37 E226.99218
G1 X183.42 Y178.72 E227.07056
G1 X183.20 Y180.19 E227.15719
G1 X182.84 Y181.65 E227.24452
G1 X182.33 Y183.05 E227.33119
G1 X181.69 Y184.40 E227.41774
G1 X180.93 Y185.68 E227.50429
G1 X180.04 Y186.87 E227.59096
G1 X179.04 Y187.98 E227.67778
G1 X177.93 Y188.98 E227.76461
G1 X176.73 Y189.87 E227.85127
G1 X175.45 Y190.64 E227.93800
G1 X174.10 Y191.28 E228.02499
G1 X172.70 Y191.78 E228.11105
G1 X171.25 Y192.15 E228.19804
G1 X169.77 Y192.36 E228.28542
G1 X168.29 Y192.43 E228.37143
G1 X166.80 Y192.36 E228.45802
G1 X165.31 Y192.15 E228.54540
G1 X163.86 Y191.77 E228.63252
G1 X162.47 Y191.28 E228.71830
G1 X161.12 Y190.64 E228.80527
G1 X159.84 Y189.87 E228.89195
G1 X158.65 Y188.99 E228.97832
G1 X157.53 Y187.98 E229.06557
G1 X156.53 Y186.87 E229.15261
G1 X155.64 Y185.67 E229.23904
G1 X154.88 Y184.41 E229.32504
G1 X154.23 Y183.05 E229.41221
G1 X153.73 Y181.63 E229.49967
G1 X153.38 Y180.20 E229.58565
G1 X153.15 Y178.72 E229.67237
G1 X153.09 Y177.32 E229.75418
G1 X153.09 Y170.63 E230.14266
G1 X153.07 Y170.41 E230.15573
G1 X153.05 Y170.32 E230.16081
G1 X153.02 Y170.26 E230.16497
G1 X152.97 Y170.18 E230.17063
G1 X152.91 Y170.11 E230.17587
G1 X152.87 Y170.07 E230.17892
G1 X152.79 Y170.02 E230.18448
G1 X152.71 Y169.99 E230.18958
G1 X152.62 Y169.97 E230.19478
G1 X152.39 Y169.95 E230.20843
G1 X107.34 Y169.95 E232.82631
G1 X106.24 Y169.81 E232.89127
G1 X105.00 Y169.27 E232.96971
G1 X103.95 Y168.47 E233.04621
G1 X103.15 Y167.41 E233.12348
G1 X102.64 Y166.19 E233.20051
G1 X102.51 Y165.11 E233.26341
G1 X102.51 Y139.86 E234.73111
G1 X102.65 Y138.79 E234.79370
G1 X103.17 Y137.57 E234.87100
G1 X103.99 Y136.49 E234.94980
G0 F12000 X104.32 Y136.83
G1 F2700 X105.29 Y136.11 E235.02002
G1 X106.36 Y135.65 E235.08766
G1 X107.35 Y135.52 E235.14567
G1 X152.41 Y135.52 E237.76477
G1 X152.70 Y135.50 E237.78173
G1 X152.85 Y135.46 E237.79047
G1 X152.99 Y135.40 E237.79949
G1 X153.13 Y135.31 E237.80901
G1 X153.25 Y135.22 E237.81800
G1 X153.35 Y135.10 E237.82690
G1 X153.43 Y134.96 E237.83606
G1 X153.49 Y134.82 E237.84500
G1 X153.53 Y134.67 E237.85397
G1 X153.55 Y134.37 E237.87134
G1 X153.55 Y127.99 E238.24228
G1 X153.55 Y127.65 E238.26216
G1 X153.61 Y126.33 E238.33890
G1 X153.83 Y124.90 E238.42298
G1 X154.18 Y123.50 E238.50684
G1 X154.67 Y122.13 E238.59139
G1 X155.29 Y120.82 E238.67557
G1 X156.03 Y119.58 E238.75945
G1 X156.89 Y118.43 E238.84298
G1 X157.86 Y117.35 E238.92756
G1 X158.94 Y116.38 E239.01227
G1 X160.09 Y115.52 E239.09532
G1 X161.33 Y114.78 E239.17939
G1 X162.65 Y114.15 E239.26407
G1 X164.00 Y113.67 E239.34763
G1 X165.41 Y113.31 E239.43208
G1 X166.84 Y113.11 E239.51594
G1 X168.29 Y113.03 E239.60027
G1 X169.73 Y113.11 E239.68403
G1 X171.16 Y113.31 E239.76788
G1 X172.56 Y113.67 E239.85224
G1 X173.92 Y114.15 E239.93606
G1 X175.24 Y114.78 E240.02074
G1 X176.48 Y115.52 E240.10486
G1 X177.63 Y116.38 E240.18816
G1 X178.71 Y117.35 E240.27249
G1 X179.68 Y118.43 E240.35685
G1 X180.54 Y119.58 E240.44063
G1 X181.28 Y120.83 E240.52498
G1 X181.90 Y122.13 E240.60857
G1 X182.39 Y123.49 E240.69250
G1 X182.75 Y124.91 E240.77759
G1 X182.95 Y126.34 E240.86162
G1 X183.02 Y127.69 E240.94012
G1 X183.02 Y134.29 E241.32396
G1 X183.02 Y134.40 E241.33053
G1 X183.04 Y134.65 E241.34510
G1 X183.08 Y134.81 E241.35469
G1 X183.15 Y134.99 E241.36543
G1 X183.22 Y135.09 E241.37291
G1 X183.31 Y135.21 E241.38178
G1 X183.44 Y135.32 E241.39130
G1 X183.58 Y135.40 E241.40077
G1 X183.72 Y135.46 E241.40958
G1 X183.86 Y135.50 E241.41820
G1 X184.16 Y135.52 E241.43539
G1 X197.76 Y135.52 E242.22626
G1 X198.74 Y135.66 E242.28364
G1 X199.84 Y136.12 E242.35291
G1 X200.81 Y136.86 E242.42362
G1 X201.54 Y137.84 E242.49483
G1 X201.99 Y138.93 E242.56335
G1 X202.13 Y139.89 E242.61988
G1 X202.13 Y164.56 E244.05410
G1 X202.13 Y165.13 E244.08682
G1 X201.99 Y166.11 E244.14466
G1 X201.52 Y167.21 E244.21382
G1 X200.80 Y168.15 E244.28276
G1 X199.83 Y168.90 E244.35383
G1 X198.69 Y169.36 E244.42529
G1 X197.73 Y169.48 E244.48186
G1 X184.17 Y169.48 E245.26994
G1 X183.88 Y169.51 E245.28691
G1 X183.71 Y169.55 E245.29696
G1 X183.56 Y169.61 E245.30613
G1 X183.44 Y169.69 E245.31480
G1 X183.32 Y169.79 E245.32395
G1 X183.22 Y169.90 E245.33265
G1 X183.15 Y170.02 E245.34094
G1 X183.08 Y170.19 E245.35132
G1 X183.04 Y170.34 E245.36048
G1 X183.02 Y170.62 E245.37686
G1 X183.02 Y177.01 E245.74809
G1 X183.02 Y177.36 E245.76831
G1 X182.95 Y178.67 E245.84484
G1 X182.74 Y180.10 E245.92877
G1 X182.39 Y181.51 E246.01339
G1 X181.90 Y182.87 E246.09741
G1 X181.28 Y184.18 E246.18131
G1 X180.54 Y185.42 E246.26523
G1 X179.68 Y186.58 E246.34924
G1 X178.71 Y187.65 E246.43339
G1 X177.63 Y188.62 E246.51758
G1 X176.47 Y189.48 E246.60159
G1 X175.23 Y190.23 E246.68561
G1 X173.92 Y190.85 E246.76990
G1 X172.57 Y191.33 E246.85336
G1 X171.16 Y191.69 E246.93772
G1 X169.72 Y191.90 E247.02235
G1 X168.29 Y191.97 E247.10573
G1 X166.84 Y191.90 E247.18970
G1 X165.40 Y191.69 E247.27439
G1 X164.00 Y191.33 E247.35880
G1 X162.65 Y190.85 E247.44199
G1 X161.34 Y190.23 E247.52628
G1 X160.10 Y189.48 E247.61030
G1 X158.94 Y188.62 E247.69405
G1 X157.86 Y187.65 E247.77858
G1 X156.89 Y186.57 E247.86290
G1 X156.03 Y185.41 E247.94672
G1 X155.29 Y184.18 E248.03014
G1 X154.66 Y182.87 E248.11460
G1 X154.18 Y181.50 E248.19929
G1 X153.83 Y180.11 E248.28270
G1 X153.61 Y178.68 E248.36678
G1 X153.55 Y177.31 E248.44649
G1 X153.55 Y170.62 E248.83532
G1 X153.53 Y170.33 E248.85206
G1 X153.49 Y170.18 E248.86109
G1 X153.44 Y170.04 E248.86960
G1 X153.35 Y169.90 E248.87928
G1 X153.25 Y169.78 E248.88856
G1 X153.14 Y169.69 E248.89665
G1 X153.00 Y169.61 E248.90596
G1 X152.85 Y169.54 E248.91546
G1 X152.70 Y169.51 E248.92473
G1 X152.40 Y169.48 E248.94193
G1 X107.37 Y169.48 E251.55900
G1 X106.36 Y169.35 E251.61839
G1 X105.24 Y168.87 E251.68955
G1 X104.29 Y168.14 E251.75908
G1 X103.56 Y167.18 E251.82929
G1 X103.09 Y166.06 E251.89926
G1 X102.97 Y165.08 E251.95672
G1 X102.97 Y139.89 E253.42087
G1 X103.11 Y138.92 E253.47806
G1 X103.57 Y137.80 E253.54835
G1 X104.32 Y136.83 E253.61985
G0 F12000 X104.65 Y137.16
G1 F2700 X105.52 Y136.51 E253.68300
G1 X106.49 Y136.11 E253.74382
G1 X107.38 Y135.98 E253.79632
G1 X152.44 Y135.98 E256.41495
G1 X152.78 Y135.96 E256.43489
G1 X152.99 Y135.91 E256.44769
G1 X153.21 Y135.81 E256.46136
G1 X153.41 Y135.69 E256.47477
G1 X153.58 Y135.55 E256.48796
G1 X153.73 Y135.37 E256.50120
G1 X153.85 Y135.17 E256.51509
G1 X153.94 Y134.97 E256.52804
G1 X153.99 Y134.75 E256.54089
G1 X154.02 Y134.39 E256.56182
G1 X154.02 Y127.99 E256.93369
G1 X154.02 Y127.66 E256.95299
G1 X154.08 Y126.38 E257.02770
G1 X154.29 Y124.99 E257.10912
G1 X154.62 Y123.63 E257.19041
G1 X155.10 Y122.31 E257.27218
G1 X155.70 Y121.04 E257.35371
G1 X156.42 Y119.84 E257.43496
G1 X157.25 Y118.73 E257.51588
G1 X158.19 Y117.68 E257.59774
G1 X159.24 Y116.74 E257.67969
G1 X160.35 Y115.91 E257.76021
G1 X161.55 Y115.19 E257.84160
G1 X162.83 Y114.58 E257.92358
G1 X164.14 Y114.12 E258.00447
G1 X165.50 Y113.77 E258.08624
G1 X166.88 Y113.57 E258.16744
G1 X168.29 Y113.50 E258.24916
G1 X169.68 Y113.57 E258.33024
G1 X171.06 Y113.77 E258.41145
G1 X172.43 Y114.12 E258.49315
G1 X173.74 Y114.58 E258.57433
G1 X175.02 Y115.19 E258.65626
G1 X176.22 Y115.91 E258.73771
G1 X177.33 Y116.74 E258.81848
G1 X178.38 Y117.68 E258.90009
G1 X179.32 Y118.72 E258.98182
G1 X180.15 Y119.84 E259.06295
G1 X180.87 Y121.05 E259.14461
G1 X181.47 Y122.31 E259.22563
G1 X181.94 Y123.62 E259.30683
G1 X182.29 Y125.00 E259.38916
G1 X182.49 Y126.38 E259.47055
G1 X182.55 Y127.70 E259.54713
G1 X182.55 Y134.29 E259.93027
G1 X182.55 Y134.41 E259.93748
G1 X182.58 Y134.73 E259.95596
G1 X182.63 Y134.96 E259.96962
G1 X182.73 Y135.19 E259.98439
G1 X182.84 Y135.37 E259.99658
G1 X182.98 Y135.54 E260.00927
G1 X183.17 Y135.70 E260.02333
G1 X183.36 Y135.82 E260.03664
G1 X183.57 Y135.90 E260.04977
G1 X183.80 Y135.96 E260.06329
G1 X184.13 Y135.98 E260.08300
G1 X197.73 Y135.98 E260.87328
G1 X198.62 Y136.11 E260.92526
G1 X199.61 Y136.52 E260.98760
G1 X200.47 Y137.19 E261.05106
G1 X201.14 Y138.07 E261.11513
G1 X201.54 Y139.05 E261.17674
G1 X201.66 Y139.92 E261.22799
G1 X201.66 Y164.56 E262.66023
G1 X201.66 Y165.09 E262.69103
G1 X201.53 Y165.99 E262.74341
G1 X201.12 Y166.97 E262.80563
G1 X200.47 Y167.82 E262.86760
G1 X199.60 Y168.49 E262.93149
G1 X198.57 Y168.91 E262.99574
G1 X197.70 Y169.02 E263.04697
G1 X184.14 Y169.02 E263.83493
G1 X183.81 Y169.04 E263.85453
G1 X183.57 Y169.10 E263.86882
G1 X183.35 Y169.19 E263.88230
G1 X183.16 Y169.31 E263.89528
G1 X182.99 Y169.46 E263.90864
G1 X182.84 Y169.63 E263.92163
G1 X182.73 Y169.81 E263.93444
G1 X182.64 Y170.03 E263.94833
G1 X182.58 Y170.27 E263.96247
G1 X182.55 Y170.60 E263.98159
G1 X182.55 Y177.01 E264.35409
G1 X182.55 Y177.34 E264.37368
G1 X182.49 Y178.63 E264.44828
G1 X182.29 Y180.01 E264.52951
G1 X181.94 Y181.38 E264.61143
G1 X181.47 Y182.69 E264.69280
G1 X180.87 Y183.96 E264.77407
G1 X180.15 Y185.16 E264.85533
G1 X179.32 Y186.28 E264.93665
G1 X178.38 Y187.32 E265.01812
G1 X177.34 Y188.26 E265.09968
G1 X176.21 Y189.10 E265.18103
G1 X175.01 Y189.82 E265.26241
G1 X173.74 Y190.42 E265.34400
G1 X172.43 Y190.88 E265.42487
G1 X171.07 Y191.23 E265.50653
G1 X169.68 Y191.43 E265.58845
G1 X168.29 Y191.50 E265.66922
G1 X166.89 Y191.43 E265.75058
G1 X165.50 Y191.23 E265.83249
G1 X164.13 Y190.88 E265.91427
G1 X162.83 Y190.42 E265.99487
G1 X161.56 Y189.82 E266.07645
G1 X160.36 Y189.10 E266.15784
G1 X159.24 Y188.26 E266.23893
G1 X158.19 Y187.32 E266.32079
G1 X157.25 Y186.28 E266.40243
G1 X156.42 Y185.16 E266.48358
G1 X155.70 Y183.96 E266.56442
G1 X155.10 Y182.69 E266.64618
G1 X154.62 Y181.37 E266.72810
G1 X154.29 Y180.02 E266.80893
G1 X154.08 Y178.63 E266.89031
G1 X154.02 Y177.30 E266.96804
G1 X154.02 Y170.71 E267.35083
G1 X154.02 Y170.59 E267.35792
G1 X153.99 Y170.26 E267.37717
G1 X153.94 Y170.03 E267.39049
G1 X153.85 Y169.84 E267.40304
G1 X153.72 Y169.62 E267.41763
G1 X153.58 Y169.45 E267.43066
G1 X153.41 Y169.31 E267.44327
G1 X153.22 Y169.19 E267.45665
G1 X152.99 Y169.10 E267.47056
G1 X152.77 Y169.04 E267.48407
G1 X152.43 Y169.02 E267.50390
G1 X107.40 Y169.02 E270.12085
G1 X106.48 Y168.90 E270.17468
G1 X105.47 Y168.47 E270.23862
G1 X104.62 Y167.81 E270.30103
G1 X103.97 Y166.94 E270.36426
G1 X103.55 Y165.94 E270.42710
G1 X103.44 Y165.06 E270.47917
G1 X103.44 Y139.92 E271.93984
G1 X103.56 Y139.04 E271.99163
G1 X103.98 Y138.04 E272.05481
G1 X104.65 Y137.16 E272.11906
G0 F12000 X104.98 Y137.50
G1 F2700 X105.76 Y136.92 E272.17518
G1 X106.61 Y136.56 E272.22913
G1 X107.41 Y136.45 E272.27623
G1 X152.46 Y136.45 E274.89428
G1 X152.85 Y136.42 E274.91713
G1 X153.13 Y136.35 E274.93418
G1 X153.42 Y136.23 E274.95208
G1 X153.68 Y136.07 E274.97005
G1 X153.91 Y135.88 E274.98761
G1 X154.10 Y135.65 E275.00472
G1 X154.26 Y135.39 E275.02259
G1 X154.38 Y135.11 E275.04010
G1 X154.45 Y134.82 E275.05772
G1 X154.48 Y134.42 E275.08105
G1 X154.48 Y127.99 E275.45431
G1 X154.49 Y127.67 E275.47297
G1 X154.54 Y126.42 E275.54570
G1 X154.75 Y125.08 E275.62448
G1 X155.07 Y123.77 E275.70314
G1 X155.53 Y122.49 E275.78219
G1 X156.11 Y121.26 E275.86104
G1 X156.81 Y120.10 E275.93963
G1 X157.61 Y119.02 E276.01793
G1 X158.52 Y118.01 E276.09712
G1 X159.53 Y117.10 E276.17635
G1 X160.61 Y116.30 E276.25429
G1 X161.77 Y115.60 E276.33307
G1 X163.00 Y115.02 E276.41227
G1 X164.27 Y114.56 E276.49058
G1 X165.59 Y114.23 E276.56965
G1 X166.93 Y114.04 E276.64821
G1 X168.29 Y113.97 E276.72726
G1 X169.64 Y114.04 E276.80572
G1 X170.97 Y114.23 E276.88428
G1 X172.29 Y114.56 E276.96324
G1 X173.56 Y115.02 E277.04181
G1 X174.80 Y115.60 E277.12103
G1 X175.96 Y116.30 E277.19981
G1 X177.04 Y117.10 E277.27800
G1 X178.05 Y118.01 E277.35694
G1 X178.96 Y119.02 E277.43595
G1 X179.76 Y120.10 E277.51445
G1 X180.46 Y121.27 E277.59338
G1 X181.04 Y122.49 E277.67182
G1 X181.50 Y123.76 E277.75038
G1 X181.83 Y125.09 E277.82994
G1 X182.02 Y126.43 E277.90870
G1 X182.09 Y127.71 E277.98330
G1 X182.09 Y134.29 E278.36580
G1 X182.09 Y134.44 E278.37440
G1 X182.12 Y134.81 E278.39603
G1 X182.19 Y135.11 E278.41376
G1 X182.31 Y135.40 E278.43224
G1 X182.46 Y135.65 E278.44920
G1 X182.65 Y135.87 E278.46626
G1 X182.89 Y136.07 E278.48441
G1 X183.15 Y136.23 E278.50210
G1 X183.42 Y136.35 E278.51922
G1 X183.72 Y136.42 E278.53733
G1 X184.11 Y136.45 E278.55989
G1 X197.70 Y136.45 E279.34948
G1 X198.49 Y136.57 E279.39612
G1 X199.37 Y136.93 E279.45153
G1 X200.14 Y137.52 E279.50773
G1 X200.73 Y138.30 E279.56467
G1 X201.09 Y139.17 E279.61943
G1 X201.20 Y139.95 E279.66527
G1 X201.20 Y164.56 E281.09559
G1 X201.20 Y165.06 E281.12442
G1 X201.08 Y165.86 E281.17146
G1 X200.71 Y166.73 E281.22672
G1 X200.13 Y167.48 E281.28168
G1 X199.36 Y168.08 E281.33845
G1 X198.46 Y168.45 E281.39534
G1 X197.67 Y168.55 E281.44125
G1 X184.13 Y168.55 E282.22846
G1 X183.73 Y168.58 E282.25161
G1 X183.42 Y168.66 E282.27015
G1 X183.14 Y168.77 E282.28753
G1 X182.89 Y168.93 E282.30500
G1 X182.66 Y169.12 E282.32261
G1 X182.46 Y169.35 E282.33984
G1 X182.31 Y169.60 E282.35706
G1 X182.19 Y169.90 E282.37554
G1 X182.12 Y170.19 E282.39314
G1 X182.09 Y170.58 E282.41559
G1 X182.09 Y177.01 E282.78931
G1 X182.09 Y177.33 E282.80820
G1 X182.02 Y178.58 E282.88095
G1 X181.83 Y179.92 E282.95953
G1 X181.50 Y181.24 E283.03869
G1 X181.04 Y182.51 E283.11740
G1 X180.46 Y183.74 E283.19605
G1 X179.76 Y184.90 E283.27464
G1 X178.96 Y185.99 E283.35338
G1 X178.05 Y186.99 E283.43213
G1 X177.04 Y187.90 E283.51102
G1 X175.95 Y188.71 E283.58974
G1 X174.79 Y189.40 E283.66843
G1 X173.56 Y189.99 E283.74734
G1 X172.30 Y190.44 E283.82562
G1 X170.98 Y190.77 E283.90457
G1 X169.63 Y190.97 E283.98380
G1 X168.29 Y191.03 E284.06195
G1 X166.93 Y190.97 E284.14074
G1 X165.59 Y190.77 E284.21990
G1 X164.27 Y190.44 E284.29892
G1 X163.00 Y189.98 E284.37699
G1 X161.78 Y189.40 E284.45588
G1 X160.62 Y188.71 E284.53455
G1 X159.53 Y187.90 E284.61308
G1 X158.52 Y186.99 E284.69221
G1 X157.61 Y185.98 E284.77114
G1 X156.81 Y184.90 E284.84968
G1 X156.11 Y183.74 E284.92794
G1 X155.53 Y182.51 E285.00699
G1 X155.07 Y181.23 E285.08619
G1 X154.75 Y179.92 E285.16445
G1 X154.54 Y178.59 E285.24312
G1 X154.48 Y177.29 E285.31876
G1 X154.48 Y170.71 E285.70097
G1 X154.48 Y170.57 E285.70893
G1 X154.45 Y170.19 E285.73150
G1 X154.38 Y169.89 E285.74918
G1 X154.27 Y169.62 E285.76640
G1 X154.10 Y169.35 E285.78469
G1 X153.91 Y169.12 E285.80201
G1 X153.69 Y168.93 E285.81908
G1 X153.43 Y168.78 E285.83648
G1 X153.14 Y168.66 E285.85480
G1 X152.84 Y168.58 E285.87238
G1 X152.44 Y168.55 E285.89577
G1 X107.43 Y168.55 E288.51190
G1 X106.61 Y168.45 E288.56022
G1 X105.71 Y168.06 E288.61684
G1 X104.96 Y167.48 E288.67225
G1 X104.38 Y166.71 E288.72848
G1 X104.00 Y165.82 E288.78414
G1 X103.91 Y165.03 E288.83082
G1 X103.91 Y139.96 E290.28794
G1 X104.01 Y139.16 E290.33440
G1 X104.39 Y138.27 E290.39052
G1 X104.98 Y137.50 E290.44739
G0 F12000 X105.31 Y137.83
G1 F2700 X105.99 Y137.33 E290.49650
G1 X106.73 Y137.01 E290.54356
G1 X107.45 Y136.92 E290.58527
G1 X152.47 Y136.92 E293.20204
G1 X152.92 Y136.88 E293.22851
G1 X153.28 Y136.79 E293.25016
G1 X153.63 Y136.65 E293.27226
G1 X153.96 Y136.45 E293.29412
G1 X154.24 Y136.21 E293.31588
G1 X154.48 Y135.92 E293.33753
G1 X154.68 Y135.60 E293.35969
G1 X154.82 Y135.26 E293.38116
G1 X154.91 Y134.89 E293.40320
G1 X154.95 Y134.43 E293.43003
G1 X154.95 Y128.00 E293.80404
G1 X154.95 Y127.69 E293.82206
G1 X155.01 Y126.47 E293.89281
G1 X155.20 Y125.17 E293.96894
G1 X155.52 Y123.90 E294.04502
G1 X155.96 Y122.67 E294.12130
G1 X156.52 Y121.48 E294.19752
G1 X157.19 Y120.36 E294.27348
G1 X157.97 Y119.32 E294.34916
G1 X158.85 Y118.34 E294.42555
G1 X159.83 Y117.46 E294.50211
G1 X160.87 Y116.69 E294.57752
G1 X161.99 Y116.01 E294.65367
G1 X163.18 Y115.45 E294.73016
G1 X164.41 Y115.01 E294.80583
G1 X165.68 Y114.69 E294.88213
G1 X166.98 Y114.50 E294.95811
G1 X168.29 Y114.43 E295.03442
G1 X169.59 Y114.50 E295.11026
G1 X170.88 Y114.69 E295.18625
G1 X172.16 Y115.01 E295.26249
G1 X173.39 Y115.45 E295.33836
G1 X174.58 Y116.01 E295.41488
G1 X175.70 Y116.69 E295.49099
G1 X176.74 Y117.46 E295.56661
G1 X177.72 Y118.34 E295.64287
G1 X178.60 Y119.31 E295.71921
G1 X179.38 Y120.36 E295.79505
G1 X180.05 Y121.49 E295.87132
G1 X180.61 Y122.67 E295.94713
G1 X181.05 Y123.89 E296.02302
G1 X181.37 Y125.18 E296.09984
G1 X181.56 Y126.47 E296.17595
G1 X181.62 Y127.72 E296.24857
G1 X181.62 Y134.29 E296.63044
G1 X181.62 Y134.45 E296.63974
G1 X181.66 Y134.89 E296.66515
G1 X181.75 Y135.25 E296.68684
G1 X181.90 Y135.62 E296.70983
G1 X182.08 Y135.92 E296.73072
G1 X182.32 Y136.20 E296.75232
G1 X182.62 Y136.45 E296.77458
G1 X182.94 Y136.65 E296.79642
G1 X183.28 Y136.79 E296.81802
G1 X183.65 Y136.88 E296.84003
G1 X184.10 Y136.92 E296.86655
G1 X197.66 Y136.92 E297.65475
G1 X198.37 Y137.02 E297.69610
G1 X199.14 Y137.34 E297.74452
G1 X199.81 Y137.85 E297.79351
G1 X200.32 Y138.53 E297.84326
G1 X200.63 Y139.29 E297.89111
G1 X200.73 Y139.99 E297.93167
G1 X200.73 Y164.56 E299.36002
G1 X200.73 Y165.02 E299.38693
G1 X200.63 Y165.73 E299.42850
G1 X200.30 Y166.50 E299.47681
G1 X199.80 Y167.15 E299.52485
G1 X199.12 Y167.67 E299.57444
G1 X198.34 Y168.00 E299.62404
G1 X197.64 Y168.08 E299.66468
G1 X184.11 Y168.08 E300.45107
G1 X183.65 Y168.12 E300.47779
G1 X183.28 Y168.21 E300.50031
G1 X182.93 Y168.36 E300.52223
G1 X182.61 Y168.55 E300.54364
G1 X182.33 Y168.79 E300.56532
G1 X182.08 Y169.08 E300.58755
G1 X181.89 Y169.39 E300.60870
G1 X181.75 Y169.75 E300.63103
G1 X181.66 Y170.12 E300.65306
G1 X181.62 Y170.57 E300.67936
G1 X181.62 Y177.01 E301.05360
G1 X181.62 Y177.32 E301.07185
G1 X181.56 Y178.54 E301.14267
G1 X181.37 Y179.83 E301.21856
G1 X181.05 Y181.10 E301.29503
G1 X180.61 Y182.34 E301.37107
G1 X180.05 Y183.52 E301.44707
G1 X179.38 Y184.64 E301.52298
G1 X178.60 Y185.69 E301.59910
G1 X177.72 Y186.66 E301.67523
G1 X176.75 Y187.54 E301.75144
G1 X175.69 Y188.32 E301.82746
G1 X174.57 Y188.99 E301.90353
G1 X173.39 Y189.55 E301.97978
G1 X172.16 Y189.99 E302.05541
G1 X170.89 Y190.31 E302.13172
G1 X169.59 Y190.50 E302.20819
G1 X168.29 Y190.57 E302.28378
G1 X166.98 Y190.50 E302.35989
G1 X165.68 Y190.31 E302.43630
G1 X164.41 Y189.99 E302.51268
G1 X163.18 Y189.55 E302.58809
G1 X162.00 Y188.99 E302.66432
G1 X160.88 Y188.32 E302.74037
G1 X159.83 Y187.54 E302.81623
G1 X158.85 Y186.66 E302.89273
G1 X157.97 Y185.69 E302.96895
G1 X157.19 Y184.64 E303.04482
G1 X156.53 Y183.52 E303.12045
G1 X155.96 Y182.34 E303.19686
G1 X155.52 Y181.10 E303.27330
G1 X155.20 Y179.83 E303.34898
G1 X155.01 Y178.54 E303.42500
G1 X154.95 Y177.28 E303.49860
G1 X154.95 Y170.71 E303.88017
G1 X154.95 Y170.56 E303.88906
G1 X154.91 Y170.11 E303.91519
G1 X154.83 Y169.74 E303.93704
G1 X154.69 Y169.41 E303.95817
G1 X154.48 Y169.08 E303.98085
G1 X154.24 Y168.79 E304.00267
G1 X153.96 Y168.55 E304.02402
G1 X153.64 Y168.36 E304.04549
G1 X153.28 Y168.21 E304.06815
G1 X152.92 Y168.12 E304.08974
G1 X152.46 Y168.08 E304.11674
G1 X107.46 Y168.08 E306.73206
G1 X106.73 Y167.99 E306.77482
G1 X105.95 Y167.66 E306.82420
G1 X105.29 Y167.15 E306.87260
G1 X104.78 Y166.47 E306.92177
G1 X104.46 Y165.70 E306.97031
G1 X104.37 Y165.00 E307.01160
G1 X104.37 Y139.99 E308.46523
G1 X104.47 Y139.29 E308.50629
G1 X104.79 Y138.51 E308.55530
G1 X105.31 Y137.83 E308.60491
G0 F12000 X105.64 Y138.17
G1 F2700 X106.22 Y137.74 E308.64696
G1 X106.86 Y137.47 E308.68723
G1 X107.48 Y137.38 E308.72342
G1 X152.49 Y137.38 E311.33973
G1 X152.99 Y137.34 E311.36905
G1 X153.43 Y137.24 E311.39506
G1 X153.84 Y137.06 E311.42114
G1 X154.23 Y136.83 E311.44769
G1 X154.57 Y136.54 E311.47355
G1 X154.86 Y136.20 E311.49961
G1 X155.10 Y135.82 E311.52555
G1 X155.27 Y135.40 E311.55188
G1 X155.37 Y134.97 E311.57751
G1 X155.42 Y134.44 E311.60819
G1 X155.42 Y128.00 E311.98296
G1 X155.42 Y127.70 E312.00040
G1 X155.47 Y126.51 E312.06917
G1 X155.66 Y125.27 E312.14260
G1 X155.96 Y124.04 E312.21604
G1 X156.39 Y122.85 E312.28954
G1 X156.94 Y121.70 E312.36311
G1 X157.58 Y120.62 E312.43649
G1 X158.33 Y119.61 E312.50956
G1 X159.18 Y118.67 E312.58323
G1 X160.12 Y117.82 E312.65707
G1 X161.13 Y117.07 E312.72995
G1 X162.21 Y116.42 E312.80343
G1 X163.36 Y115.88 E312.87716
G1 X164.54 Y115.46 E312.95017
G1 X165.77 Y115.15 E313.02384
G1 X167.02 Y114.97 E313.09712
G1 X168.29 Y114.90 E313.17081
G1 X169.54 Y114.97 E313.24397
G1 X170.79 Y115.15 E313.31732
G1 X172.02 Y115.45 E313.39092
G1 X173.21 Y115.88 E313.46416
G1 X174.35 Y116.42 E313.53789
G1 X175.44 Y117.07 E313.61137
G1 X176.45 Y117.82 E313.68442
G1 X177.39 Y118.67 E313.75797
G1 X178.24 Y119.61 E313.83163
G1 X178.99 Y120.62 E313.90481
G1 X179.64 Y121.71 E313.97844
G1 X180.18 Y122.85 E314.05166
G1 X180.60 Y124.03 E314.12485
G1 X180.91 Y125.27 E314.19890
G1 X181.09 Y126.52 E314.27237
G1 X181.15 Y127.73 E314.34307
G1 X181.15 Y134.29 E314.72424
G1 X181.16 Y134.47 E314.73493
G1 X181.19 Y134.96 E314.76320
G1 X181.30 Y135.40 E314.78927
G1 X181.48 Y135.82 E314.81630
G1 X181.70 Y136.20 E314.84159
G1 X182.00 Y136.54 E314.86756
G1 X182.34 Y136.83 E314.89395
G1 X182.72 Y137.06 E314.91984
G1 X183.14 Y137.24 E314.94619
G1 X183.57 Y137.34 E314.97227
G1 X184.08 Y137.38 E315.00165
G1 X197.63 Y137.38 E315.78920
G1 X198.24 Y137.47 E315.82520
G1 X198.90 Y137.74 E315.86672
G1 X199.47 Y138.18 E315.90845
G1 X199.91 Y138.77 E315.95107
G1 X200.18 Y139.42 E315.99199
G1 X200.27 Y140.02 E316.02726
G1 X200.27 Y164.56 E317.45370
G1 X200.26 Y164.99 E317.47863
G1 X200.18 Y165.61 E317.51481
G1 X199.90 Y166.26 E317.55611
G1 X199.47 Y166.82 E317.59715
G1 X198.89 Y167.27 E317.63961
G1 X198.22 Y167.54 E317.68191
G1 X197.61 Y167.62 E317.71723
G1 X184.09 Y167.62 E318.50356
G1 X183.58 Y167.66 E318.53284
G1 X183.13 Y167.77 E318.55962
G1 X182.72 Y167.94 E318.58607
G1 X182.34 Y168.17 E318.61163
G1 X182.00 Y168.46 E318.63781
G1 X181.71 Y168.80 E318.66378
G1 X181.48 Y169.18 E318.68934
G1 X181.30 Y169.61 E318.71621
G1 X181.19 Y170.04 E318.74250
G1 X181.15 Y170.54 E318.77158
G1 X181.15 Y177.00 E319.14711
G1 X181.15 Y177.31 E319.16466
G1 X181.09 Y178.49 E319.23362
G1 X180.91 Y179.74 E319.30686
G1 X180.60 Y180.97 E319.38051
G1 X180.18 Y182.16 E319.45396
G1 X179.64 Y183.30 E319.52733
G1 X178.99 Y184.38 E319.60059
G1 X178.24 Y185.39 E319.67404
G1 X177.39 Y186.33 E319.74749
G1 X176.45 Y187.18 E319.82103
G1 X175.44 Y187.93 E319.89444
G1 X174.35 Y188.58 E319.96774
G1 X173.21 Y189.12 E320.04135
G1 X172.02 Y189.54 E320.11446
G1 X170.80 Y189.86 E320.18801
G1 X169.54 Y190.04 E320.26177
G1 X168.29 Y190.10 E320.33474
G1 X167.02 Y190.04 E320.40824
G1 X165.77 Y189.86 E320.48194
G1 X164.54 Y189.54 E320.55557
G1 X163.36 Y189.12 E320.62844
G1 X162.22 Y188.58 E320.70204
G1 X161.13 Y187.93 E320.77538
G1 X160.12 Y187.18 E320.84862
G1 X159.18 Y186.33 E320.92241
G1 X158.33 Y185.39 E320.99591
G1 X157.58 Y184.38 E321.06917
G1 X156.94 Y183.30 E321.14222
G1 X156.39 Y182.16 E321.21592
G1 X155.96 Y180.96 E321.28963
G1 X155.66 Y179.74 E321.36268
G1 X155.47 Y178.49 E321.43606
G1 X155.42 Y177.26 E321.50756
G1 X155.42 Y170.71 E321.88855
G1 X155.41 Y170.53 E321.89913
G1 X155.38 Y170.04 E321.92736
G1 X155.27 Y169.60 E321.95388
G1 X155.10 Y169.19 E321.97992
G1 X154.86 Y168.80 E322.00612
G1 X154.57 Y168.46 E322.03219
G1 X154.24 Y168.18 E322.05780
G1 X153.85 Y167.94 E322.08408
G1 X153.43 Y167.77 E322.11053
G1 X152.99 Y167.66 E322.13654
G1 X152.49 Y167.62 E322.16617
G1 X107.49 Y167.62 E324.78137
G1 X106.86 Y167.54 E324.81856
G1 X106.19 Y167.25 E324.86074
G1 X105.63 Y166.82 E324.90209
G1 X105.19 Y166.24 E324.94421
G1 X104.91 Y165.58 E324.98568
G1 X104.84 Y164.97 E325.02152
G1 X104.84 Y140.02 E326.47161
G1 X104.92 Y139.41 E326.50728
G1 X105.20 Y138.74 E326.54928
G1 X105.64 Y138.17 E326.59156
G0 F12000 X105.97 Y138.50
G1 F2700 X106.45 Y138.14 E326.62662
G1 X106.98 Y137.92 E326.65998
G1 X107.51 Y137.85 E326.69078
G1 X152.50 Y137.85 E329.30581
G1 X153.07 Y137.80 E329.33910
G1 X153.58 Y137.68 E329.36936
G1 X154.05 Y137.48 E329.39933
G1 X154.50 Y137.21 E329.42990
G1 X154.91 Y136.87 E329.46066
G1 X155.24 Y136.47 E329.49068
G1 X155.51 Y136.03 E329.52088
G1 X155.72 Y135.55 E329.55136
G1 X155.84 Y135.04 E329.58175
G1 X155.88 Y134.47 E329.61482
G1 X155.88 Y128.00 E329.99105
G1 X155.88 Y127.71 E330.00784
G1 X155.94 Y126.56 E330.07464
G1 X156.12 Y125.36 E330.14542
G1 X156.41 Y124.17 E330.21630
G1 X156.82 Y123.03 E330.28702
G1 X157.35 Y121.92 E330.35794
G1 X157.97 Y120.88 E330.42869
G1 X158.69 Y119.91 E330.49909
G1 X159.51 Y119.00 E330.57009
G1 X160.42 Y118.18 E330.64122
G1 X161.39 Y117.46 E330.71156
G1 X162.43 Y116.83 E330.78233
G1 X163.54 Y116.31 E330.85336
G1 X164.68 Y115.90 E330.92377
G1 X165.86 Y115.60 E330.99468
G1 X167.07 Y115.43 E331.06538
G1 X168.29 Y115.36 E331.13639
G1 X169.50 Y115.43 E331.20688
G1 X170.70 Y115.60 E331.27763
G1 X171.88 Y115.90 E331.34850
G1 X173.03 Y116.31 E331.41913
G1 X174.13 Y116.83 E331.49016
G1 X175.18 Y117.46 E331.56098
G1 X176.15 Y118.18 E331.63140
G1 X177.06 Y119.00 E331.70227
G1 X177.88 Y119.91 E331.77326
G1 X178.60 Y120.88 E331.84383
G1 X179.22 Y121.93 E331.91470
G1 X179.75 Y123.03 E331.98537
G1 X180.16 Y124.17 E332.05595
G1 X180.46 Y125.36 E332.12725
G1 X180.63 Y126.56 E332.19801
G1 X180.69 Y127.74 E332.26674
G1 X180.69 Y134.29 E332.64727
G1 X180.69 Y134.50 E332.65941
G1 X180.73 Y135.03 E332.69043
G1 X180.86 Y135.54 E332.72092
G1 X181.06 Y136.03 E332.75196
G1 X181.33 Y136.47 E332.78177
G1 X181.66 Y136.87 E332.81178
G1 X182.07 Y137.21 E332.84275
G1 X182.51 Y137.48 E332.87291
G1 X182.99 Y137.68 E332.90311
G1 X183.50 Y137.80 E332.93338
G1 X184.07 Y137.85 E332.96672
G1 X197.59 Y137.85 E333.75288
G1 X198.12 Y137.92 E333.78360
G1 X198.67 Y138.15 E333.81813
G1 X199.14 Y138.51 E333.85266
G1 X199.50 Y139.00 E333.88810
G1 X199.73 Y139.54 E333.92211
G1 X199.80 Y140.05 E333.95205
G1 X199.80 Y164.56 E335.37656
G1 X199.80 Y164.96 E335.39958
G1 X199.72 Y165.48 E335.43029
G1 X199.49 Y166.02 E335.46466
G1 X199.13 Y166.49 E335.49878
G1 X198.65 Y166.86 E335.53409
G1 X198.10 Y167.09 E335.56909
G1 X197.59 Y167.15 E335.59907
G1 X184.07 Y167.15 E336.38465
G1 X183.50 Y167.20 E336.41754
G1 X182.99 Y167.32 E336.44852
G1 X182.51 Y167.52 E336.47861
G1 X182.07 Y167.79 E336.50865
G1 X181.66 Y168.13 E336.53949
G1 X181.33 Y168.53 E336.56947
G1 X181.06 Y168.97 E336.59962
G1 X180.86 Y169.46 E336.63012
G1 X180.73 Y169.97 E336.66078
G1 X180.69 Y170.53 E336.69377
G1 X180.69 Y177.00 E337.06982
G1 X180.69 Y177.29 E337.08674
G1 X180.63 Y178.45 E337.15377
G1 X180.46 Y179.65 E337.22432
G1 X180.16 Y180.83 E337.29526
G1 X179.75 Y181.98 E337.36607
G1 X179.22 Y183.08 E337.43678
G1 X178.60 Y184.12 E337.50741
G1 X177.88 Y185.10 E337.57817
G1 X177.06 Y186.00 E337.64898
G1 X176.15 Y186.82 E337.71988
G1 X175.18 Y187.54 E337.79059
G1 X174.13 Y188.17 E337.86127
G1 X173.03 Y188.69 E337.93217
G1 X171.89 Y189.10 E338.00267
G1 X170.71 Y189.40 E338.07359
G1 X169.50 Y189.57 E338.14459
G1 X168.29 Y189.63 E338.21494
G1 X167.07 Y189.57 E338.28582
G1 X165.86 Y189.40 E338.35682
G1 X164.68 Y189.10 E338.42774
G1 X163.54 Y188.69 E338.49802
G1 X162.44 Y188.17 E338.56892
G1 X161.39 Y187.54 E338.63955
G1 X160.42 Y186.82 E338.71021
G1 X159.51 Y186.00 E338.78133
G1 X158.69 Y185.10 E338.85211
G1 X157.97 Y184.12 E338.92275
G1 X157.35 Y183.08 E338.99321
G1 X156.82 Y181.98 E339.06421
G1 X156.41 Y180.83 E339.13515
G1 X156.12 Y179.65 E339.20569
G1 X155.94 Y178.45 E339.27636
G1 X155.88 Y177.25 E339.34583
G1 X155.88 Y170.71 E339.72618
G1 X155.88 Y170.51 E339.73763
G1 X155.84 Y169.97 E339.76959
G1 X155.72 Y169.46 E339.80005
G1 X155.51 Y168.98 E339.83024
G1 X155.24 Y168.53 E339.86056
G1 X154.90 Y168.13 E339.89104
G1 X154.50 Y167.79 E339.92135
G1 X154.06 Y167.52 E339.95183
G1 X153.58 Y167.32 E339.98198
G1 X153.07 Y167.20 E340.01236
G1 X152.50 Y167.15 E340.04549
G1 X107.52 Y167.15 E342.65994
G1 X106.98 Y167.08 E342.69157
G1 X106.43 Y166.85 E342.72643
G1 X105.96 Y166.49 E342.76079
G1 X105.60 Y166.00 E342.79589
G1 X105.37 Y165.46 E342.83023
G1 X105.30 Y164.94 E342.86069
G1 X105.30 Y140.05 E344.30729
G1 X105.37 Y139.53 E344.33755
G1 X105.60 Y138.98 E344.37244
G1 X105.97 Y138.50 E344.40742
G0 F12000 X106.30 Y138.84
G1 F2700 X106.69 Y138.55 E344.43542
G1 X107.11 Y138.37 E344.46194
G1 X107.54 Y138.31 E344.48734
G1 X152.52 Y138.31 E347.10178
G1 X153.15 Y138.27 E347.13804
G1 X153.72 Y138.13 E347.17250
G1 X154.27 Y137.90 E347.20699
G1 X154.78 Y137.59 E347.24153
G1 X155.24 Y137.20 E347.27671
G1 X155.62 Y136.75 E347.31077
G1 X155.93 Y136.24 E347.34553
G1 X156.16 Y135.69 E347.38023
G1 X156.30 Y135.12 E347.41446
G1 X156.35 Y134.48 E347.45132
G1 X156.35 Y128.00 E347.82830
G1 X156.35 Y127.72 E347.84446
G1 X156.40 Y126.61 E347.90927
G1 X156.58 Y125.45 E347.97742
G1 X156.86 Y124.31 E348.04572
G1 X157.25 Y123.20 E348.11366
G1 X157.76 Y122.14 E348.18193
G1 X158.36 Y121.14 E348.25004
G1 X159.05 Y120.20 E348.31784
G1 X159.84 Y119.33 E348.38612
G1 X160.72 Y118.54 E348.45448
G1 X161.65 Y117.85 E348.52229
G1 X162.66 Y117.24 E348.59043
G1 X163.72 Y116.74 E348.65876
G1 X164.82 Y116.35 E348.72652
G1 X165.95 Y116.06 E348.79468
G1 X167.11 Y115.89 E348.86279
G1 X168.29 Y115.83 E348.93112
G1 X169.45 Y115.89 E348.99899
G1 X170.61 Y116.06 E349.06710
G1 X171.75 Y116.35 E349.13526
G1 X172.85 Y116.74 E349.20324
G1 X173.91 Y117.24 E349.27151
G1 X174.92 Y117.85 E349.33970
G1 X175.86 Y118.54 E349.40755
G1 X176.73 Y119.33 E349.47571
G1 X177.51 Y120.20 E349.54402
G1 X178.21 Y121.14 E349.61193
G1 X178.81 Y122.15 E349.68014
G1 X179.31 Y123.20 E349.74818
G1 X179.71 Y124.30 E349.81610
G1 X180.00 Y125.45 E349.88465
G1 X180.17 Y126.61 E349.95277
G1 X180.22 Y127.76 E350.01958
G1 X180.22 Y134.29 E350.39941
G1 X180.22 Y134.51 E350.41213
G1 X180.27 Y135.11 E350.44711
G1 X180.41 Y135.69 E350.48163
G1 X180.64 Y136.25 E350.51693
G1 X180.95 Y136.75 E350.55073
G1 X181.33 Y137.20 E350.58535
G1 X181.80 Y137.59 E350.62065
G1 X182.29 Y137.90 E350.65444
G1 X182.85 Y138.13 E350.68962
G1 X183.43 Y138.27 E350.72395
G1 X184.05 Y138.31 E350.76021
G1 X197.56 Y138.31 E351.54573
G1 X197.99 Y138.38 E351.57104
G1 X198.43 Y138.56 E351.59864
G1 X198.80 Y138.84 E351.62591
G1 X199.10 Y139.23 E351.65422
G1 X199.28 Y139.66 E351.68132
G1 X199.33 Y140.08 E351.70597
G1 X199.33 Y164.56 E353.12851
G1 X199.33 Y164.92 E353.14961
G1 X199.27 Y165.35 E353.17492
G1 X199.09 Y165.79 E353.20226
G1 X198.80 Y166.16 E353.22945
G1 X198.42 Y166.45 E353.25759
G1 X197.98 Y166.63 E353.28530
G1 X197.56 Y166.69 E353.30995
G1 X184.05 Y166.69 E354.09477
G1 X183.43 Y166.74 E354.13123
G1 X182.85 Y166.88 E354.16608
G1 X182.29 Y167.11 E354.20094
G1 X181.79 Y167.41 E354.23474
G1 X181.33 Y167.81 E354.27008
G1 X180.95 Y168.25 E354.30443
G1 X180.64 Y168.76 E354.33860
G1 X180.41 Y169.31 E354.37362
G1 X180.27 Y169.89 E354.40823
G1 X180.22 Y170.51 E354.44437
G1 X180.22 Y177.00 E354.82164
G1 X180.22 Y177.28 E354.83792
G1 X180.17 Y178.40 E354.90303
G1 X180.00 Y179.56 E354.97093
G1 X179.71 Y180.70 E355.03914
G1 X179.31 Y181.80 E355.10728
G1 X178.81 Y182.86 E355.17537
G1 X178.21 Y183.86 E355.24333
G1 X177.51 Y184.80 E355.31143
G1 X176.73 Y185.67 E355.37957
G1 X175.86 Y186.46 E355.44779
G1 X174.92 Y187.16 E355.51584
G1 X173.91 Y187.76 E355.58386
G1 X172.85 Y188.26 E355.65208
G1 X171.75 Y188.65 E355.71999
G1 X170.61 Y188.94 E355.78820
G1 X169.45 Y189.11 E355.85651
G1 X168.29 Y189.17 E355.92424
G1 X167.11 Y189.11 E355.99250
G1 X165.95 Y188.94 E356.06075
G1 X164.81 Y188.65 E356.12902
G1 X163.72 Y188.26 E356.19665
G1 X162.66 Y187.76 E356.26493
G1 X161.65 Y187.16 E356.33289
G1 X160.71 Y186.46 E356.40089
G1 X159.84 Y185.67 E356.46933
G1 X159.05 Y184.80 E356.53744
G1 X158.36 Y183.86 E356.60542
G1 X157.76 Y182.86 E356.67330
G1 X157.25 Y181.80 E356.74160
G1 X156.86 Y180.69 E356.80976
G1 X156.58 Y179.56 E356.87772
G1 X156.40 Y178.40 E356.94569
G1 X156.35 Y177.24 E357.01312
G1 X156.35 Y170.71 E357.39289
G1 X156.35 Y170.50 E357.40527
G1 X156.30 Y169.89 E357.44091
G1 X156.16 Y169.31 E357.47518
G1 X155.93 Y168.76 E357.50967
G1 X155.62 Y168.25 E357.54451
G1 X155.23 Y167.80 E357.57895
G1 X154.78 Y167.41 E357.61375
G1 X154.27 Y167.11 E357.64825
G1 X153.72 Y166.88 E357.68288
G1 X153.15 Y166.74 E357.71715
G1 X152.52 Y166.69 E357.75395
G1 X107.55 Y166.69 E360.36759
G1 X107.10 Y166.63 E360.39371
G1 X106.67 Y166.44 E360.42131
G1 X106.30 Y166.16 E360.44857
G1 X106.00 Y165.77 E360.47670
G1 X105.82 Y165.34 E360.50387
G1 X105.77 Y164.91 E360.52894
G1 X105.77 Y140.08 E361.97200
G1 X105.83 Y139.66 E361.99693
G1 X106.01 Y139.22 E362.02470
G1 X106.30 Y138.84 E362.05239
G0 F12000 X106.63 Y139.17
G1 F2700 X106.92 Y138.96 E362.07337
G1 X107.23 Y138.83 E362.09306
G1 X107.57 Y138.78 E362.11295
G1 X152.55 Y138.78 E364.72693
G1 X153.22 Y138.73 E364.76605
G1 X153.86 Y138.57 E364.80474
G1 X154.48 Y138.31 E364.84351
G1 X155.05 Y137.96 E364.88257
G1 X155.56 Y137.53 E364.92157
G1 X156.00 Y137.02 E364.96054
G1 X156.34 Y136.46 E364.99880
G1 X156.60 Y135.84 E365.03804
G1 X156.76 Y135.18 E365.07705
G1 X156.81 Y134.51 E365.11624
G1 X156.81 Y127.73 E365.51019
G1 X156.87 Y126.65 E365.57303
G1 X157.03 Y125.54 E365.63851
G1 X157.31 Y124.44 E365.70419
G1 X157.68 Y123.38 E365.76942
G1 X158.17 Y122.37 E365.83498
G1 X158.75 Y121.40 E365.90051
G1 X159.41 Y120.50 E365.96569
G1 X160.17 Y119.66 E366.03125
G1 X161.01 Y118.91 E366.09690
G1 X161.91 Y118.24 E366.16217
G1 X162.88 Y117.65 E366.22765
G1 X163.90 Y117.17 E366.29322
G1 X164.95 Y116.80 E366.35832
G1 X166.04 Y116.52 E366.42384
G1 X167.16 Y116.36 E366.48926
G1 X168.29 Y116.30 E366.55497
G1 X169.41 Y116.36 E366.62016
G1 X170.52 Y116.52 E366.68563
G1 X171.62 Y116.80 E366.75115
G1 X172.67 Y117.17 E366.81646
G1 X173.69 Y117.65 E366.88198
G1 X174.66 Y118.24 E366.94751
G1 X175.56 Y118.91 E367.01283
G1 X176.40 Y119.66 E367.07826
G1 X177.15 Y120.50 E367.14390
G1 X177.82 Y121.40 E367.20915
G1 X178.40 Y122.37 E367.27468
G1 X178.88 Y123.38 E367.34012
G1 X179.26 Y124.44 E367.40539
G1 X179.54 Y125.54 E367.47118
G1 X179.70 Y126.65 E367.53666
G1 X179.76 Y127.77 E367.60149
G1 X179.76 Y134.54 E367.99515
G1 X179.81 Y135.18 E368.03257
G1 X179.97 Y135.83 E368.07152
G1 X180.23 Y136.46 E368.11085
G1 X180.57 Y137.02 E368.14914
G1 X181.00 Y137.53 E368.18805
G1 X181.52 Y137.97 E368.22747
G1 X182.08 Y138.31 E368.26578
G1 X182.70 Y138.57 E368.30471
G1 X183.35 Y138.73 E368.34365
G1 X184.02 Y138.78 E368.38277
G1 X197.53 Y138.78 E369.16765
G1 X197.87 Y138.83 E369.18762
G1 X198.20 Y138.97 E369.20829
G1 X198.47 Y139.18 E369.22831
G1 X198.69 Y139.47 E369.24948
G1 X198.82 Y139.79 E369.26967
G1 X198.87 Y140.12 E369.28904
G1 X198.87 Y164.89 E370.72878
G1 X198.82 Y165.23 E370.74863
G1 X198.68 Y165.55 E370.76902
G1 X198.47 Y165.82 E370.78925
G1 X198.18 Y166.05 E370.81021
G1 X197.86 Y166.18 E370.83062
G1 X197.53 Y166.22 E370.85001
G1 X184.03 Y166.22 E371.63472
G1 X183.36 Y166.28 E371.67368
G1 X182.70 Y166.44 E371.71332
G1 X182.09 Y166.69 E371.75178
G1 X181.52 Y167.03 E371.79022
G1 X181.00 Y167.47 E371.82973
G1 X180.57 Y167.98 E371.86836
G1 X180.22 Y168.55 E371.90707
G1 X179.97 Y169.17 E371.94587
G1 X179.81 Y169.82 E371.98504
G1 X179.76 Y170.48 E372.02375
G1 X179.75 Y177.27 E372.41817
G1 X179.70 Y178.36 E372.48142
G1 X179.54 Y179.47 E372.54661
G1 X179.26 Y180.56 E372.61212
G1 X178.88 Y181.62 E372.67761
G1 X178.40 Y182.64 E372.74305
G1 X177.82 Y183.60 E372.80838
G1 X177.15 Y184.51 E372.87381
G1 X176.40 Y185.34 E372.93928
G1 X175.56 Y186.10 E373.00483
G1 X174.66 Y186.77 E373.07022
G1 X173.69 Y187.35 E373.13560
G1 X172.67 Y187.83 E373.20112
G1 X171.62 Y188.21 E373.26643
G1 X170.52 Y188.49 E373.33196
G1 X169.41 Y188.65 E373.39755
G1 X168.29 Y188.70 E373.46267
G1 X167.16 Y188.65 E373.52831
G1 X166.04 Y188.49 E373.59384
G1 X164.95 Y188.21 E373.65936
G1 X163.90 Y187.83 E373.72446
G1 X162.88 Y187.35 E373.79003
G1 X161.91 Y186.77 E373.85536
G1 X161.01 Y186.10 E373.92075
G1 X160.17 Y185.34 E373.98647
G1 X159.41 Y184.51 E374.05186
G1 X158.75 Y183.60 E374.11723
G1 X158.17 Y182.64 E374.18253
G1 X157.68 Y181.62 E374.24812
G1 X157.31 Y180.56 E374.31356
G1 X157.03 Y179.47 E374.37890
G1 X156.87 Y178.36 E374.44422
G1 X156.81 Y177.23 E374.50961
G1 X156.81 Y170.47 E374.90281
G1 X156.76 Y169.82 E374.94054
G1 X156.60 Y169.17 E374.97965
G1 X156.34 Y168.55 E375.01875
G1 X156.00 Y167.98 E375.05727
G1 X155.57 Y167.47 E375.09596
G1 X155.05 Y167.03 E375.13534
G1 X154.48 Y166.69 E375.17390
G1 X153.87 Y166.43 E375.21283
G1 X153.22 Y166.28 E375.25157
G1 X152.54 Y166.22 E375.29088
G1 X107.58 Y166.22 E377.90440
G1 X107.23 Y166.18 E377.92496
G1 X106.91 Y166.04 E377.94529
G1 X106.63 Y165.82 E377.96555
G1 X106.41 Y165.53 E377.98663
G1 X106.28 Y165.22 E378.00666
G1 X106.23 Y164.88 E378.02634
G1 X106.23 Y140.11 E379.46591
G1 X106.28 Y139.78 E379.48544
G1 X106.42 Y139.45 E379.50618
G1 X106.63 Y139.17 E379.52653
G0 F12000 X164.33 Y128.24
G1 F2700 X164.46 Y128.87 E379.56381
G1 X164.68 Y129.47 E379.60088
G1 X164.69 Y129.48 E379.60171
G1 X165.00 Y130.03 E379.63859
G1 X165.40 Y130.52 E379.67530
G1 X165.88 Y130.95 E379.71259
G1 X166.42 Y131.29 E379.75007
G1 X166.44 Y131.30 E379.75137
G1 X167.01 Y131.54 E379.78713
G1 X167.63 Y131.70 E379.82459
G1 X168.28 Y131.76 E379.86215
G1 X168.30 Y131.76 E379.86349
G1 X168.90 Y131.71 E379.89859
G1 X169.53 Y131.55 E379.93602
G1 X170.12 Y131.30 E379.97345
G1 X170.66 Y130.97 E380.01040
G1 X171.15 Y130.54 E380.04793
G1 X171.55 Y130.05 E380.08522
G1 X171.87 Y129.50 E380.12216
G1 X172.10 Y128.89 E380.15972
G1 X172.23 Y128.27 E380.19664
G1 X172.26 Y127.61 E380.23516
G1 X172.26 Y127.60 E380.23580
G1 X172.19 Y127.00 E380.27104
G1 X172.01 Y126.38 E380.30862
G1 X171.74 Y125.80 E380.34571
G1 X171.38 Y125.27 E380.38279
G1 X170.94 Y124.81 E380.42004
G1 X170.42 Y124.42 E380.45754
G1 X169.86 Y124.12 E380.49475
G1 X169.25 Y123.91 E380.53217
G1 X168.62 Y123.81 E380.56918
G1 X167.98 Y123.81 E380.60661
G1 X167.95 Y123.81 E380.60807
G1 X167.35 Y123.90 E380.64362
G1 X166.74 Y124.11 E380.68075
G1 X166.17 Y124.40 E380.71816
G1 X165.66 Y124.78 E380.75525
G1 X165.21 Y125.25 E380.79266
G1 X164.85 Y125.77 E380.82952
G1 X164.57 Y126.34 E380.86682
G1 X164.39 Y126.97 E380.90458
G1 X164.31 Y127.60 E380.94153
G1 X164.31 Y127.62 E380.94299
G1 X164.33 Y128.24 E380.97875
G0 F12000 X164.79 Y128.18
G1 F2700 X164.91 Y128.74 E381.01181
G1 X165.11 Y129.28 E381.04543
G1 X165.38 Y129.76 E381.07746
G1 X165.74 Y130.20 E381.11037
G1 X166.16 Y130.58 E381.14330
G1 X166.65 Y130.88 E381.17661
G1 X167.16 Y131.10 E381.20873
G1 X167.71 Y131.24 E381.24185
G1 X168.29 Y131.29 E381.27603
G1 X168.83 Y131.25 E381.30741
G1 X169.38 Y131.11 E381.34004
G1 X169.91 Y130.89 E381.37344
G1 X170.38 Y130.59 E381.40605
G1 X170.81 Y130.22 E381.43917
G1 X171.17 Y129.79 E381.47155
G1 X171.46 Y129.29 E381.50487
G1 X171.65 Y128.77 E381.53734
G1 X171.77 Y128.21 E381.57069
G1 X171.79 Y127.63 E381.60443
G1 X171.73 Y127.08 E381.63616
G1 X171.58 Y126.54 E381.66896
G1 X171.34 Y126.03 E381.70183
G1 X171.02 Y125.57 E381.73461
G1 X170.63 Y125.15 E381.76755
G1 X170.17 Y124.81 E381.80056
G1 X169.67 Y124.55 E381.83350
G1 X169.13 Y124.36 E381.86652
G1 X168.58 Y124.27 E381.89892
G1 X168.00 Y124.27 E381.93298
G1 X167.46 Y124.36 E381.96483
G1 X166.92 Y124.54 E381.99748
G1 X166.42 Y124.80 E382.03070
G1 X165.97 Y125.13 E382.06327
G1 X165.57 Y125.54 E382.09636
G1 X165.25 Y126.00 E382.12905
G1 X165.01 Y126.51 E382.16172
G1 X164.85 Y127.06 E382.19492
G1 X164.77 Y127.64 E382.22872
G1 X164.79 Y128.18 E382.26047
G0 F12000 X165.26 Y128.12
G1 F2700 X165.35 Y128.61 E382.28907
G1 X165.53 Y129.08 E382.31853
G1 X165.77 Y129.49 E382.34619
G1 X166.08 Y129.88 E382.37471
G1 X166.44 Y130.20 E382.40307
G1 X166.86 Y130.47 E382.43212
G1 X167.31 Y130.66 E382.46031
G1 X167.79 Y130.78 E382.48881
G1 X168.29 Y130.82 E382.51850
G1 X168.75 Y130.78 E382.54504
G1 X169.23 Y130.66 E382.57396
G1 X169.69 Y130.47 E382.60301
G1 X170.11 Y130.22 E382.63123
G1 X170.47 Y129.90 E382.65945
G1 X170.79 Y129.51 E382.68827
G1 X171.03 Y129.09 E382.71646
G1 X171.21 Y128.63 E382.74519
G1 X171.31 Y128.16 E382.77349
G1 X171.33 Y127.64 E382.80317
G1 X171.27 Y127.17 E382.83068
G1 X171.14 Y126.71 E382.85902
G1 X170.93 Y126.26 E382.88747
G1 X170.65 Y125.86 E382.91591
G1 X170.31 Y125.50 E382.94461
G1 X169.92 Y125.21 E382.97310
G1 X169.49 Y124.98 E383.00144
G1 X169.02 Y124.82 E383.03033
G1 X168.54 Y124.74 E383.05849
G1 X168.03 Y124.74 E383.08802
G1 X167.57 Y124.81 E383.11511
G1 X167.10 Y124.97 E383.14402
G1 X166.66 Y125.19 E383.17272
G1 X166.28 Y125.48 E383.20076
G1 X165.93 Y125.84 E383.22941
G1 X165.66 Y126.24 E383.25775
G1 X165.44 Y126.68 E383.28635
G1 X165.30 Y127.16 E383.31513
G1 X165.24 Y127.66 E383.34453
G1 X165.26 Y128.12 E383.37163
G0 F12000 X167.98 Y173.26
G1 F2700 X167.95 Y173.26 E383.37309
G1 X167.35 Y173.36 E383.40864
G1 X166.74 Y173.56 E383.44577
G1 X166.17 Y173.86 E383.48326
G1 X165.66 Y174.24 E383.52041
G1 X165.21 Y174.69 E383.55736
G1 X164.85 Y175.23 E383.59481
G1 X164.57 Y175.80 E383.63185
G1 X164.39 Y176.42 E383.66959
G1 X164.31 Y177.06 E383.70678
G1 X164.31 Y177.08 E383.70823
G1 X164.33 Y177.69 E383.74377
G1 X164.46 Y178.32 E383.78104
G1 X164.68 Y178.92 E383.81811
G1 X164.69 Y178.93 E383.81895
G1 X165.00 Y179.48 E383.85582
G1 X165.40 Y179.97 E383.89253
G1 X165.88 Y180.40 E383.92979
G1 X166.42 Y180.75 E383.96729
G1 X166.44 Y180.76 E383.96859
G1 X167.01 Y181.00 E384.00435
G1 X167.63 Y181.16 E384.04181
G1 X168.28 Y181.21 E384.07937
G1 X168.30 Y181.21 E384.08071
G1 X168.90 Y181.16 E384.11582
G1 X169.53 Y181.01 E384.15324
G1 X170.12 Y180.76 E384.19042
G1 X170.66 Y180.42 E384.22786
G1 X171.15 Y180.00 E384.26515
G1 X171.55 Y179.50 E384.30244
G1 X171.87 Y178.95 E384.33937
G1 X172.10 Y178.35 E384.37694
G1 X172.23 Y177.73 E384.41386
G1 X172.26 Y177.07 E384.45214
G1 X172.26 Y177.05 E384.45313
G1 X172.19 Y176.45 E384.48825
G1 X172.01 Y175.83 E384.52567
G1 X171.74 Y175.25 E384.56285
G1 X171.38 Y174.72 E384.60006
G1 X170.94 Y174.26 E384.63730
G1 X170.42 Y173.88 E384.67469
G1 X169.86 Y173.57 E384.71195
G1 X169.25 Y173.37 E384.74937
G1 X168.62 Y173.26 E384.78638
G1 X167.98 Y173.26 E384.82381
G0 F12000 X168.00 Y173.73
G1 F2700 X167.46 Y173.81 E384.85566
G1 X166.92 Y173.99 E384.88831
G1 X166.42 Y174.25 E384.92135
G1 X165.97 Y174.59 E384.95422
G1 X165.57 Y175.00 E384.98710
G1 X165.25 Y175.46 E385.01983
G1 X165.01 Y175.97 E385.05274
G1 X164.85 Y176.51 E385.08570
G1 X164.77 Y177.09 E385.11972
G1 X164.79 Y177.64 E385.15124
G1 X164.91 Y178.19 E385.18430
G1 X165.11 Y178.74 E385.21792
G1 X165.38 Y179.21 E385.24995
G1 X165.74 Y179.65 E385.28281
G1 X166.16 Y180.03 E385.31558
G1 X166.65 Y180.34 E385.34929
G1 X167.16 Y180.55 E385.38120
G1 X167.71 Y180.69 E385.41433
G1 X168.29 Y180.74 E385.44851
G1 X168.83 Y180.70 E385.47988
G1 X169.38 Y180.56 E385.51252
G1 X169.90 Y180.34 E385.54571
G1 X170.39 Y180.04 E385.57877
G1 X170.81 Y179.67 E385.61165
G1 X171.17 Y179.24 E385.64403
G1 X171.46 Y178.75 E385.67734
G1 X171.65 Y178.22 E385.70981
G1 X171.77 Y177.66 E385.74316
G1 X171.79 Y177.09 E385.77667
G1 X171.73 Y176.54 E385.80863
G1 X171.58 Y176.00 E385.84144
G1 X171.34 Y175.49 E385.87410
G1 X171.01 Y175.01 E385.90739
G1 X170.63 Y174.61 E385.93990
G1 X170.17 Y174.27 E385.97293
G1 X169.67 Y174.00 E386.00597
G1 X169.13 Y173.82 E386.03898
G1 X168.58 Y173.73 E386.07139
G1 X168.00 Y173.73 E386.10545
G0 F12000 X168.03 Y174.19
G1 F2700 X167.57 Y174.27 E386.13253
G1 X167.10 Y174.42 E386.16145
G1 X166.66 Y174.65 E386.19001
G1 X166.27 Y174.94 E386.21853
G1 X165.94 Y175.29 E386.24660
G1 X165.65 Y175.70 E386.27544
G1 X165.44 Y176.13 E386.30365
G1 X165.30 Y176.61 E386.33254
G1 X165.24 Y177.12 E386.36217
G1 X165.26 Y177.58 E386.38904
G1 X165.35 Y178.06 E386.41764
G1 X165.53 Y178.54 E386.44710
G1 X165.77 Y178.95 E386.47475
G1 X166.08 Y179.33 E386.50323
G1 X166.44 Y179.66 E386.53176
G1 X166.86 Y179.92 E386.56060
G1 X167.31 Y180.11 E386.58886
G1 X167.79 Y180.23 E386.61737
G1 X168.29 Y180.28 E386.64706
G1 X168.75 Y180.24 E386.67359
G1 X169.23 Y180.12 E386.70252
G1 X169.69 Y179.93 E386.73130
G1 X170.11 Y179.67 E386.75998
G1 X170.47 Y179.35 E386.78808
G1 X170.79 Y178.97 E386.81682
G1 X171.03 Y178.55 E386.84500
G1 X171.21 Y178.09 E386.87373
G1 X171.31 Y177.61 E386.90204
G1 X171.33 Y177.10 E386.93153
G1 X171.27 Y176.63 E386.95922
G1 X171.14 Y176.16 E386.98733
G1 X170.93 Y175.72 E387.01601
G1 X170.65 Y175.31 E387.04470
G1 X170.32 Y174.96 E387.07274
G1 X169.92 Y174.66 E387.10178
G1 X169.49 Y174.43 E387.12996
G1 X169.02 Y174.27 E387.15886
G1 X168.54 Y174.19 E387.18701
G1 X168.03 Y174.19 E387.21654
G0 F12000 X168.04 Y172.46
G0 X167.93 Y171.86
;TYPE:WALL-INNER
G1 F2700 X167.80 Y171.87 E387.22405
G1 X167.01 Y172.00 E387.27033
G1 X166.19 Y172.27 E387.32054
G1 X165.42 Y172.67 E387.37105
G1 X164.73 Y173.19 E387.42119
G1 X164.13 Y173.81 E387.47154
G1 X163.63 Y174.52 E387.52216
G1 X163.26 Y175.30 E387.57223
G1 X163.01 Y176.13 E387.62282
G1 X162.91 Y176.94 E387.66985
G1 X162.91 Y177.06 E387.67706
G1 X162.93 Y177.86 E387.72330
G1 X163.11 Y178.71 E387.77379
G1 X163.39 Y179.47 E387.82106
G1 X163.45 Y179.59 E387.82868
G1 X163.84 Y180.27 E387.87462
G1 X164.38 Y180.94 E387.92471
G1 X165.03 Y181.52 E387.97514
G1 X165.72 Y181.96 E388.02242
G1 X166.56 Y182.32 E388.07593
G1 X167.40 Y182.54 E388.12588
G1 X168.20 Y182.61 E388.17307
G1 X168.33 Y182.61 E388.18056
G1 X169.13 Y182.55 E388.22698
G1 X169.97 Y182.34 E388.27728
G1 X170.76 Y182.00 E388.32743
G1 X171.50 Y181.55 E388.37754
G1 X172.15 Y180.98 E388.42809
G1 X172.70 Y180.31 E388.47863
G1 X173.14 Y179.55 E388.52916
G1 X173.45 Y178.74 E388.57953
G1 X173.62 Y177.90 E388.62980
G1 X173.66 Y177.09 E388.67698
G1 X173.66 Y176.96 E388.68437
G1 X173.56 Y176.17 E388.73031
G1 X173.33 Y175.34 E388.78054
G1 X172.96 Y174.56 E388.83083
G1 X172.47 Y173.84 E388.88164
G1 X171.87 Y173.21 E388.93191
G1 X171.18 Y172.69 E388.98220
G1 X170.41 Y172.29 E389.03244
G1 X169.59 Y172.01 E389.08306
G1 X168.74 Y171.87 E389.13314
G1 X167.93 Y171.86 E389.18022
G0 F12000 X158.21 Y170.71
G1 F2700 X158.21 Y170.41 E389.19754
G1 X158.14 Y169.60 E389.24485
G1 X157.94 Y168.73 E389.29661
G1 X157.59 Y167.91 E389.34863
G1 X157.13 Y167.16 E389.39973
G1 X156.56 Y166.48 E389.45133
G1 X155.87 Y165.90 E389.50358
G1 X155.12 Y165.44 E389.55500
G1 X154.30 Y165.10 E389.60620
G1 X153.44 Y164.89 E389.65780
G1 X152.60 Y164.82 E389.70679
G1 X107.67 Y164.82 E392.31851
G1 X107.64 Y164.82 E392.32021
G1 X107.63 Y140.21 E393.75077
G1 X107.64 Y140.18 E393.75212
G1 X152.60 Y140.18 E396.36529
G1 X153.44 Y140.11 E396.41425
G1 X154.30 Y139.90 E396.46617
G1 X155.12 Y139.56 E396.51748
G1 X155.88 Y139.10 E396.56897
G1 X156.56 Y138.52 E396.62101
G1 X157.13 Y137.85 E396.67239
G1 X157.59 Y137.10 E396.72370
G1 X157.94 Y136.27 E396.77591
G1 X158.14 Y135.41 E396.82739
G1 X158.21 Y134.56 E396.87638
G1 X158.21 Y128.00 E397.25778
G1 X158.21 Y127.77 E397.27120
G1 X158.26 Y126.79 E397.32840
G1 X158.41 Y125.81 E397.38614
G1 X158.65 Y124.84 E397.44378
G1 X158.97 Y123.92 E397.50080
G1 X159.40 Y123.03 E397.55839
G1 X159.91 Y122.18 E397.61573
G1 X160.50 Y121.38 E397.67339
G1 X161.16 Y120.65 E397.73072
G1 X161.89 Y119.99 E397.78794
G1 X162.69 Y119.40 E397.84585
G1 X163.54 Y118.89 E397.90350
G1 X164.43 Y118.47 E397.96065
G1 X165.35 Y118.14 E398.01768
G1 X166.32 Y117.89 E398.07557
G1 X167.30 Y117.75 E398.13300
G1 X168.29 Y117.70 E398.19051
G1 X169.27 Y117.75 E398.24767
G1 X170.25 Y117.89 E398.30510
G1 X171.21 Y118.14 E398.36288
G1 X172.14 Y118.47 E398.42044
G1 X173.03 Y118.89 E398.47764
G1 X173.87 Y119.39 E398.53470
G1 X174.68 Y119.99 E398.59295
G1 X175.41 Y120.65 E398.64999
G1 X176.07 Y121.39 E398.70760
G1 X176.66 Y122.18 E398.76500
G1 X177.17 Y123.02 E398.82227
G1 X177.59 Y123.92 E398.87975
G1 X177.93 Y124.85 E398.93759
G1 X178.17 Y125.81 E398.99476
G1 X178.31 Y126.78 E399.05208
G1 X178.36 Y127.81 E399.11184
G1 X178.36 Y134.29 E399.48865
G1 X178.36 Y134.59 E399.50579
G1 X178.42 Y135.41 E399.55372
G1 X178.64 Y136.27 E399.60524
G1 X178.97 Y137.09 E399.65669
G1 X179.44 Y137.85 E399.70826
G1 X180.02 Y138.52 E399.76006
G1 X180.69 Y139.10 E399.81173
G1 X181.45 Y139.56 E399.86314
G1 X182.27 Y139.90 E399.91473
G1 X183.13 Y140.11 E399.96664
G1 X183.97 Y140.18 E400.01560
G1 X197.43 Y140.18 E400.79740
G1 X197.47 Y140.18 E400.79976
G1 X197.47 Y164.55 E402.21619
G1 X197.47 Y164.82 E402.23165
G1 X183.97 Y164.82 E403.01601
G1 X183.13 Y164.89 E403.06495
G1 X182.27 Y165.10 E403.11660
G1 X181.45 Y165.44 E403.16807
G1 X180.70 Y165.90 E403.21932
G1 X180.01 Y166.48 E403.27132
G1 X179.43 Y167.16 E403.32331
G1 X178.97 Y167.91 E403.37467
G1 X178.64 Y168.73 E403.42593
G1 X178.42 Y169.60 E403.47784
G1 X178.36 Y170.44 E403.52699
G1 X178.36 Y177.00 E403.90821
G1 X178.36 Y177.22 E403.92129
G1 X178.31 Y178.23 E403.97966
G1 X178.17 Y179.19 E404.03656
G1 X177.93 Y180.15 E404.09398
G1 X177.59 Y181.08 E404.15151
G1 X177.17 Y181.98 E404.20899
G1 X176.66 Y182.82 E404.26611
G1 X176.07 Y183.62 E404.32415
G1 X175.41 Y184.35 E404.38130
G1 X174.67 Y185.02 E404.43895
G1 X173.88 Y185.60 E404.49599
G1 X173.03 Y186.11 E404.55363
G1 X172.14 Y186.53 E404.61085
G1 X171.21 Y186.87 E404.66848
G1 X170.25 Y187.11 E404.72631
G1 X169.28 Y187.25 E404.78322
G1 X168.29 Y187.30 E404.84077
G1 X167.29 Y187.25 E404.89885
G1 X166.32 Y187.11 E404.95570
G1 X165.35 Y186.87 E405.01365
G1 X164.43 Y186.53 E405.07074
G1 X163.54 Y186.11 E405.12822
G1 X162.69 Y185.60 E405.18576
G1 X161.90 Y185.02 E405.24284
G1 X161.16 Y184.35 E405.30070
G1 X160.50 Y183.62 E405.35803
G1 X159.91 Y182.83 E405.41537
G1 X159.40 Y181.97 E405.47304
G1 X158.98 Y181.09 E405.53026
G1 X158.65 Y180.16 E405.58774
G1 X158.41 Y179.20 E405.64517
G1 X158.26 Y178.22 E405.70267
G1 X158.21 Y177.20 E405.76207
G1 X158.21 Y170.71 E406.13923
G0 F12000 X167.40 Y133.09
G1 F2700 X168.20 Y133.15 E406.18641
G1 X168.33 Y133.16 E406.19391
G1 X169.13 Y133.09 E406.24033
G1 X169.97 Y132.88 E406.29063
G1 X170.76 Y132.55 E406.34078
G1 X171.50 Y132.09 E406.39086
G1 X172.15 Y131.52 E406.44152
G1 X172.70 Y130.85 E406.49199
G1 X173.14 Y130.10 E406.54252
G1 X173.45 Y129.29 E406.59289
G1 X173.62 Y128.44 E406.64316
G1 X173.66 Y127.63 E406.69057
G1 X173.66 Y127.50 E406.69802
G1 X173.56 Y126.72 E406.74367
G1 X173.33 Y125.89 E406.79384
G1 X172.96 Y125.10 E406.84458
G1 X172.47 Y124.39 E406.89469
G1 X171.87 Y123.75 E406.94534
G1 X171.18 Y123.24 E406.99576
G1 X170.41 Y122.83 E407.04581
G1 X169.59 Y122.55 E407.09643
G1 X168.74 Y122.41 E407.14652
G1 X167.93 Y122.41 E407.19360
G1 X167.80 Y122.42 E407.20111
G1 X167.01 Y122.54 E407.24739
G1 X166.19 Y122.81 E407.29760
G1 X165.43 Y123.21 E407.34790
G1 X164.73 Y123.73 E407.39825
G1 X164.13 Y124.36 E407.44893
G1 X163.63 Y125.06 E407.49885
G1 X163.26 Y125.84 E407.54936
G1 X163.01 Y126.68 E407.59983
G1 X162.91 Y127.48 E407.64669
G1 X162.91 Y127.60 E407.65391
G1 X162.93 Y128.40 E407.70037
G1 X163.11 Y129.25 E407.75087
G1 X163.39 Y130.01 E407.79813
G1 X163.45 Y130.13 E407.80575
G1 X163.84 Y130.82 E407.85169
G1 X164.38 Y131.49 E407.90174
G1 X165.03 Y132.07 E407.95229
G1 X165.72 Y132.50 E407.99955
G1 X166.56 Y132.87 E408.05301
G1 X167.40 Y133.09 E408.10296
G0 F12000 X167.47 Y132.62
G1 F2700 X168.23 Y132.69 E408.14705
G1 X168.32 Y132.69 E408.15234
G1 X169.05 Y132.63 E408.19503
G1 X169.82 Y132.44 E408.24107
G1 X170.55 Y132.13 E408.28695
G1 X171.22 Y131.72 E408.33264
G1 X171.82 Y131.20 E408.37890
G1 X172.32 Y130.58 E408.42499
G1 X172.72 Y129.90 E408.47114
G1 X173.00 Y129.16 E408.51709
G1 X173.16 Y128.38 E408.56297
G1 X173.19 Y127.62 E408.60725
G1 X173.19 Y127.53 E408.61248
G1 X173.10 Y126.81 E408.65480
G1 X172.89 Y126.05 E408.70067
G1 X172.56 Y125.33 E408.74691
G1 X172.10 Y124.68 E408.79271
G1 X171.56 Y124.10 E408.83897
G1 X170.93 Y123.63 E408.88498
G1 X170.23 Y123.26 E408.93074
G1 X169.48 Y123.01 E408.97699
G1 X168.70 Y122.88 E409.02272
G1 X167.94 Y122.87 E409.06672
G1 X167.85 Y122.88 E409.07195
G1 X167.13 Y123.00 E409.11476
G1 X166.38 Y123.25 E409.16064
G1 X165.67 Y123.61 E409.20662
G1 X165.04 Y124.08 E409.25253
G1 X164.49 Y124.65 E409.29881
G1 X164.04 Y125.30 E409.34444
G1 X163.70 Y126.01 E409.39059
G1 X163.47 Y126.77 E409.43664
G1 X163.38 Y127.52 E409.48044
G1 X163.37 Y127.61 E409.48551
G1 X163.40 Y128.35 E409.52843
G1 X163.56 Y129.12 E409.57454
G1 X163.82 Y129.83 E409.61864
G1 X164.23 Y130.55 E409.66658
G1 X164.72 Y131.16 E409.71238
G1 X165.31 Y131.69 E409.75848
G1 X165.96 Y132.10 E409.80250
G1 X166.04 Y132.14 E409.80785
G1 X166.71 Y132.43 E409.85047
G1 X167.47 Y132.62 E409.89622
G0 F12000 X157.75 Y134.55
G1 F2700 X157.75 Y128.00 E410.27657
G1 X157.75 Y127.74 E410.29180
G1 X157.79 Y126.75 E410.34963
G1 X157.95 Y125.72 E410.40978
G1 X158.20 Y124.70 E410.47072
G1 X158.54 Y123.75 E410.52984
G1 X158.99 Y122.80 E410.59070
G1 X159.52 Y121.92 E410.65047
G1 X160.14 Y121.09 E410.71066
G1 X160.83 Y120.32 E410.77075
G1 X161.60 Y119.63 E410.83072
G1 X162.43 Y119.01 E410.89126
G1 X163.32 Y118.48 E410.95118
G1 X164.26 Y118.03 E411.01166
G1 X165.22 Y117.69 E411.07091
G1 X166.23 Y117.43 E411.13140
G1 X167.25 Y117.29 E411.19153
G1 X168.29 Y117.23 E411.25183
G1 X169.31 Y117.29 E411.31172
G1 X170.34 Y117.43 E411.37191
G1 X171.34 Y117.69 E411.43204
G1 X172.32 Y118.03 E411.49225
G1 X173.26 Y118.48 E411.55262
G1 X174.13 Y119.01 E411.61197
G1 X174.97 Y119.63 E411.67280
G1 X175.74 Y120.32 E411.73259
G1 X176.43 Y121.08 E411.79247
G1 X177.05 Y121.92 E411.85341
G1 X177.58 Y122.80 E411.91271
G1 X178.02 Y123.75 E411.97354
G1 X178.37 Y124.71 E412.03306
G1 X178.62 Y125.72 E412.09334
G1 X178.77 Y126.75 E412.15382
G1 X178.82 Y127.79 E412.21440
G1 X178.82 Y134.29 E412.59249
G1 X178.82 Y134.57 E412.60859
G1 X178.88 Y135.34 E412.65324
G1 X179.08 Y136.12 E412.70057
G1 X179.39 Y136.88 E412.74787
G1 X179.81 Y137.57 E412.79508
G1 X180.34 Y138.19 E412.84257
G1 X180.97 Y138.72 E412.89007
G1 X181.66 Y139.15 E412.93722
G1 X182.41 Y139.46 E412.98454
G1 X183.21 Y139.65 E413.03216
G1 X183.99 Y139.71 E413.07792
G1 X197.46 Y139.71 E413.86059
G1 X197.62 Y139.74 E413.87011
G1 X197.73 Y139.78 E413.87683
G1 X197.80 Y139.84 E413.88231
G1 X197.87 Y139.93 E413.88928
G1 X197.91 Y140.03 E413.89556
G1 X197.94 Y140.18 E413.90420
G1 X197.94 Y164.56 E415.32098
G1 X197.94 Y164.82 E415.33627
G1 X197.91 Y164.97 E415.34536
G1 X197.87 Y165.08 E415.35182
G1 X197.80 Y165.16 E415.35809
G1 X197.71 Y165.23 E415.36476
G1 X197.62 Y165.27 E415.37047
G1 X197.47 Y165.29 E415.37937
G1 X183.99 Y165.29 E416.16286
G1 X183.21 Y165.35 E416.20865
G1 X182.41 Y165.54 E416.25605
G1 X181.66 Y165.86 E416.30332
G1 X180.97 Y166.28 E416.35040
G1 X180.34 Y166.81 E416.39807
G1 X179.81 Y167.43 E416.44569
G1 X179.39 Y168.12 E416.49277
G1 X179.08 Y168.88 E416.53994
G1 X178.88 Y169.67 E416.58754
G1 X178.82 Y170.46 E416.63342
G1 X178.82 Y177.00 E417.01366
G1 X178.82 Y177.25 E417.02813
G1 X178.77 Y178.26 E417.08719
G1 X178.62 Y179.29 E417.14739
G1 X178.37 Y180.28 E417.20708
G1 X178.02 Y181.26 E417.26762
G1 X177.57 Y182.21 E417.32820
G1 X177.05 Y183.08 E417.38764
G1 X176.44 Y183.91 E417.44760
G1 X175.74 Y184.68 E417.50796
G1 X174.97 Y185.38 E417.56808
G1 X174.14 Y185.99 E417.62815
G1 X173.25 Y186.52 E417.68832
G1 X172.32 Y186.97 E417.74835
G1 X171.34 Y187.31 E417.80892
G1 X170.34 Y187.57 E417.86851
G1 X169.31 Y187.72 E417.92906
G1 X168.29 Y187.77 E417.98876
G1 X167.25 Y187.72 E418.04899
G1 X166.22 Y187.57 E418.10948
G1 X165.22 Y187.31 E418.16942
G1 X164.26 Y186.97 E418.22904
G1 X163.31 Y186.52 E418.29003
G1 X162.44 Y186.00 E418.34913
G1 X161.60 Y185.38 E418.40971
G1 X160.83 Y184.68 E418.47000
G1 X160.14 Y183.92 E418.52975
G1 X159.52 Y183.08 E418.59063
G1 X158.99 Y182.20 E418.64973
G1 X158.54 Y181.26 E418.71035
G1 X158.20 Y180.29 E418.77024
G1 X157.95 Y179.28 E418.83090
G1 X157.79 Y178.26 E418.89064
G1 X157.75 Y177.23 E418.95086
G1 X157.75 Y170.71 E419.32975
G1 X157.75 Y170.43 E419.34597
G1 X157.68 Y169.67 E419.39018
G1 X157.49 Y168.88 E419.43765
G1 X157.18 Y168.12 E419.48532
G1 X156.75 Y167.43 E419.53229
G1 X156.23 Y166.81 E419.57964
G1 X155.60 Y166.28 E419.62748
G1 X154.91 Y165.86 E419.67467
G1 X154.16 Y165.55 E419.72170
G1 X153.37 Y165.35 E419.76913
G1 X152.58 Y165.29 E419.81491
G1 X107.64 Y165.29 E422.42698
G1 X107.47 Y165.27 E422.43670
G1 X107.38 Y165.23 E422.44259
G1 X107.30 Y165.16 E422.44868
G1 X107.23 Y165.07 E422.45552
G1 X107.19 Y164.97 E422.46157
G1 X107.17 Y164.82 E422.47047
G1 X107.17 Y140.18 E423.90272
G1 X107.19 Y140.03 E423.91175
G1 X107.23 Y139.92 E423.91824
G1 X107.29 Y139.84 E423.92396
G1 X107.39 Y139.77 E423.93085
G1 X107.48 Y139.73 E423.93677
G1 X107.64 Y139.71 E423.94610
G1 X152.58 Y139.71 E426.55804
G1 X153.36 Y139.65 E426.60380
G1 X154.16 Y139.46 E426.65137
G1 X154.91 Y139.15 E426.69850
G1 X155.60 Y138.72 E426.74580
G1 X156.23 Y138.19 E426.79347
G1 X156.75 Y137.57 E426.84064
G1 X157.18 Y136.88 E426.88778
G1 X157.49 Y136.12 E426.93558
G1 X157.68 Y135.33 E426.98283
G1 X157.75 Y134.55 E427.02867
G0 F12000 X167.13 Y172.45
G1 F2700 X166.38 Y172.70 E427.07454
G1 X165.67 Y173.06 E427.12066
G1 X165.04 Y173.54 E427.16648
G1 X164.49 Y174.10 E427.21243
G1 X164.04 Y174.76 E427.25862
G1 X163.70 Y175.47 E427.30440
G1 X163.47 Y176.23 E427.35058
G1 X163.38 Y176.98 E427.39455
G1 X163.37 Y177.07 E427.39962
G1 X163.40 Y177.80 E427.44231
G1 X163.56 Y178.58 E427.48842
G1 X163.82 Y179.29 E427.53252
G1 X164.23 Y180.01 E427.58046
G1 X164.72 Y180.62 E427.62630
G1 X165.31 Y181.15 E427.67228
G1 X165.95 Y181.55 E427.71632
G1 X166.04 Y181.60 E427.72173
G1 X166.71 Y181.88 E427.76434
G1 X167.47 Y182.08 E427.81009
G1 X168.23 Y182.14 E427.85418
G1 X168.32 Y182.15 E427.85947
G1 X169.05 Y182.09 E427.90216
G1 X169.82 Y181.90 E427.94820
G1 X170.55 Y181.59 E427.99408
G1 X171.22 Y181.17 E428.03983
G1 X171.82 Y180.65 E428.08601
G1 X172.32 Y180.04 E428.13210
G1 X172.72 Y179.35 E428.17826
G1 X173.00 Y178.61 E428.22421
G1 X173.16 Y177.84 E428.27009
G1 X173.19 Y177.08 E428.31413
G1 X173.19 Y176.99 E428.31936
G1 X173.11 Y176.27 E428.36191
G1 X172.89 Y175.51 E428.40785
G1 X172.56 Y174.79 E428.45372
G1 X172.10 Y174.13 E428.50010
G1 X171.56 Y173.56 E428.54593
G1 X170.93 Y173.09 E428.59194
G1 X170.23 Y172.72 E428.63783
G1 X169.48 Y172.46 E428.68408
G1 X168.70 Y172.33 E428.72981
G1 X167.94 Y172.33 E428.77381
G1 X167.85 Y172.33 E428.77905
G1 X167.13 Y172.45 E428.82185
G0 F12000 X167.24 Y172.91
;TYPE:WALL-OUTER
G1 F2700 X166.56 Y173.13 E428.86345
G1 X165.92 Y173.46 E428.90512
G1 X165.35 Y173.89 E428.94663
G1 X164.85 Y174.40 E428.98818
G1 X164.44 Y174.99 E429.02995
G1 X164.13 Y175.63 E429.07144
G1 X163.93 Y176.32 E429.11319
G1 X163.84 Y177.02 E429.15412
G1 X163.84 Y177.07 E429.15709
G1 X163.86 Y177.75 E429.19617
G1 X164.01 Y178.45 E429.23788
G1 X164.25 Y179.11 E429.27882
G1 X164.61 Y179.74 E429.32117
G1 X165.06 Y180.30 E429.36271
G1 X165.60 Y180.77 E429.40429
G1 X166.19 Y181.15 E429.44508
G1 X166.86 Y181.44 E429.48757
G1 X167.55 Y181.62 E429.52906
G1 X168.26 Y181.68 E429.57018
G1 X168.31 Y181.68 E429.57320
G1 X168.98 Y181.62 E429.61221
G1 X169.68 Y181.45 E429.65395
G1 X170.34 Y181.18 E429.69553
G1 X170.94 Y180.80 E429.73695
G1 X171.48 Y180.32 E429.77877
G1 X171.94 Y179.77 E429.82040
G1 X172.30 Y179.15 E429.86212
G1 X172.55 Y178.48 E429.90372
G1 X172.70 Y177.78 E429.94527
G1 X172.73 Y177.08 E429.98611
G1 X172.73 Y177.03 E429.98913
G1 X172.65 Y176.36 E430.02835
G1 X172.45 Y175.67 E430.06998
G1 X172.15 Y175.02 E430.11148
G1 X171.74 Y174.43 E430.15338
G1 X171.25 Y173.91 E430.19486
G1 X170.68 Y173.48 E430.23656
G1 X170.04 Y173.14 E430.27805
G1 X169.36 Y172.91 E430.31989
G1 X168.66 Y172.80 E430.36125
G1 X167.96 Y172.79 E430.40223
G1 X167.90 Y172.80 E430.40526
G1 X167.24 Y172.91 E430.44453
G0 F12000 X167.18 Y172.58
G0 X157.61 Y170.42
G0 X157.28 Y170.45
G1 F2700 X157.22 Y169.75 E430.48570
G1 X157.05 Y169.02 E430.52889
G1 X156.76 Y168.34 E430.57218
G1 X156.37 Y167.71 E430.61509
G1 X155.90 Y167.14 E430.65815
G1 X155.33 Y166.66 E430.70157
G1 X154.69 Y166.27 E430.74454
G1 X154.01 Y165.99 E430.78743
G1 X153.29 Y165.81 E430.83066
G1 X152.56 Y165.75 E430.87318
G1 X107.61 Y165.75 E433.48612
G1 X107.35 Y165.72 E433.50106
G1 X107.14 Y165.63 E433.51428
G1 X106.96 Y165.50 E433.52729
G1 X106.82 Y165.30 E433.54136
G1 X106.73 Y165.09 E433.55446
G1 X106.70 Y164.85 E433.56852
G1 X106.70 Y140.15 E435.00466
G1 X106.73 Y139.90 E435.01880
G1 X106.82 Y139.69 E435.03245
G1 X106.96 Y139.51 E435.04559
G1 X107.15 Y139.37 E435.05934
G1 X107.36 Y139.28 E435.07234
G1 X107.61 Y139.25 E435.08683
G1 X152.56 Y139.25 E437.69971
G1 X153.29 Y139.19 E437.74226
G1 X154.01 Y139.01 E437.78551
G1 X154.69 Y138.73 E437.82840
G1 X155.33 Y138.34 E437.87152
G1 X155.90 Y137.86 E437.91485
G1 X156.37 Y137.30 E437.95778
G1 X156.76 Y136.67 E438.00068
G1 X157.05 Y135.98 E438.04420
G1 X157.22 Y135.26 E438.08715
G1 X157.28 Y134.53 E438.12984
G1 X157.28 Y127.75 E438.52385
G1 X157.33 Y126.69 E438.58529
G1 X157.49 Y125.63 E438.64772
G1 X157.75 Y124.56 E438.71148
G1 X158.11 Y123.56 E438.77322
G1 X158.58 Y122.59 E438.83621
G1 X159.13 Y121.66 E438.89895
G1 X159.78 Y120.79 E438.96175
G1 X160.50 Y119.99 E439.02456
G1 X161.30 Y119.27 E439.08741
G1 X162.17 Y118.62 E439.15028
G1 X163.09 Y118.07 E439.21266
G1 X164.09 Y117.60 E439.27654
G1 X165.08 Y117.24 E439.33799
G1 X166.13 Y116.98 E439.40099
G1 X167.20 Y116.82 E439.46395
G1 X168.29 Y116.77 E439.52692
G1 X169.36 Y116.82 E439.58949
G1 X170.43 Y116.98 E439.65250
G1 X171.48 Y117.24 E439.71495
G1 X172.50 Y117.60 E439.77782
G1 X173.48 Y118.07 E439.84134
G1 X174.39 Y118.62 E439.90314
G1 X175.27 Y119.27 E439.96630
G1 X176.07 Y119.99 E440.02897
G1 X176.79 Y120.79 E440.09190
G1 X177.44 Y121.66 E440.15474
G1 X177.99 Y122.58 E440.21675
G1 X178.46 Y123.57 E440.28092
G1 X178.82 Y124.57 E440.34271
G1 X179.08 Y125.63 E440.40574
G1 X179.24 Y126.70 E440.46870
G1 X179.29 Y127.78 E440.53189
G1 X179.29 Y134.55 E440.92509
G1 X179.35 Y135.26 E440.96654
G1 X179.53 Y135.98 E441.00962
G1 X179.81 Y136.67 E441.05284
G1 X180.19 Y137.30 E441.09572
G1 X180.68 Y137.86 E441.13888
G1 X181.24 Y138.34 E441.18217
G1 X181.87 Y138.73 E441.22510
G1 X182.56 Y139.01 E441.26814
G1 X183.28 Y139.19 E441.31145
G1 X184.01 Y139.25 E441.35400
G1 X197.49 Y139.25 E442.13755
G1 X197.75 Y139.28 E442.15258
G1 X197.96 Y139.37 E442.16598
G1 X198.14 Y139.51 E442.17899
G1 X198.28 Y139.70 E442.19289
G1 X198.37 Y139.91 E442.20610
G1 X198.40 Y140.15 E442.22030
G1 X198.40 Y164.85 E443.65598
G1 X198.37 Y165.10 E443.67072
G1 X198.28 Y165.31 E443.68379
G1 X198.13 Y165.50 E443.69734
G1 X197.95 Y165.64 E443.71098
G1 X197.74 Y165.72 E443.72419
G1 X197.50 Y165.75 E443.73807
G1 X184.01 Y165.75 E444.52231
G1 X183.28 Y165.81 E444.56483
G1 X182.56 Y165.99 E444.60807
G1 X181.87 Y166.27 E444.65117
G1 X181.24 Y166.66 E444.69397
G1 X180.68 Y167.14 E444.73730
G1 X180.19 Y167.71 E444.78060
G1 X179.81 Y168.34 E444.82340
G1 X179.53 Y169.02 E444.86648
G1 X179.35 Y169.75 E444.90984
G1 X179.29 Y170.47 E444.95239
G1 X179.29 Y177.25 E445.34628
G1 X179.24 Y178.31 E445.40791
G1 X179.08 Y179.38 E445.47064
G1 X178.82 Y180.43 E445.53339
G1 X178.46 Y181.43 E445.59540
G1 X177.99 Y182.42 E445.65905
G1 X177.44 Y183.34 E445.72166
G1 X176.79 Y184.21 E445.78436
G1 X176.07 Y185.01 E445.84715
G1 X175.26 Y185.74 E445.91003
G1 X174.40 Y186.38 E445.97267
G1 X173.47 Y186.93 E446.03534
G1 X172.50 Y187.40 E446.09833
G1 X171.48 Y187.76 E446.16108
G1 X170.43 Y188.03 E446.22389
G1 X169.36 Y188.18 E446.28673
G1 X168.29 Y188.23 E446.34923
G1 X167.20 Y188.18 E446.41225
G1 X166.13 Y188.03 E446.47503
G1 X165.08 Y187.76 E446.53851
G1 X164.08 Y187.40 E446.59980
G1 X163.09 Y186.93 E446.66342
G1 X162.17 Y186.38 E446.72604
G1 X161.30 Y185.74 E446.78873
G1 X160.50 Y185.01 E446.85174
