;-- START GCODE --
;Sliced for Type A Machines Series 1
;Sliced at: Thu 03-09-2015 23:41:44
;Basic settings: Layer height: 0.3 Walls: 1.4 Fill: 25
;Print Speed: 50 Support: 0
;Retraction Speed: 40 Retraction Distance: 1.2
;Print time: #P_TIME#
;Filament used: #F_AMNT#m #F_WGHT#g
;Filament cost: #F_COST#
M106 S255	 ;start with the fan on
G21        ;metric values
G90        ;absolute positioning
M106 S255    ;start with the fan on
G28     ;move to endstops
G29		;allows for auto-levelling
G1 X150 Y5  Z15.0 F12000 ;center and move the platform down 15mm
M109 S220 ;Heat To temp
G92 E0                  ;zero the extruded length
G1 F200 E30              ;extrude 30mm of feed stock
G92 E0                  ;zero the extruded length again
G1 X175 Y25  Z0 F12000 ;remove bugger
G1 X220 F12000 ;remove bugger
G1 X150 Y150  Z15 F12000 ;recenter and begin
G1 F12000

;Layer count: 56
;LAYER:0
M106 S255
G0 F12000 X123.25 Y139.35 Z0.30
;TYPE:SKIRT
G1 F2700 X125.25 Y137.88 E0.14408
G1 X127.44 Y136.95 E0.28263
G1 X129.39 Y136.67 E0.39669
G1 X146.11 Y136.67 E1.36855
G1 X146.30 Y135.89 E1.41549
G1 X146.79 Y134.50 E1.50100
G1 X147.42 Y133.20 E1.58499
G1 X148.16 Y131.96 E1.66876
G1 X149.01 Y130.82 E1.75145
G1 X149.98 Y129.73 E1.83645
G1 X151.07 Y128.75 E1.92178
G1 X152.20 Y127.91 E2.00329
G1 X153.44 Y127.17 E2.08741
G1 X154.77 Y126.54 E2.17268
G1 X156.12 Y126.06 E2.25601
G1 X157.53 Y125.70 E2.34048
G1 X158.95 Y125.50 E2.42405
G1 X160.39 Y125.42 E2.50815
G1 X161.83 Y125.50 E2.59191
G1 X163.25 Y125.70 E2.67536
G1 X164.66 Y126.06 E2.75952
G1 X166.01 Y126.53 E2.84296
G1 X167.34 Y127.17 E2.92855
G1 X168.58 Y127.91 E3.01267
G1 X169.72 Y128.75 E3.09481
G1 X170.80 Y129.73 E3.17934
G1 X171.77 Y130.81 E3.26379
G1 X172.63 Y131.96 E3.34719
G1 X173.37 Y133.21 E3.43179
G1 X173.98 Y134.49 E3.51442
G1 X174.47 Y135.85 E3.59817
G1 X174.68 Y136.67 E3.64742
G1 X175.72 Y136.67 E3.70804
G1 X177.66 Y136.98 E3.82209
G1 X179.90 Y137.92 E3.96314
G1 X181.91 Y139.47 E4.11100
G1 X183.46 Y141.51 E4.25996
G1 X184.38 Y143.79 E4.40261
G1 X184.65 Y145.68 E4.51350
G1 X184.65 Y158.39 E5.25258
G1 X184.65 Y159.39 E5.31059
G1 X184.35 Y161.33 E5.42487
G1 X183.38 Y163.62 E5.56959
G1 X181.84 Y165.60 E5.71505
G1 X179.85 Y167.11 E5.86032
G1 X177.51 Y168.08 E6.00778
G1 X175.58 Y168.33 E6.12046
G1 X174.68 Y168.33 E6.17312
G1 X174.47 Y169.15 E6.22238
G1 X173.98 Y170.50 E6.30591
G1 X173.37 Y171.80 E6.38931
G1 X172.63 Y173.04 E6.47299
G1 X171.77 Y174.20 E6.55697
G1 X170.80 Y175.27 E6.64107
G1 X169.72 Y176.24 E6.72518
G1 X168.56 Y177.10 E6.80916
G1 X167.33 Y177.84 E6.89284
G1 X166.01 Y178.47 E6.97759
G1 X164.67 Y178.94 E7.06010
G1 X163.27 Y179.30 E7.14428
G1 X161.82 Y179.51 E7.22961
G1 X160.39 Y179.58 E7.31242
G1 X158.97 Y179.51 E7.39558
G1 X157.51 Y179.30 E7.48102
G1 X156.10 Y178.94 E7.56550
G1 X154.77 Y178.46 E7.64792
G1 X153.45 Y177.84 E7.73236
G1 X152.22 Y177.10 E7.81604
G1 X151.06 Y176.25 E7.89940
G1 X149.98 Y175.27 E7.98430
G1 X149.01 Y174.19 E8.06891
G1 X148.15 Y173.04 E8.15222
G1 X147.42 Y171.81 E8.23504
G1 X146.79 Y170.50 E8.31985
G1 X146.30 Y169.12 E8.40507
G1 X146.11 Y168.33 E8.45208
G1 X129.44 Y168.33 E9.42104
G1 X127.41 Y168.06 E9.53999
G1 X125.06 Y167.03 E9.68885
G1 X123.12 Y165.51 E9.83220
G1 X121.63 Y163.53 E9.97610
G1 X120.64 Y161.18 E10.12446
G1 X120.40 Y159.23 E10.23873
G1 X120.40 Y145.68 E11.02588
G1 X120.67 Y143.72 E11.14124
G1 X121.67 Y141.37 E11.28941
G1 X123.25 Y139.35 E11.43852
G0 F12000 X123.58 Y139.69
G1 F2700 X125.48 Y138.28 E11.57569
G1 X127.57 Y137.41 E11.70752
G1 X129.42 Y137.14 E11.81619
G1 X146.47 Y137.14 E12.80728
G1 X146.75 Y136.02 E12.87410
G1 X147.22 Y134.68 E12.95683
G1 X147.83 Y133.42 E13.03817
G1 X148.54 Y132.22 E13.11926
G1 X149.37 Y131.11 E13.19938
G1 X150.31 Y130.06 E13.28166
G1 X151.37 Y129.11 E13.36427
G1 X152.46 Y128.30 E13.44325
G1 X153.66 Y127.58 E13.52471
G1 X154.94 Y126.97 E13.60728
G1 X156.25 Y126.50 E13.68791
G1 X157.62 Y126.16 E13.76973
G1 X158.99 Y125.96 E13.85060
G1 X160.39 Y125.89 E13.93208
G1 X161.79 Y125.96 E14.01316
G1 X163.16 Y126.16 E14.09397
G1 X164.52 Y126.50 E14.17543
G1 X165.83 Y126.97 E14.25626
G1 X167.12 Y127.58 E14.33909
G1 X168.32 Y128.30 E14.42055
G1 X169.42 Y129.12 E14.50011
G1 X170.47 Y130.06 E14.58197
G1 X171.41 Y131.10 E14.66375
G1 X172.24 Y132.22 E14.74452
G1 X172.96 Y133.43 E14.82642
G1 X173.55 Y134.67 E14.90642
G1 X174.02 Y135.98 E14.98750
G1 X174.31 Y137.14 E15.05653
G1 X175.68 Y137.14 E15.13616
G1 X177.53 Y137.43 E15.24486
G1 X179.66 Y138.32 E15.37908
G1 X181.58 Y139.80 E15.51977
G1 X183.05 Y141.75 E15.66155
G1 X183.93 Y143.91 E15.79727
G1 X184.19 Y145.71 E15.90293
G1 X184.19 Y158.39 E16.64004
G1 X184.18 Y159.35 E16.69601
G1 X183.90 Y161.21 E16.80488
G1 X182.97 Y163.38 E16.94257
G1 X181.51 Y165.26 E17.08103
G1 X179.61 Y166.70 E17.21934
G1 X177.38 Y167.63 E17.35963
G1 X175.55 Y167.86 E17.46698
G1 X174.31 Y167.86 E17.53893
G1 X174.02 Y169.02 E17.60799
G1 X173.55 Y170.32 E17.68887
G1 X172.96 Y171.58 E17.76962
G1 X172.24 Y172.78 E17.85067
G1 X171.41 Y173.90 E17.93203
G1 X170.47 Y174.94 E18.01342
G1 X169.43 Y175.88 E18.09481
G1 X168.31 Y176.71 E18.17617
G1 X167.11 Y177.43 E18.25722
G1 X165.83 Y178.03 E18.33927
G1 X164.54 Y178.49 E18.41918
G1 X163.18 Y178.84 E18.50072
G1 X161.77 Y179.04 E18.58329
G1 X160.39 Y179.11 E18.66348
G1 X159.01 Y179.04 E18.74402
G1 X157.60 Y178.84 E18.82671
G1 X156.24 Y178.49 E18.90854
G1 X154.94 Y178.03 E18.98830
G1 X153.67 Y177.43 E19.07010
G1 X152.48 Y176.71 E19.15115
G1 X151.36 Y175.89 E19.23184
G1 X150.31 Y174.94 E19.31407
G1 X149.37 Y173.89 E19.39600
G1 X148.54 Y172.78 E19.47665
G1 X147.83 Y171.59 E19.55690
G1 X147.22 Y170.32 E19.63900
G1 X146.75 Y168.98 E19.72150
G1 X146.47 Y167.86 E19.78835
G1 X129.47 Y167.86 E20.77660
G1 X127.54 Y167.60 E20.88991
G1 X125.30 Y166.62 E21.03160
G1 X123.45 Y165.18 E21.16803
G1 X122.03 Y163.30 E21.30495
G1 X121.09 Y161.06 E21.44618
G1 X120.87 Y159.20 E21.55500
G1 X120.87 Y145.72 E22.33866
G1 X121.13 Y143.84 E22.44857
G1 X122.08 Y141.61 E22.58955
G1 X123.58 Y139.69 E22.73141
G0 F12000 X123.91 Y140.03
G1 F2700 X125.71 Y138.69 E22.86164
G1 X127.70 Y137.86 E22.98681
G1 X129.45 Y137.60 E23.09000
G1 X146.85 Y137.60 E24.10127
G1 X146.88 Y137.45 E24.11026
G1 X147.19 Y136.15 E24.18780
G1 X147.66 Y134.86 E24.26775
G1 X148.24 Y133.64 E24.34644
G1 X148.93 Y132.48 E24.42490
G1 X149.73 Y131.41 E24.50240
G1 X150.64 Y130.39 E24.58196
G1 X151.66 Y129.47 E24.66182
G1 X152.72 Y128.69 E24.73829
G1 X153.88 Y127.99 E24.81704
G1 X155.12 Y127.40 E24.89688
G1 X156.39 Y126.95 E24.97494
G1 X157.71 Y126.62 E25.05400
G1 X159.04 Y126.42 E25.13228
G1 X160.39 Y126.35 E25.21109
G1 X161.74 Y126.42 E25.28954
G1 X163.07 Y126.62 E25.36771
G1 X164.39 Y126.95 E25.44647
G1 X165.66 Y127.40 E25.52467
G1 X166.90 Y127.99 E25.60478
G1 X168.06 Y128.69 E25.68352
G1 X169.12 Y129.48 E25.76055
G1 X170.14 Y130.39 E25.83969
G1 X171.05 Y131.40 E25.91879
G1 X171.85 Y132.48 E25.99692
G1 X172.55 Y133.65 E26.07618
G1 X173.12 Y134.85 E26.15358
G1 X173.58 Y136.12 E26.23201
G1 X173.92 Y137.47 E26.31291
G1 X173.94 Y137.60 E26.32061
G1 X175.65 Y137.60 E26.42000
G1 X177.40 Y137.88 E26.52328
G1 X179.42 Y138.73 E26.65072
G1 X181.24 Y140.13 E26.78425
G1 X182.64 Y141.98 E26.91885
G1 X183.48 Y144.03 E27.04769
G1 X183.72 Y145.74 E27.14808
G1 X183.72 Y158.39 E27.88321
G1 X183.72 Y159.32 E27.93714
G1 X183.45 Y161.08 E28.04061
G1 X182.57 Y163.15 E28.17129
G1 X181.18 Y164.93 E28.30271
G1 X179.38 Y166.30 E28.43400
G1 X177.26 Y167.18 E28.56717
G1 X175.52 Y167.40 E28.66918
G1 X173.94 Y167.40 E28.76142
G1 X173.92 Y167.54 E28.76976
G1 X173.58 Y168.88 E28.85008
G1 X173.12 Y170.15 E28.92831
G1 X172.55 Y171.36 E29.00641
G1 X171.85 Y172.52 E29.08483
G1 X171.05 Y173.61 E29.16349
G1 X170.14 Y174.61 E29.24225
G1 X169.13 Y175.52 E29.32100
G1 X168.05 Y176.32 E29.39966
G1 X166.89 Y177.02 E29.47808
G1 X165.66 Y177.60 E29.55741
G1 X164.40 Y178.05 E29.63474
G1 X163.09 Y178.38 E29.71357
G1 X161.73 Y178.58 E29.79344
G1 X160.39 Y178.65 E29.87107
G1 X159.06 Y178.58 E29.94894
G1 X157.69 Y178.38 E30.02892
G1 X156.37 Y178.05 E30.10805
G1 X155.12 Y177.60 E30.18524
G1 X153.89 Y177.02 E30.26431
G1 X152.74 Y176.32 E30.34272
G1 X151.66 Y175.53 E30.42081
G1 X150.64 Y174.61 E30.50031
G1 X149.73 Y173.60 E30.57953
G1 X148.93 Y172.52 E30.65757
G1 X148.24 Y171.37 E30.73518
G1 X147.65 Y170.14 E30.81462
G1 X147.19 Y168.85 E30.89437
G1 X146.88 Y167.56 E30.97132
G1 X146.85 Y167.40 E30.98091
G1 X129.50 Y167.40 E31.98944
G1 X127.66 Y167.15 E32.09713
G1 X125.55 Y166.22 E32.23158
G1 X123.79 Y164.85 E32.36109
G1 X122.44 Y163.06 E32.49109
G1 X121.54 Y160.94 E32.62510
G1 X121.33 Y159.17 E32.72853
G1 X121.33 Y145.75 E33.50870
G1 X121.58 Y143.97 E33.61309
G1 X122.48 Y141.85 E33.74694
G1 X123.91 Y140.03 E33.88155
G0 F12000 X124.24 Y140.36
G1 F2700 X125.94 Y139.10 E34.00484
G1 X127.82 Y138.31 E34.12331
G1 X129.49 Y138.07 E34.22111
G1 X147.25 Y138.07 E35.25365
G1 X147.33 Y137.54 E35.28469
G1 X147.64 Y136.29 E35.35960
G1 X148.09 Y135.04 E35.43683
G1 X148.65 Y133.86 E35.51287
G1 X149.32 Y132.74 E35.58870
G1 X150.09 Y131.70 E35.66354
G1 X150.97 Y130.72 E35.74043
G1 X151.96 Y129.83 E35.81756
G1 X152.98 Y129.07 E35.89147
G1 X154.10 Y128.40 E35.96759
G1 X155.30 Y127.83 E36.04468
G1 X156.52 Y127.40 E36.12007
G1 X157.80 Y127.07 E36.19650
G1 X159.09 Y126.89 E36.27214
G1 X160.39 Y126.82 E36.34821
G1 X161.70 Y126.89 E36.42405
G1 X162.98 Y127.07 E36.49957
G1 X164.25 Y127.39 E36.57571
G1 X165.48 Y127.83 E36.65124
G1 X166.68 Y128.40 E36.72859
G1 X167.80 Y129.07 E36.80471
G1 X168.83 Y129.84 E36.87915
G1 X169.81 Y130.72 E36.95558
G1 X170.69 Y131.69 E37.03200
G1 X171.46 Y132.74 E37.10747
G1 X172.14 Y133.87 E37.18402
G1 X172.69 Y135.03 E37.25887
G1 X173.13 Y136.26 E37.33464
G1 X173.46 Y137.56 E37.41278
G1 X173.53 Y138.07 E37.44254
G1 X175.61 Y138.07 E37.56332
G1 X177.27 Y138.33 E37.66124
G1 X179.19 Y139.13 E37.78188
G1 X180.91 Y140.46 E37.90824
G1 X182.23 Y142.21 E38.03562
G1 X183.02 Y144.15 E38.15757
G1 X183.25 Y145.77 E38.25267
G1 X183.25 Y158.39 E38.98588
G1 X183.25 Y159.28 E39.03779
G1 X183.00 Y160.95 E39.13584
G1 X182.16 Y162.91 E39.25957
G1 X180.85 Y164.59 E39.38391
G1 X179.15 Y165.89 E39.50824
G1 X177.14 Y166.72 E39.63422
G1 X175.49 Y166.93 E39.73085
G1 X173.53 Y166.93 E39.84488
G1 X173.46 Y167.45 E39.87524
G1 X173.13 Y168.74 E39.95281
G1 X172.69 Y169.97 E40.02841
G1 X172.13 Y171.14 E40.10391
G1 X171.47 Y172.26 E40.17967
G1 X170.69 Y173.31 E40.25567
G1 X169.81 Y174.28 E40.33175
G1 X168.84 Y175.16 E40.40783
G1 X167.79 Y175.94 E40.48383
G1 X166.67 Y176.61 E40.55959
G1 X165.48 Y177.17 E40.63623
G1 X164.26 Y177.60 E40.71098
G1 X163.00 Y177.93 E40.78711
G1 X161.68 Y178.12 E40.86428
G1 X160.39 Y178.18 E40.93929
G1 X159.10 Y178.12 E41.01459
G1 X157.78 Y177.93 E41.09181
G1 X156.51 Y177.60 E41.16819
G1 X155.30 Y177.17 E41.24285
G1 X154.11 Y176.61 E41.31923
G1 X153.00 Y175.94 E41.39499
G1 X151.95 Y175.16 E41.47041
G1 X150.97 Y174.28 E41.54724
G1 X150.09 Y173.30 E41.62378
G1 X149.32 Y172.26 E41.69916
G1 X148.65 Y171.15 E41.77418
G1 X148.09 Y169.96 E41.85088
G1 X147.64 Y168.71 E41.92796
G1 X147.33 Y167.47 E42.00229
G1 X147.25 Y166.93 E42.03392
G1 X129.53 Y166.93 E43.06384
G1 X127.79 Y166.70 E43.16590
G1 X125.79 Y165.81 E43.29319
G1 X124.12 Y164.52 E43.41571
G1 X122.85 Y162.83 E43.53886
G1 X122.00 Y160.82 E43.66566
G1 X121.80 Y159.14 E43.76359
G1 X121.80 Y145.78 E44.54028
G1 X122.03 Y144.09 E44.63921
G1 X122.89 Y142.09 E44.76595
G1 X124.24 Y140.36 E44.89331
G0 F12000 X124.57 Y140.70
G1 F2700 X126.18 Y139.51 E45.00966
G1 X127.95 Y138.76 E45.12141
G1 X129.52 Y138.53 E45.21380
G1 X147.65 Y138.53 E46.26767
G1 X147.79 Y137.63 E46.32070
G1 X148.09 Y136.42 E46.39307
G1 X148.52 Y135.22 E46.46754
G1 X149.06 Y134.08 E46.54096
G1 X149.71 Y133.00 E46.61407
G1 X150.45 Y132.00 E46.68634
G1 X151.30 Y131.05 E46.76051
G1 X152.25 Y130.19 E46.83493
G1 X153.24 Y129.46 E46.90631
G1 X154.32 Y128.81 E46.97971
G1 X155.48 Y128.26 E47.05410
G1 X156.66 Y127.84 E47.12690
G1 X157.89 Y127.53 E47.20056
G1 X159.13 Y127.35 E47.27356
G1 X160.39 Y127.29 E47.34701
G1 X161.65 Y127.35 E47.42017
G1 X162.89 Y127.53 E47.49312
G1 X164.12 Y127.84 E47.56655
G1 X165.30 Y128.26 E47.63944
G1 X166.46 Y128.81 E47.71408
G1 X167.54 Y129.46 E47.78748
G1 X168.53 Y130.20 E47.85939
G1 X169.48 Y131.05 E47.93310
G1 X170.33 Y131.99 E48.00685
G1 X171.07 Y133.00 E48.07970
G1 X171.73 Y134.09 E48.15355
G1 X172.26 Y135.21 E48.22577
G1 X172.69 Y136.39 E48.29889
G1 X173.00 Y137.65 E48.37427
G1 X173.13 Y138.53 E48.42612
G1 X175.57 Y138.53 E48.56817
G1 X177.14 Y138.78 E48.66068
G1 X178.95 Y139.54 E48.77455
G1 X180.57 Y140.79 E48.89374
G1 X181.82 Y142.44 E49.01398
G1 X182.57 Y144.28 E49.12902
G1 X182.79 Y145.81 E49.21884
G1 X182.79 Y158.39 E49.95013
G1 X182.78 Y159.25 E49.99994
G1 X182.54 Y160.82 E50.09259
G1 X181.76 Y162.67 E50.20931
G1 X180.52 Y164.26 E50.32662
G1 X178.91 Y165.48 E50.44393
G1 X177.02 Y166.27 E50.56281
G1 X175.46 Y166.47 E50.65410
G1 X173.13 Y166.47 E50.78987
G1 X173.00 Y167.36 E50.84230
G1 X172.69 Y168.61 E50.91711
G1 X172.26 Y169.79 E50.99007
G1 X171.72 Y170.92 E51.06292
G1 X171.08 Y172.00 E51.13604
G1 X170.33 Y173.01 E51.20938
G1 X169.48 Y173.95 E51.28278
G1 X168.54 Y174.80 E51.35619
G1 X167.53 Y175.55 E51.42953
G1 X166.45 Y176.20 E51.50265
G1 X165.30 Y176.74 E51.57659
G1 X164.13 Y177.16 E51.64875
G1 X162.90 Y177.47 E51.72224
G1 X161.64 Y177.65 E51.79664
G1 X160.39 Y177.71 E51.86903
G1 X159.14 Y177.65 E51.94172
G1 X157.88 Y177.47 E52.01619
G1 X156.65 Y177.15 E52.08993
G1 X155.48 Y176.74 E52.16197
G1 X154.33 Y176.20 E52.23565
G1 X153.25 Y175.55 E52.30878
G1 X152.25 Y174.80 E52.38162
G1 X151.30 Y173.95 E52.45569
G1 X150.45 Y173.01 E52.52952
G1 X149.71 Y172.00 E52.60228
G1 X149.06 Y170.93 E52.67467
G1 X148.52 Y169.78 E52.74872
G1 X148.09 Y168.58 E52.82302
G1 X147.79 Y167.38 E52.89483
G1 X147.65 Y166.47 E52.94845
G1 X129.56 Y166.47 E53.99988
G1 X127.92 Y166.24 E54.09630
G1 X126.03 Y165.41 E54.21636
G1 X124.46 Y164.19 E54.33196
G1 X123.25 Y162.59 E54.44814
G1 X122.45 Y160.70 E54.56774
G1 X122.27 Y159.12 E54.66029
G1 X122.27 Y145.81 E55.43349
G1 X122.49 Y144.22 E55.52696
G1 X123.29 Y142.33 E55.64652
G1 X124.57 Y140.70 E55.76667
G0 F12000 X124.89 Y141.04
G1 F2700 X126.41 Y139.92 E55.87604
G1 X128.07 Y139.22 E55.98110
G1 X129.56 Y139.00 E56.06809
G1 X148.06 Y139.00 E57.14340
G1 X148.06 Y138.97 E57.14509
G1 X148.25 Y137.72 E57.21846
G1 X148.53 Y136.56 E57.28821
G1 X148.95 Y135.40 E57.35997
G1 X149.47 Y134.30 E57.43068
G1 X150.09 Y133.25 E57.50121
G1 X150.81 Y132.29 E57.57086
G1 X151.63 Y131.38 E57.64232
G1 X152.55 Y130.56 E57.71398
G1 X153.50 Y129.85 E57.78282
G1 X154.54 Y129.22 E57.85360
G1 X155.66 Y128.69 E57.92522
G1 X156.79 Y128.29 E57.99536
G1 X157.98 Y127.99 E58.06639
G1 X159.18 Y127.82 E58.13675
G1 X160.39 Y127.75 E58.20752
G1 X161.60 Y127.82 E58.27801
G1 X162.80 Y127.99 E58.34830
G1 X163.98 Y128.29 E58.41910
G1 X165.12 Y128.69 E58.48934
G1 X166.24 Y129.22 E58.56120
G1 X167.28 Y129.85 E58.63197
G1 X168.24 Y130.56 E58.70131
G1 X169.15 Y131.38 E58.77239
G1 X169.97 Y132.29 E58.84338
G1 X170.69 Y133.25 E58.91357
G1 X171.31 Y134.31 E58.98473
G1 X171.83 Y135.39 E59.05441
G1 X172.24 Y136.53 E59.12488
G1 X172.54 Y137.74 E59.19738
G1 X172.72 Y138.94 E59.26813
G1 X172.72 Y139.00 E59.27133
G1 X175.54 Y139.00 E59.43512
G1 X177.02 Y139.24 E59.52222
G1 X178.72 Y139.95 E59.62929
G1 X180.24 Y141.12 E59.74126
G1 X181.41 Y142.68 E59.85433
G1 X182.12 Y144.40 E59.96249
G1 X182.32 Y145.84 E60.04708
G1 X182.32 Y158.39 E60.77640
G1 X182.32 Y159.21 E60.82418
G1 X182.09 Y160.69 E60.91141
G1 X181.35 Y162.43 E61.02113
G1 X180.19 Y163.93 E61.13140
G1 X178.68 Y165.07 E61.24172
G1 X176.90 Y165.81 E61.35344
G1 X175.44 Y166.00 E61.43934
G1 X172.72 Y166.00 E61.59703
G1 X172.72 Y166.01 E61.59778
G1 X172.54 Y167.27 E61.67153
G1 X172.24 Y168.47 E61.74358
G1 X171.83 Y169.61 E61.81388
G1 X171.31 Y170.70 E61.88411
G1 X170.69 Y171.74 E61.95457
G1 X169.97 Y172.72 E62.02521
G1 X169.15 Y173.62 E62.09599
G1 X168.25 Y174.44 E62.16676
G1 X167.27 Y175.16 E62.23740
G1 X166.23 Y175.78 E62.30787
G1 X165.12 Y176.31 E62.37910
G1 X163.99 Y176.71 E62.44866
G1 X162.81 Y177.01 E62.51947
G1 X161.59 Y177.19 E62.59117
G1 X160.39 Y177.25 E62.66095
G1 X159.19 Y177.19 E62.73101
G1 X157.97 Y177.01 E62.80277
G1 X156.78 Y176.71 E62.87382
G1 X155.66 Y176.31 E62.94327
G1 X154.55 Y175.78 E63.01427
G1 X153.51 Y175.16 E63.08473
G1 X152.54 Y174.44 E63.15491
G1 X151.63 Y173.62 E63.22627
G1 X150.81 Y172.71 E63.29743
G1 X150.09 Y171.74 E63.36757
G1 X149.48 Y170.71 E63.43735
G1 X148.95 Y169.60 E63.50872
G1 X148.54 Y168.44 E63.58025
G1 X148.25 Y167.29 E63.64955
G1 X148.06 Y166.08 E63.72051
G1 X148.06 Y166.00 E63.72511
G1 X129.59 Y166.00 E64.79845
G1 X128.05 Y165.79 E64.88919
G1 X126.27 Y165.01 E65.00206
G1 X124.80 Y163.86 E65.11075
G1 X123.66 Y162.36 E65.21999
G1 X122.91 Y160.58 E65.33241
G1 X122.73 Y159.09 E65.41951
G1 X122.73 Y145.84 E66.18922
G1 X122.94 Y144.35 E66.27718
G1 X123.70 Y142.57 E66.38960
G1 X124.89 Y141.04 E66.50255
G0 F12000 X125.22 Y141.37
G1 F2700 X126.64 Y140.32 E66.60499
G1 X128.20 Y139.67 E66.70337
G1 X129.59 Y139.47 E66.78495
G1 X148.51 Y139.47 E67.88457
G1 X148.52 Y139.01 E67.91085
G1 X148.71 Y137.81 E67.98140
G1 X148.98 Y136.69 E68.04857
G1 X149.38 Y135.57 E68.11755
G1 X149.88 Y134.52 E68.18561
G1 X150.48 Y133.51 E68.25351
G1 X151.17 Y132.59 E68.32055
G1 X151.96 Y131.71 E68.38925
G1 X152.84 Y130.92 E68.45823
G1 X153.76 Y130.24 E68.52454
G1 X154.76 Y129.63 E68.59262
G1 X155.84 Y129.12 E68.66154
G1 X156.93 Y128.74 E68.72905
G1 X158.07 Y128.45 E68.79739
G1 X159.22 Y128.28 E68.86509
G1 X160.39 Y128.22 E68.93319
G1 X161.56 Y128.28 E69.00106
G1 X162.71 Y128.45 E69.06865
G1 X163.85 Y128.73 E69.13681
G1 X164.94 Y129.12 E69.20440
G1 X166.02 Y129.63 E69.27353
G1 X167.02 Y130.24 E69.34161
G1 X167.94 Y130.92 E69.40837
G1 X168.82 Y131.71 E69.47677
G1 X169.60 Y132.58 E69.54513
G1 X170.30 Y133.51 E69.61262
G1 X170.90 Y134.53 E69.68112
G1 X171.40 Y135.57 E69.74820
G1 X171.79 Y136.67 E69.81599
G1 X172.09 Y137.83 E69.88574
G1 X172.25 Y138.99 E69.95379
G1 X172.28 Y139.47 E69.98155
G1 X175.50 Y139.47 E70.16893
G1 X176.89 Y139.69 E70.25062
G1 X178.48 Y140.35 E70.35089
G1 X179.91 Y141.45 E70.45571
G1 X181.01 Y142.91 E70.56164
G1 X181.66 Y144.52 E70.66287
G1 X181.85 Y145.87 E70.74218
G1 X181.85 Y158.39 E71.46952
G1 X181.85 Y159.17 E71.51532
G1 X181.64 Y160.56 E71.59704
G1 X180.95 Y162.19 E71.69980
G1 X179.86 Y163.59 E71.80299
G1 X178.44 Y164.67 E71.90633
G1 X176.78 Y165.36 E72.01093
G1 X175.41 Y165.53 E72.09149
G1 X172.27 Y165.53 E72.27359
G1 X172.26 Y165.97 E72.29906
G1 X172.08 Y167.18 E72.36988
G1 X171.79 Y168.33 E72.43916
G1 X171.40 Y169.43 E72.50687
G1 X170.90 Y170.48 E72.57450
G1 X170.30 Y171.48 E72.64228
G1 X169.60 Y172.42 E72.71026
G1 X168.82 Y173.29 E72.77836
G1 X167.95 Y174.08 E72.84646
G1 X167.01 Y174.77 E72.91444
G1 X166.01 Y175.37 E72.98222
G1 X164.94 Y175.88 E73.05081
G1 X163.86 Y176.26 E73.11778
G1 X162.72 Y176.55 E73.18594
G1 X161.55 Y176.72 E73.25488
G1 X160.39 Y176.78 E73.32204
G1 X159.23 Y176.72 E73.38948
G1 X158.06 Y176.55 E73.45849
G1 X156.92 Y176.26 E73.52689
G1 X155.84 Y175.88 E73.59371
G1 X154.77 Y175.37 E73.66209
G1 X153.77 Y174.77 E73.72987
G1 X152.84 Y174.08 E73.79743
G1 X151.96 Y173.29 E73.86608
G1 X151.17 Y172.41 E73.93456
G1 X150.48 Y171.48 E74.00204
G1 X149.89 Y170.49 E74.06924
G1 X149.38 Y169.43 E74.13785
G1 X148.98 Y168.31 E74.20671
G1 X148.71 Y167.19 E74.27337
G1 X148.53 Y166.03 E74.34169
G1 X148.51 Y165.53 E74.37072
G1 X129.62 Y165.53 E75.46813
G1 X128.17 Y165.34 E75.55329
G1 X126.51 Y164.61 E75.65893
G1 X125.13 Y163.53 E75.76066
G1 X124.07 Y162.12 E75.86303
G1 X123.36 Y160.46 E75.96826
G1 X123.20 Y159.06 E76.04992
G1 X123.20 Y145.88 E76.81614
G1 X123.39 Y144.47 E76.89858
G1 X124.10 Y142.81 E77.00384
G1 X125.22 Y141.37 E77.10959
G0 F12000 X125.55 Y141.71
G1 F2700 X126.87 Y140.73 E77.20509
G1 X128.33 Y140.12 E77.29678
G1 X129.62 Y139.93 E77.37290
G1 X148.96 Y139.93 E78.49681
G1 X148.99 Y139.06 E78.54775
G1 X149.16 Y137.91 E78.61541
G1 X149.43 Y136.83 E78.68002
G1 X149.81 Y135.75 E78.74622
G1 X150.29 Y134.74 E78.81163
G1 X150.87 Y133.77 E78.87685
G1 X151.53 Y132.88 E78.94127
G1 X152.29 Y132.04 E79.00729
G1 X153.14 Y131.28 E79.07352
G1 X154.02 Y130.62 E79.13733
G1 X154.98 Y130.04 E79.20270
G1 X156.01 Y129.56 E79.26892
G1 X157.06 Y129.18 E79.33376
G1 X158.16 Y128.91 E79.39940
G1 X159.27 Y128.75 E79.46447
G1 X160.39 Y128.69 E79.52995
G1 X161.51 Y128.75 E79.59514
G1 X162.62 Y128.91 E79.66015
G1 X163.71 Y129.18 E79.72555
G1 X164.76 Y129.55 E79.79054
G1 X165.80 Y130.04 E79.85697
G1 X166.76 Y130.62 E79.92234
G1 X167.65 Y131.28 E79.98656
G1 X168.49 Y132.04 E80.05225
G1 X169.24 Y132.88 E80.11789
G1 X169.91 Y133.77 E80.18281
G1 X170.49 Y134.75 E80.24858
G1 X170.97 Y135.75 E80.31306
G1 X171.35 Y136.80 E80.37820
G1 X171.63 Y137.92 E80.44520
G1 X171.79 Y139.03 E80.51060
G1 X171.83 Y139.93 E80.56286
G1 X175.46 Y139.93 E80.77390
G1 X176.76 Y140.14 E80.85023
G1 X178.24 Y140.76 E80.94370
G1 X179.57 Y141.78 E81.04134
G1 X180.60 Y143.14 E81.14005
G1 X181.21 Y144.64 E81.23440
G1 X181.39 Y145.91 E81.30848
G1 X181.39 Y158.38 E82.03385
G1 X181.39 Y159.14 E82.07761
G1 X181.19 Y160.44 E82.15392
G1 X180.54 Y161.95 E82.24973
G1 X179.53 Y163.26 E82.34591
G1 X178.21 Y164.26 E82.44224
G1 X176.66 Y164.90 E82.53967
G1 X175.38 Y165.07 E82.61490
G1 X171.82 Y165.07 E82.82135
G1 X171.79 Y165.93 E82.87154
G1 X171.63 Y167.09 E82.93948
G1 X171.35 Y168.20 E83.00601
G1 X170.97 Y169.25 E83.07108
G1 X170.49 Y170.26 E83.13608
G1 X169.91 Y171.22 E83.20115
G1 X169.24 Y172.13 E83.26651
G1 X168.49 Y172.96 E83.33194
G1 X167.65 Y173.72 E83.39736
G1 X166.75 Y174.38 E83.46273
G1 X165.79 Y174.96 E83.52780
G1 X164.76 Y175.45 E83.59371
G1 X163.72 Y175.82 E83.65808
G1 X162.63 Y176.09 E83.72354
G1 X161.50 Y176.26 E83.78978
G1 X160.39 Y176.31 E83.85432
G1 X159.28 Y176.26 E83.91914
G1 X158.15 Y176.09 E83.98545
G1 X157.06 Y175.81 E84.05114
G1 X156.01 Y175.44 E84.11537
G1 X154.99 Y174.96 E84.18107
G1 X154.03 Y174.38 E84.24614
G1 X153.13 Y173.72 E84.31109
G1 X152.29 Y172.96 E84.37706
G1 X151.53 Y172.12 E84.44282
G1 X150.87 Y171.22 E84.50773
G1 X150.30 Y170.27 E84.57225
G1 X149.81 Y169.25 E84.63821
G1 X149.43 Y168.17 E84.70432
G1 X149.16 Y167.10 E84.76846
G1 X148.99 Y165.99 E84.83407
G1 X148.95 Y165.07 E84.88754
G1 X129.66 Y165.07 E86.00900
G1 X128.30 Y164.88 E86.08854
G1 X126.75 Y164.20 E86.18694
G1 X125.47 Y163.20 E86.28176
G1 X124.47 Y161.89 E86.37718
G1 X123.82 Y160.34 E86.47520
G1 X123.66 Y159.03 E86.55147
G1 X123.66 Y145.91 E87.31421
G1 X123.84 Y144.60 E87.39120
G1 X124.51 Y143.04 E87.48926
G1 X125.55 Y141.71 E87.58777
G0 F12000 X125.88 Y142.05
G1 F2700 X127.11 Y141.14 E87.67640
G1 X128.45 Y140.57 E87.76133
G1 X129.66 Y140.40 E87.83205
G1 X149.41 Y140.40 E88.98043
G1 X149.41 Y140.28 E88.98746
G1 X149.45 Y139.10 E89.05596
G1 X149.62 Y138.00 E89.12081
G1 X149.88 Y136.96 E89.18278
G1 X150.24 Y135.93 E89.24626
G1 X150.71 Y134.96 E89.30904
G1 X151.26 Y134.03 E89.37157
G1 X151.89 Y133.18 E89.43341
G1 X152.62 Y132.37 E89.49672
G1 X153.44 Y131.64 E89.56023
G1 X154.28 Y131.01 E89.62146
G1 X155.21 Y130.45 E89.68420
G1 X156.19 Y129.99 E89.74767
G1 X157.20 Y129.63 E89.80986
G1 X158.25 Y129.36 E89.87286
G1 X159.31 Y129.21 E89.93529
G1 X160.39 Y129.15 E89.99808
G1 X161.47 Y129.21 E90.06059
G1 X162.53 Y129.36 E90.12296
G1 X163.58 Y129.63 E90.18572
G1 X164.59 Y129.99 E90.24808
G1 X165.58 Y130.45 E90.31172
G1 X166.50 Y131.01 E90.37446
G1 X167.35 Y131.64 E90.43607
G1 X168.16 Y132.37 E90.49908
G1 X168.88 Y133.17 E90.56205
G1 X169.52 Y134.03 E90.62434
G1 X170.08 Y134.97 E90.68742
G1 X170.53 Y135.93 E90.74927
G1 X170.90 Y136.94 E90.81177
G1 X171.17 Y138.01 E90.87600
G1 X171.32 Y139.08 E90.93870
G1 X171.37 Y140.01 E90.99271
G1 X171.37 Y140.40 E91.01549
G1 X175.43 Y140.40 E91.25129
G1 X176.63 Y140.59 E91.32221
G1 X178.01 Y141.17 E91.40891
G1 X179.24 Y142.12 E91.49938
G1 X180.19 Y143.37 E91.59091
G1 X180.76 Y144.77 E91.67840
G1 X180.92 Y145.94 E91.74720
G1 X180.92 Y158.38 E92.47065
G1 X180.92 Y159.10 E92.51232
G1 X180.74 Y160.31 E92.58322
G1 X180.14 Y161.71 E92.67202
G1 X179.19 Y162.92 E92.76117
G1 X177.97 Y163.85 E92.85049
G1 X176.54 Y164.45 E92.94080
G1 X175.35 Y164.60 E93.01065
G1 X171.37 Y164.60 E93.24186
G1 X171.37 Y164.73 E93.24924
G1 X171.33 Y165.89 E93.31670
G1 X171.17 Y167.00 E93.38182
G1 X170.90 Y168.06 E93.44560
G1 X170.54 Y169.07 E93.50798
G1 X170.08 Y170.04 E93.57036
G1 X169.53 Y170.96 E93.63279
G1 X168.88 Y171.83 E93.69550
G1 X168.16 Y172.63 E93.75825
G1 X167.36 Y173.35 E93.82100
G1 X166.49 Y174.00 E93.88370
G1 X165.57 Y174.55 E93.94614
G1 X164.59 Y175.01 E94.00932
G1 X163.59 Y175.37 E94.07113
G1 X162.54 Y175.64 E94.13394
G1 X161.46 Y175.79 E94.19742
G1 X160.39 Y175.85 E94.25934
G1 X159.32 Y175.79 E94.32160
G1 X158.24 Y175.64 E94.38508
G1 X157.19 Y175.37 E94.44808
G1 X156.19 Y175.01 E94.50978
G1 X155.21 Y174.55 E94.57277
G1 X154.29 Y174.00 E94.63521
G1 X153.43 Y173.36 E94.69754
G1 X152.62 Y172.63 E94.76080
G1 X151.89 Y171.82 E94.82388
G1 X151.26 Y170.96 E94.88613
G1 X150.71 Y170.05 E94.94807
G1 X150.24 Y169.07 E95.01130
G1 X149.88 Y168.04 E95.07470
G1 X149.62 Y167.01 E95.13621
G1 X149.46 Y165.94 E95.19912
G1 X149.41 Y164.98 E95.25492
G1 X149.41 Y164.60 E95.27706
G1 X129.69 Y164.60 E96.42358
G1 X128.43 Y164.43 E96.49749
G1 X126.99 Y163.80 E96.58870
G1 X125.80 Y162.87 E96.67657
G1 X124.88 Y161.65 E96.76511
G1 X124.27 Y160.21 E96.85594
G1 X124.13 Y159.00 E96.92671
G1 X124.13 Y145.94 E97.68596
G1 X124.30 Y144.72 E97.75749
G1 X124.91 Y143.28 E97.84842
G1 X125.88 Y142.05 E97.93968
G0 F12000 X126.21 Y142.38
G1 F2700 X127.34 Y141.55 E98.02138
G1 X128.58 Y141.03 E98.09963
G1 X129.69 Y140.86 E98.16494
G1 X149.88 Y140.86 E99.33843
G1 X149.88 Y140.28 E99.37208
G1 X149.92 Y139.14 E99.43855
G1 X150.08 Y138.09 E99.50057
G1 X150.32 Y137.09 E99.55997
G1 X150.67 Y136.11 E99.62073
G1 X151.12 Y135.18 E99.68076
G1 X151.65 Y134.29 E99.74066
G1 X152.25 Y133.47 E99.79993
G1 X152.95 Y132.70 E99.86051
G1 X153.73 Y132.00 E99.92131
G1 X154.54 Y131.40 E99.98001
G1 X155.43 Y130.87 E100.04004
G1 X156.37 Y130.42 E100.10080
G1 X157.34 Y130.07 E100.16040
G1 X158.34 Y129.82 E100.22069
G1 X159.36 Y129.67 E100.28048
G1 X160.39 Y129.62 E100.34060
G1 X161.42 Y129.67 E100.40044
G1 X162.44 Y129.82 E100.46016
G1 X163.44 Y130.07 E100.52028
G1 X164.41 Y130.42 E100.57997
G1 X165.36 Y130.87 E100.64092
G1 X166.24 Y131.40 E100.70094
G1 X167.06 Y132.00 E100.76002
G1 X167.83 Y132.70 E100.82031
G1 X168.52 Y133.47 E100.88064
G1 X169.14 Y134.29 E100.94029
G1 X169.67 Y135.19 E101.00065
G1 X170.10 Y136.11 E101.05993
G1 X170.46 Y137.07 E101.11978
G1 X170.71 Y138.10 E101.18120
G1 X170.86 Y139.12 E101.24126
G1 X170.90 Y140.02 E101.29334
G1 X170.90 Y140.86 E101.34251
G1 X175.39 Y140.86 E101.60325
G1 X176.50 Y141.04 E101.66881
G1 X177.77 Y141.57 E101.74871
G1 X178.91 Y142.45 E101.83201
G1 X179.78 Y143.60 E101.91636
G1 X180.30 Y144.89 E101.99689
G1 X180.46 Y145.97 E102.06047
G1 X180.46 Y158.38 E102.78194
G1 X180.46 Y159.07 E102.82158
G1 X180.29 Y160.18 E102.88707
G1 X179.74 Y161.47 E102.96887
G1 X178.87 Y162.59 E103.05098
G1 X177.74 Y163.45 E103.13334
G1 X176.42 Y164.00 E103.21646
G1 X175.32 Y164.14 E103.28098
G1 X170.90 Y164.14 E103.53753
G1 X170.90 Y164.72 E103.57153
G1 X170.86 Y165.85 E103.63707
G1 X170.71 Y166.91 E103.69925
G1 X170.45 Y167.93 E103.76028
G1 X170.11 Y168.89 E103.82007
G1 X169.67 Y169.82 E103.87981
G1 X169.14 Y170.70 E103.93959
G1 X168.52 Y171.53 E103.99959
G1 X167.83 Y172.30 E104.05971
G1 X167.06 Y173.00 E104.11983
G1 X166.23 Y173.61 E104.17983
G1 X165.35 Y174.14 E104.23961
G1 X164.41 Y174.58 E104.30011
G1 X163.45 Y174.92 E104.35930
G1 X162.45 Y175.18 E104.41943
G1 X161.41 Y175.33 E104.48015
G1 X160.39 Y175.38 E104.53951
G1 X159.37 Y175.33 E104.59916
G1 X158.33 Y175.18 E104.65994
G1 X157.33 Y174.92 E104.72023
G1 X156.37 Y174.58 E104.77934
G1 X155.43 Y174.14 E104.83965
G1 X154.55 Y173.61 E104.89943
G1 X153.72 Y173.00 E104.95910
G1 X152.95 Y172.30 E105.01968
G1 X152.25 Y171.53 E105.08005
G1 X151.65 Y170.70 E105.13968
G1 X151.12 Y169.83 E105.19904
G1 X150.67 Y168.89 E105.25951
G1 X150.32 Y167.91 E105.32019
G1 X150.08 Y166.92 E105.37919
G1 X149.92 Y165.90 E105.43939
G1 X149.88 Y164.97 E105.49309
G1 X149.88 Y164.14 E105.54174
G1 X129.72 Y164.14 E106.71354
G1 X128.56 Y163.98 E106.78182
G1 X127.23 Y163.40 E106.86580
G1 X126.14 Y162.54 E106.94675
G1 X125.29 Y161.42 E107.02836
G1 X124.73 Y160.09 E107.11200
G1 X124.59 Y158.98 E107.17733
G1 X124.59 Y145.97 E107.93309
G1 X124.75 Y144.85 E107.99911
G1 X125.32 Y143.52 E108.08290
G1 X126.21 Y142.38 E108.16692
G0 F12000 X126.53 Y142.72
G1 F2700 X127.57 Y141.96 E108.24168
G1 X128.70 Y141.48 E108.31323
G1 X129.72 Y141.33 E108.37315
G1 X150.35 Y141.33 E109.57174
G1 X150.35 Y140.29 E109.63201
G1 X150.38 Y139.18 E109.69650
G1 X150.53 Y138.18 E109.75565
G1 X150.77 Y137.23 E109.81246
G1 X151.10 Y136.29 E109.87046
G1 X151.53 Y135.40 E109.92783
G1 X152.03 Y134.55 E109.98510
G1 X152.62 Y133.77 E110.04175
G1 X153.28 Y133.03 E110.09962
G1 X154.03 Y132.36 E110.15766
G1 X154.80 Y131.79 E110.21378
G1 X155.65 Y131.28 E110.27122
G1 X156.55 Y130.85 E110.32923
G1 X157.47 Y130.52 E110.38616
G1 X158.43 Y130.28 E110.44378
G1 X159.41 Y130.14 E110.50091
G1 X160.39 Y130.09 E110.55841
G1 X161.38 Y130.14 E110.61563
G1 X162.35 Y130.28 E110.67271
G1 X163.31 Y130.52 E110.73014
G1 X164.23 Y130.85 E110.78718
G1 X165.14 Y131.28 E110.84537
G1 X165.98 Y131.79 E110.90281
G1 X166.76 Y132.37 E110.95922
G1 X167.50 Y133.03 E111.01684
G1 X168.16 Y133.77 E111.07450
G1 X168.75 Y134.55 E111.13148
G1 X169.26 Y135.40 E111.18917
G1 X169.67 Y136.29 E111.24587
G1 X170.01 Y137.21 E111.30303
G1 X170.25 Y138.19 E111.36170
G1 X170.39 Y139.17 E111.41907
G1 X170.44 Y140.03 E111.46923
G1 X170.44 Y141.33 E111.54484
G1 X175.35 Y141.33 E111.83057
G1 X176.37 Y141.49 E111.89066
G1 X177.53 Y141.98 E111.96378
G1 X178.57 Y142.78 E112.03991
G1 X179.37 Y143.84 E112.11709
G1 X179.85 Y145.01 E112.19076
G1 X179.99 Y146.00 E112.24906
G1 X179.99 Y158.38 E112.96855
G1 X179.99 Y159.03 E113.00616
G1 X179.83 Y160.05 E113.06624
G1 X179.33 Y161.24 E113.14103
G1 X178.53 Y162.25 E113.21606
G1 X177.50 Y163.04 E113.29141
G1 X176.30 Y163.54 E113.36744
G1 X175.29 Y163.67 E113.42662
G1 X170.44 Y163.67 E113.70851
G1 X170.44 Y164.71 E113.76913
G1 X170.40 Y165.81 E113.83276
G1 X170.25 Y166.82 E113.89206
G1 X170.01 Y167.79 E113.95032
G1 X169.68 Y168.71 E114.00747
G1 X169.25 Y169.60 E114.06456
G1 X168.75 Y170.44 E114.12171
G1 X168.16 Y171.24 E114.17905
G1 X167.50 Y171.97 E114.23649
G1 X166.77 Y172.63 E114.29393
G1 X165.97 Y173.22 E114.35128
G1 X165.13 Y173.73 E114.40842
G1 X164.23 Y174.15 E114.46622
G1 X163.31 Y174.48 E114.52282
G1 X162.36 Y174.72 E114.58024
G1 X161.37 Y174.87 E114.63826
G1 X160.39 Y174.91 E114.69500
G1 X159.41 Y174.87 E114.75203
G1 X158.42 Y174.72 E114.81011
G1 X157.46 Y174.48 E114.86771
G1 X156.55 Y174.15 E114.92420
G1 X155.65 Y173.73 E114.98181
G1 X154.81 Y173.22 E115.03896
G1 X154.02 Y172.64 E115.09601
G1 X153.28 Y171.97 E115.15387
G1 X152.62 Y171.23 E115.21153
G1 X152.03 Y170.44 E115.26854
G1 X151.53 Y169.61 E115.32526
G1 X151.10 Y168.71 E115.38308
G1 X150.77 Y167.77 E115.44099
G1 X150.53 Y166.83 E115.49742
G1 X150.39 Y165.85 E115.55497
G1 X150.35 Y164.96 E115.60664
G1 X150.35 Y163.67 E115.68173
G1 X129.75 Y163.67 E116.87882
G1 X128.68 Y163.53 E116.94140
G1 X127.47 Y162.99 E117.01820
G1 X126.47 Y162.21 E117.09223
G1 X125.69 Y161.19 E117.16687
G1 X125.18 Y159.97 E117.24332
G1 X125.06 Y158.95 E117.30327
G1 X125.06 Y146.01 E118.05554
G1 X125.20 Y144.97 E118.11610
G1 X125.72 Y143.76 E118.19268
G1 X126.53 Y142.72 E118.26949
G0 F12000 X126.86 Y143.06
G1 F2700 X127.80 Y142.36 E118.33731
G1 X128.83 Y141.93 E118.40219
G1 X129.76 Y141.80 E118.45670
G1 X150.81 Y141.80 E119.68040
G1 X150.81 Y140.30 E119.76735
G1 X150.85 Y139.23 E119.82975
G1 X150.99 Y138.27 E119.88606
G1 X151.22 Y137.36 E119.94025
G1 X151.53 Y136.47 E119.99553
G1 X151.94 Y135.62 E120.05026
G1 X152.42 Y134.81 E120.10489
G1 X152.98 Y134.07 E120.15892
G1 X153.61 Y133.36 E120.21408
G1 X154.32 Y132.72 E120.26940
G1 X155.06 Y132.17 E120.32299
G1 X155.87 Y131.69 E120.37777
G1 X156.73 Y131.28 E120.43299
G1 X157.61 Y130.97 E120.48735
G1 X158.52 Y130.74 E120.54226
G1 X159.45 Y130.60 E120.59676
G1 X160.39 Y130.55 E120.65158
G1 X161.33 Y130.60 E120.70612
G1 X162.26 Y130.74 E120.76056
G1 X163.17 Y130.97 E120.81535
G1 X164.05 Y131.28 E120.86975
G1 X164.91 Y131.69 E120.92515
G1 X165.72 Y132.17 E120.97993
G1 X166.47 Y132.73 E121.03381
G1 X167.17 Y133.36 E121.08871
G1 X167.80 Y134.06 E121.14370
G1 X168.36 Y134.81 E121.19802
G1 X168.84 Y135.62 E121.25304
G1 X169.24 Y136.47 E121.30712
G1 X169.56 Y137.35 E121.36163
G1 X169.80 Y138.28 E121.41754
G1 X169.93 Y139.21 E121.47226
G1 X169.97 Y140.04 E121.52044
G1 X169.97 Y141.80 E121.62251
G1 X175.31 Y141.80 E121.93317
G1 X176.25 Y141.94 E121.98790
G1 X177.30 Y142.38 E122.05420
G1 X178.24 Y143.11 E122.12316
G1 X178.96 Y144.07 E122.19317
G1 X179.40 Y145.13 E122.25990
G1 X179.53 Y146.04 E122.31291
G1 X179.53 Y158.38 E123.03048
G1 X179.52 Y158.99 E123.06606
G1 X179.38 Y159.92 E123.12067
G1 X178.93 Y161.00 E123.18856
G1 X178.21 Y161.92 E123.25651
G1 X177.27 Y162.63 E123.32490
G1 X176.18 Y163.09 E123.39376
G1 X175.26 Y163.20 E123.44755
G1 X169.97 Y163.20 E123.75484
G1 X169.97 Y164.71 E123.84208
G1 X169.93 Y165.77 E123.90379
G1 X169.79 Y166.73 E123.96022
G1 X169.56 Y167.65 E124.01572
G1 X169.24 Y168.53 E124.07021
G1 X168.84 Y169.38 E124.12468
G1 X168.36 Y170.19 E124.17916
G1 X167.80 Y170.94 E124.23384
G1 X167.17 Y171.64 E124.28861
G1 X166.47 Y172.27 E124.34338
G1 X165.71 Y172.83 E124.39806
G1 X164.91 Y173.31 E124.45254
G1 X164.05 Y173.72 E124.50764
G1 X163.18 Y174.03 E124.56167
G1 X162.26 Y174.26 E124.61645
G1 X161.32 Y174.40 E124.67171
G1 X160.39 Y174.45 E124.72583
G1 X159.46 Y174.40 E124.78024
G1 X158.52 Y174.26 E124.83556
G1 X157.60 Y174.03 E124.89052
G1 X156.73 Y173.72 E124.94444
G1 X155.87 Y173.31 E124.99935
G1 X155.07 Y172.83 E125.05383
G1 X154.32 Y172.28 E125.10822
G1 X153.61 Y171.64 E125.16341
G1 X152.98 Y170.94 E125.21835
G1 X152.42 Y170.19 E125.27274
G1 X151.94 Y169.39 E125.32689
G1 X151.53 Y168.53 E125.38195
G1 X151.22 Y167.64 E125.43721
G1 X150.99 Y166.74 E125.49105
G1 X150.85 Y165.80 E125.54590
G1 X150.81 Y164.95 E125.59553
G1 X150.81 Y163.20 E125.69707
G1 X129.78 Y163.20 E126.91937
G1 X128.81 Y163.07 E126.97639
G1 X127.71 Y162.59 E127.04595
G1 X126.81 Y161.88 E127.11303
G1 X126.10 Y160.95 E127.18079
G1 X125.64 Y159.85 E127.25007
G1 X125.53 Y158.92 E127.30457
G1 X125.53 Y146.04 E128.05335
G1 X125.66 Y145.10 E128.10839
G1 X126.13 Y144.00 E128.17784
G1 X126.86 Y143.06 E128.24740
G0 F12000 X127.19 Y143.40
G1 F2700 X128.03 Y142.77 E128.30828
G1 X128.96 Y142.38 E128.36648
G1 X129.79 Y142.26 E128.41552
G1 X151.28 Y142.26 E129.66439
G1 X151.28 Y140.31 E129.77796
G1 X151.31 Y139.27 E129.83833
G1 X151.45 Y138.36 E129.89176
G1 X151.66 Y137.50 E129.94343
G1 X151.97 Y136.65 E129.99593
G1 X152.35 Y135.84 E130.04803
G1 X152.81 Y135.07 E130.09995
G1 X153.34 Y134.36 E130.15142
G1 X153.94 Y133.69 E130.20385
G1 X154.62 Y133.09 E130.25642
G1 X155.32 Y132.56 E130.30751
G1 X156.09 Y132.10 E130.35958
G1 X156.91 Y131.71 E130.41215
G1 X157.74 Y131.41 E130.46379
G1 X158.61 Y131.19 E130.51601
G1 X159.50 Y131.07 E130.56792
G1 X160.39 Y131.02 E130.62007
G1 X161.28 Y131.07 E130.67193
G1 X162.17 Y131.19 E130.72379
G1 X163.04 Y131.41 E130.77587
G1 X163.88 Y131.71 E130.82762
G1 X164.69 Y132.10 E130.88033
G1 X165.46 Y132.56 E130.93240
G1 X166.17 Y133.09 E130.98374
G1 X166.84 Y133.69 E131.03593
G1 X167.44 Y134.36 E131.08819
G1 X167.97 Y135.07 E131.13994
G1 X168.43 Y135.84 E131.19221
G1 X168.81 Y136.64 E131.24371
G1 X169.12 Y137.48 E131.29563
G1 X169.34 Y138.37 E131.34872
G1 X169.47 Y139.26 E131.40074
G1 X169.50 Y140.05 E131.44706
G1 X169.50 Y142.26 E131.57551
G1 X175.28 Y142.26 E131.91111
G1 X176.12 Y142.40 E131.96048
G1 X177.06 Y142.79 E132.01998
G1 X177.90 Y143.44 E132.08177
G1 X178.56 Y144.30 E132.14459
G1 X178.94 Y145.26 E132.20447
G1 X179.06 Y146.07 E132.25219
G1 X179.06 Y158.38 E132.96785
G1 X179.06 Y158.96 E133.00133
G1 X178.93 Y159.79 E133.05054
G1 X178.52 Y160.76 E133.11142
G1 X177.87 Y161.59 E133.17237
G1 X177.03 Y162.22 E133.23370
G1 X176.05 Y162.63 E133.29543
G1 X175.23 Y162.74 E133.34389
G1 X169.50 Y162.74 E133.67653
G1 X169.50 Y164.70 E133.79039
G1 X169.47 Y165.72 E133.85011
G1 X169.34 Y166.64 E133.90366
G1 X169.12 Y167.52 E133.95641
G1 X168.81 Y168.36 E134.00831
G1 X168.43 Y169.16 E134.06013
G1 X167.97 Y169.93 E134.11198
G1 X167.44 Y170.65 E134.16400
G1 X166.84 Y171.31 E134.21609
G1 X166.17 Y171.91 E134.26818
G1 X165.46 Y172.44 E134.32021
G1 X164.69 Y172.90 E134.37206
G1 X163.88 Y173.29 E134.42445
G1 X163.04 Y173.59 E134.47588
G1 X162.17 Y173.81 E134.52796
G1 X161.28 Y173.94 E134.58052
G1 X160.39 Y173.98 E134.63202
G1 X159.50 Y173.94 E134.68381
G1 X158.61 Y173.81 E134.73643
G1 X157.74 Y173.58 E134.78869
G1 X156.91 Y173.29 E134.83996
G1 X156.09 Y172.90 E134.89222
G1 X155.33 Y172.44 E134.94407
G1 X154.61 Y171.91 E134.99585
G1 X153.94 Y171.31 E135.04832
G1 X153.34 Y170.64 E135.10054
G1 X152.81 Y169.93 E135.15232
G1 X152.35 Y169.17 E135.20383
G1 X151.97 Y168.35 E135.25624
G1 X151.66 Y167.50 E135.30873
G1 X151.45 Y166.65 E135.36000
G1 X151.31 Y165.76 E135.41220
G1 X151.28 Y164.94 E135.45974
G1 X151.28 Y162.74 E135.58778
G1 X129.81 Y162.74 E136.83537
G1 X128.94 Y162.62 E136.88669
G1 X127.95 Y162.19 E136.94910
G1 X127.14 Y161.55 E137.00922
G1 X126.51 Y160.72 E137.07009
G1 X126.09 Y159.73 E137.13211
G1 X125.99 Y158.89 E137.18122
G1 X125.99 Y146.07 E137.92652
G1 X126.11 Y145.23 E137.97604
G1 X126.53 Y144.24 E138.03835
G1 X127.19 Y143.40 E138.10067
G0 F12000 X127.52 Y143.73
G1 F2700 X128.27 Y143.18 E138.15466
G1 X129.08 Y142.84 E138.20613
G1 X129.82 Y142.73 E138.24977
G1 X151.74 Y142.73 E139.52374
G1 X151.74 Y140.31 E139.66399
G1 X151.78 Y139.31 E139.72226
G1 X151.91 Y138.45 E139.77288
G1 X152.11 Y137.63 E139.82192
G1 X152.40 Y136.83 E139.87170
G1 X152.76 Y136.06 E139.92110
G1 X153.20 Y135.33 E139.97044
G1 X153.70 Y134.66 E140.01924
G1 X154.27 Y134.02 E140.06900
G1 X154.91 Y133.45 E140.11885
G1 X155.58 Y132.95 E140.16737
G1 X156.31 Y132.51 E140.21678
G1 X157.08 Y132.14 E140.26662
G1 X157.88 Y131.86 E140.31567
G1 X158.70 Y131.65 E140.36518
G1 X159.54 Y131.53 E140.41440
G1 X160.39 Y131.49 E140.46393
G1 X161.24 Y131.53 E140.51310
G1 X162.08 Y131.65 E140.56232
G1 X162.90 Y131.86 E140.61178
G1 X163.70 Y132.14 E140.66091
G1 X164.47 Y132.51 E140.71083
G1 X165.20 Y132.95 E140.76024
G1 X165.88 Y133.45 E140.80897
G1 X166.51 Y134.02 E140.85848
G1 X167.08 Y134.65 E140.90811
G1 X167.58 Y135.33 E140.95717
G1 X168.02 Y136.06 E141.00680
G1 X168.38 Y136.82 E141.05573
G1 X168.67 Y137.62 E141.10493
G1 X168.88 Y138.46 E141.15525
G1 X169.00 Y139.30 E141.20463
G1 X169.04 Y140.06 E141.24897
G1 X169.04 Y142.73 E141.40387
G1 X175.24 Y142.73 E141.76440
G1 X175.99 Y142.85 E141.80836
G1 X176.82 Y143.20 E141.86109
G1 X177.57 Y143.77 E141.91571
G1 X178.15 Y144.53 E141.97131
G1 X178.49 Y145.38 E142.02434
G1 X178.59 Y146.10 E142.06678
G1 X178.59 Y158.38 E142.78046
G1 X178.59 Y158.92 E142.81191
G1 X178.48 Y159.67 E142.85571
G1 X178.12 Y160.52 E142.90959
G1 X177.54 Y161.25 E142.96350
G1 X176.80 Y161.82 E143.01787
G1 X175.93 Y162.18 E143.07243
G1 X175.20 Y162.27 E143.11550
G1 X169.04 Y162.27 E143.47353
G1 X169.04 Y164.69 E143.61395
G1 X169.00 Y165.68 E143.67182
G1 X168.88 Y166.55 E143.72249
G1 X168.67 Y167.38 E143.77249
G1 X168.38 Y168.18 E143.82173
G1 X168.02 Y168.94 E143.87092
G1 X167.59 Y169.67 E143.92011
G1 X167.08 Y170.35 E143.96943
G1 X166.51 Y170.98 E144.01889
G1 X165.88 Y171.55 E144.06835
G1 X165.20 Y172.06 E144.11767
G1 X164.47 Y172.49 E144.16687
G1 X163.70 Y172.86 E144.21652
G1 X162.91 Y173.14 E144.26535
G1 X162.08 Y173.35 E144.31486
G1 X161.23 Y173.47 E144.36465
G1 X160.39 Y173.51 E144.41353
G1 X159.55 Y173.47 E144.46271
G1 X158.70 Y173.35 E144.51256
G1 X157.87 Y173.14 E144.56213
G1 X157.08 Y172.86 E144.61086
G1 X156.31 Y172.49 E144.66044
G1 X155.59 Y172.06 E144.70963
G1 X154.91 Y171.55 E144.75879
G1 X154.27 Y170.98 E144.80854
G1 X153.70 Y170.35 E144.85809
G1 X153.20 Y169.67 E144.90721
G1 X152.76 Y168.95 E144.95614
G1 X152.40 Y168.17 E145.00585
G1 X152.11 Y167.37 E145.05555
G1 X151.91 Y166.55 E145.10430
G1 X151.78 Y165.71 E145.15375
G1 X151.74 Y164.93 E145.19931
G1 X151.74 Y162.27 E145.35380
G1 X129.84 Y162.27 E146.62661
G1 X129.06 Y162.17 E146.67236
G1 X128.20 Y161.78 E146.72754
G1 X127.47 Y161.22 E146.78071
G1 X126.92 Y160.48 E146.83469
G1 X126.55 Y159.61 E146.88952
G1 X126.46 Y158.87 E146.93313
G1 X126.46 Y146.10 E147.67494
G1 X126.56 Y145.35 E147.71906
G1 X126.94 Y144.48 E147.77416
G1 X127.52 Y143.73 E147.82927
G0 F12000 X127.85 Y144.07
G1 F2700 X128.50 Y143.59 E147.87632
G1 X129.21 Y143.29 E147.92110
G1 X129.86 Y143.19 E147.95933
G1 X152.21 Y143.19 E149.25842
G1 X152.21 Y140.32 E149.42529
G1 X152.24 Y139.35 E149.48158
G1 X152.37 Y138.54 E149.52932
G1 X152.56 Y137.77 E149.57579
G1 X152.83 Y137.00 E149.62279
G1 X153.17 Y136.28 E149.66954
G1 X153.59 Y135.59 E149.71625
G1 X154.06 Y134.95 E149.76243
G1 X154.60 Y134.35 E149.80948
G1 X155.21 Y133.81 E149.85661
G1 X155.84 Y133.34 E149.90259
G1 X156.53 Y132.92 E149.94934
G1 X157.26 Y132.57 E149.99642
G1 X158.01 Y132.31 E150.04281
G1 X158.79 Y132.11 E150.08969
G1 X159.59 Y132.00 E150.13626
G1 X160.39 Y131.95 E150.18305
G1 X161.19 Y132.00 E150.22968
G1 X161.99 Y132.11 E150.27618
G1 X162.76 Y132.31 E150.32294
G1 X163.52 Y132.57 E150.36951
G1 X164.25 Y132.92 E150.41664
G1 X164.94 Y133.34 E150.46339
G1 X165.58 Y133.81 E150.50959
G1 X166.18 Y134.35 E150.55638
G1 X166.72 Y134.95 E150.60334
G1 X167.20 Y135.59 E150.64973
G1 X167.61 Y136.28 E150.69665
G1 X167.95 Y137.00 E150.74300
G1 X168.22 Y137.76 E150.78954
G1 X168.42 Y138.55 E150.83711
G1 X168.54 Y139.34 E150.88379
G1 X168.57 Y140.07 E150.92628
G1 X168.57 Y143.19 E151.10756
G1 X175.20 Y143.19 E151.49302
G1 X175.86 Y143.30 E151.53163
G1 X176.59 Y143.60 E151.57753
G1 X177.24 Y144.10 E151.62498
G1 X177.74 Y144.77 E151.67344
G1 X178.04 Y145.50 E151.71951
G1 X178.13 Y146.13 E151.75673
G1 X178.13 Y158.38 E152.46843
G1 X178.12 Y158.89 E152.49784
G1 X178.03 Y159.54 E152.53623
G1 X177.71 Y160.28 E152.58308
G1 X177.21 Y160.92 E152.62995
G1 X176.57 Y161.41 E152.67735
G1 X175.81 Y161.72 E152.72480
G1 X175.17 Y161.81 E152.76253
G1 X168.57 Y161.81 E153.14590
G1 X168.57 Y164.68 E153.31294
G1 X168.54 Y165.64 E153.36889
G1 X168.42 Y166.46 E153.41669
G1 X168.22 Y167.24 E153.46393
G1 X167.95 Y168.00 E153.51049
G1 X167.61 Y168.72 E153.55706
G1 X167.20 Y169.41 E153.60362
G1 X166.72 Y170.06 E153.65033
G1 X166.18 Y170.65 E153.69707
G1 X165.58 Y171.19 E153.74381
G1 X164.94 Y171.67 E153.79052
G1 X164.25 Y172.08 E153.83708
G1 X163.52 Y172.43 E153.88400
G1 X162.77 Y172.69 E153.93026
G1 X161.99 Y172.89 E153.97706
G1 X161.19 Y173.01 E154.02416
G1 X160.39 Y173.05 E154.07048
G1 X159.59 Y173.01 E154.11703
G1 X158.79 Y172.89 E154.16413
G1 X158.01 Y172.69 E154.21099
G1 X157.26 Y172.43 E154.25713
G1 X156.53 Y172.08 E154.30401
G1 X155.84 Y171.67 E154.35057
G1 X155.20 Y171.19 E154.39707
G1 X154.60 Y170.65 E154.44414
G1 X154.06 Y170.05 E154.49097
G1 X153.59 Y169.41 E154.53747
G1 X153.18 Y168.72 E154.58382
G1 X152.83 Y168.00 E154.63077
G1 X152.56 Y167.23 E154.67782
G1 X152.37 Y166.46 E154.72394
G1 X152.24 Y165.67 E154.77074
G1 X152.21 Y164.92 E154.81420
G1 X152.21 Y161.81 E154.99519
G1 X129.88 Y161.81 E156.29329
G1 X129.19 Y161.71 E156.33335
G1 X128.44 Y161.38 E156.38134
G1 X127.81 Y160.89 E156.42759
G1 X127.32 Y160.25 E156.47460
G1 X127.00 Y159.49 E156.52230
G1 X126.92 Y158.84 E156.56046
G1 X126.92 Y146.13 E157.29879
G1 X127.02 Y145.48 E157.33740
G1 X127.34 Y144.72 E157.38536
G1 X127.85 Y144.07 E157.43323
G0 F12000 X128.18 Y144.41
G1 F2700 X128.73 Y144.00 E157.47329
G1 X129.33 Y143.74 E157.51139
G1 X129.89 Y143.66 E157.54422
G1 X152.44 Y143.66 E158.85464
G1 X152.54 Y143.65 E158.86071
G1 X152.57 Y143.64 E158.86244
G1 X152.59 Y143.64 E158.86341
G1 X152.61 Y143.62 E158.86505
G1 X152.63 Y143.61 E158.86617
G1 X152.64 Y143.59 E158.86766
G1 X152.65 Y143.57 E158.86893
G1 X152.66 Y143.54 E158.87063
G1 X152.67 Y143.53 E158.87135
G1 X152.68 Y143.42 E158.87770
G1 X152.68 Y140.33 E159.05747
G1 X152.71 Y139.40 E159.11167
G1 X152.82 Y138.63 E159.15659
G1 X153.00 Y137.90 E159.20047
G1 X153.26 Y137.18 E159.24472
G1 X153.59 Y136.50 E159.28881
G1 X153.97 Y135.85 E159.33284
G1 X154.42 Y135.25 E159.37646
G1 X154.93 Y134.68 E159.42078
G1 X155.50 Y134.17 E159.46516
G1 X156.10 Y133.72 E159.50861
G1 X156.75 Y133.33 E159.55268
G1 X157.44 Y133.01 E159.59703
G1 X158.15 Y132.75 E159.64084
G1 X158.88 Y132.57 E159.68496
G1 X159.63 Y132.46 E159.72895
G1 X160.39 Y132.42 E159.77307
G1 X161.15 Y132.46 E159.81701
G1 X161.90 Y132.57 E159.86094
G1 X162.63 Y132.75 E159.90500
G1 X163.34 Y133.00 E159.94890
G1 X164.03 Y133.33 E159.99333
G1 X164.68 Y133.72 E160.03740
G1 X165.28 Y134.17 E160.08098
G1 X165.85 Y134.68 E160.12514
G1 X166.36 Y135.25 E160.16939
G1 X166.81 Y135.85 E160.21316
G1 X167.20 Y136.50 E160.25737
G1 X167.52 Y137.18 E160.30110
G1 X167.78 Y137.89 E160.34504
G1 X167.96 Y138.64 E160.38974
G1 X168.07 Y139.39 E160.43384
G1 X168.11 Y140.09 E160.47434
G1 X168.11 Y143.28 E160.66022
G1 X168.11 Y143.44 E160.66905
G1 X168.11 Y143.52 E160.67412
G1 X168.12 Y143.54 E160.67539
G1 X168.13 Y143.58 E160.67759
G1 X168.15 Y143.60 E160.67905
G1 X168.16 Y143.61 E160.67980
G1 X168.17 Y143.62 E160.68116
G1 X168.19 Y143.64 E160.68238
G1 X168.23 Y143.65 E160.68458
G1 X168.23 Y143.65 E160.68500
G1 X168.34 Y143.66 E160.69118
G1 X175.17 Y143.66 E161.08803
G1 X175.73 Y143.75 E161.12117
G1 X176.35 Y144.01 E161.16030
G1 X176.90 Y144.43 E161.20058
G1 X177.33 Y145.00 E161.24183
G1 X177.58 Y145.62 E161.28106
G1 X177.66 Y146.17 E161.31300
G1 X177.66 Y158.38 E162.02272
G1 X177.66 Y158.85 E162.05016
G1 X177.57 Y159.41 E162.08308
G1 X177.31 Y160.04 E162.12292
G1 X176.88 Y160.58 E162.16276
G1 X176.33 Y161.00 E162.20315
G1 X175.69 Y161.27 E162.24344
G1 X175.14 Y161.34 E162.27584
G1 X168.35 Y161.34 E162.67049
G1 X168.24 Y161.35 E162.67656
G1 X168.21 Y161.36 E162.67860
G1 X168.19 Y161.37 E162.67988
G1 X168.17 Y161.38 E162.68139
G1 X168.16 Y161.39 E162.68238
G1 X168.14 Y161.40 E162.68333
G1 X168.14 Y161.42 E162.68432
G1 X168.12 Y161.47 E162.68732
G1 X168.11 Y161.48 E162.68811
G1 X168.11 Y161.57 E162.69336
G1 X168.11 Y164.67 E162.87365
G1 X168.07 Y165.60 E162.92768
G1 X167.96 Y166.37 E162.97254
G1 X167.78 Y167.11 E163.01702
G1 X167.52 Y167.82 E163.06099
G1 X167.20 Y168.50 E163.10490
G1 X166.81 Y169.15 E163.14883
G1 X166.36 Y169.76 E163.19288
G1 X165.85 Y170.32 E163.23695
G1 X165.29 Y170.83 E163.28102
G1 X164.68 Y171.28 E163.32507
G1 X164.03 Y171.67 E163.36899
G1 X163.34 Y172.00 E163.41322
G1 X162.63 Y172.25 E163.45688
G1 X161.90 Y172.43 E163.50103
G1 X161.14 Y172.54 E163.54538
G1 X160.39 Y172.58 E163.58908
G1 X159.64 Y172.54 E163.63301
G1 X158.88 Y172.43 E163.67736
G1 X158.15 Y172.25 E163.72157
G1 X157.44 Y171.99 E163.76514
G1 X156.75 Y171.67 E163.80928
G1 X156.10 Y171.28 E163.85321
G1 X155.50 Y170.83 E163.89710
G1 X154.93 Y170.32 E163.94142
G1 X154.42 Y169.76 E163.98562
G1 X153.97 Y169.15 E164.02945
G1 X153.59 Y168.50 E164.07317
G1 X153.26 Y167.82 E164.11747
G1 X153.00 Y167.10 E164.16174
G1 X152.82 Y166.37 E164.20534
G1 X152.71 Y165.62 E164.24944
G1 X152.68 Y164.91 E164.29086
G1 X152.68 Y161.72 E164.47645
G1 X152.68 Y161.57 E164.48493
G1 X152.66 Y161.46 E164.49112
G1 X152.66 Y161.45 E164.49190
G1 X152.65 Y161.43 E164.49299
G1 X152.63 Y161.40 E164.49531
G1 X152.62 Y161.38 E164.49647
G1 X152.61 Y161.38 E164.49700
G1 X152.59 Y161.37 E164.49841
G1 X152.56 Y161.35 E164.50073
G1 X152.54 Y161.35 E164.50150
G1 X152.44 Y161.34 E164.50763
G1 X129.91 Y161.34 E165.81706
G1 X129.32 Y161.26 E165.85155
G1 X128.68 Y160.98 E165.89231
G1 X128.15 Y160.56 E165.93164
G1 X127.73 Y160.01 E165.97172
G1 X127.46 Y159.37 E166.01217
G1 X127.39 Y158.81 E166.04495
G1 X127.39 Y146.17 E166.77979
G1 X127.47 Y145.60 E166.81288
G1 X127.75 Y144.96 E166.85371
G1 X128.18 Y144.41 E166.89437
G0 F12000 X128.50 Y144.74
G1 F2700 X128.96 Y144.40 E166.92752
G1 X129.46 Y144.19 E166.95891
G1 X129.93 Y144.13 E166.98634
G1 X152.46 Y144.13 E168.29578
G1 X152.62 Y144.11 E168.30564
G1 X152.72 Y144.09 E168.31109
G1 X152.80 Y144.05 E168.31664
G1 X152.89 Y143.99 E168.32283
G1 X152.96 Y143.94 E168.32790
G1 X153.02 Y143.87 E168.33310
G1 X153.07 Y143.78 E168.33936
G1 X153.11 Y143.69 E168.34489
G1 X153.13 Y143.61 E168.34978
G1 X153.14 Y143.44 E168.35964
G1 X153.14 Y140.34 E168.53976
G1 X153.17 Y139.44 E168.59192
G1 X153.28 Y138.72 E168.63402
G1 X153.45 Y138.04 E168.67526
G1 X153.69 Y137.36 E168.71679
G1 X154.00 Y136.72 E168.75826
G1 X154.36 Y136.11 E168.79960
G1 X154.78 Y135.54 E168.84063
G1 X155.26 Y135.01 E168.88224
G1 X155.79 Y134.53 E168.92390
G1 X156.36 Y134.11 E168.96482
G1 X156.97 Y133.74 E169.00622
G1 X157.62 Y133.44 E169.04782
G1 X158.28 Y133.20 E169.08898
G1 X158.98 Y133.03 E169.13046
G1 X159.68 Y132.92 E169.17174
G1 X160.39 Y132.89 E169.21324
G1 X161.10 Y132.92 E169.25450
G1 X161.80 Y133.03 E169.29579
G1 X162.50 Y133.20 E169.33721
G1 X163.16 Y133.44 E169.37846
G1 X163.81 Y133.74 E169.42014
G1 X164.42 Y134.11 E169.46154
G1 X164.99 Y134.53 E169.50259
G1 X165.52 Y135.01 E169.54403
G1 X166.00 Y135.54 E169.58564
G1 X166.42 Y136.11 E169.62676
G1 X166.79 Y136.72 E169.66830
G1 X167.09 Y137.36 E169.70943
G1 X167.33 Y138.03 E169.75067
G1 X167.51 Y138.73 E169.79263
G1 X167.61 Y139.43 E169.83401
G1 X167.64 Y140.10 E169.87265
G1 X167.64 Y143.28 E170.05783
G1 X167.64 Y143.46 E170.06777
G1 X167.65 Y143.60 E170.07640
G1 X167.68 Y143.70 E170.08199
G1 X167.72 Y143.80 E170.08863
G1 X167.77 Y143.87 E170.09356
G1 X167.83 Y143.94 E170.09879
G1 X167.91 Y144.01 E170.10478
G1 X167.99 Y144.06 E170.11041
G1 X168.08 Y144.09 E170.11635
G1 X168.16 Y144.11 E170.12108
G1 X168.32 Y144.13 E170.13006
G1 X175.13 Y144.13 E170.52610
G1 X175.60 Y144.20 E170.55388
G1 X176.12 Y144.42 E170.58621
G1 X176.57 Y144.76 E170.61932
G1 X176.92 Y145.23 E170.65342
G1 X177.13 Y145.75 E170.68567
G1 X177.19 Y146.20 E170.71239
G1 X177.19 Y158.38 E171.42020
G1 X177.19 Y158.81 E171.44554
G1 X177.12 Y159.28 E171.47305
G1 X176.90 Y159.80 E171.50597
G1 X176.55 Y160.25 E171.53872
G1 X176.10 Y160.60 E171.57211
G1 X175.57 Y160.81 E171.60528
G1 X175.11 Y160.87 E171.63229
G1 X168.33 Y160.87 E172.02641
G1 X168.16 Y160.89 E172.03610
G1 X168.07 Y160.91 E172.04187
G1 X167.97 Y160.96 E172.04812
G1 X167.90 Y161.00 E172.05305
G1 X167.82 Y161.06 E172.05849
G1 X167.76 Y161.14 E172.06415
G1 X167.72 Y161.22 E172.06944
G1 X167.67 Y161.32 E172.07607
G1 X167.65 Y161.41 E172.08117
G1 X167.64 Y161.55 E172.08957
G1 X167.64 Y164.66 E172.27056
G1 X167.61 Y165.56 E172.32261
G1 X167.51 Y166.28 E172.36465
G1 X167.33 Y166.97 E172.40636
G1 X167.09 Y167.64 E172.44769
G1 X166.79 Y168.28 E172.48898
G1 X166.42 Y168.89 E172.53025
G1 X166.00 Y169.46 E172.57160
G1 X165.52 Y169.99 E172.61303
G1 X164.99 Y170.47 E172.65447
G1 X164.42 Y170.89 E172.69582
G1 X163.81 Y171.26 E172.73708
G1 X163.16 Y171.56 E172.77863
G1 X162.50 Y171.80 E172.81970
G1 X161.81 Y171.98 E172.86116
G1 X161.10 Y172.08 E172.90279
G1 X160.39 Y172.11 E172.94387
G1 X159.68 Y172.08 E172.98519
G1 X158.97 Y171.98 E173.02682
G1 X158.28 Y171.80 E173.06834
G1 X157.62 Y171.56 E173.10932
G1 X156.97 Y171.26 E173.15078
G1 X156.36 Y170.89 E173.19205
G1 X155.79 Y170.47 E173.23327
G1 X155.26 Y169.99 E173.27492
G1 X154.78 Y169.46 E173.31640
G1 X154.36 Y168.89 E173.35762
G1 X154.00 Y168.28 E173.39876
G1 X153.69 Y167.64 E173.44036
G1 X153.45 Y166.96 E173.48192
G1 X153.28 Y166.28 E173.52294
G1 X153.17 Y165.57 E173.56433
G1 X153.14 Y164.90 E173.60366
G1 X153.14 Y161.72 E173.78866
G1 X153.14 Y161.55 E173.79831
G1 X153.13 Y161.39 E173.80771
G1 X153.10 Y161.30 E173.81315
G1 X153.07 Y161.21 E173.81862
G1 X153.01 Y161.13 E173.82444
G1 X152.95 Y161.05 E173.83042
G1 X152.89 Y161.00 E173.83492
G1 X152.80 Y160.95 E173.84081
G1 X152.69 Y160.91 E173.84733
G1 X152.61 Y160.89 E173.85223
G1 X152.46 Y160.87 E173.86092
G1 X129.94 Y160.87 E175.17012
G1 X129.45 Y160.81 E175.19892
G1 X128.92 Y160.57 E175.23250
G1 X128.48 Y160.23 E175.26488
G1 X128.13 Y159.78 E175.29811
G1 X127.91 Y159.25 E175.33135
G1 X127.86 Y158.78 E175.35869
G1 X127.86 Y146.20 E176.09004
G1 X127.92 Y145.73 E176.11767
G1 X128.15 Y145.20 E176.15131
G1 X128.50 Y144.74 E176.18473
G0 F12000 X128.83 Y145.08
G1 F2700 X129.19 Y144.81 E176.21094
G1 X129.59 Y144.65 E176.23564
G1 X129.96 Y144.59 E176.25761
G1 X152.47 Y144.59 E177.56605
G1 X152.71 Y144.57 E177.57982
G1 X152.87 Y144.53 E177.58929
G1 X153.02 Y144.47 E177.59911
G1 X153.17 Y144.37 E177.60919
G1 X153.29 Y144.27 E177.61866
G1 X153.40 Y144.13 E177.62869
G1 X153.49 Y143.99 E177.63865
G1 X153.56 Y143.82 E177.64881
G1 X153.59 Y143.68 E177.65747
G1 X153.61 Y143.46 E177.67007
G1 X153.61 Y140.34 E177.85135
G1 X153.64 Y139.48 E177.90148
G1 X153.74 Y138.82 E177.94069
G1 X153.90 Y138.17 E177.97937
G1 X154.12 Y137.54 E178.01812
G1 X154.41 Y136.94 E178.05694
G1 X154.75 Y136.37 E178.09559
G1 X155.14 Y135.84 E178.13401
G1 X155.59 Y135.34 E178.17295
G1 X156.09 Y134.89 E178.21185
G1 X156.62 Y134.50 E178.25027
G1 X157.19 Y134.15 E178.28896
G1 X157.80 Y133.87 E178.32791
G1 X158.42 Y133.65 E178.36635
G1 X159.07 Y133.48 E178.40513
G1 X159.72 Y133.39 E178.44384
G1 X160.39 Y133.35 E178.48266
G1 X161.06 Y133.39 E178.52125
G1 X161.71 Y133.48 E178.55995
G1 X162.36 Y133.65 E178.59868
G1 X162.99 Y133.87 E178.63728
G1 X163.59 Y134.15 E178.67623
G1 X164.16 Y134.50 E178.71492
G1 X164.69 Y134.89 E178.75344
G1 X165.19 Y135.34 E178.79216
G1 X165.64 Y135.84 E178.83105
G1 X166.03 Y136.37 E178.86960
G1 X166.38 Y136.94 E178.90838
G1 X166.66 Y137.54 E178.94697
G1 X166.88 Y138.16 E178.98554
G1 X167.05 Y138.82 E179.02473
G1 X167.14 Y139.48 E179.06348
G1 X167.17 Y140.11 E179.10014
G1 X167.17 Y143.28 E179.28468
G1 X167.18 Y143.47 E179.29572
G1 X167.19 Y143.69 E179.30815
G1 X167.24 Y143.84 E179.31764
G1 X167.31 Y144.01 E179.32818
G1 X167.39 Y144.15 E179.33776
G1 X167.50 Y144.28 E179.34753
G1 X167.63 Y144.39 E179.35735
G1 X167.78 Y144.48 E179.36757
G1 X167.94 Y144.54 E179.37722
G1 X168.09 Y144.57 E179.38601
G1 X168.31 Y144.59 E179.39895
G1 X175.09 Y144.59 E179.79343
G1 X175.47 Y144.65 E179.81579
G1 X175.88 Y144.82 E179.84137
G1 X176.23 Y145.09 E179.86731
G1 X176.51 Y145.46 E179.89420
G1 X176.68 Y145.87 E179.91961
G1 X176.73 Y146.23 E179.94104
G1 X176.73 Y158.38 E180.64688
G1 X176.73 Y158.78 E180.67018
G1 X176.67 Y159.15 E180.69223
G1 X176.50 Y159.56 E180.71819
G1 X176.22 Y159.91 E180.74395
G1 X175.86 Y160.19 E180.77032
G1 X175.45 Y160.36 E180.79633
G1 X175.08 Y160.41 E180.81801
G1 X168.31 Y160.41 E181.21155
G1 X168.08 Y160.43 E181.22486
G1 X167.92 Y160.47 E181.23451
G1 X167.75 Y160.54 E181.24486
G1 X167.61 Y160.63 E181.25468
G1 X167.49 Y160.74 E181.26407
G1 X167.38 Y160.87 E181.27418
G1 X167.29 Y161.01 E181.28364
G1 X167.23 Y161.17 E181.29402
G1 X167.19 Y161.33 E181.30312
G1 X167.17 Y161.54 E181.31566
G1 X167.17 Y164.66 E181.49671
G1 X167.14 Y165.52 E181.54684
G1 X167.05 Y166.19 E181.58600
G1 X166.88 Y166.84 E181.62496
G1 X166.66 Y167.46 E181.66365
G1 X166.38 Y168.06 E181.70228
G1 X166.03 Y168.63 E181.74092
G1 X165.64 Y169.17 E181.77960
G1 X165.19 Y169.66 E181.81836
G1 X164.69 Y170.11 E181.85713
G1 X164.16 Y170.50 E181.89581
G1 X163.59 Y170.85 E181.93445
G1 X162.99 Y171.13 E181.97327
G1 X162.36 Y171.35 E182.01176
G1 X161.72 Y171.52 E182.05051
G1 X161.05 Y171.62 E182.08945
G1 X160.39 Y171.65 E182.12791
G1 X159.73 Y171.62 E182.16661
G1 X159.06 Y171.52 E182.20555
G1 X158.42 Y171.35 E182.24437
G1 X157.80 Y171.13 E182.28268
G1 X157.19 Y170.85 E182.32150
G1 X156.62 Y170.50 E182.36013
G1 X156.09 Y170.11 E182.39874
G1 X155.59 Y169.66 E182.43767
G1 X155.14 Y169.17 E182.47643
G1 X154.75 Y168.63 E182.51504
G1 X154.41 Y168.06 E182.55354
G1 X154.12 Y167.46 E182.59244
G1 X153.90 Y166.83 E182.63128
G1 X153.74 Y166.19 E182.66974
G1 X153.64 Y165.53 E182.70848
G1 X153.61 Y164.89 E182.74577
G1 X153.61 Y161.72 E182.93013
G1 X153.61 Y161.53 E182.94118
G1 X153.59 Y161.31 E182.95355
G1 X153.54 Y161.15 E182.96368
G1 X153.48 Y161.00 E182.97297
G1 X153.38 Y160.84 E182.98355
G1 X153.28 Y160.72 E182.99291
G1 X153.15 Y160.61 E183.00277
G1 X153.01 Y160.53 E183.01218
G1 X152.84 Y160.46 E183.02316
G1 X152.69 Y160.43 E183.03170
G1 X152.48 Y160.41 E183.04424
G1 X129.97 Y160.41 E184.35240
G1 X129.57 Y160.35 E184.37557
G1 X129.16 Y160.17 E184.40191
G1 X128.81 Y159.90 E184.42737
G1 X128.54 Y159.54 E184.45363
G1 X128.37 Y159.13 E184.47968
G1 X128.32 Y158.75 E184.50163
G1 X128.32 Y146.23 E185.22949
G1 X128.38 Y145.85 E185.25161
G1 X128.55 Y145.44 E185.27809
G1 X128.83 Y145.08 E185.30430
G0 F12000 X129.16 Y145.42
G1 F2700 X129.43 Y145.22 E185.32362
G1 X129.71 Y145.10 E185.34159
G1 X129.99 Y145.06 E185.35816
G1 X152.50 Y145.06 E186.66625
G1 X152.78 Y145.03 E186.68235
G1 X153.02 Y144.97 E186.69680
G1 X153.24 Y144.88 E186.71089
G1 X153.45 Y144.75 E186.72502
G1 X153.63 Y144.59 E186.73911
G1 X153.78 Y144.41 E186.75294
G1 X153.91 Y144.20 E186.76720
G1 X154.00 Y143.97 E186.78149
G1 X154.05 Y143.75 E186.79428
G1 X154.07 Y143.47 E186.81078
G1 X154.07 Y140.35 E186.99206
G1 X154.10 Y139.53 E187.04016
G1 X154.19 Y138.91 E187.07655
G1 X154.34 Y138.30 E187.11265
G1 X154.55 Y137.72 E187.14862
G1 X154.82 Y137.16 E187.18474
G1 X155.14 Y136.63 E187.22081
G1 X155.50 Y136.13 E187.25661
G1 X155.92 Y135.67 E187.29283
G1 X156.38 Y135.25 E187.32901
G1 X156.88 Y134.89 E187.36486
G1 X157.41 Y134.56 E187.40093
G1 X157.97 Y134.30 E187.43712
G1 X158.56 Y134.09 E187.47297
G1 X159.16 Y133.94 E187.50906
G1 X159.77 Y133.85 E187.54511
G1 X160.39 Y133.82 E187.58125
G1 X161.01 Y133.85 E187.61722
G1 X161.62 Y133.94 E187.65322
G1 X162.22 Y134.09 E187.68930
G1 X162.81 Y134.30 E187.72526
G1 X163.37 Y134.56 E187.76145
G1 X163.90 Y134.89 E187.79752
G1 X164.40 Y135.25 E187.83341
G1 X164.86 Y135.67 E187.86947
G1 X165.28 Y136.13 E187.90568
G1 X165.65 Y136.63 E187.94157
G1 X165.96 Y137.16 E187.97769
G1 X166.23 Y137.72 E188.01365
G1 X166.44 Y138.30 E188.04961
G1 X166.59 Y138.91 E188.08599
G1 X166.68 Y139.52 E188.12204
G1 X166.71 Y140.12 E188.15684
G1 X166.71 Y143.28 E188.34068
G1 X166.71 Y143.50 E188.35353
G1 X166.73 Y143.76 E188.36840
G1 X166.79 Y144.00 E188.38284
G1 X166.89 Y144.23 E188.39729
G1 X167.02 Y144.43 E188.41113
G1 X167.17 Y144.61 E188.42498
G1 X167.36 Y144.77 E188.43934
G1 X167.57 Y144.89 E188.45339
G1 X167.80 Y144.99 E188.46772
G1 X168.01 Y145.04 E188.48052
G1 X168.28 Y145.06 E188.49631
G1 X175.06 Y145.06 E188.88992
G1 X175.35 Y145.10 E188.90693
G1 X175.64 Y145.23 E188.92565
G1 X175.90 Y145.43 E188.94443
G1 X176.10 Y145.70 E188.96413
G1 X176.22 Y145.99 E188.98264
G1 X176.26 Y146.27 E188.99884
G1 X176.26 Y158.38 E189.70270
G1 X176.26 Y158.74 E189.72398
G1 X176.22 Y159.03 E189.74061
G1 X176.09 Y159.33 E189.75957
G1 X175.89 Y159.58 E189.77824
G1 X175.63 Y159.78 E189.79765
G1 X175.33 Y159.91 E189.81651
G1 X175.05 Y159.94 E189.83286
G1 X168.29 Y159.94 E190.22588
G1 X168.01 Y159.97 E190.24229
G1 X167.76 Y160.03 E190.25692
G1 X167.54 Y160.12 E190.27088
G1 X167.34 Y160.25 E190.28484
G1 X167.16 Y160.41 E190.29877
G1 X167.00 Y160.60 E190.31309
G1 X166.88 Y160.80 E190.32687
G1 X166.78 Y161.03 E190.34146
G1 X166.73 Y161.25 E190.35465
G1 X166.71 Y161.52 E190.37004
G1 X166.71 Y164.65 E190.55196
G1 X166.68 Y165.48 E190.60017
G1 X166.59 Y166.09 E190.63640
G1 X166.44 Y166.70 E190.67261
G1 X166.23 Y167.28 E190.70868
G1 X165.96 Y167.84 E190.74469
G1 X165.65 Y168.37 E190.78067
G1 X165.28 Y168.87 E190.81669
G1 X164.86 Y169.33 E190.85278
G1 X164.40 Y169.75 E190.88886
G1 X163.90 Y170.12 E190.92489
G1 X163.37 Y170.44 E190.96086
G1 X162.81 Y170.70 E190.99700
G1 X162.23 Y170.91 E191.03288
G1 X161.62 Y171.06 E191.06900
G1 X161.01 Y171.15 E191.10518
G1 X160.39 Y171.18 E191.14103
G1 X159.77 Y171.15 E191.17711
G1 X159.16 Y171.06 E191.21329
G1 X158.55 Y170.91 E191.24941
G1 X157.97 Y170.70 E191.28518
G1 X157.41 Y170.44 E191.32132
G1 X156.88 Y170.12 E191.35729
G1 X156.38 Y169.75 E191.39324
G1 X155.92 Y169.33 E191.42949
G1 X155.50 Y168.87 E191.46558
G1 X155.14 Y168.37 E191.50153
G1 X154.82 Y167.84 E191.53745
G1 X154.55 Y167.28 E191.57364
G1 X154.34 Y166.70 E191.60971
G1 X154.19 Y166.10 E191.64564
G1 X154.10 Y165.48 E191.68163
G1 X154.07 Y164.88 E191.71688
G1 X154.07 Y161.72 E191.90067
G1 X154.07 Y161.50 E191.91305
G1 X154.05 Y161.23 E191.92893
G1 X153.99 Y161.00 E191.94257
G1 X153.89 Y160.78 E191.95702
G1 X153.76 Y160.57 E191.97097
G1 X153.60 Y160.39 E191.98515
G1 X153.42 Y160.23 E191.99943
G1 X153.21 Y160.11 E192.01316
G1 X152.99 Y160.02 E192.02745
G1 X152.77 Y159.97 E192.04042
G1 X152.49 Y159.94 E192.05658
G1 X130.00 Y159.94 E193.36369
G1 X129.70 Y159.90 E193.38123
G1 X129.40 Y159.77 E193.40038
G1 X129.15 Y159.57 E193.41893
G1 X128.95 Y159.31 E193.43826
G1 X128.82 Y159.01 E193.45712
G1 X128.79 Y158.73 E193.47357
G1 X128.79 Y146.26 E194.19795
G1 X128.83 Y145.98 E194.21461
G1 X128.96 Y145.67 E194.23395
G1 X129.16 Y145.42 E194.25292
G0 F12000 X129.49 Y145.75
G1 F2700 X129.66 Y145.63 E194.26530
G1 X129.84 Y145.55 E194.27658
G1 X130.03 Y145.52 E194.28774
G1 X152.52 Y145.52 E195.59485
G1 X152.86 Y145.50 E195.61474
G1 X153.17 Y145.42 E195.63328
G1 X153.46 Y145.29 E195.65159
G1 X153.72 Y145.12 E195.66992
G1 X153.96 Y144.92 E195.68813
G1 X154.16 Y144.68 E195.70650
G1 X154.33 Y144.41 E195.72488
G1 X154.44 Y144.11 E195.74319
G1 X154.51 Y143.82 E195.76058
G1 X154.54 Y143.50 E195.77924
G1 X154.54 Y140.36 E195.96192
G1 X154.57 Y139.57 E196.00792
G1 X154.65 Y139.00 E196.04148
G1 X154.79 Y138.44 E196.07496
G1 X154.98 Y137.90 E196.10822
G1 X155.23 Y137.38 E196.14168
G1 X155.53 Y136.89 E196.17512
G1 X155.87 Y136.43 E196.20831
G1 X156.25 Y136.00 E196.24181
G1 X156.68 Y135.62 E196.27527
G1 X157.14 Y135.27 E196.30859
G1 X157.63 Y134.98 E196.34199
G1 X158.15 Y134.73 E196.37543
G1 X158.69 Y134.54 E196.40861
G1 X159.25 Y134.40 E196.44206
G1 X159.82 Y134.32 E196.47542
G1 X160.39 Y134.29 E196.50894
G1 X160.96 Y134.32 E196.54223
G1 X161.53 Y134.40 E196.57559
G1 X162.09 Y134.54 E196.60904
G1 X162.63 Y134.73 E196.64233
G1 X163.15 Y134.98 E196.67576
G1 X163.64 Y135.27 E196.70917
G1 X164.10 Y135.62 E196.74253
G1 X164.53 Y136.00 E196.77586
G1 X164.91 Y136.43 E196.80941
G1 X165.26 Y136.89 E196.84263
G1 X165.55 Y137.38 E196.87607
G1 X165.80 Y137.90 E196.90943
G1 X165.99 Y138.44 E196.94274
G1 X166.13 Y139.00 E196.97636
G1 X166.21 Y139.57 E197.00977
G1 X166.24 Y140.13 E197.04259
G1 X166.24 Y143.52 E197.23974
G1 X166.27 Y143.84 E197.25841
G1 X166.35 Y144.15 E197.27651
G1 X166.48 Y144.44 E197.29545
G1 X166.64 Y144.71 E197.31346
G1 X166.85 Y144.95 E197.33196
G1 X167.09 Y145.15 E197.35012
G1 X167.36 Y145.31 E197.36861
G1 X167.66 Y145.43 E197.38700
G1 X167.94 Y145.50 E197.40404
G1 X168.26 Y145.52 E197.42270
G1 X175.02 Y145.52 E197.81549
G1 X175.22 Y145.56 E197.82708
G1 X175.41 Y145.63 E197.83906
G1 X175.56 Y145.76 E197.85066
G1 X175.69 Y145.93 E197.86319
G1 X175.77 Y146.11 E197.87482
G1 X175.80 Y146.30 E197.88573
G1 X175.80 Y158.71 E198.60685
G1 X175.77 Y158.90 E198.61808
G1 X175.69 Y159.09 E198.63003
G1 X175.56 Y159.25 E198.64167
G1 X175.39 Y159.38 E198.65411
G1 X175.21 Y159.45 E198.66581
G1 X175.02 Y159.48 E198.67677
G1 X168.27 Y159.48 E199.06927
G1 X167.92 Y159.51 E199.08928
G1 X167.61 Y159.59 E199.10799
G1 X167.33 Y159.71 E199.12593
G1 X167.06 Y159.88 E199.14432
G1 X166.82 Y160.08 E199.16286
G1 X166.62 Y160.33 E199.18118
G1 X166.46 Y160.59 E199.19929
G1 X166.34 Y160.89 E199.21776
G1 X166.27 Y161.18 E199.23521
G1 X166.24 Y161.49 E199.25328
G1 X166.24 Y164.64 E199.43637
G1 X166.21 Y165.44 E199.48266
G1 X166.13 Y166.00 E199.51601
G1 X165.99 Y166.56 E199.54946
G1 X165.80 Y167.10 E199.58288
G1 X165.55 Y167.62 E199.61624
G1 X165.26 Y168.11 E199.64958
G1 X164.91 Y168.57 E199.68295
G1 X164.53 Y169.00 E199.71636
G1 X164.10 Y169.39 E199.74977
G1 X163.64 Y169.73 E199.78313
G1 X163.15 Y170.02 E199.81648
G1 X162.63 Y170.27 E199.84991
G1 X162.09 Y170.46 E199.88320
G1 X161.53 Y170.60 E199.91663
G1 X160.96 Y170.69 E199.95010
G1 X160.39 Y170.71 E199.98333
G1 X159.82 Y170.69 E200.01679
G1 X159.25 Y170.60 E200.05026
G1 X158.69 Y170.46 E200.08368
G1 X158.15 Y170.27 E200.11686
G1 X157.63 Y170.02 E200.15030
G1 X157.14 Y169.73 E200.18364
G1 X156.68 Y169.39 E200.21697
G1 X156.25 Y169.00 E200.25050
G1 X155.87 Y168.57 E200.28388
G1 X155.53 Y168.11 E200.31721
G1 X155.23 Y167.62 E200.35055
G1 X154.98 Y167.10 E200.38403
G1 X154.79 Y166.56 E200.41738
G1 X154.65 Y166.00 E200.45069
G1 X154.57 Y165.44 E200.48402
G1 X154.54 Y164.87 E200.51724
G1 X154.54 Y161.48 E200.71422
G1 X154.51 Y161.16 E200.73302
G1 X154.43 Y160.85 E200.75133
G1 X154.31 Y160.56 E200.76976
G1 X154.14 Y160.29 E200.78792
G1 X153.93 Y160.05 E200.80659
G1 X153.69 Y159.85 E200.82483
G1 X153.42 Y159.69 E200.84305
G1 X153.12 Y159.57 E200.86153
G1 X152.84 Y159.50 E200.87858
G1 X152.52 Y159.48 E200.89736
G1 X130.03 Y159.48 E202.20423
G1 X129.83 Y159.45 E202.21614
G1 X129.64 Y159.37 E202.22807
G1 X129.49 Y159.24 E202.23966
G1 X129.36 Y159.07 E202.25211
G1 X129.28 Y158.89 E202.26378
G1 X129.25 Y158.70 E202.27478
G1 X129.25 Y146.30 E202.99567
G1 X129.28 Y146.10 E203.00688
G1 X129.36 Y145.91 E203.01903
G1 X129.49 Y145.75 E203.03075
G0 F12000 X130.05 Y146.34
G0 X130.65 Y146.92
;TYPE:WALL-INNER
G1 F2700 X152.57 Y146.92 E204.30491
G1 X153.09 Y146.88 E204.33506
G1 X153.62 Y146.75 E204.36643
G1 X154.11 Y146.53 E204.39747
G1 X154.56 Y146.25 E204.42841
G1 X154.96 Y145.90 E204.45969
G1 X155.31 Y145.49 E204.49073
G1 X155.58 Y145.03 E204.52163
G1 X155.78 Y144.54 E204.55279
G1 X155.90 Y144.05 E204.58207
G1 X155.94 Y143.56 E204.61059
G1 X155.94 Y140.36 E204.79623
G1 X155.96 Y139.70 E204.83473
G1 X156.03 Y139.27 E204.86006
G1 X156.13 Y138.85 E204.88551
G1 X156.28 Y138.44 E204.91075
G1 X156.47 Y138.03 E204.93687
G1 X156.69 Y137.67 E204.96161
G1 X156.95 Y137.32 E204.98699
G1 X157.24 Y136.99 E205.01247
G1 X157.56 Y136.70 E205.03766
G1 X157.92 Y136.43 E205.06367
G1 X158.29 Y136.21 E205.08873
G1 X158.68 Y136.03 E205.11366
G1 X159.10 Y135.88 E205.13945
G1 X159.52 Y135.77 E205.16492
G1 X159.96 Y135.71 E205.19047
G1 X160.39 Y135.69 E205.21573
G1 X160.82 Y135.71 E205.24076
G1 X161.26 Y135.77 E205.26631
G1 X161.69 Y135.88 E205.29220
G1 X162.10 Y136.02 E205.31735
G1 X162.49 Y136.21 E205.34262
G1 X162.86 Y136.43 E205.36768
G1 X163.22 Y136.70 E205.39368
G1 X163.53 Y136.99 E205.41846
G1 X163.84 Y137.32 E205.44476
G1 X164.09 Y137.67 E205.46973
G1 X164.32 Y138.04 E205.49486
G1 X164.50 Y138.43 E205.52026
G1 X164.65 Y138.85 E205.54603
G1 X164.76 Y139.27 E205.57138
G1 X164.82 Y139.69 E205.59615
G1 X164.84 Y143.29 E205.80493
G1 X164.84 Y143.59 E205.82243
G1 X164.89 Y144.09 E205.85160
G1 X165.03 Y144.60 E205.88263
G1 X165.23 Y145.09 E205.91331
G1 X165.51 Y145.54 E205.94441
G1 X165.87 Y145.95 E205.97571
G1 X166.28 Y146.29 E206.00678
G1 X166.74 Y146.57 E206.03778
G1 X167.23 Y146.76 E206.06861
G1 X167.72 Y146.88 E206.09820
G1 X168.21 Y146.92 E206.12671
G1 X174.40 Y146.92 E206.48631
G1 X174.40 Y158.08 E207.13472
G1 X168.20 Y158.08 E207.49478
G1 X167.69 Y158.12 E207.52496
G1 X167.17 Y158.26 E207.55614
G1 X166.68 Y158.47 E207.58702
G1 X166.23 Y158.75 E207.61799
G1 X165.82 Y159.10 E207.64939
G1 X165.47 Y159.51 E207.68071
G1 X165.20 Y159.97 E207.71175
G1 X165.01 Y160.46 E207.74205
G1 X164.88 Y160.95 E207.77166
G1 X164.84 Y161.44 E207.80040
G1 X164.84 Y164.64 E207.98586
G1 X164.82 Y165.31 E208.02512
G1 X164.76 Y165.73 E208.04954
G1 X164.65 Y166.16 E208.07533
G1 X164.50 Y166.57 E208.10066
G1 X164.32 Y166.96 E208.12606
G1 X164.09 Y167.34 E208.15153
G1 X163.84 Y167.68 E208.17642
G1 X163.54 Y168.01 E208.20222
G1 X163.21 Y168.31 E208.22802
G1 X162.87 Y168.56 E208.25291
G1 X162.49 Y168.79 E208.27837
G1 X162.10 Y168.98 E208.30367
G1 X161.69 Y169.12 E208.32889
G1 X161.25 Y169.23 E208.35486
G1 X160.83 Y169.29 E208.37965
G1 X160.39 Y169.31 E208.40531
G1 X159.95 Y169.29 E208.43120
G1 X159.53 Y169.23 E208.45599
G1 X159.10 Y169.12 E208.48148
G1 X158.68 Y168.97 E208.50740
G1 X158.29 Y168.79 E208.53236
G1 X157.92 Y168.56 E208.55783
G1 X157.57 Y168.31 E208.58272
G1 X157.24 Y168.01 E208.60897
G1 X156.95 Y167.69 E208.63392
G1 X156.69 Y167.34 E208.65922
G1 X156.47 Y166.97 E208.68430
G1 X156.27 Y166.56 E208.71058
G1 X156.13 Y166.16 E208.73505
G1 X156.03 Y165.73 E208.76099
G1 X155.96 Y165.30 E208.78633
G1 X155.94 Y161.71 E208.99470
G1 X155.94 Y161.41 E209.01237
G1 X155.89 Y160.92 E209.04086
G1 X155.76 Y160.40 E209.07206
G1 X155.55 Y159.91 E209.10340
G1 X155.27 Y159.46 E209.13412
G1 X154.92 Y159.05 E209.16524
G1 X154.50 Y158.71 E209.19690
G1 X154.04 Y158.43 E209.22778
G1 X153.56 Y158.24 E209.25823
G1 X153.06 Y158.12 E209.28773
G1 X152.57 Y158.08 E209.31624
G1 X130.65 Y158.08 E210.59028
G1 X130.65 Y146.92 E211.23869
G0 F12000 X153.46 Y146.27
G0 X154.90 Y145.20
G0 X155.44 Y143.54
G0 X157.25 Y141.07
G1 F2700 X157.44 Y141.56 E211.26912
G1 X157.71 Y142.02 E211.29997
G1 X158.04 Y142.43 E211.33052
G1 X158.44 Y142.77 E211.36104
G1 X158.81 Y143.00 E211.38633
G1 X158.93 Y143.07 E211.39423
G1 X159.38 Y143.25 E211.42244
G1 X159.88 Y143.38 E211.45255
G1 X160.44 Y143.41 E211.48523
G1 X160.94 Y143.37 E211.51447
G1 X161.45 Y143.24 E211.54481
G1 X161.90 Y143.05 E211.57312
G1 X162.37 Y142.75 E211.60576
G1 X162.77 Y142.39 E211.63683
G1 X163.10 Y141.98 E211.66752
G1 X163.36 Y141.52 E211.69828
G1 X163.54 Y141.03 E211.72886
G1 X163.65 Y140.51 E211.75921
G1 X163.66 Y140.07 E211.78468
G1 X163.66 Y139.95 E211.79218
G1 X163.60 Y139.46 E211.82060
G1 X163.44 Y138.96 E211.85125
G1 X163.22 Y138.48 E211.88198
G1 X162.91 Y138.05 E211.91254
G1 X162.54 Y137.67 E211.94341
G1 X162.12 Y137.35 E211.97427
G1 X161.65 Y137.12 E212.00453
G1 X161.16 Y136.96 E212.03491
G1 X160.68 Y136.88 E212.06300
G1 X160.21 Y136.87 E212.09032
G1 X160.07 Y136.88 E212.09830
G1 X159.58 Y136.96 E212.12701
G1 X159.08 Y137.13 E212.15773
G1 X158.62 Y137.38 E212.18838
G1 X158.20 Y137.70 E212.21904
G1 X157.84 Y138.09 E212.24984
G1 X157.54 Y138.52 E212.28008
G1 X157.32 Y139.00 E212.31100
G1 X157.18 Y139.51 E212.34158
G1 X157.12 Y140.02 E212.37172
G1 X157.14 Y140.56 E212.40272
G1 X157.25 Y141.07 E212.43355
G0 F12000 X160.15 Y161.60
G1 F2700 X159.59 Y161.69 E212.46640
G1 X159.08 Y161.86 E212.49754
G1 X158.62 Y162.11 E212.52830
G1 X158.20 Y162.43 E212.55864
G1 X157.84 Y162.81 E212.58935
G1 X157.54 Y163.25 E212.62006
G1 X157.32 Y163.72 E212.65056
G1 X157.18 Y164.23 E212.68122
G1 X157.12 Y164.75 E212.71153
G1 X157.14 Y165.28 E212.74241
G1 X157.25 Y165.80 E212.77324
G1 X157.44 Y166.29 E212.80356
G1 X157.71 Y166.74 E212.83443
G1 X158.04 Y167.15 E212.86506
G1 X158.44 Y167.50 E212.89567
G1 X158.93 Y167.79 E212.92861
G1 X159.38 Y167.97 E212.95696
G1 X159.88 Y168.10 E212.98717
G1 X160.44 Y168.14 E213.01974
G1 X160.94 Y168.09 E213.04892
G1 X161.45 Y167.96 E213.07930
G1 X161.90 Y167.77 E213.10771
G1 X162.37 Y167.47 E213.14016
G1 X162.77 Y167.12 E213.17132
G1 X163.10 Y166.70 E213.20200
G1 X163.36 Y166.24 E213.23285
G1 X163.54 Y165.75 E213.26340
G1 X163.64 Y165.24 E213.29368
G1 X163.66 Y164.80 E213.31904
G1 X163.66 Y164.67 E213.32649
G1 X163.60 Y164.18 E213.35513
G1 X163.44 Y163.68 E213.38585
G1 X163.22 Y163.21 E213.41614
G1 X162.91 Y162.77 E213.44724
G1 X162.54 Y162.39 E213.47802
G1 X162.12 Y162.08 E213.50849
G1 X161.65 Y161.84 E213.53896
G1 X161.15 Y161.68 E213.56978
G1 X160.64 Y161.60 E213.59995
G1 X160.15 Y161.60 E213.62837
G0 F12000 X160.18 Y162.06
G1 F2700 X159.70 Y162.14 E213.65669
G1 X159.27 Y162.29 E213.68328
G1 X158.87 Y162.50 E213.70962
G1 X158.51 Y162.78 E213.73565
G1 X158.20 Y163.10 E213.76201
G1 X157.95 Y163.48 E213.78831
G1 X157.76 Y163.89 E213.81452
G1 X157.64 Y164.32 E213.84076
G1 X157.59 Y164.77 E213.86686
G1 X157.60 Y165.22 E213.89321
G1 X157.70 Y165.66 E213.91958
G1 X157.86 Y166.08 E213.94565
G1 X158.09 Y166.48 E213.97215
G1 X158.38 Y166.82 E213.99840
G1 X158.72 Y167.12 E214.02460
G1 X159.13 Y167.37 E214.05222
G1 X159.52 Y167.53 E214.07719
G1 X159.96 Y167.64 E214.10314
G1 X160.34 Y167.67 E214.12524
G1 X160.43 Y167.67 E214.13065
G1 X160.86 Y167.63 E214.15592
G1 X161.30 Y167.52 E214.18209
G1 X161.68 Y167.36 E214.20628
G1 X162.09 Y167.10 E214.23434
G1 X162.43 Y166.79 E214.26093
G1 X162.71 Y166.44 E214.28724
G1 X162.94 Y166.04 E214.31366
G1 X163.09 Y165.62 E214.33984
G1 X163.18 Y165.18 E214.36591
G1 X163.19 Y164.80 E214.38819
G1 X163.19 Y164.71 E214.39342
G1 X163.14 Y164.28 E214.41850
G1 X163.01 Y163.85 E214.44483
G1 X162.81 Y163.44 E214.47082
G1 X162.55 Y163.07 E214.49746
G1 X162.24 Y162.75 E214.52376
G1 X161.87 Y162.48 E214.54999
G1 X161.47 Y162.27 E214.57609
G1 X161.04 Y162.13 E214.60250
G1 X160.60 Y162.06 E214.62849
G1 X160.18 Y162.06 E214.65267
G0 F12000 X155.47 Y161.72
G1 F2700 X155.47 Y161.43 E214.66906
G1 X155.43 Y161.00 E214.69434
G1 X155.32 Y160.55 E214.72122
G1 X155.13 Y160.12 E214.74827
G1 X154.89 Y159.74 E214.77486
G1 X154.59 Y159.39 E214.80174
G1 X154.23 Y159.09 E214.82894
G1 X153.83 Y158.85 E214.85562
G1 X153.41 Y158.68 E214.88206
G1 X152.99 Y158.58 E214.90742
G1 X152.55 Y158.54 E214.93274
G1 X130.19 Y158.54 E216.23275
G1 X130.19 Y146.46 E216.93533
G1 X152.56 Y146.46 E218.23541
G1 X153.01 Y146.42 E218.26224
G1 X153.47 Y146.30 E218.28929
G1 X153.89 Y146.12 E218.31603
G1 X154.28 Y145.88 E218.34277
G1 X154.63 Y145.57 E218.36976
G1 X154.92 Y145.22 E218.39655
G1 X155.16 Y144.82 E218.42325
G1 X155.34 Y144.40 E218.45022
G1 X155.44 Y143.97 E218.47542
G1 X155.47 Y143.54 E218.50073
G1 X155.47 Y140.39 E218.68393
G1 X155.50 Y139.65 E218.72679
G1 X155.57 Y139.19 E218.75401
G1 X155.69 Y138.71 E218.78281
G1 X155.84 Y138.26 E218.81057
G1 X156.06 Y137.82 E218.83891
G1 X156.30 Y137.41 E218.86667
G1 X156.59 Y137.02 E218.89495
G1 X156.91 Y136.66 E218.92281
G1 X157.27 Y136.34 E218.95076
G1 X157.66 Y136.04 E218.97935
G1 X158.07 Y135.80 E219.00670
G1 X158.51 Y135.59 E219.03498
G1 X158.96 Y135.43 E219.06306
G1 X159.43 Y135.31 E219.09105
G1 X159.91 Y135.24 E219.11930
G1 X160.39 Y135.22 E219.14736
G1 X160.87 Y135.24 E219.17518
G1 X161.35 Y135.31 E219.20343
G1 X161.82 Y135.43 E219.23142
G1 X162.28 Y135.59 E219.25961
G1 X162.72 Y135.80 E219.28789
G1 X163.12 Y136.04 E219.31524
G1 X163.51 Y136.33 E219.34341
G1 X163.87 Y136.66 E219.37210
G1 X164.19 Y137.02 E219.39963
G1 X164.48 Y137.41 E219.42791
G1 X164.73 Y137.81 E219.45559
G1 X164.94 Y138.26 E219.48435
G1 X165.10 Y138.71 E219.51191
G1 X165.22 Y139.18 E219.54007
G1 X165.29 Y139.66 E219.56831
G1 X165.31 Y143.28 E219.77907
G1 X165.31 Y143.56 E219.79534
G1 X165.35 Y144.01 E219.82108
G1 X165.47 Y144.45 E219.84789
G1 X165.65 Y144.87 E219.87453
G1 X165.89 Y145.26 E219.90129
G1 X166.20 Y145.62 E219.92831
G1 X166.55 Y145.91 E219.95513
G1 X166.94 Y146.15 E219.98189
G1 X167.37 Y146.32 E220.00862
G1 X167.80 Y146.42 E220.03404
G1 X168.23 Y146.46 E220.05933
G1 X174.87 Y146.46 E220.44497
G1 X174.87 Y158.37 E221.13767
G1 X174.86 Y158.54 E221.14755
G1 X168.22 Y158.54 E221.53343
G1 X167.77 Y158.59 E221.56022
G1 X167.32 Y158.70 E221.58714
G1 X166.89 Y158.88 E221.61391
G1 X166.50 Y159.12 E221.64062
G1 X166.15 Y159.43 E221.66765
G1 X165.85 Y159.78 E221.69464
G1 X165.62 Y160.18 E221.72143
G1 X165.45 Y160.60 E221.74778
G1 X165.34 Y161.03 E221.77325
G1 X165.31 Y161.46 E221.79867
G1 X165.31 Y164.61 E221.98170
G1 X165.28 Y165.36 E222.02497
G1 X165.22 Y165.82 E222.05233
G1 X165.10 Y166.29 E222.08025
G1 X164.94 Y166.75 E222.10860
G1 X164.72 Y167.19 E222.13710
G1 X164.49 Y167.59 E222.16408
G1 X164.19 Y167.98 E222.19250
G1 X163.87 Y168.34 E222.22073
G1 X163.51 Y168.67 E222.24896
G1 X163.12 Y168.96 E222.27738
G1 X162.72 Y169.20 E222.30437
G1 X162.28 Y169.41 E222.33284
G1 X161.81 Y169.57 E222.36138
G1 X161.35 Y169.69 E222.38887
G1 X160.87 Y169.76 E222.41730
G1 X160.39 Y169.78 E222.44511
G1 X159.91 Y169.76 E222.47316
G1 X159.43 Y169.69 E222.50158
G1 X158.97 Y169.57 E222.52906
G1 X158.51 Y169.41 E222.55752
G1 X158.06 Y169.20 E222.58599
G1 X157.67 Y168.96 E222.61297
G1 X157.27 Y168.66 E222.64181
G1 X156.91 Y168.34 E222.66971
G1 X156.59 Y167.98 E222.69765
G1 X156.30 Y167.59 E222.72628
G1 X156.06 Y167.19 E222.75340
G1 X155.85 Y166.75 E222.78179
G1 X155.68 Y166.29 E222.81015
G1 X155.57 Y165.82 E222.83789
G1 X155.49 Y165.34 E222.86611
G1 X155.47 Y161.72 E223.07704
G0 F12000 X159.96 Y142.91
G1 F2700 X160.34 Y142.94 E223.09920
G1 X160.43 Y142.95 E223.10461
G1 X160.86 Y142.91 E223.12994
G1 X161.30 Y142.79 E223.15606
G1 X161.68 Y142.63 E223.18017
G1 X162.09 Y142.37 E223.20831
G1 X162.43 Y142.07 E223.23491
G1 X162.71 Y141.72 E223.26117
G1 X162.94 Y141.32 E223.28759
G1 X163.09 Y140.90 E223.31377
G1 X163.18 Y140.46 E223.33990
G1 X163.19 Y140.07 E223.36229
G1 X163.19 Y139.98 E223.36753
G1 X163.14 Y139.56 E223.39243
G1 X163.01 Y139.12 E223.41876
G1 X162.81 Y138.72 E223.44504
G1 X162.55 Y138.35 E223.47126
G1 X162.24 Y138.02 E223.49769
G1 X161.87 Y137.75 E223.52411
G1 X161.47 Y137.55 E223.55010
G1 X161.04 Y137.41 E223.57627
G1 X160.64 Y137.34 E223.60018
G1 X160.22 Y137.34 E223.62448
G1 X160.12 Y137.34 E223.63001
G1 X159.70 Y137.42 E223.65512
G1 X159.27 Y137.56 E223.68148
G1 X158.87 Y137.78 E223.70772
G1 X158.51 Y138.05 E223.73393
G1 X158.20 Y138.38 E223.76041
G1 X157.95 Y138.75 E223.78634
G1 X157.76 Y139.16 E223.81281
G1 X157.64 Y139.60 E223.83905
G1 X157.59 Y140.04 E223.86498
G1 X157.60 Y140.50 E223.89144
G1 X157.70 Y140.94 E223.91787
G1 X157.86 Y141.36 E223.94399
G1 X158.09 Y141.75 E223.97039
G1 X158.38 Y142.10 E223.99664
G1 X158.72 Y142.40 E224.02284
G1 X159.13 Y142.64 E224.05054
G1 X159.52 Y142.81 E224.07541
G1 X159.96 Y142.91 E224.10134
G0 F12000 X160.03 Y142.45
;TYPE:WALL-OUTER
G1 F2700 X160.36 Y142.48 E224.12064
G1 X160.41 Y142.48 E224.12372
G1 X160.78 Y142.45 E224.14519
G1 X161.15 Y142.35 E224.16712
G1 X161.46 Y142.22 E224.18699
G1 X161.81 Y142.00 E224.21071
G1 X162.09 Y141.75 E224.23282
G1 X162.33 Y141.45 E224.25466
G1 X162.51 Y141.12 E224.27668
G1 X162.64 Y140.77 E224.29847
G1 X162.72 Y140.40 E224.32039
G1 X162.73 Y140.07 E224.33970
G1 X162.73 Y140.02 E224.34272
G1 X162.68 Y139.66 E224.36405
G1 X162.57 Y139.29 E224.38602
G1 X162.41 Y138.95 E224.40791
G1 X162.19 Y138.65 E224.42971
G1 X161.93 Y138.37 E224.45179
G1 X161.62 Y138.15 E224.47375
G1 X161.29 Y137.98 E224.49551
G1 X160.93 Y137.86 E224.51745
G1 X160.60 Y137.81 E224.53718
G1 X160.23 Y137.81 E224.55846
G1 X160.18 Y137.81 E224.56160
G1 X159.81 Y137.87 E224.58306
G1 X159.46 Y137.99 E224.60501
G1 X159.12 Y138.17 E224.62688
G1 X158.83 Y138.40 E224.64869
G1 X158.57 Y138.68 E224.67078
G1 X158.36 Y138.98 E224.69240
G1 X158.20 Y139.33 E224.71445
G1 X158.10 Y139.69 E224.73635
G1 X158.05 Y140.06 E224.75806
G1 X158.07 Y140.44 E224.78005
G1 X158.15 Y140.81 E224.80201
G1 X158.28 Y141.16 E224.82384
G1 X158.47 Y141.48 E224.84581
G1 X158.72 Y141.77 E224.86769
G1 X159.00 Y142.02 E224.88961
G1 X159.33 Y142.22 E224.91192
G1 X159.67 Y142.36 E224.93339
G1 X160.03 Y142.45 E224.95513
G0 F12000 X159.95 Y142.77
G0 X155.34 Y143.55
G0 X155.01 Y143.52
G1 F2700 X155.01 Y140.37 E225.13810
G1 X155.03 Y139.61 E225.18259
G1 X155.11 Y139.09 E225.21286
G1 X155.24 Y138.58 E225.24358
G1 X155.42 Y138.07 E225.27516
G1 X155.64 Y137.60 E225.30519
G1 X155.91 Y137.15 E225.33584
G1 X156.23 Y136.72 E225.36657
G1 X156.58 Y136.33 E225.39740
G1 X156.97 Y135.98 E225.42811
G1 X157.41 Y135.66 E225.45926
G1 X157.84 Y135.39 E225.48894
G1 X158.33 Y135.16 E225.52037
G1 X158.83 Y134.98 E225.55111
G1 X159.34 Y134.86 E225.58149
G1 X159.86 Y134.78 E225.61239
G1 X160.39 Y134.75 E225.64323
G1 X160.92 Y134.78 E225.67384
G1 X161.44 Y134.86 E225.70474
G1 X161.95 Y134.98 E225.73512
G1 X162.45 Y135.16 E225.76597
G1 X162.94 Y135.39 E225.79740
G1 X163.38 Y135.66 E225.82708
G1 X163.81 Y135.98 E225.85828
G1 X164.20 Y136.33 E225.88885
G1 X164.55 Y136.72 E225.91968
G1 X164.87 Y137.15 E225.95050
G1 X165.13 Y137.59 E225.98042
G1 X165.37 Y138.09 E226.01250
G1 X165.54 Y138.57 E226.04234
G1 X165.67 Y139.09 E226.07314
G1 X165.75 Y139.61 E226.10409
G1 X165.78 Y140.15 E226.13528
G1 X165.78 Y143.54 E226.33255
G1 X165.81 Y143.93 E226.35484
G1 X165.91 Y144.30 E226.37743
G1 X166.06 Y144.66 E226.40004
G1 X166.27 Y144.99 E226.42249
G1 X166.52 Y145.28 E226.44519
G1 X166.82 Y145.53 E226.46776
G1 X167.15 Y145.73 E226.49029
G1 X167.51 Y145.88 E226.51284
G1 X167.87 Y145.96 E226.53413
G1 X168.25 Y145.99 E226.55622
G1 X174.98 Y145.99 E226.94773
G1 X175.09 Y146.01 E226.95386
G1 X175.17 Y146.04 E226.95902
G1 X175.23 Y146.09 E226.96341
G1 X175.29 Y146.16 E226.96889
G1 X175.32 Y146.24 E226.97353
G1 X175.33 Y146.34 E226.97934
G1 X175.33 Y158.67 E227.69651
G1 X175.31 Y158.77 E227.70215
G1 X175.28 Y158.84 E227.70687
G1 X175.23 Y158.91 E227.71196
G1 X175.16 Y158.97 E227.71715
G1 X175.09 Y159.00 E227.72174
G1 X168.25 Y159.01 E228.11929
G1 X167.84 Y159.05 E228.14270
G1 X167.47 Y159.14 E228.16542
G1 X167.11 Y159.29 E228.18797
G1 X166.78 Y159.50 E228.21042
G1 X166.49 Y159.75 E228.23313
G1 X166.24 Y160.06 E228.25582
G1 X166.04 Y160.39 E228.27834
G1 X165.90 Y160.75 E228.30075
G1 X165.81 Y161.10 E228.32209
G1 X165.78 Y161.48 E228.34418
G1 X165.78 Y164.63 E228.52709
G1 X165.75 Y165.39 E228.57152
G1 X165.67 Y165.92 E228.60230
G1 X165.54 Y166.43 E228.63299
G1 X165.37 Y166.91 E228.66294
G1 X165.14 Y167.40 E228.69450
G1 X164.87 Y167.86 E228.72513
G1 X164.56 Y168.27 E228.75513
G1 X164.20 Y168.67 E228.78649
G1 X163.80 Y169.03 E228.81760
G1 X163.38 Y169.34 E228.84785
G1 X162.93 Y169.61 E228.87848
G1 X162.45 Y169.84 E228.90939
G1 X161.95 Y170.01 E228.94011
G1 X161.44 Y170.15 E228.97083
G1 X160.92 Y170.22 E229.00154
G1 X160.39 Y170.25 E229.03215
G1 X159.86 Y170.22 E229.06299
G1 X159.34 Y170.15 E229.09371
G1 X158.83 Y170.01 E229.12442
G1 X158.33 Y169.84 E229.15503
G1 X157.85 Y169.61 E229.18595
G1 X157.40 Y169.34 E229.21658
G1 X156.97 Y169.03 E229.24724
G1 X156.58 Y168.67 E229.27802
G1 X156.23 Y168.28 E229.30864
G1 X155.91 Y167.86 E229.33931
G1 X155.64 Y167.39 E229.37075
G1 X155.42 Y166.93 E229.40041
G1 X155.24 Y166.42 E229.43186
G1 X155.11 Y165.91 E229.46241
G1 X155.03 Y165.40 E229.49257
G1 X155.01 Y164.86 E229.52376
G1 X155.00 Y161.46 E229.72172
G1 X154.97 Y161.08 E229.74373
G1 X154.88 Y160.70 E229.76642
G1 X154.72 Y160.34 E229.78909
G1 X154.51 Y160.01 E229.81163
G1 X154.26 Y159.72 E229.83422
G1 X153.96 Y159.47 E229.85696
G1 X153.63 Y159.27 E229.87945
G1 X153.27 Y159.13 E229.90188
G1 X152.91 Y159.04 E229.92318
G1 X152.53 Y159.01 E229.94522
G1 X130.06 Y159.01 E231.25123
G1 X129.96 Y159.00 E231.25756
G1 X129.88 Y158.96 E231.26212
G1 X129.82 Y158.91 E231.26700
G1 X129.76 Y158.84 E231.27240
G1 X129.73 Y158.76 E231.27706
G1 X129.72 Y146.33 E231.99975
G1 X129.74 Y146.23 E232.00573
G1 X129.77 Y146.16 E232.01034
G1 X129.82 Y146.09 E232.01523
G1 X129.89 Y146.03 E232.02051
G1 X129.96 Y146.00 E232.02499
G1 X130.06 Y145.99 E232.03104
G1 X152.53 Y145.99 E233.33704
G1 X152.94 Y145.96 E233.36049
G1 X153.32 Y145.86 E233.38323
G1 X153.67 Y145.71 E233.40572
G1 X154.00 Y145.50 E233.42829
G1 X154.30 Y145.25 E233.45095
G1 X154.54 Y144.95 E233.47349
G1 X154.74 Y144.62 E233.49600
G1 X154.89 Y144.25 E233.51876
G1 X154.97 Y143.90 E233.53985
G1 X155.01 Y143.52 E233.56201
G0 F12000 X155.34 Y143.55
G0 X159.71 Y162.28
G0 X159.81 Y162.59
G1 F2700 X159.46 Y162.72 E233.58407
G1 X159.12 Y162.90 E233.60599
G1 X158.83 Y163.12 E233.62775
G1 X158.57 Y163.40 E233.64966
G1 X158.36 Y163.71 E233.67157
G1 X158.20 Y164.05 E233.69346
G1 X158.10 Y164.41 E233.71531
G1 X158.05 Y164.79 E233.73720
G1 X158.07 Y165.16 E233.75907
G1 X158.15 Y165.53 E233.78097
G1 X158.28 Y165.88 E233.80275
G1 X158.47 Y166.21 E233.82482
G1 X158.72 Y166.50 E233.84670
G1 X159.00 Y166.75 E233.86861
G1 X159.32 Y166.94 E233.89084
G1 X159.67 Y167.09 E233.91240
G1 X160.03 Y167.18 E233.93418
G1 X160.36 Y167.20 E233.95342
G1 X160.41 Y167.20 E233.95650
G1 X160.78 Y167.17 E233.97798
G1 X161.15 Y167.08 E233.99988
G1 X161.46 Y166.94 E234.01983
G1 X161.81 Y166.72 E234.04347
G1 X162.09 Y166.47 E234.06558
G1 X162.33 Y166.18 E234.08742
G1 X162.51 Y165.85 E234.10949
G1 X162.64 Y165.50 E234.13128
G1 X162.72 Y165.13 E234.15315
G1 X162.73 Y164.80 E234.17234
G1 X162.73 Y164.75 E234.17536
G1 X162.68 Y164.38 E234.19686
G1 X162.57 Y164.02 E234.21884
G1 X162.41 Y163.68 E234.24057
G1 X162.19 Y163.37 E234.26266
G1 X161.93 Y163.10 E234.28456
G1 X161.62 Y162.88 E234.30651
G1 X161.29 Y162.70 E234.32829
G1 X160.93 Y162.59 E234.35030
G1 X160.56 Y162.53 E234.37200
G1 X160.22 Y162.53 E234.39193
G1 X159.81 Y162.59 E234.41577
G0 F12000 X159.30 Y161.61
;TYPE:FILL
G1 F2700 X144.78 Y147.09 E235.60948
G0 F12000 X144.12 Y147.09
G1 F2700 X158.84 Y161.80 E236.81926
G0 F12000 X158.43 Y162.05
G1 F2700 X143.46 Y147.09 E238.04925
G0 F12000 X142.80 Y147.09
G1 F2700 X153.93 Y158.21 E238.96365
G0 F12000 X153.00 Y157.95
G1 F2700 X142.14 Y147.09 E239.85648
G0 F12000 X141.48 Y147.09
G1 F2700 X152.31 Y157.91 E240.74647
G0 F12000 X151.65 Y157.91
G1 F2700 X140.82 Y147.09 E241.63646
G0 F12000 X140.17 Y147.09
G1 F2700 X150.99 Y157.91 E242.52644
G0 F12000 X150.33 Y157.91
G1 F2700 X139.51 Y147.09 E243.41643
G0 F12000 X138.85 Y147.09
G1 F2700 X149.68 Y157.91 E244.30642
G0 F12000 X149.02 Y157.91
G1 F2700 X138.19 Y147.09 E245.19641
G0 F12000 X137.53 Y147.09
G1 F2700 X148.36 Y157.91 E246.08640
G0 F12000 X147.70 Y157.91
G1 F2700 X136.87 Y147.09 E246.97639
G0 F12000 X136.21 Y147.09
G1 F2700 X147.04 Y157.91 E247.86637
G0 F12000 X146.38 Y157.91
G1 F2700 X135.55 Y147.09 E248.75636
G0 F12000 X134.89 Y147.09
G1 F2700 X145.72 Y157.91 E249.64635
G0 F12000 X145.06 Y157.91
G1 F2700 X134.24 Y147.09 E250.53634
G0 F12000 X133.58 Y147.09
G1 F2700 X144.40 Y157.91 E251.42633
G0 F12000 X143.74 Y157.91
G1 F2700 X132.92 Y147.09 E252.31636
G0 F12000 X132.26 Y147.09
G1 F2700 X143.09 Y157.91 E253.20639
G0 F12000 X142.43 Y157.91
G1 F2700 X131.60 Y147.09 E254.09642
G0 F12000 X130.94 Y147.09
G1 F2700 X141.77 Y157.91 E254.98645
G0 F12000 X141.11 Y157.91
G1 F2700 X130.82 Y147.62 E255.83242
G0 F12000 X130.82 Y148.28
G1 F2700 X140.45 Y157.91 E256.62422
G0 F12000 X139.79 Y157.91
G1 F2700 X130.82 Y148.94 E257.36182
G0 F12000 X130.82 Y149.60
G1 F2700 X139.13 Y157.91 E258.04525
G0 F12000 X138.47 Y157.91
G1 F2700 X130.82 Y150.26 E258.67450
G0 F12000 X130.82 Y150.92
G1 F2700 X137.81 Y157.91 E259.24956
G0 F12000 X137.15 Y157.91
G1 F2700 X130.82 Y151.58 E259.77044
G0 F12000 X130.82 Y152.24
G1 F2700 X136.49 Y157.91 E260.23715
G0 F12000 X135.84 Y157.91
G1 F2700 X130.82 Y152.89 E260.64970
G0 F12000 X130.82 Y153.55
G1 F2700 X135.18 Y157.91 E261.00808
G0 F12000 X134.52 Y157.91
G1 F2700 X130.82 Y154.21 E261.31229
G0 F12000 X130.82 Y154.87
G1 F2700 X133.86 Y157.91 E261.56233
G0 F12000 X133.20 Y157.91
G1 F2700 X130.82 Y155.53 E261.75821
G0 F12000 X130.82 Y156.19
G1 F2700 X132.54 Y157.91 E261.89992
G0 F12000 X131.88 Y157.91
G1 F2700 X130.82 Y156.85 E261.98746
G0 F12000 X130.82 Y157.51
G1 F2700 X131.22 Y157.91 E262.02083
G0 F12000 X145.44 Y147.09
G1 F2700 X159.83 Y161.48 E263.20393
G0 F12000 X160.44 Y161.43
G1 F2700 X146.10 Y147.09 E264.38313
G0 F12000 X146.76 Y147.09
G1 F2700 X161.19 Y161.51 E265.56923
G0 F12000 X162.45 Y162.12
G1 F2700 X147.41 Y147.09 E266.80535
G0 F12000 X148.07 Y147.09
G1 F2700 X164.68 Y163.69 E268.17024
G0 F12000 X164.68 Y163.03
G1 F2700 X148.73 Y147.09 E269.48095
G0 F12000 X149.39 Y147.09
G1 F2700 X164.68 Y162.37 E270.73750
G0 F12000 X164.68 Y161.71
G1 F2700 X150.05 Y147.09 E271.93987
G0 F12000 X150.71 Y147.09
G1 F2700 X164.71 Y161.08 E273.09039
G0 F12000 X164.82 Y160.53
G1 F2700 X151.37 Y147.09 E274.19585
G0 F12000 X152.03 Y147.09
G1 F2700 X164.99 Y160.05 E275.26150
G0 F12000 X165.22 Y159.62
G1 F2700 X152.68 Y147.08 E276.29229
G0 F12000 X153.26 Y147.00
G1 F2700 X165.49 Y159.23 E277.29752
G0 F12000 X165.81 Y158.89
G1 F2700 X153.78 Y146.85 E278.28668
G0 F12000 X154.23 Y146.65
G1 F2700 X166.17 Y158.59 E279.26795
G0 F12000 X166.57 Y158.34
G1 F2700 X154.63 Y146.40 E280.24934
G0 F12000 X154.99 Y146.09
G1 F2700 X167.03 Y158.13 E281.23915
G0 F12000 X167.55 Y157.99
G1 F2700 X155.30 Y145.75 E282.24566
G0 F12000 X155.57 Y145.36
G1 F2700 X168.13 Y157.92 E283.27805
G0 F12000 X168.79 Y157.91
G1 F2700 X155.80 Y144.93 E284.34563
G0 F12000 X155.97 Y144.44
G1 F2700 X169.45 Y157.91 E285.45315
G0 F12000 X170.10 Y157.91
G1 F2700 X156.07 Y143.88 E286.60646
G0 F12000 X156.10 Y143.25
G1 F2700 X170.76 Y157.91 E287.81171
G0 F12000 X171.42 Y157.91
G1 F2700 X156.10 Y142.59 E289.07114
G0 F12000 X156.10 Y141.93
G1 F2700 X172.08 Y157.91 E290.38473
G0 F12000 X172.74 Y157.91
G1 F2700 X156.10 Y141.27 E291.75249
G0 F12000 X156.10 Y140.61
G1 F2700 X157.53 Y142.04 E291.87011
G0 F12000 X157.04 Y140.90
G1 F2700 X156.11 Y139.97 E291.94663
G0 F12000 X156.17 Y139.37
G1 F2700 X156.96 Y140.15 E292.01108
G0 F12000 X157.01 Y139.54
G1 F2700 X156.30 Y138.84 E292.06894
G0 F12000 X156.49 Y138.37
G1 F2700 X157.24 Y138.79 E292.12270
G1 X156.85 Y137.74 E292.17413
G1 X157.74 Y137.97 E292.22426
G1 X157.45 Y137.03 E292.27403
G1 X158.42 Y137.34 E292.32390
G1 X158.21 Y136.46 E292.37456
G1 X159.05 Y136.97 E292.43208
G0 F12000 X159.54 Y136.80
G1 F2700 X158.87 Y136.13 E292.48723
G0 F12000 X159.37 Y135.98
G1 F2700 X160.11 Y136.71 E292.54769
G0 F12000 X160.78 Y136.73
G1 F2700 X159.93 Y135.88 E292.61752
G0 F12000 X160.57 Y135.86
G1 F2700 X161.66 Y136.95 E292.70691
G0 F12000 X162.36 Y136.33
G1 F2700 X164.19 Y138.16 E292.85712
G0 F12000 X163.59 Y138.87
G1 F2700 X164.66 Y139.94 E292.94519
G0 F12000 X164.66 Y140.61
G1 F2700 X163.80 Y139.74 E293.01621
G0 F12000 X163.81 Y140.42
G1 F2700 X164.67 Y141.27 E293.08645
G0 F12000 X164.67 Y141.93
G1 F2700 X163.72 Y140.98 E293.16482
G0 F12000 X163.55 Y141.47
G1 F2700 X164.67 Y142.60 E293.25713
G0 F12000 X164.68 Y143.26
G1 F2700 X163.33 Y141.91 E293.36826
G0 F12000 X163.06 Y142.30
G1 F2700 X164.71 Y143.95 E293.50442
G0 F12000 X164.96 Y144.85
G1 F2700 X162.74 Y142.64 E293.68661
G0 F12000 X162.38 Y142.94
G1 F2700 X174.23 Y154.79 E294.66106
G0 F12000 X174.23 Y155.45
G1 F2700 X161.97 Y143.19 E295.66879
G0 F12000 X161.51 Y143.39
G1 F2700 X174.23 Y156.11 E296.71467
G0 F12000 X174.23 Y156.77
G1 F2700 X160.99 Y143.53 E297.80337
G0 F12000 X160.38 Y143.57
G1 F2700 X174.23 Y157.43 E298.94213
G0 F12000 X174.06 Y157.91
G1 F2700 X159.63 Y143.48 E300.12839
G0 F12000 X158.47 Y142.99
G1 F2700 X173.40 Y157.91 E301.35535
G0 F12000 X174.23 Y154.13
G1 F2700 X166.92 Y146.82 E301.95678
G0 F12000 X167.81 Y147.06
G1 F2700 X174.23 Y153.47 E302.48441
G0 F12000 X174.23 Y152.82
G1 F2700 X168.50 Y147.09 E302.95544
G0 F12000 X169.16 Y147.09
G1 F2700 X174.23 Y152.16 E303.37230
G0 F12000 X174.23 Y151.50
G1 F2700 X169.82 Y147.09 E303.73499
G0 F12000 X170.48 Y147.09
G1 F2700 X174.23 Y150.84 E304.04352
G0 F12000 X174.23 Y150.18
G1 F2700 X171.14 Y147.09 E304.29788
G0 F12000 X171.80 Y147.09
G1 F2700 X174.23 Y149.52 E304.49807
G0 F12000 X174.23 Y148.86
G1 F2700 X172.46 Y147.09 E304.64409
G0 F12000 X173.12 Y147.09
G1 F2700 X174.23 Y148.20 E304.73595
G0 F12000 X174.23 Y147.54
G1 F2700 X173.78 Y147.09 E304.77364
G0 F12000 X166.96 Y146.12
G0 X165.68 Y144.86
G0 X165.34 Y143.28
G0 X164.57 Y139.20
G1 F2700 X161.33 Y135.96 E305.03995
G0 F12000 X157.98 Y138.77
G0 X157.64 Y140.49
G0 X158.40 Y142.07
G0 X155.81 Y160.09
G1 F2700 X158.06 Y162.34 E305.22494
G0 F12000 X157.74 Y162.68
G1 F2700 X156.06 Y161.00 E305.36254
G0 F12000 X156.10 Y161.70
G1 F2700 X157.47 Y163.07 E305.47465
G0 F12000 X157.24 Y163.50
G1 F2700 X156.10 Y162.37 E305.56807
G0 F12000 X156.11 Y163.03
G1 F2700 X157.07 Y163.99 E305.64739
G0 F12000 X156.98 Y164.56
G1 F2700 X156.11 Y163.69 E305.71833
G0 F12000 X156.12 Y164.35
G1 F2700 X156.97 Y165.21 E305.78865
G0 F12000 X156.12 Y165.02
G1 F2700 X157.19 Y166.08 E305.87627
G0 F12000 X156.55 Y166.77
G1 F2700 X158.48 Y168.69 E306.03470
G0 F12000 X159.17 Y168.06
G1 F2700 X160.24 Y169.14 E306.12315
G0 F12000 X160.88 Y169.12
G1 F2700 X160.03 Y168.27 E306.19277
G0 F12000 X160.70 Y168.28
G1 F2700 X161.44 Y169.01 E306.25335
G0 F12000 X161.94 Y168.86
G1 F2700 X161.26 Y168.18 E306.30904
G0 F12000 X161.75 Y168.01
G1 F2700 X162.60 Y168.53 E306.36189
G1 X162.38 Y167.65 E306.41292
G1 X163.34 Y167.96 E306.46256
G1 X163.06 Y167.01 E306.51181
G1 X163.94 Y167.24 E306.56154
G1 X163.45 Y166.42 E306.61736
G0 F12000 X163.64 Y165.95
G1 F2700 X164.30 Y166.61 E306.67161
G0 F12000 X164.49 Y166.13
G1 F2700 X163.77 Y165.42 E306.73013
G0 F12000 X163.82 Y164.81
G1 F2700 X164.61 Y165.60 E306.79494
G0 F12000 X164.67 Y165.00
G1 F2700 X163.73 Y164.06 E306.87188
G0 F12000 X164.68 Y164.35
G1 F2700 X163.14 Y162.81 E306.99814
G0 F12000 X162.91 Y166.03
G0 X161.66 Y167.33
G0 X159.50 Y169.05
G1 F2700 X156.20 Y165.75 E307.26922
;LAYER:1
G0 F12000 X156.03 Y165.73 Z0.60
;TYPE:WALL-INNER
G1 F2700 X155.96 Y165.30 E307.29456
G1 X155.94 Y161.43 E307.51962
G1 X155.88 Y160.88 E307.55188
G1 X155.78 Y160.43 E307.57822
G1 X155.56 Y159.94 E307.60968
G1 X155.29 Y159.49 E307.64038
G1 X154.93 Y159.06 E307.67235
G1 X154.46 Y158.68 E307.70802
G1 X154.07 Y158.45 E307.73400
G1 X153.58 Y158.24 E307.76485
G1 X153.06 Y158.12 E307.79600
G1 X152.57 Y158.08 E307.82452
G1 X130.65 Y158.08 E309.09855
G1 X130.65 Y146.92 E309.74691
G1 X152.59 Y146.92 E311.02164
G1 X153.14 Y146.87 E311.05418
G1 X153.60 Y146.75 E311.08140
G1 X154.15 Y146.51 E311.11645
G1 X154.53 Y146.27 E311.14262
G1 X154.94 Y145.92 E311.17395
G1 X155.29 Y145.52 E311.20488
G1 X155.57 Y145.05 E311.23667
G1 X155.79 Y144.48 E311.27224
G1 X155.90 Y144.05 E311.29823
G1 X155.94 Y143.56 E311.32675
G1 X155.94 Y140.17 E311.52373
G1 X155.96 Y139.71 E311.55072
G1 X156.03 Y139.27 E311.57624
G1 X156.13 Y138.85 E311.60168
G1 X156.28 Y138.43 E311.62711
G1 X156.47 Y138.03 E311.65305
G1 X156.69 Y137.67 E311.67779
G1 X156.95 Y137.32 E311.70317
G1 X157.24 Y136.99 E311.72865
G1 X157.56 Y136.70 E311.75384
G1 X157.92 Y136.43 E311.77984
G1 X158.29 Y136.21 E311.80490
G1 X158.68 Y136.03 E311.82984
G1 X159.10 Y135.88 E311.85563
G1 X159.52 Y135.77 E311.88110
G1 X159.96 Y135.71 E311.90665
G1 X160.39 Y135.69 E311.93191
G1 X160.82 Y135.71 E311.95694
G1 X161.26 Y135.77 E311.98248
G1 X161.69 Y135.88 E312.00838
G1 X162.10 Y136.02 E312.03353
G1 X162.49 Y136.21 E312.05880
G1 X162.86 Y136.43 E312.08386
G1 X163.22 Y136.70 E312.10986
G1 X163.53 Y136.99 E312.13464
G1 X163.84 Y137.32 E312.16094
G1 X164.09 Y137.67 E312.18590
G1 X164.32 Y138.04 E312.21103
G1 X164.50 Y138.43 E312.23643
G1 X164.65 Y138.85 E312.26221
G1 X164.76 Y139.27 E312.28756
G1 X164.82 Y139.69 E312.31233
G1 X164.84 Y143.55 E312.53669
G1 X164.88 Y144.05 E312.56566
G1 X165.01 Y144.57 E312.59677
G1 X165.21 Y145.06 E312.62755
G1 X165.49 Y145.52 E312.65867
G1 X165.84 Y145.93 E312.69001
G1 X166.25 Y146.27 E312.72110
G1 X166.72 Y146.56 E312.75294
G1 X167.28 Y146.78 E312.78817
G1 X167.72 Y146.88 E312.81448
G1 X168.21 Y146.92 E312.84298
G1 X174.40 Y146.92 E313.20258
G1 X174.40 Y158.08 E313.85099
G1 X168.19 Y158.08 E314.21158
G1 X167.64 Y158.14 E314.24415
G1 X167.20 Y158.24 E314.27034
G1 X166.71 Y158.45 E314.30140
G1 X166.25 Y158.72 E314.33221
G1 X165.84 Y159.07 E314.36364
G1 X165.49 Y159.49 E314.39511
G1 X165.22 Y159.94 E314.42599
G1 X165.01 Y160.43 E314.45674
G1 X164.88 Y160.95 E314.48807
G1 X164.84 Y161.44 E314.51676
G1 X164.84 Y164.82 E314.71321
G1 X164.82 Y165.31 E314.74149
G1 X164.76 Y165.73 E314.76591
G1 X164.65 Y166.16 E314.79169
G1 X164.50 Y166.57 E314.81703
G1 X164.32 Y166.96 E314.84243
G1 X164.09 Y167.34 E314.86790
G1 X163.84 Y167.68 E314.89279
G1 X163.54 Y168.01 E314.91859
G1 X163.21 Y168.31 E314.94439
G1 X162.87 Y168.56 E314.96928
G1 X162.49 Y168.79 E314.99474
G1 X162.10 Y168.98 E315.02004
G1 X161.69 Y169.12 E315.04526
G1 X161.25 Y169.23 E315.07123
G1 X160.83 Y169.29 E315.09602
G1 X160.39 Y169.31 E315.12168
G1 X159.95 Y169.29 E315.14757
G1 X159.53 Y169.23 E315.17236
G1 X159.10 Y169.12 E315.19785
G1 X158.68 Y168.97 E315.22377
G1 X158.29 Y168.79 E315.24873
G1 X157.92 Y168.56 E315.27420
G1 X157.57 Y168.31 E315.29909
G1 X157.24 Y168.01 E315.32534
G1 X156.95 Y167.69 E315.35028
G1 X156.69 Y167.34 E315.37559
G1 X156.47 Y166.97 E315.40067
G1 X156.27 Y166.56 E315.42695
G1 X156.13 Y166.16 E315.45142
G1 X156.03 Y165.73 E315.47736
G0 F12000 X157.15 Y165.33
G1 F2700 X157.27 Y165.85 E315.50826
G1 X157.47 Y166.33 E315.53869
G1 X157.74 Y166.78 E315.56936
G1 X158.08 Y167.19 E315.60007
G1 X158.49 Y167.53 E315.63085
G1 X158.94 Y167.80 E315.66150
G1 X159.43 Y167.99 E315.69192
G1 X159.94 Y168.10 E315.72227
G1 X160.47 Y168.14 E315.75324
G1 X160.99 Y168.08 E315.78369
G1 X161.50 Y167.94 E315.81453
G1 X161.98 Y167.72 E315.84506
G1 X162.40 Y167.45 E315.87447
G1 X162.68 Y167.20 E315.89580
G1 X162.83 Y167.05 E315.90822
G1 X163.13 Y166.66 E315.93709
G1 X163.38 Y166.19 E315.96773
G1 X163.56 Y165.70 E315.99828
G1 X163.65 Y165.19 E316.02805
G1 X163.66 Y164.84 E316.04899
G1 X163.66 Y164.63 E316.06097
G1 X163.59 Y164.13 E316.09003
G1 X163.43 Y163.64 E316.11990
G1 X163.27 Y163.31 E316.14125
G1 X162.96 Y162.83 E316.17473
G1 X162.51 Y162.37 E316.21193
G1 X162.08 Y162.06 E316.24325
G1 X161.60 Y161.82 E316.27387
G1 X161.10 Y161.67 E316.30463
G1 X160.59 Y161.60 E316.33420
G1 X160.18 Y161.59 E316.35821
G1 X159.55 Y161.70 E316.39547
G1 X159.04 Y161.88 E316.42709
G1 X158.57 Y162.14 E316.45789
G1 X158.18 Y162.45 E316.48739
G1 X157.79 Y162.88 E316.52100
G1 X157.53 Y163.28 E316.54878
G1 X157.35 Y163.64 E316.57199
G1 X157.20 Y164.13 E316.60188
G1 X157.13 Y164.62 E316.63055
G1 X157.12 Y164.84 E316.64306
G1 X157.15 Y165.33 E316.67182
G0 F12000 X159.94 Y143.38
G1 F2700 X160.47 Y143.41 E316.70285
G1 X160.99 Y143.36 E316.73342
G1 X161.50 Y143.22 E316.76427
G1 X161.98 Y143.00 E316.79470
G1 X162.40 Y142.72 E316.82410
G1 X162.68 Y142.48 E316.84543
G1 X162.83 Y142.33 E316.85785
G1 X163.13 Y141.94 E316.88664
G1 X163.38 Y141.47 E316.91726
G1 X163.56 Y140.98 E316.94786
G1 X163.65 Y140.47 E316.97763
G1 X163.66 Y140.11 E316.99869
G1 X163.66 Y139.90 E317.01073
G1 X163.59 Y139.41 E317.03961
G1 X163.43 Y138.91 E317.07022
G1 X163.19 Y138.43 E317.10107
G1 X162.88 Y138.01 E317.13160
G1 X162.50 Y137.64 E317.16242
G1 X162.07 Y137.33 E317.19307
G1 X161.60 Y137.10 E317.22350
G1 X161.10 Y136.94 E317.25415
G1 X160.60 Y136.87 E317.28373
G1 X160.18 Y136.87 E317.30797
G1 X159.55 Y136.97 E317.34518
G1 X159.04 Y137.16 E317.37675
G1 X158.58 Y137.41 E317.40729
G1 X158.16 Y137.74 E317.43788
G1 X157.81 Y138.13 E317.46874
G1 X157.53 Y138.55 E317.49820
G1 X157.35 Y138.92 E317.52175
G1 X157.20 Y139.41 E317.55159
G1 X157.13 Y139.89 E317.58003
G1 X157.12 Y140.11 E317.59265
G1 X157.15 Y140.61 E317.62152
G1 X157.27 Y141.12 E317.65244
G1 X157.47 Y141.61 E317.68292
G1 X157.74 Y142.06 E317.71357
G1 X158.08 Y142.46 E317.74420
G1 X158.49 Y142.80 E317.77489
G1 X158.94 Y143.07 E317.80560
G1 X159.43 Y143.26 E317.83606
G1 X159.94 Y143.38 E317.86636
G0 F12000 X160.00 Y142.92
G1 F2700 X160.46 Y142.95 E317.89291
G1 X160.90 Y142.90 E317.91903
G1 X161.34 Y142.78 E317.94548
G1 X161.75 Y142.59 E317.97162
G1 X162.12 Y142.35 E317.99713
G1 X162.47 Y142.02 E318.02522
G1 X162.74 Y141.68 E318.05041
G1 X162.96 Y141.28 E318.07671
G1 X163.10 Y140.86 E318.10288
G1 X163.18 Y140.42 E318.12863
G1 X163.19 Y140.11 E318.14689
G1 X163.19 Y139.94 E318.15643
G1 X163.13 Y139.51 E318.18156
G1 X162.99 Y139.08 E318.20783
G1 X162.79 Y138.68 E318.23421
G1 X162.52 Y138.31 E318.26041
G1 X162.20 Y137.99 E318.28680
G1 X161.83 Y137.73 E318.31305
G1 X161.43 Y137.53 E318.33918
G1 X161.00 Y137.40 E318.36550
G1 X160.56 Y137.34 E318.39110
G1 X160.22 Y137.34 E318.41121
G1 X159.66 Y137.43 E318.44371
G1 X159.23 Y137.58 E318.47053
G1 X158.84 Y137.80 E318.49673
G1 X158.48 Y138.08 E318.52294
G1 X158.18 Y138.42 E318.54940
G1 X157.93 Y138.78 E318.57492
G1 X157.79 Y139.09 E318.59462
G1 X157.66 Y139.51 E318.62045
G1 X157.59 Y139.94 E318.64536
G1 X157.59 Y140.11 E318.65519
G1 X157.61 Y140.54 E318.68039
G1 X157.71 Y140.98 E318.70690
G1 X157.88 Y141.40 E318.73305
G1 X158.12 Y141.79 E318.75926
G1 X158.41 Y142.13 E318.78561
G1 X158.76 Y142.42 E318.81189
G1 X159.15 Y142.66 E318.83819
G1 X159.56 Y142.82 E318.86434
G1 X160.00 Y142.92 E318.89034
G0 F12000 X155.47 Y143.54
G1 F2700 X155.47 Y140.14 E319.08802
G1 X155.49 Y139.66 E319.11577
G1 X155.57 Y139.19 E319.14364
G1 X155.69 Y138.71 E319.17244
G1 X155.84 Y138.26 E319.20019
G1 X156.06 Y137.82 E319.22853
G1 X156.30 Y137.41 E319.25629
G1 X156.59 Y137.02 E319.28457
G1 X156.91 Y136.66 E319.31244
G1 X157.27 Y136.34 E319.34039
G1 X157.66 Y136.04 E319.36897
G1 X158.07 Y135.80 E319.39632
G1 X158.51 Y135.59 E319.42461
G1 X158.96 Y135.43 E319.45268
G1 X159.43 Y135.31 E319.48068
G1 X159.91 Y135.24 E319.50893
G1 X160.39 Y135.22 E319.53698
G1 X160.87 Y135.24 E319.56480
G1 X161.35 Y135.31 E319.59305
G1 X161.82 Y135.43 E319.62105
G1 X162.28 Y135.59 E319.64923
G1 X162.72 Y135.80 E319.67752
G1 X163.12 Y136.04 E319.70487
G1 X163.51 Y136.33 E319.73304
G1 X163.87 Y136.66 E319.76172
G1 X164.19 Y137.02 E319.78926
G1 X164.48 Y137.41 E319.81754
G1 X164.73 Y137.81 E319.84522
G1 X164.94 Y138.26 E319.87397
G1 X165.10 Y138.71 E319.90153
G1 X165.22 Y139.18 E319.92970
G1 X165.29 Y139.66 E319.95794
G1 X165.31 Y143.54 E320.18334
G1 X165.34 Y143.98 E320.20893
G1 X165.46 Y144.42 E320.23579
G1 X165.63 Y144.85 E320.26248
G1 X165.87 Y145.24 E320.28925
G1 X166.17 Y145.60 E320.31629
G1 X166.53 Y145.90 E320.34318
G1 X166.93 Y146.14 E320.37042
G1 X167.42 Y146.33 E320.40137
G1 X167.80 Y146.42 E320.42374
G1 X168.23 Y146.46 E320.44904
G1 X174.86 Y146.46 E320.83462
G1 X174.87 Y158.54 E321.53720
G1 X168.22 Y158.54 E321.92342
