;-- START GCODE --
;Sliced for Type A Machines Series 1
;Sliced at: Sat 05-09-2015 00:38:05
;Basic settings: Layer height: 0.1 Walls: 1.4 Fill: 25
;Print Speed: 50 Support: 0
;Retraction Speed: 40 Retraction Distance: 1.2
;Print time: #P_TIME#
;Filament used: #F_AMNT#m #F_WGHT#g
;Filament cost: #F_COST#
M106 S255	 ;start with the fan on
G21        ;metric values
G90        ;absolute positioning
M106 S255    ;start with the fan on
G28     ;move to endstops
G29		;allows for auto-levelling
G1 X150 Y5  Z15.0 F12000 ;center and move the platform down 15mm
M109 S220 ;Heat To temp
G92 E0                  ;zero the extruded length
G1 F200 E30              ;extrude 30mm of feed stock
G92 E0                  ;zero the extruded length again
G1 X175 Y25  Z0 F12000 ;remove bugger
G1 X220 F12000 ;remove bugger
G1 X150 Y150  Z15 F12000 ;recenter and begin
G1 F12000

;Layer count: 64
;LAYER:0
M106 S255
G0 F12000 X103.09 Y144.88 Z0.30
;TYPE:SKIRT
G1 F2700 X104.63 Y143.85 E0.10718
G1 X105.74 Y143.24 E0.18133
G1 X107.82 Y142.31 E0.31355
G1 X110.03 Y141.59 E0.44891
G1 X112.23 Y141.12 E0.57938
G1 X114.72 Y140.82 E0.72486
G1 X117.83 Y140.73 E0.90594
G1 X124.33 Y141.12 E1.28475
G1 X125.09 Y140.43 E1.34403
G1 X126.46 Y138.92 E1.46249
G1 X126.53 Y138.83 E1.46927
G1 X127.53 Y137.20 E1.58039
G1 X129.01 Y135.35 E1.71803
G1 X130.56 Y133.83 E1.84404
G1 X131.82 Y132.84 E1.93732
G1 X133.07 Y132.03 E2.02381
G1 X134.35 Y131.37 E2.10731
G1 X135.64 Y130.84 E2.18859
G1 X137.00 Y130.44 E2.27077
G1 X138.65 Y130.11 E2.36868
G1 X140.29 Y129.96 E2.46459
G1 X142.02 Y129.97 E2.56508
G1 X142.09 Y129.97 E2.56933
G1 X142.84 Y129.64 E2.61701
G1 X144.01 Y129.27 E2.68815
G1 X144.42 Y129.19 E2.71250
G1 X144.34 Y128.89 E2.73013
G1 X144.10 Y127.61 E2.80604
G1 X143.99 Y126.38 E2.87781
G1 X143.99 Y125.11 E2.95157
G1 X144.12 Y123.89 E3.02288
G1 X144.36 Y122.67 E3.09543
G1 X144.74 Y121.44 E3.17011
G1 X145.26 Y120.24 E3.24615
G1 X145.95 Y119.03 E3.32686
G1 X146.78 Y117.91 E3.40811
G1 X147.75 Y116.88 E3.49042
G1 X148.93 Y115.91 E3.57909
G1 X150.23 Y115.13 E3.66721
G1 X151.64 Y114.50 E3.75695
G1 X153.19 Y114.07 E3.85046
G1 X154.73 Y113.86 E3.94084
G1 X156.30 Y113.87 E4.03203
G1 X157.81 Y114.08 E4.12056
G1 X159.21 Y114.45 E4.20456
G1 X160.24 Y114.86 E4.26915
G1 X200.81 Y133.12 E6.85519
G1 X202.65 Y134.10 E6.97610
G1 X204.11 Y135.12 E7.07971
G1 X205.39 Y136.22 E7.17799
G1 X206.54 Y137.47 E7.27661
G1 X207.54 Y138.81 E7.37359
G1 X208.37 Y140.25 E7.47025
G1 X209.04 Y141.76 E7.56643
G1 X209.52 Y143.28 E7.65869
G1 X209.83 Y144.74 E7.74597
G1 X210.01 Y146.30 E7.83685
G1 X210.03 Y148.28 E7.95235
G1 X209.84 Y150.26 E8.06758
G1 X209.45 Y152.17 E8.18074
G1 X208.78 Y154.44 E8.31840
G1 X207.70 Y157.03 E8.48162
G1 X206.39 Y159.49 E8.64363
G1 X202.90 Y164.82 E9.01417
G1 X201.97 Y165.04 E9.06956
G1 X198.80 Y173.50 E9.59454
G1 X198.03 Y175.61 E9.72507
G1 X197.06 Y177.63 E9.85523
G1 X196.02 Y179.37 E9.97321
G1 X194.77 Y181.04 E10.09459
G1 X193.49 Y182.41 E10.20373
G1 X192.07 Y183.63 E10.31225
G1 X190.72 Y184.56 E10.40735
G1 X189.30 Y185.33 E10.50154
G1 X187.75 Y185.96 E10.59885
G1 X186.08 Y186.43 E10.69956
G1 X184.35 Y186.70 E10.80129
G1 X182.84 Y186.76 E10.88913
G1 X168.00 Y186.52 E11.75148
G1 X166.57 Y186.41 E11.83537
G1 X164.89 Y186.07 E11.93458
G1 X163.21 Y185.51 E12.03756
G1 X161.59 Y184.69 E12.14302
G1 X160.09 Y183.64 E12.24981
G1 X158.93 Y182.54 E12.34248
G1 X157.83 Y184.17 E12.45687
G1 X156.41 Y185.84 E12.58403
G1 X155.04 Y187.13 E12.69337
G1 X153.80 Y188.07 E12.78399
G1 X152.50 Y188.88 E12.87313
G1 X151.12 Y189.57 E12.96254
G1 X149.63 Y190.15 E13.05584
G1 X147.74 Y190.66 E13.16927
G1 X145.76 Y190.99 E13.28585
G1 X143.36 Y191.14 E13.42570
G1 X140.55 Y191.07 E13.58914
G1 X138.78 Y190.92 E13.69230
G1 X130.55 Y189.69 E14.17624
G1 X129.76 Y189.53 E14.22298
G1 X113.97 Y186.31 E15.15990
G1 X111.81 Y185.80 E15.28853
G1 X109.70 Y185.06 E15.41838
G1 X107.64 Y184.09 E15.55082
G1 X105.63 Y182.86 E15.68775
G1 X103.72 Y181.37 E15.82850
G1 X101.94 Y179.62 E15.97404
G1 X100.34 Y177.62 E16.12290
G1 X98.93 Y175.41 E16.27488
G1 X97.73 Y173.03 E16.43008
G1 X96.72 Y170.42 E16.59265
G1 X95.77 Y167.06 E16.79554
G1 X95.17 Y163.96 E16.97897
G1 X94.97 Y161.96 E17.09604
G1 X94.98 Y159.90 E17.21554
G1 X95.20 Y157.89 E17.33339
G1 X95.61 Y155.93 E17.44991
G1 X96.21 Y154.05 E17.56431
G1 X96.98 Y152.26 E17.67740
G1 X97.91 Y150.56 E17.79016
G1 X98.98 Y148.97 E17.90165
G1 X100.20 Y147.49 E18.01289
G1 X101.58 Y146.11 E18.12620
G1 X103.09 Y144.88 E18.23979
G0 F12000 X103.37 Y145.25
G1 F2700 X104.87 Y144.25 E18.34454
G1 X105.95 Y143.65 E18.41643
G1 X107.98 Y142.74 E18.54591
G1 X110.16 Y142.05 E18.67846
G1 X112.31 Y141.59 E18.80638
G1 X114.75 Y141.29 E18.94946
G1 X117.82 Y141.19 E19.12809
G1 X124.48 Y141.59 E19.51581
G1 X124.61 Y141.49 E19.52544
G1 X125.42 Y140.75 E19.58921
G1 X126.81 Y139.23 E19.70886
G1 X126.91 Y139.10 E19.71840
G1 X127.91 Y137.47 E19.82974
G1 X129.36 Y135.66 E19.96411
G1 X130.86 Y134.18 E20.08700
G1 X132.09 Y133.22 E20.17750
G1 X133.30 Y132.44 E20.26139
G1 X134.54 Y131.80 E20.34239
G1 X135.80 Y131.28 E20.42117
G1 X137.11 Y130.89 E20.50073
G1 X138.72 Y130.57 E20.59598
G1 X140.31 Y130.43 E20.68914
G1 X142.01 Y130.44 E20.78801
G1 X142.18 Y130.44 E20.79795
G1 X143.01 Y130.08 E20.85033
G1 X144.13 Y129.72 E20.91872
G1 X145.01 Y129.54 E20.97104
G1 X144.79 Y128.78 E21.01662
G1 X144.56 Y127.55 E21.08981
G1 X144.45 Y126.36 E21.15907
G1 X144.46 Y125.14 E21.23022
G1 X144.58 Y123.96 E21.29889
G1 X144.81 Y122.78 E21.36878
G1 X145.18 Y121.60 E21.44060
G1 X145.67 Y120.44 E21.51378
G1 X146.34 Y119.29 E21.59124
G1 X147.14 Y118.21 E21.66925
G1 X148.07 Y117.22 E21.74823
G1 X149.20 Y116.29 E21.83331
G1 X150.45 Y115.54 E21.91775
G1 X151.80 Y114.94 E22.00379
G1 X153.28 Y114.53 E22.09344
G1 X154.76 Y114.33 E22.18012
G1 X156.27 Y114.33 E22.26760
G1 X157.72 Y114.53 E22.35267
G1 X159.06 Y114.89 E22.43342
G1 X160.06 Y115.28 E22.49583
G1 X200.61 Y133.54 E25.08033
G1 X202.40 Y134.50 E25.19866
G1 X203.82 Y135.49 E25.29926
G1 X205.06 Y136.56 E25.39466
G1 X206.18 Y137.77 E25.49028
G1 X207.15 Y139.07 E25.58431
G1 X207.96 Y140.46 E25.67792
G1 X208.60 Y141.93 E25.77105
G1 X209.07 Y143.39 E25.86052
G1 X209.37 Y144.82 E25.94530
G1 X209.55 Y146.33 E26.03343
G1 X209.56 Y148.26 E26.14602
G1 X209.38 Y150.19 E26.25845
G1 X209.00 Y152.05 E26.36906
G1 X208.34 Y154.28 E26.50398
G1 X207.28 Y156.83 E26.66456
G1 X205.98 Y159.25 E26.82408
G1 X202.61 Y164.41 E27.18248
G1 X201.62 Y164.64 E27.24152
G1 X198.36 Y173.34 E27.78127
G1 X197.60 Y175.43 E27.91049
G1 X196.65 Y177.41 E28.03803
G1 X195.63 Y179.11 E28.15338
G1 X194.41 Y180.74 E28.27190
G1 X193.16 Y182.08 E28.37804
G1 X191.79 Y183.26 E28.48363
G1 X190.48 Y184.16 E28.57579
G1 X189.10 Y184.91 E28.66713
G1 X187.60 Y185.52 E28.76141
G1 X185.98 Y185.97 E28.85898
G1 X184.30 Y186.24 E28.95753
G1 X182.84 Y186.30 E29.04298
G1 X168.03 Y186.05 E29.90377
G1 X166.63 Y185.95 E29.98521
G1 X165.01 Y185.62 E30.08105
G1 X163.39 Y185.08 E30.18036
G1 X161.83 Y184.29 E30.28196
G1 X160.38 Y183.28 E30.38479
G1 X159.14 Y182.09 E30.48457
G1 X158.88 Y181.78 E30.50823
G1 X157.46 Y183.89 E30.65640
G1 X156.08 Y185.52 E30.78052
G1 X154.74 Y186.77 E30.88693
G1 X153.54 Y187.69 E30.97489
G1 X152.28 Y188.48 E31.06145
G1 X150.94 Y189.14 E31.14837
G1 X149.48 Y189.71 E31.23895
G1 X147.65 Y190.20 E31.34960
G1 X145.71 Y190.52 E31.46347
G1 X143.35 Y190.68 E31.60075
G1 X140.58 Y190.60 E31.76221
G1 X138.84 Y190.46 E31.86368
G1 X130.63 Y189.23 E32.34604
G1 X129.85 Y189.07 E32.39207
G1 X114.07 Y185.86 E33.32858
G1 X111.94 Y185.36 E33.45535
G1 X109.88 Y184.63 E33.58235
G1 X107.86 Y183.68 E33.71191
G1 X105.90 Y182.48 E33.84586
G1 X104.03 Y181.02 E33.98351
G1 X102.29 Y179.30 E34.12592
G1 X100.72 Y177.35 E34.27173
G1 X99.33 Y175.19 E34.42083
G1 X98.16 Y172.84 E34.57336
G1 X97.16 Y170.27 E34.73335
G1 X96.22 Y166.96 E34.93378
G1 X95.63 Y163.90 E35.11490
G1 X95.44 Y161.94 E35.22934
G1 X95.45 Y159.93 E35.34599
G1 X95.66 Y157.96 E35.46110
G1 X96.06 Y156.04 E35.57488
G1 X96.65 Y154.21 E35.68660
G1 X97.40 Y152.47 E35.79711
G1 X98.31 Y150.80 E35.90726
G1 X99.36 Y149.25 E36.01624
G1 X100.55 Y147.81 E36.12492
G1 X101.89 Y146.46 E36.23552
G1 X103.37 Y145.25 E36.34647
G0 F12000 X103.65 Y145.63
G1 F2700 X105.11 Y144.65 E36.44887
G1 X106.16 Y144.07 E36.51849
G1 X108.15 Y143.18 E36.64529
G1 X110.28 Y142.50 E36.77497
G1 X112.38 Y142.04 E36.90034
G1 X114.79 Y141.75 E37.04096
G1 X117.82 Y141.66 E37.21715
G1 X124.63 Y142.07 E37.61366
G1 X124.91 Y141.85 E37.63416
G1 X125.75 Y141.09 E37.70044
G1 X127.17 Y139.52 E37.82290
G1 X127.29 Y139.37 E37.83455
G1 X128.30 Y137.74 E37.94601
G1 X129.70 Y135.97 E38.07708
G1 X131.17 Y134.53 E38.19680
G1 X132.36 Y133.60 E38.28453
G1 X133.54 Y132.84 E38.36590
G1 X134.74 Y132.22 E38.44438
G1 X135.95 Y131.72 E38.52068
G1 X137.22 Y131.34 E38.59765
G1 X138.78 Y131.04 E38.69012
G1 X140.33 Y130.89 E38.78066
G1 X142.00 Y130.90 E38.87784
G1 X142.27 Y130.91 E38.89354
G1 X143.17 Y130.52 E38.95062
G1 X144.25 Y130.17 E39.01620
G1 X145.32 Y129.95 E39.07974
G1 X145.61 Y129.92 E39.09664
G1 X145.24 Y128.68 E39.17182
G1 X145.02 Y127.48 E39.24237
G1 X144.92 Y126.34 E39.30906
G1 X144.92 Y125.16 E39.37753
G1 X145.04 Y124.03 E39.44369
G1 X145.26 Y122.90 E39.51086
G1 X145.62 Y121.76 E39.57987
G1 X146.09 Y120.65 E39.65008
G1 X146.73 Y119.54 E39.72430
G1 X147.50 Y118.51 E39.79912
G1 X148.39 Y117.56 E39.87477
G1 X149.47 Y116.68 E39.95617
G1 X150.66 Y115.95 E40.03704
G1 X151.96 Y115.38 E40.11931
G1 X153.38 Y114.99 E40.20512
G1 X154.79 Y114.80 E40.28810
G1 X156.24 Y114.80 E40.37197
G1 X157.63 Y114.99 E40.45352
G1 X158.91 Y115.34 E40.53107
G1 X159.88 Y115.72 E40.59131
G1 X200.40 Y133.96 E43.17420
G1 X202.16 Y134.90 E43.29004
G1 X203.54 Y135.86 E43.38759
G1 X204.74 Y136.90 E43.48006
G1 X205.82 Y138.06 E43.57272
G1 X206.76 Y139.32 E43.66376
G1 X207.54 Y140.67 E43.75438
G1 X208.17 Y142.09 E43.84452
G1 X208.62 Y143.51 E43.93118
G1 X208.91 Y144.90 E44.01340
G1 X209.08 Y146.36 E44.09884
G1 X209.10 Y148.24 E44.20846
G1 X208.91 Y150.12 E44.31814
G1 X208.55 Y151.94 E44.42610
G1 X207.90 Y154.12 E44.55835
G1 X206.85 Y156.63 E44.71623
G1 X205.58 Y159.01 E44.87322
G1 X202.32 Y164.00 E45.21961
G1 X201.27 Y164.25 E45.28229
G1 X197.89 Y173.25 E45.84120
G1 X197.17 Y175.25 E45.96467
G1 X196.24 Y177.19 E46.08963
G1 X195.24 Y178.85 E46.20240
G1 X194.05 Y180.44 E46.31797
G1 X192.84 Y181.74 E46.42119
G1 X191.50 Y182.89 E46.52385
G1 X190.24 Y183.76 E46.61301
G1 X188.90 Y184.49 E46.70154
G1 X187.44 Y185.08 E46.79274
G1 X185.88 Y185.52 E46.88717
G1 X184.26 Y185.77 E46.98255
G1 X182.83 Y185.83 E47.06573
G1 X168.05 Y185.59 E47.92489
G1 X166.69 Y185.48 E48.00388
G1 X165.13 Y185.17 E48.09639
G1 X163.57 Y184.65 E48.19203
G1 X162.07 Y183.89 E48.28979
G1 X160.68 Y182.91 E48.38865
G1 X159.48 Y181.78 E48.48452
G1 X158.82 Y180.95 E48.54615
G1 X158.52 Y181.48 E48.58144
G1 X157.09 Y183.61 E48.73074
G1 X155.74 Y185.20 E48.85189
G1 X154.44 Y186.41 E48.95530
G1 X153.27 Y187.30 E49.04061
G1 X152.05 Y188.07 E49.12463
G1 X150.75 Y188.72 E49.20898
G1 X149.34 Y189.26 E49.29690
G1 X147.55 Y189.75 E49.40474
G1 X145.66 Y190.06 E49.51590
G1 X143.35 Y190.21 E49.65062
G1 X140.60 Y190.14 E49.81010
G1 X138.89 Y190.00 E49.90994
G1 X130.71 Y188.77 E50.39065
G1 X129.95 Y188.61 E50.43596
G1 X114.17 Y185.40 E51.37206
G1 X112.07 Y184.91 E51.49698
G1 X110.06 Y184.20 E51.62115
G1 X108.09 Y183.27 E51.74782
G1 X106.17 Y182.09 E51.87875
G1 X104.34 Y180.67 E52.01333
G1 X102.63 Y178.99 E52.15261
G1 X101.09 Y177.07 E52.29536
G1 X99.74 Y174.96 E52.44157
G1 X98.58 Y172.65 E52.59147
G1 X97.60 Y170.13 E52.74887
G1 X96.68 Y166.85 E52.94687
G1 X96.10 Y163.83 E53.12556
G1 X95.90 Y161.91 E53.23737
G1 X95.91 Y159.96 E53.35124
G1 X96.12 Y158.03 E53.46354
G1 X96.52 Y156.16 E53.57458
G1 X97.09 Y154.38 E53.68375
G1 X97.82 Y152.67 E53.79160
G1 X98.70 Y151.05 E53.89915
G1 X99.73 Y149.53 E54.00561
G1 X100.89 Y148.12 E54.11169
G1 X102.20 Y146.80 E54.21966
G1 X103.65 Y145.63 E54.32785
G0 F12000 X103.92 Y146.00
G1 F2700 X105.35 Y145.05 E54.42778
G1 X106.37 Y144.49 E54.49522
G1 X108.32 Y143.61 E54.61937
G1 X110.39 Y142.95 E54.74616
G1 X112.46 Y142.50 E54.86897
G1 X114.82 Y142.22 E55.00714
G1 X117.81 Y142.13 E55.18089
G1 X124.77 Y142.54 E55.58613
G1 X124.77 Y142.54 E55.58634
G1 X125.21 Y142.21 E55.61797
G1 X126.08 Y141.41 E55.68680
G1 X127.52 Y139.82 E55.81156
G1 X127.67 Y139.64 E55.82506
G1 X128.68 Y138.00 E55.93695
G1 X130.05 Y136.28 E56.06470
G1 X131.48 Y134.88 E56.18130
G1 X132.63 Y133.98 E56.26626
G1 X133.77 Y133.24 E56.34505
G1 X134.93 Y132.64 E56.42100
G1 X136.11 Y132.16 E56.49481
G1 X137.33 Y131.80 E56.56917
G1 X138.85 Y131.50 E56.65897
G1 X140.35 Y131.36 E56.74676
G1 X142.00 Y131.37 E56.84231
G1 X142.37 Y131.38 E56.86383
G1 X143.34 Y130.95 E56.92549
G1 X144.37 Y130.62 E56.98832
G1 X145.39 Y130.41 E57.04920
G1 X146.25 Y130.31 E57.09949
G1 X146.13 Y130.02 E57.11784
G1 X145.70 Y128.57 E57.20608
G1 X145.48 Y127.42 E57.27394
G1 X145.38 Y126.32 E57.33813
G1 X145.39 Y125.19 E57.40398
G1 X145.50 Y124.10 E57.46752
G1 X145.72 Y123.01 E57.53207
G1 X146.06 Y121.92 E57.59823
G1 X146.51 Y120.86 E57.66550
G1 X147.12 Y119.80 E57.73655
G1 X147.85 Y118.81 E57.80812
G1 X148.71 Y117.91 E57.88048
G1 X149.74 Y117.06 E57.95820
G1 X150.88 Y116.37 E58.03545
G1 X152.11 Y115.82 E58.11397
G1 X153.47 Y115.44 E58.19585
G1 X154.82 Y115.26 E58.27520
G1 X156.20 Y115.27 E58.35535
G1 X157.53 Y115.45 E58.43337
G1 X158.77 Y115.78 E58.50776
G1 X159.70 Y116.14 E58.56579
G1 X200.20 Y134.38 E61.14717
G1 X201.92 Y135.29 E61.26043
G1 X203.25 Y136.22 E61.35498
G1 X204.42 Y137.23 E61.44456
G1 X205.47 Y138.36 E61.53422
G1 X206.37 Y139.58 E61.62223
G1 X207.13 Y140.88 E61.70987
G1 X207.73 Y142.25 E61.79697
G1 X208.16 Y143.63 E61.88081
G1 X208.45 Y144.97 E61.96048
G1 X208.62 Y146.39 E62.04330
G1 X208.63 Y148.22 E62.15002
G1 X208.45 Y150.05 E62.25684
G1 X208.10 Y151.83 E62.36218
G1 X207.46 Y153.97 E62.49183
G1 X206.43 Y156.43 E62.64697
G1 X205.18 Y158.78 E62.80150
G1 X202.03 Y163.59 E63.13580
G1 X200.92 Y163.85 E63.20212
G1 X197.46 Y173.09 E63.77550
G1 X196.74 Y175.06 E63.89790
G1 X195.83 Y176.97 E64.02035
G1 X194.85 Y178.59 E64.13040
G1 X193.69 Y180.14 E64.24315
G1 X192.52 Y181.41 E64.34340
G1 X191.22 Y182.52 E64.44306
G1 X189.99 Y183.36 E64.52934
G1 X188.70 Y184.06 E64.61495
G1 X187.29 Y184.64 E64.70319
G1 X185.78 Y185.06 E64.79443
G1 X184.21 Y185.31 E64.88668
G1 X182.82 Y185.36 E64.96748
G1 X168.07 Y185.12 E65.82507
G1 X166.76 Y185.02 E65.90161
G1 X165.25 Y184.72 E65.99075
G1 X163.75 Y184.22 E66.08276
G1 X162.31 Y183.49 E66.17662
G1 X160.97 Y182.55 E66.27151
G1 X159.83 Y181.46 E66.36353
G1 X158.87 Y180.26 E66.45253
G1 X158.77 Y180.09 E66.46420
G1 X158.13 Y181.23 E66.54032
G1 X156.72 Y183.33 E66.68703
G1 X155.40 Y184.87 E66.80513
G1 X154.14 Y186.06 E66.90566
G1 X153.01 Y186.92 E66.98828
G1 X151.82 Y187.66 E67.06972
G1 X150.56 Y188.29 E67.15152
G1 X149.19 Y188.82 E67.23683
G1 X147.45 Y189.29 E67.34184
G1 X145.61 Y189.59 E67.45028
G1 X143.34 Y189.74 E67.58244
G1 X140.63 Y189.67 E67.73995
G1 X138.94 Y189.53 E67.83810
G1 X130.79 Y188.31 E68.31722
G1 X130.04 Y188.16 E68.36182
G1 X114.27 Y184.95 E69.29750
G1 X112.20 Y184.46 E69.42058
G1 X110.23 Y183.77 E69.54192
G1 X108.31 Y182.86 E69.66576
G1 X106.43 Y181.71 E69.79363
G1 X104.65 Y180.32 E69.92515
G1 X102.98 Y178.68 E70.06127
G1 X101.47 Y176.80 E70.20101
G1 X100.15 Y174.72 E70.34431
G1 X99.01 Y172.46 E70.49151
G1 X98.04 Y169.98 E70.64635
G1 X97.13 Y166.74 E70.84187
G1 X96.56 Y163.76 E71.01826
G1 X96.37 Y161.89 E71.12738
G1 X96.38 Y159.98 E71.23845
G1 X96.58 Y158.11 E71.34801
G1 X96.97 Y156.28 E71.45632
G1 X97.53 Y154.54 E71.56280
G1 X98.24 Y152.87 E71.66805
G1 X99.10 Y151.29 E71.77300
G1 X100.11 Y149.81 E71.87688
G1 X101.24 Y148.43 E71.98045
G1 X102.52 Y147.15 E72.08578
G1 X103.92 Y146.00 E72.19124
G0 F12000 X104.20 Y146.38
G1 F2700 X105.60 Y145.45 E72.28879
G1 X106.58 Y144.90 E72.35396
G1 X108.48 Y144.05 E72.47543
G1 X110.52 Y143.40 E72.59936
G1 X112.54 Y142.97 E72.71961
G1 X114.86 Y142.69 E72.85532
G1 X117.80 Y142.59 E73.02669
G1 X124.73 Y143.01 E73.43001
G1 X124.86 Y143.03 E73.43798
G1 X125.04 Y142.92 E73.44975
G1 X125.51 Y142.56 E73.48433
G1 X126.41 Y141.74 E73.55525
G1 X127.86 Y140.14 E73.68063
G1 X128.05 Y139.91 E73.69818
G1 X129.06 Y138.27 E73.80994
G1 X130.40 Y136.60 E73.93447
G1 X131.79 Y135.23 E74.04786
G1 X132.90 Y134.36 E74.13004
G1 X134.00 Y133.65 E74.20632
G1 X135.13 Y133.07 E74.27973
G1 X136.26 Y132.60 E74.35108
G1 X137.44 Y132.25 E74.42277
G1 X138.91 Y131.96 E74.50991
G1 X140.37 Y131.82 E74.59502
G1 X141.99 Y131.83 E74.68888
G1 X142.46 Y131.85 E74.71604
G1 X143.50 Y131.39 E74.78249
G1 X144.49 Y131.08 E74.84252
G1 X145.47 Y130.87 E74.90073
G1 X146.47 Y130.76 E74.95950
G1 X146.96 Y130.76 E74.98769
G1 X146.56 Y129.86 E75.04432
G1 X146.15 Y128.46 E75.12947
G1 X145.94 Y127.36 E75.19462
G1 X145.85 Y126.30 E75.25630
G1 X145.85 Y125.21 E75.31954
G1 X145.97 Y124.17 E75.38050
G1 X146.17 Y123.12 E75.44234
G1 X146.50 Y122.08 E75.50569
G1 X146.93 Y121.07 E75.57004
G1 X147.51 Y120.05 E75.63783
G1 X148.21 Y119.11 E75.70617
G1 X149.03 Y118.25 E75.77520
G1 X150.01 Y117.44 E75.84930
G1 X151.09 Y116.78 E75.92289
G1 X152.27 Y116.26 E75.99772
G1 X153.56 Y115.90 E76.07574
G1 X154.85 Y115.73 E76.15133
G1 X156.17 Y115.73 E76.22788
G1 X157.44 Y115.91 E76.30239
G1 X158.62 Y116.22 E76.37352
G1 X159.52 Y116.57 E76.42937
G1 X199.99 Y134.80 E79.00917
G1 X201.67 Y135.69 E79.11993
G1 X202.96 Y136.59 E79.21143
G1 X204.09 Y137.57 E79.29814
G1 X205.11 Y138.66 E79.38475
G1 X205.98 Y139.84 E79.46981
G1 X206.71 Y141.09 E79.55443
G1 X207.29 Y142.42 E79.63854
G1 X207.71 Y143.75 E79.71959
G1 X207.99 Y145.05 E79.79671
G1 X208.15 Y146.41 E79.87677
G1 X208.17 Y148.20 E79.98058
G1 X207.99 Y149.98 E80.08460
G1 X207.64 Y151.72 E80.18733
G1 X207.02 Y153.81 E80.31431
G1 X206.01 Y156.23 E80.46676
G1 X204.78 Y158.54 E80.61877
G1 X201.75 Y163.18 E80.94102
G1 X200.57 Y163.45 E81.01104
G1 X197.02 Y172.92 E81.59887
G1 X196.31 Y174.88 E81.72025
G1 X195.42 Y176.74 E81.84009
G1 X194.47 Y178.33 E81.94752
G1 X193.34 Y179.84 E82.05740
G1 X192.19 Y181.07 E82.15466
G1 X190.93 Y182.15 E82.25138
G1 X189.75 Y182.97 E82.33478
G1 X188.50 Y183.64 E82.41748
G1 X187.14 Y184.20 E82.50266
G1 X185.68 Y184.60 E82.59075
G1 X184.17 Y184.84 E82.67989
G1 X182.82 Y184.90 E82.75836
G1 X168.09 Y184.66 E83.61438
G1 X166.82 Y184.56 E83.68847
G1 X165.37 Y184.27 E83.77422
G1 X163.94 Y183.78 E83.86250
G1 X162.55 Y183.09 E83.95252
G1 X161.27 Y182.19 E84.04346
G1 X160.17 Y181.15 E84.13160
G1 X159.25 Y180.00 E84.21688
G1 X158.76 Y179.16 E84.27351
G1 X157.73 Y180.99 E84.39538
G1 X156.34 Y183.04 E84.53950
G1 X155.06 Y184.55 E84.65454
G1 X153.84 Y185.70 E84.75215
G1 X152.74 Y186.54 E84.83212
G1 X151.59 Y187.25 E84.91100
G1 X150.37 Y187.86 E84.99028
G1 X149.05 Y188.38 E85.07287
G1 X147.35 Y188.84 E85.17510
G1 X145.55 Y189.13 E85.28084
G1 X143.33 Y189.28 E85.41043
G1 X140.65 Y189.21 E85.56596
G1 X139.00 Y189.07 E85.66247
G1 X130.87 Y187.85 E86.13996
G1 X130.13 Y187.70 E86.18385
G1 X114.37 Y184.49 E87.11910
G1 X112.34 Y184.01 E87.24032
G1 X110.41 Y183.34 E87.35884
G1 X108.53 Y182.45 E87.47980
G1 X106.70 Y181.33 E87.60464
G1 X104.96 Y179.97 E87.73309
G1 X103.33 Y178.36 E87.86605
G1 X101.85 Y176.53 E88.00276
G1 X100.55 Y174.49 E88.14316
G1 X99.44 Y172.27 E88.28776
G1 X98.49 Y169.83 E88.44002
G1 X97.58 Y166.63 E88.63308
G1 X97.02 Y163.69 E88.80704
G1 X96.83 Y161.87 E88.91359
G1 X96.84 Y160.01 E89.02182
G1 X97.04 Y158.18 E89.12856
G1 X97.42 Y156.40 E89.23415
G1 X97.96 Y154.70 E89.33800
G1 X98.66 Y153.08 E89.44067
G1 X99.50 Y151.53 E89.54302
G1 X100.48 Y150.09 E89.64439
G1 X101.58 Y148.75 E89.74539
G1 X102.83 Y147.50 E89.84801
G1 X104.20 Y146.38 E89.95079
G0 F12000 X104.48 Y146.75
G1 F2700 X105.84 Y145.85 E90.04598
G1 X106.79 Y145.32 E90.10889
G1 X108.65 Y144.48 E90.22768
G1 X110.64 Y143.85 E90.34874
G1 X112.61 Y143.43 E90.46643
G1 X114.89 Y143.15 E90.59968
G1 X117.80 Y143.06 E90.76860
G1 X124.68 Y143.47 E91.16919
G1 X124.95 Y143.52 E91.18523
G1 X125.03 Y143.48 E91.19035
G1 X125.29 Y143.31 E91.20855
G1 X125.81 Y142.92 E91.24623
G1 X126.74 Y142.07 E91.31971
G1 X128.22 Y140.44 E91.44743
G1 X128.43 Y140.18 E91.46697
G1 X129.44 Y138.54 E91.57898
G1 X130.74 Y136.91 E91.70020
G1 X132.09 Y135.58 E91.81043
G1 X133.17 Y134.74 E91.88988
G1 X134.24 Y134.05 E91.96354
G1 X135.32 Y133.49 E92.03445
G1 X136.42 Y133.04 E92.10330
G1 X137.56 Y132.70 E92.17244
G1 X138.98 Y132.42 E92.25685
G1 X140.39 Y132.29 E92.33921
G1 X141.98 Y132.30 E92.43140
G1 X142.58 Y132.32 E92.46628
G1 X142.67 Y132.26 E92.47226
G1 X143.67 Y131.83 E92.53568
G1 X144.61 Y131.53 E92.59296
G1 X145.54 Y131.33 E92.64849
G1 X146.50 Y131.22 E92.70451
G1 X147.62 Y131.22 E92.76973
G1 X147.69 Y131.23 E92.77393
G1 X147.62 Y131.10 E92.78266
G1 X147.00 Y129.70 E92.87112
G1 X146.60 Y128.35 E92.95316
G1 X146.41 Y127.29 E93.01566
G1 X146.32 Y126.28 E93.07477
G1 X146.32 Y125.24 E93.13533
G1 X146.43 Y124.24 E93.19372
G1 X146.62 Y123.24 E93.25289
G1 X146.93 Y122.25 E93.31344
G1 X147.35 Y121.27 E93.37483
G1 X147.90 Y120.31 E93.43939
G1 X148.57 Y119.41 E93.50457
G1 X149.34 Y118.59 E93.57023
G1 X150.28 Y117.82 E93.64073
G1 X151.31 Y117.20 E93.71069
G1 X152.43 Y116.70 E93.78178
G1 X153.66 Y116.36 E93.85589
G1 X154.88 Y116.19 E93.92784
G1 X156.14 Y116.20 E94.00067
G1 X157.35 Y116.36 E94.07166
G1 X158.48 Y116.67 E94.13966
G1 X159.34 Y117.00 E94.19333
G1 X199.78 Y135.22 E96.77151
G1 X201.43 Y136.09 E96.87978
G1 X202.68 Y136.96 E96.96823
G1 X203.77 Y137.90 E97.05205
G1 X204.75 Y138.96 E97.13566
G1 X205.59 Y140.09 E97.21776
G1 X206.29 Y141.31 E97.29934
G1 X206.86 Y142.58 E97.38042
G1 X207.26 Y143.87 E97.45866
G1 X207.53 Y145.12 E97.53328
G1 X207.68 Y146.44 E97.61064
G1 X207.70 Y148.18 E97.71149
G1 X207.53 Y149.91 E97.81271
G1 X207.19 Y151.60 E97.91283
G1 X206.58 Y153.65 E98.03719
G1 X205.59 Y156.03 E98.18694
G1 X204.38 Y158.30 E98.33637
G1 X201.46 Y162.77 E98.64662
G1 X200.22 Y163.06 E98.72028
G1 X196.59 Y172.76 E99.32257
G1 X195.88 Y174.70 E99.44284
G1 X195.00 Y176.52 E99.56012
G1 X194.08 Y178.07 E99.66488
G1 X192.98 Y179.54 E99.77189
G1 X191.87 Y180.73 E99.86627
G1 X190.65 Y181.78 E99.95999
G1 X189.51 Y182.57 E100.04045
G1 X188.30 Y183.22 E100.12029
G1 X186.99 Y183.76 E100.20245
G1 X185.58 Y184.15 E100.28736
G1 X184.12 Y184.38 E100.37332
G1 X182.81 Y184.43 E100.44946
G1 X168.11 Y184.19 E101.30391
G1 X166.88 Y184.10 E101.37556
G1 X165.50 Y183.82 E101.45793
G1 X164.12 Y183.35 E101.54259
G1 X162.79 Y182.69 E101.62871
G1 X161.57 Y181.83 E101.71568
G1 X160.51 Y180.83 E101.79996
G1 X159.64 Y179.73 E101.88148
G1 X158.93 Y178.54 E101.96211
G1 X158.75 Y178.13 E101.98831
G1 X158.51 Y178.65 E102.02203
G1 X157.33 Y180.74 E102.16152
G1 X155.97 Y182.76 E102.30305
G1 X154.72 Y184.23 E102.41508
G1 X153.54 Y185.35 E102.50977
G1 X152.48 Y186.15 E102.58709
G1 X151.37 Y186.85 E102.66334
G1 X150.18 Y187.44 E102.74009
G1 X148.90 Y187.93 E102.82003
G1 X147.25 Y188.38 E102.91945
G1 X145.50 Y188.67 E103.02247
G1 X143.32 Y188.81 E103.14950
G1 X140.68 Y188.74 E103.30300
G1 X139.05 Y188.61 E103.39788
G1 X130.96 Y187.39 E103.87378
G1 X130.23 Y187.24 E103.91700
G1 X114.47 Y184.04 E104.85179
G1 X112.47 Y183.56 E104.97116
G1 X110.59 Y182.91 E105.08691
G1 X108.75 Y182.04 E105.20490
G1 X106.96 Y180.94 E105.32677
G1 X105.26 Y179.62 E105.45212
G1 X103.67 Y178.05 E105.58195
G1 X102.23 Y176.26 E105.71561
G1 X100.96 Y174.26 E105.85319
G1 X99.86 Y172.08 E105.99503
G1 X98.93 Y169.68 E106.14476
G1 X98.04 Y166.53 E106.33533
G1 X97.48 Y163.62 E106.50699
G1 X97.30 Y161.85 E106.61085
G1 X97.31 Y160.03 E106.71628
G1 X97.50 Y158.25 E106.82023
G1 X97.87 Y156.52 E106.92313
G1 X98.40 Y154.87 E107.02430
G1 X99.08 Y153.28 E107.12442
G1 X99.90 Y151.78 E107.22415
G1 X100.85 Y150.37 E107.32295
G1 X101.93 Y149.06 E107.42144
G1 X103.14 Y147.84 E107.52135
G1 X104.48 Y146.75 E107.62140
G0 F12000 X104.75 Y147.13
G1 F2700 X106.08 Y146.24 E107.71420
G1 X107.00 Y145.74 E107.77485
G1 X108.82 Y144.92 E107.89091
G1 X110.75 Y144.30 E108.00917
G1 X112.69 Y143.89 E108.12430
G1 X114.93 Y143.62 E108.25515
G1 X117.79 Y143.53 E108.42163
G1 X124.62 Y143.93 E108.81948
G1 X125.02 Y144.00 E108.84296
G1 X125.25 Y143.89 E108.85762
G1 X125.56 Y143.69 E108.87931
G1 X126.10 Y143.29 E108.91824
G1 X127.08 Y142.40 E108.99505
G1 X128.58 Y140.74 E109.12512
G1 X128.81 Y140.46 E109.14660
G1 X129.82 Y138.81 E109.25895
G1 X131.09 Y137.22 E109.37682
G1 X132.40 Y135.93 E109.48396
G1 X133.44 Y135.12 E109.56060
G1 X134.47 Y134.45 E109.63174
G1 X135.52 Y133.91 E109.70014
G1 X136.57 Y133.49 E109.76646
G1 X137.67 Y133.16 E109.83299
G1 X139.05 Y132.88 E109.91467
G1 X140.41 Y132.76 E109.99441
G1 X141.97 Y132.76 E110.08491
G1 X142.70 Y132.79 E110.12753
G1 X142.88 Y132.68 E110.13963
G1 X143.83 Y132.26 E110.19988
G1 X144.72 Y131.98 E110.25437
G1 X145.62 Y131.79 E110.30722
G1 X146.53 Y131.69 E110.36050
G1 X147.60 Y131.69 E110.42298
G1 X148.56 Y131.77 E110.47907
G1 X148.03 Y130.88 E110.53936
G1 X147.44 Y129.54 E110.62444
G1 X147.06 Y128.24 E110.70333
G1 X146.87 Y127.23 E110.76311
G1 X146.78 Y126.26 E110.81971
G1 X146.79 Y125.26 E110.87766
G1 X146.89 Y124.31 E110.93342
G1 X147.07 Y123.36 E110.98992
G1 X147.37 Y122.41 E111.04761
G1 X147.76 Y121.48 E111.10610
G1 X148.29 Y120.57 E111.16746
G1 X148.93 Y119.71 E111.22944
G1 X149.66 Y118.93 E111.29182
G1 X150.55 Y118.20 E111.35856
G1 X151.53 Y117.61 E111.42495
G1 X152.59 Y117.14 E111.49226
G1 X153.75 Y116.82 E111.56257
G1 X154.91 Y116.66 E111.63077
G1 X156.10 Y116.66 E111.69994
G1 X157.26 Y116.82 E111.76746
G1 X158.33 Y117.11 E111.83222
G1 X159.16 Y117.43 E111.88371
G1 X199.58 Y135.63 E114.46036
G1 X201.19 Y136.49 E114.56606
G1 X202.39 Y137.33 E114.65146
G1 X203.44 Y138.24 E114.73235
G1 X204.39 Y139.26 E114.81305
G1 X205.20 Y140.35 E114.89212
G1 X205.88 Y141.52 E114.97072
G1 X206.42 Y142.75 E115.04881
G1 X206.81 Y143.99 E115.12426
G1 X207.07 Y145.20 E115.19625
G1 X207.22 Y146.47 E115.27093
G1 X207.23 Y148.16 E115.36893
G1 X207.07 Y149.84 E115.46728
G1 X206.74 Y151.49 E115.56479
G1 X206.14 Y153.50 E115.68649
G1 X205.17 Y155.83 E115.83355
G1 X203.98 Y158.06 E115.98054
G1 X201.17 Y162.35 E116.27864
G1 X199.88 Y162.66 E116.35589
G1 X196.17 Y172.54 E116.96931
G1 X195.45 Y174.52 E117.09199
G1 X194.59 Y176.30 E117.20669
G1 X193.69 Y177.81 E117.30882
G1 X192.62 Y179.25 E117.41293
G1 X191.55 Y180.40 E117.50430
G1 X190.36 Y181.41 E117.59513
G1 X189.26 Y182.17 E117.67260
G1 X188.10 Y182.80 E117.74955
G1 X186.84 Y183.31 E117.82871
G1 X185.48 Y183.69 E117.91047
G1 X184.08 Y183.91 E117.99331
G1 X182.81 Y183.97 E118.06712
G1 X168.14 Y183.72 E118.91995
G1 X166.95 Y183.63 E118.98914
G1 X165.62 Y183.37 E119.06819
G1 X164.29 Y182.92 E119.14918
G1 X163.03 Y182.28 E119.23139
G1 X161.86 Y181.47 E119.31440
G1 X160.86 Y180.51 E119.39473
G1 X160.02 Y179.47 E119.47257
G1 X159.35 Y178.33 E119.54950
G1 X158.84 Y177.14 E119.62464
G1 X158.79 Y176.95 E119.63618
G1 X158.09 Y178.44 E119.73171
G1 X156.94 Y180.50 E119.86907
G1 X155.60 Y182.48 E120.00800
G1 X154.38 Y183.91 E120.11698
G1 X153.24 Y184.99 E120.20875
G1 X152.21 Y185.77 E120.28345
G1 X151.14 Y186.44 E120.35714
G1 X149.99 Y187.01 E120.43135
G1 X148.75 Y187.49 E120.50862
G1 X147.15 Y187.92 E120.60520
G1 X145.45 Y188.21 E120.70558
G1 X143.31 Y188.34 E120.82998
G1 X140.70 Y188.28 E120.98150
G1 X139.11 Y188.15 E121.07469
G1 X131.04 Y186.93 E121.54900
G1 X130.32 Y186.79 E121.59152
G1 X114.57 Y183.58 E122.52590
G1 X112.60 Y183.12 E122.64340
G1 X110.77 Y182.47 E122.75631
G1 X108.97 Y181.63 E122.87143
G1 X107.23 Y180.56 E122.99028
G1 X105.57 Y179.27 E123.11252
G1 X104.02 Y177.74 E123.23927
G1 X102.61 Y175.99 E123.36986
G1 X101.36 Y174.03 E123.50454
G1 X100.29 Y171.89 E123.64379
G1 X99.37 Y169.53 E123.79088
G1 X98.49 Y166.42 E123.97898
G1 X97.94 Y163.56 E124.14827
G1 X97.77 Y161.82 E124.24950
G1 X97.78 Y160.06 E124.35209
G1 X97.96 Y158.33 E124.45334
G1 X98.32 Y156.64 E124.55345
G1 X98.84 Y155.03 E124.65199
G1 X99.50 Y153.49 E124.74953
G1 X100.30 Y152.02 E124.84666
G1 X101.23 Y150.65 E124.94291
G1 X102.28 Y149.37 E125.03888
G1 X103.46 Y148.19 E125.13608
G1 X104.75 Y147.13 E125.23344
G0 F12000 X105.03 Y147.50
G1 F2700 X106.33 Y146.64 E125.32381
G1 X107.20 Y146.15 E125.38225
G1 X108.98 Y145.36 E125.49563
G1 X110.88 Y144.75 E125.61102
G1 X112.77 Y144.35 E125.72359
G1 X114.96 Y144.08 E125.85198
G1 X117.78 Y143.99 E126.01602
G1 X124.57 Y144.40 E126.41113
G1 X125.07 Y144.49 E126.44093
G1 X125.08 Y144.48 E126.44159
G1 X125.16 Y144.45 E126.44639
G1 X125.47 Y144.30 E126.46672
G1 X125.83 Y144.08 E126.49076
G1 X126.40 Y143.64 E126.53275
G1 X127.40 Y142.73 E126.61125
G1 X128.94 Y141.04 E126.74407
G1 X129.19 Y140.73 E126.76762
G1 X130.21 Y139.08 E126.88014
G1 X131.44 Y137.53 E126.99478
G1 X132.71 Y136.28 E127.09872
G1 X133.71 Y135.50 E127.17262
G1 X134.70 Y134.86 E127.24116
G1 X135.71 Y134.34 E127.30705
G1 X136.73 Y133.92 E127.37095
G1 X137.78 Y133.61 E127.43479
G1 X139.12 Y133.34 E127.51382
G1 X140.43 Y133.22 E127.59081
G1 X141.96 Y133.23 E127.67968
G1 X142.83 Y133.26 E127.72992
G1 X143.10 Y133.09 E127.74828
G1 X144.00 Y132.70 E127.80529
G1 X144.84 Y132.43 E127.85703
G1 X145.69 Y132.25 E127.90721
G1 X146.55 Y132.16 E127.95774
G1 X147.58 Y132.15 E128.01743
G1 X148.61 Y132.25 E128.07749
G1 X149.59 Y132.44 E128.13583
G1 X149.17 Y131.88 E128.17655
G1 X148.45 Y130.67 E128.25858
G1 X147.88 Y129.38 E128.34024
G1 X147.51 Y128.13 E128.41605
G1 X147.33 Y127.17 E128.47316
G1 X147.25 Y126.24 E128.52719
G1 X147.25 Y125.29 E128.58252
G1 X147.35 Y124.38 E128.63571
G1 X147.53 Y123.47 E128.68949
G1 X147.81 Y122.57 E128.74437
G1 X148.18 Y121.69 E128.79994
G1 X148.68 Y120.82 E128.85808
G1 X149.28 Y120.01 E128.91682
G1 X149.98 Y119.27 E128.97586
G1 X150.82 Y118.58 E129.03900
G1 X151.74 Y118.02 E129.10172
G1 X152.74 Y117.58 E129.16536
G1 X153.84 Y117.28 E129.23173
G1 X154.94 Y117.13 E129.29624
G1 X156.07 Y117.13 E129.36180
G1 X157.16 Y117.28 E129.42575
G1 X158.19 Y117.55 E129.48731
G1 X158.98 Y117.86 E129.53667
G1 X199.38 Y136.05 E132.11175
G1 X200.94 Y136.89 E132.21495
G1 X202.10 Y137.70 E132.29731
G1 X203.12 Y138.57 E132.37527
G1 X204.03 Y139.56 E132.45296
G1 X204.81 Y140.61 E132.52905
G1 X205.46 Y141.73 E132.60466
G1 X205.98 Y142.91 E132.67974
G1 X206.36 Y144.10 E132.75231
G1 X206.61 Y145.27 E132.82183
G1 X206.75 Y146.50 E132.89381
G1 X206.77 Y148.14 E132.98885
G1 X206.61 Y149.78 E133.08440
G1 X206.28 Y151.38 E133.17936
G1 X205.70 Y153.34 E133.29833
G1 X204.75 Y155.63 E133.44271
G1 X203.58 Y157.82 E133.58715
G1 X200.88 Y161.94 E133.87325
G1 X199.53 Y162.26 E133.95414
G1 X195.71 Y172.43 E134.58539
G1 X195.02 Y174.34 E134.70360
G1 X194.18 Y176.08 E134.81573
G1 X193.30 Y177.55 E134.91522
G1 X192.26 Y178.95 E135.01647
G1 X191.22 Y180.06 E135.10489
G1 X190.08 Y181.04 E135.19271
G1 X189.02 Y181.77 E135.26729
G1 X187.90 Y182.38 E135.34141
G1 X186.69 Y182.87 E135.41752
G1 X185.38 Y183.24 E135.49610
G1 X184.03 Y183.45 E135.57582
G1 X182.80 Y183.50 E135.64725
G1 X168.16 Y183.26 E136.49851
G1 X167.01 Y183.17 E136.56531
G1 X165.74 Y182.92 E136.64094
G1 X164.47 Y182.49 E136.71828
G1 X163.27 Y181.88 E136.79665
G1 X162.16 Y181.10 E136.87569
G1 X161.20 Y180.20 E136.95212
G1 X160.41 Y179.20 E137.02619
G1 X159.76 Y178.12 E137.09945
G1 X159.28 Y176.99 E137.17099
G1 X158.97 Y175.85 E137.23974
G1 X158.90 Y175.43 E137.26454
G1 X158.62 Y176.20 E137.31225
G1 X157.68 Y178.23 E137.44229
G1 X156.54 Y180.25 E137.57749
G1 X155.23 Y182.20 E137.71385
G1 X154.05 Y183.59 E137.81986
G1 X152.93 Y184.63 E137.90868
G1 X151.95 Y185.38 E137.98068
G1 X150.91 Y186.03 E138.05180
G1 X149.81 Y186.58 E138.12344
G1 X148.61 Y187.05 E138.19810
G1 X147.05 Y187.47 E138.29184
G1 X145.39 Y187.74 E138.38951
G1 X143.30 Y187.88 E138.51136
G1 X140.73 Y187.81 E138.66090
G1 X139.16 Y187.68 E138.75245
G1 X131.12 Y186.47 E139.22512
G1 X130.41 Y186.33 E139.26693
G1 X114.67 Y183.12 E140.20089
G1 X112.73 Y182.67 E140.31655
G1 X110.94 Y182.04 E140.42662
G1 X109.19 Y181.22 E140.53891
G1 X107.50 Y180.18 E140.65471
G1 X105.88 Y178.92 E140.77384
G1 X104.36 Y177.42 E140.89747
G1 X102.99 Y175.71 E141.02501
G1 X101.77 Y173.80 E141.15683
G1 X100.72 Y171.70 E141.29337
G1 X99.81 Y169.38 E141.43791
G1 X98.95 Y166.31 E141.62359
G1 X98.40 Y163.49 E141.79050
G1 X98.23 Y161.80 E141.88911
G1 X98.24 Y160.09 E141.98885
G1 X98.42 Y158.40 E142.08730
G1 X98.77 Y156.76 E142.18473
G1 X99.27 Y155.19 E142.28059
G1 X99.92 Y153.69 E142.37555
G1 X100.70 Y152.26 E142.47007
G1 X101.60 Y150.93 E142.56381
G1 X102.62 Y149.69 E142.65722
G1 X103.77 Y148.53 E142.75174
G1 X105.03 Y147.50 E142.84638
G0 F12000 X105.31 Y147.88
G1 F2700 X106.57 Y147.04 E142.93436
G1 X107.41 Y146.57 E142.99056
G1 X109.15 Y145.79 E143.10126
G1 X111.00 Y145.20 E143.21379
G1 X112.85 Y144.81 E143.32381
G1 X115.00 Y144.55 E143.44974
G1 X117.78 Y144.46 E143.61134
G1 X124.52 Y144.86 E144.00371
G1 X125.09 Y144.96 E144.03775
G1 X125.13 Y144.96 E144.03975
G1 X125.23 Y144.93 E144.04585
G1 X125.35 Y144.88 E144.05351
G1 X125.70 Y144.70 E144.07648
G1 X126.08 Y144.47 E144.10253
G1 X126.70 Y144.00 E144.14752
G1 X127.73 Y143.06 E144.22852
G1 X129.29 Y141.34 E144.36370
G1 X129.57 Y141.00 E144.38918
G1 X130.59 Y139.34 E144.50200
G1 X131.78 Y137.85 E144.61333
G1 X133.02 Y136.63 E144.71411
G1 X133.98 Y135.88 E144.78523
G1 X134.94 Y135.26 E144.85125
G1 X135.91 Y134.76 E144.91460
G1 X136.88 Y134.36 E144.97599
G1 X137.89 Y134.06 E145.03730
G1 X139.18 Y133.81 E145.11359
G1 X140.46 Y133.69 E145.18790
G1 X141.96 Y133.70 E145.27508
G1 X142.95 Y133.72 E145.33305
G1 X143.31 Y133.51 E145.35751
G1 X144.16 Y133.14 E145.41136
G1 X144.96 Y132.88 E145.46030
G1 X145.76 Y132.71 E145.50780
G1 X146.58 Y132.62 E145.55558
G1 X147.56 Y132.62 E145.61254
G1 X148.54 Y132.71 E145.66986
G1 X149.61 Y132.91 E145.73304
G1 X150.67 Y133.23 E145.79733
G1 X150.79 Y133.17 E145.80527
G1 X150.30 Y132.60 E145.84921
G1 X149.56 Y131.62 E145.92074
G1 X148.86 Y130.46 E145.99950
G1 X148.32 Y129.22 E146.07778
G1 X147.97 Y128.02 E146.15045
G1 X147.79 Y127.10 E146.20483
G1 X147.72 Y126.22 E146.25636
G1 X147.72 Y125.31 E146.30902
G1 X147.81 Y124.45 E146.35964
G1 X147.98 Y123.58 E146.41075
G1 X148.25 Y122.73 E146.46283
G1 X148.60 Y121.90 E146.51543
G1 X149.07 Y121.08 E146.57037
G1 X149.64 Y120.31 E146.62591
G1 X150.30 Y119.61 E146.68162
G1 X151.09 Y118.97 E146.74110
G1 X151.96 Y118.44 E146.80022
G1 X152.90 Y118.02 E146.86011
G1 X153.94 Y117.73 E146.92263
G1 X154.98 Y117.59 E146.98345
G1 X156.04 Y117.60 E147.04529
G1 X157.07 Y117.74 E147.10578
G1 X158.04 Y118.00 E147.16415
G1 X158.80 Y118.29 E147.21126
G1 X199.17 Y136.47 E149.78479
G1 X200.70 Y137.28 E149.88544
G1 X201.82 Y138.07 E149.96475
G1 X202.80 Y138.91 E150.03987
G1 X203.67 Y139.85 E150.11456
G1 X204.42 Y140.86 E150.18765
G1 X205.05 Y141.94 E150.26025
G1 X205.55 Y143.08 E150.33228
G1 X205.91 Y144.22 E150.40211
G1 X206.15 Y145.35 E150.46902
G1 X206.29 Y146.53 E150.53836
G1 X206.30 Y148.12 E150.63043
G1 X206.15 Y149.71 E150.72318
G1 X205.83 Y151.26 E150.81555
G1 X205.26 Y153.18 E150.93189
G1 X204.32 Y155.43 E151.07353
G1 X203.17 Y157.59 E151.21553
G1 X200.59 Y161.53 E151.48953
G1 X199.13 Y161.87 E151.57656
G1 X199.13 Y161.98 E151.58255
G1 X195.28 Y172.27 E152.22135
G1 X194.59 Y174.16 E152.33846
G1 X193.77 Y175.86 E152.44801
G1 X192.92 Y177.29 E152.54485
G1 X191.90 Y178.65 E152.64322
G1 X190.90 Y179.72 E152.72872
G1 X189.79 Y180.68 E152.81357
G1 X188.78 Y181.37 E152.88527
G1 X187.70 Y181.96 E152.95642
G1 X186.54 Y182.43 E153.02953
G1 X185.28 Y182.78 E153.10500
G1 X183.98 Y182.99 E153.18155
G1 X182.80 Y183.03 E153.25066
G1 X168.18 Y182.79 E154.10034
G1 X167.08 Y182.71 E154.16465
G1 X165.86 Y182.47 E154.23695
G1 X164.66 Y182.06 E154.31056
G1 X163.51 Y181.48 E154.38508
G1 X162.45 Y180.74 E154.46016
G1 X161.55 Y179.88 E154.53272
G1 X160.79 Y178.94 E154.60307
G1 X160.18 Y177.91 E154.67263
G1 X159.72 Y176.83 E154.74060
G1 X159.42 Y175.75 E154.80593
G1 X159.25 Y174.64 E154.87088
G1 X159.22 Y173.52 E154.93607
G1 X159.32 Y172.39 E155.00237
G1 X159.54 Y171.30 E155.06670
G1 X159.89 Y170.25 E155.13105
G1 X160.35 Y169.24 E155.19581
G1 X160.92 Y168.29 E155.25983
G1 X161.60 Y167.39 E155.32583
G1 X162.41 Y166.55 E155.39320
G1 X163.32 Y165.79 E155.46220
G1 X164.31 Y165.13 E155.53156
G1 X165.39 Y164.58 E155.60177
G1 X166.53 Y164.15 E155.67286
G1 X167.73 Y163.82 E155.74509
G1 X168.86 Y163.64 E155.81143
G1 X168.95 Y163.62 E155.81698
G1 X155.66 Y159.33 E156.62889
G1 X157.06 Y161.15 E156.76223
G1 X158.11 Y163.21 E156.89658
G1 X158.74 Y164.79 E156.99559
G1 X159.18 Y166.39 E157.09228
G1 X159.45 Y168.01 E157.18770
G1 X159.54 Y169.62 E157.28146
G1 X159.45 Y171.21 E157.37360
G1 X159.21 Y172.75 E157.46451
G1 X158.82 Y174.26 E157.55493
G1 X158.19 Y176.02 E157.66358
G1 X157.27 Y178.01 E157.79131
G1 X156.14 Y180.01 E157.92440
G1 X154.86 Y181.92 E158.05813
G1 X153.71 Y183.27 E158.16113
G1 X152.63 Y184.28 E158.24702
G1 X151.68 Y185.00 E158.31638
G1 X150.68 Y185.63 E158.38492
G1 X149.62 Y186.15 E158.45401
G1 X148.46 Y186.60 E158.52598
G1 X146.95 Y187.01 E158.61696
G1 X145.34 Y187.28 E158.71192
G1 X143.29 Y187.41 E158.83121
G1 X140.75 Y187.34 E158.97877
G1 X139.21 Y187.22 E159.06864
G1 X131.20 Y186.01 E159.53971
G1 X130.50 Y185.87 E159.58080
G1 X114.77 Y182.67 E160.51435
G1 X112.86 Y182.22 E160.62816
G1 X111.12 Y181.61 E160.73540
G1 X109.42 Y180.81 E160.84479
G1 X107.76 Y179.79 E160.95758
G1 X106.19 Y178.56 E161.07365
G1 X104.71 Y177.11 E161.19419
G1 X103.37 Y175.44 E161.31863
G1 X102.17 Y173.57 E161.44754
G1 X101.14 Y171.51 E161.58143
G1 X100.25 Y169.24 E161.72340
G1 X99.40 Y166.20 E161.90661
G1 X98.86 Y163.42 E162.07116
G1 X98.70 Y161.78 E162.16713
G1 X98.71 Y160.11 E162.26408
G1 X98.88 Y158.47 E162.35978
G1 X99.22 Y156.88 E162.45443
G1 X99.71 Y155.35 E162.54768
G1 X100.33 Y153.89 E162.64002
G1 X101.09 Y152.50 E162.73199
G1 X101.97 Y151.21 E162.82311
G1 X102.97 Y150.00 E162.91395
G1 X104.08 Y148.88 E163.00585
G1 X105.31 Y147.88 E163.09776
G0 F12000 X105.58 Y148.25
G1 F2700 X106.81 Y147.44 E163.18336
G1 X107.62 Y146.99 E163.23724
G1 X109.32 Y146.23 E163.34531
G1 X111.11 Y145.65 E163.45497
G1 X112.92 Y145.27 E163.56244
G1 X115.03 Y145.01 E163.68591
G1 X117.77 Y144.93 E163.84512
G1 X124.46 Y145.32 E164.23470
G1 X125.05 Y145.43 E164.26957
G1 X125.08 Y145.43 E164.27108
G1 X125.14 Y145.42 E164.27481
G1 X125.23 Y145.41 E164.28011
G1 X125.37 Y145.37 E164.28862
G1 X125.54 Y145.31 E164.29890
G1 X125.93 Y145.11 E164.32422
G1 X126.36 Y144.85 E164.35343
G1 X127.00 Y144.36 E164.40050
G1 X128.06 Y143.39 E164.48405
G1 X129.63 Y141.66 E164.61988
G1 X129.95 Y141.27 E164.64937
G1 X130.97 Y139.61 E164.76215
G1 X132.13 Y138.16 E164.87021
G1 X133.33 Y136.98 E164.96782
G1 X134.25 Y136.26 E165.03618
G1 X135.17 Y135.67 E165.09958
G1 X136.10 Y135.19 E165.16044
G1 X137.04 Y134.80 E165.21938
G1 X138.01 Y134.51 E165.27802
G1 X139.25 Y134.27 E165.35158
G1 X140.47 Y134.16 E165.42321
G1 X141.95 Y134.16 E165.50876
G1 X143.07 Y134.19 E165.57435
G1 X143.53 Y133.92 E165.60508
G1 X144.32 Y133.57 E165.65568
G1 X145.08 Y133.33 E165.70185
G1 X145.84 Y133.17 E165.74664
G1 X146.61 Y133.09 E165.79173
G1 X147.54 Y133.08 E165.84596
G1 X148.48 Y133.17 E165.90059
G1 X149.50 Y133.37 E165.96110
G1 X150.66 Y133.71 E166.03152
G1 X150.70 Y133.73 E166.03411
G1 X151.55 Y133.34 E166.08834
G1 X150.66 Y132.30 E166.16727
G1 X149.94 Y131.36 E166.23647
G1 X149.28 Y130.24 E166.31206
G1 X148.76 Y129.06 E166.38693
G1 X148.42 Y127.91 E166.45649
G1 X148.26 Y127.04 E166.50816
G1 X148.18 Y126.20 E166.55718
G1 X148.18 Y125.34 E166.60722
G1 X148.27 Y124.52 E166.65527
G1 X148.43 Y123.70 E166.70365
G1 X148.69 Y122.89 E166.75294
G1 X149.02 Y122.11 E166.80258
G1 X149.46 Y121.33 E166.85428
G1 X150.00 Y120.61 E166.90663
G1 X150.62 Y119.95 E166.95905
G1 X151.36 Y119.35 E167.01488
G1 X152.18 Y118.85 E167.07032
G1 X153.06 Y118.46 E167.12652
G1 X154.03 Y118.19 E167.18513
G1 X155.01 Y118.06 E167.24225
G1 X156.01 Y118.06 E167.30049
G1 X156.98 Y118.19 E167.35745
G1 X157.90 Y118.44 E167.41258
G1 X158.62 Y118.72 E167.45752
G1 X198.97 Y136.89 E170.02951
G1 X200.46 Y137.68 E170.12764
G1 X201.53 Y138.43 E170.20390
G1 X202.47 Y139.25 E170.27614
G1 X203.31 Y140.15 E170.34778
G1 X204.03 Y141.12 E170.41796
G1 X204.63 Y142.16 E170.48750
G1 X205.11 Y143.24 E170.55657
G1 X205.46 Y144.34 E170.62359
G1 X205.69 Y145.43 E170.68793
G1 X205.82 Y146.56 E170.75453
G1 X205.84 Y148.10 E170.84375
G1 X205.68 Y149.64 E170.93363
G1 X205.38 Y151.15 E171.02338
G1 X204.82 Y153.03 E171.13707
G1 X203.90 Y155.23 E171.27606
G1 X202.77 Y157.35 E171.41548
G1 X200.31 Y161.12 E171.67747
G1 X198.67 Y161.50 E171.77513
G1 X198.67 Y161.89 E171.79762
G1 X194.84 Y172.10 E172.43154
G1 X194.16 Y173.98 E172.54758
G1 X193.36 Y175.64 E172.65455
G1 X192.53 Y177.03 E172.74876
G1 X191.55 Y178.35 E172.84428
G1 X190.58 Y179.39 E172.92681
G1 X189.51 Y180.31 E173.00870
G1 X188.53 Y180.97 E173.07746
G1 X187.50 Y181.53 E173.14575
G1 X186.38 Y181.99 E173.21585
G1 X185.19 Y182.32 E173.28813
G1 X183.94 Y182.52 E173.36151
G1 X182.79 Y182.57 E173.42829
G1 X168.20 Y182.33 E174.27640
G1 X167.14 Y182.25 E174.33825
G1 X165.98 Y182.01 E174.40718
G1 X164.84 Y181.63 E174.47717
G1 X163.75 Y181.08 E174.54779
G1 X162.75 Y180.38 E174.61895
G1 X161.89 Y179.57 E174.68761
G1 X161.18 Y178.67 E174.75415
G1 X160.60 Y177.70 E174.82006
G1 X160.16 Y176.68 E174.88447
G1 X159.88 Y175.65 E174.94639
G1 X159.72 Y174.60 E175.00812
G1 X159.68 Y173.54 E175.07006
G1 X159.78 Y172.46 E175.13313
G1 X159.99 Y171.42 E175.19439
G1 X160.32 Y170.42 E175.25569
G1 X160.76 Y169.46 E175.31743
G1 X161.30 Y168.56 E175.37844
G1 X161.96 Y167.69 E175.44141
G1 X162.72 Y166.89 E175.50578
G1 X163.59 Y166.16 E175.57168
G1 X164.55 Y165.54 E175.63803
G1 X165.58 Y165.01 E175.70531
G1 X166.68 Y164.59 E175.77358
G1 X167.83 Y164.28 E175.84305
G1 X168.92 Y164.10 E175.90737
G1 X171.14 Y163.84 E176.03708
G1 X154.41 Y158.44 E177.05855
G1 X154.44 Y158.51 E177.06280
G1 X156.66 Y161.40 E177.27481
G1 X157.69 Y163.40 E177.40530
G1 X158.29 Y164.94 E177.50158
G1 X158.73 Y166.50 E177.59541
G1 X158.99 Y168.06 E177.68788
G1 X159.07 Y169.62 E177.77868
G1 X158.99 Y171.16 E177.86797
G1 X158.75 Y172.66 E177.95623
G1 X158.38 Y174.12 E178.04412
G1 X157.76 Y175.84 E178.15025
G1 X156.85 Y177.80 E178.27566
G1 X155.75 Y179.76 E178.40662
G1 X154.48 Y181.63 E178.53776
G1 X153.37 Y182.94 E178.63771
G1 X152.33 Y183.92 E178.72068
G1 X151.42 Y184.62 E178.78738
G1 X150.45 Y185.22 E178.85338
G1 X149.43 Y185.73 E178.91995
G1 X148.32 Y186.16 E178.98924
G1 X146.85 Y186.56 E179.07738
G1 X145.29 Y186.81 E179.16963
G1 X143.28 Y186.94 E179.28635
G1 X140.78 Y186.88 E179.43194
G1 X139.27 Y186.75 E179.52011
G1 X131.28 Y185.56 E179.98960
G1 X130.60 Y185.42 E180.02999
G1 X114.87 Y182.22 E180.96311
G1 X112.99 Y181.77 E181.07508
G1 X111.30 Y181.18 E181.17949
G1 X109.64 Y180.40 E181.28599
G1 X108.03 Y179.41 E181.39578
G1 X106.50 Y178.21 E181.50874
G1 X105.06 Y176.80 E181.62612
G1 X103.75 Y175.17 E181.74754
G1 X102.58 Y173.34 E181.87354
G1 X101.57 Y171.32 E182.00481
G1 X100.70 Y169.09 E182.14417
G1 X99.85 Y166.09 E182.32497
G1 X99.33 Y163.35 E182.48715
G1 X99.17 Y161.76 E182.58044
G1 X99.17 Y160.14 E182.67460
G1 X99.34 Y158.55 E182.76749
G1 X99.67 Y157.00 E182.85940
G1 X100.15 Y155.52 E182.95002
G1 X100.75 Y154.10 E183.03978
G1 X101.49 Y152.75 E183.12915
G1 X102.35 Y151.49 E183.21775
G1 X103.31 Y150.31 E183.30604
G1 X104.40 Y149.22 E183.39526
G1 X105.58 Y148.25 E183.48445
G0 F12000 X105.86 Y148.63
G1 F2700 X107.05 Y147.84 E183.56766
G1 X107.83 Y147.41 E183.61928
G1 X109.48 Y146.66 E183.72468
G1 X111.23 Y146.10 E183.83147
G1 X113.00 Y145.73 E183.93632
G1 X115.07 Y145.48 E184.05740
G1 X117.76 Y145.39 E184.21417
G1 X124.41 Y145.79 E184.60101
G1 X125.00 Y145.89 E184.63581
G1 X125.08 Y145.89 E184.64076
G1 X125.19 Y145.89 E184.64734
G1 X125.34 Y145.86 E184.65577
G1 X125.52 Y145.81 E184.66663
G1 X125.72 Y145.74 E184.67932
G1 X126.16 Y145.52 E184.70783
G1 X126.62 Y145.23 E184.73908
G1 X127.29 Y144.73 E184.78797
G1 X128.40 Y143.71 E184.87535
G1 X129.98 Y141.97 E185.01233
G1 X130.34 Y141.53 E185.04484
G1 X131.35 Y139.88 E185.15753
G1 X132.48 Y138.47 E185.26233
G1 X133.63 Y137.33 E185.35677
G1 X134.52 Y136.64 E185.42235
G1 X135.40 Y136.07 E185.48325
G1 X136.30 Y135.61 E185.54158
G1 X137.19 Y135.24 E185.59799
G1 X138.12 Y134.97 E185.65408
G1 X139.31 Y134.73 E185.72492
G1 X140.50 Y134.62 E185.79386
G1 X141.94 Y134.63 E185.87773
G1 X143.20 Y134.66 E185.95094
G1 X143.74 Y134.34 E185.98789
G1 X144.49 Y134.01 E186.03531
G1 X145.20 Y133.78 E186.07869
G1 X145.91 Y133.63 E186.12080
G1 X146.63 Y133.55 E186.16315
G1 X147.52 Y133.55 E186.21458
G1 X148.41 Y133.63 E186.26659
G1 X149.39 Y133.82 E186.32445
G1 X150.52 Y134.15 E186.39285
G1 X150.72 Y134.23 E186.40573
G1 X152.04 Y133.62 E186.48963
G1 X153.75 Y135.28 E186.62799
G1 X153.80 Y135.25 E186.63174
G1 X151.03 Y132.01 E186.87954
G1 X150.33 Y131.10 E186.94643
G1 X149.69 Y130.03 E187.01879
G1 X149.20 Y128.90 E187.09023
G1 X148.87 Y127.81 E187.15669
G1 X148.72 Y126.98 E187.20571
G1 X148.65 Y126.18 E187.25216
G1 X148.65 Y125.36 E187.29959
G1 X148.73 Y124.59 E187.34500
G1 X148.88 Y123.81 E187.39073
G1 X149.12 Y123.05 E187.43715
G1 X149.44 Y122.31 E187.48392
G1 X149.85 Y121.59 E187.53238
G1 X150.36 Y120.91 E187.58152
G1 X150.94 Y120.30 E187.63057
G1 X151.63 Y119.73 E187.68277
G1 X152.39 Y119.27 E187.73461
G1 X153.22 Y118.90 E187.78704
G1 X154.12 Y118.65 E187.84180
G1 X155.04 Y118.53 E187.89528
G1 X155.97 Y118.53 E187.94979
G1 X156.89 Y118.65 E188.00324
G1 X157.75 Y118.89 E188.05518
G1 X158.44 Y119.15 E188.09797
G1 X198.76 Y137.31 E190.66834
G1 X200.21 Y138.08 E190.76395
G1 X201.25 Y138.80 E190.83720
G1 X202.15 Y139.58 E190.90651
G1 X202.95 Y140.45 E190.97520
G1 X203.64 Y141.38 E191.04234
G1 X204.22 Y142.37 E191.10891
G1 X204.67 Y143.41 E191.17493
G1 X205.01 Y144.46 E191.23916
G1 X205.23 Y145.50 E191.30100
G1 X205.35 Y146.59 E191.36490
G1 X205.37 Y148.08 E191.45116
G1 X205.22 Y149.57 E191.53824
G1 X204.93 Y151.04 E191.62539
G1 X204.38 Y152.87 E191.73640
G1 X203.48 Y155.03 E191.87269
G1 X202.37 Y157.11 E192.00962
G1 X200.02 Y160.71 E192.25954
G1 X198.20 Y161.13 E192.36787
G1 X198.20 Y161.81 E192.40699
G1 X194.40 Y171.94 E193.03594
G1 X193.73 Y173.80 E193.15098
G1 X192.95 Y175.42 E193.25539
G1 X192.14 Y176.77 E193.34696
G1 X191.19 Y178.05 E193.43957
G1 X190.25 Y179.05 E193.51910
G1 X189.22 Y179.94 E193.59811
G1 X188.29 Y180.58 E193.66387
G1 X187.30 Y181.11 E193.72932
G1 X186.23 Y181.55 E193.79636
G1 X185.09 Y181.87 E193.86550
G1 X183.89 Y182.06 E193.93576
G1 X182.78 Y182.10 E194.00021
G1 X168.22 Y181.86 E194.84669
G1 X167.20 Y181.78 E194.90610
G1 X166.10 Y181.56 E194.97170
G1 X165.02 Y181.20 E195.03801
G1 X163.99 Y180.68 E195.10474
G1 X163.04 Y180.02 E195.17193
G1 X162.24 Y179.25 E195.23672
G1 X161.56 Y178.41 E195.29954
G1 X161.01 Y177.49 E195.36172
G1 X160.61 Y176.52 E195.42259
G1 X160.33 Y175.55 E195.48114
G1 X160.18 Y174.56 E195.53958
G1 X160.15 Y173.55 E195.59825
G1 X160.24 Y172.52 E195.65813
G1 X160.44 Y171.54 E195.71624
G1 X160.76 Y170.59 E195.77452
G1 X161.18 Y169.67 E195.83322
G1 X161.69 Y168.82 E195.89127
G1 X162.31 Y168.00 E195.95121
G1 X163.04 Y167.23 E196.01255
G1 X163.87 Y166.54 E196.07535
G1 X164.78 Y165.94 E196.13872
G1 X165.77 Y165.44 E196.20305
G1 X166.82 Y165.03 E196.26846
G1 X167.93 Y164.73 E196.33516
G1 X168.99 Y164.56 E196.39753
G1 X173.33 Y164.06 E196.65147
G1 X153.74 Y157.74 E197.84748
G1 X153.87 Y158.28 E197.87992
G1 X154.02 Y158.73 E197.90786
G1 X156.27 Y161.65 E198.12183
G1 X157.26 Y163.59 E198.24852
G1 X157.85 Y165.09 E198.34198
G1 X158.27 Y166.59 E198.43293
G1 X158.52 Y168.12 E198.52246
G1 X158.60 Y169.62 E198.61035
G1 X158.52 Y171.11 E198.69678
G1 X158.29 Y172.56 E198.78233
G1 X157.93 Y173.99 E198.86771
G1 X157.33 Y175.67 E198.97138
G1 X156.44 Y177.59 E199.09448
G1 X155.35 Y179.52 E199.22330
G1 X154.11 Y181.35 E199.35184
G1 X153.03 Y182.62 E199.44878
G1 X152.03 Y183.57 E199.52880
G1 X151.15 Y184.23 E199.59284
G1 X150.23 Y184.81 E199.65623
G1 X149.24 Y185.30 E199.72028
G1 X148.17 Y185.72 E199.78695
G1 X146.75 Y186.10 E199.87227
G1 X145.23 Y186.35 E199.96181
G1 X143.27 Y186.48 E200.07597
G1 X140.80 Y186.41 E200.21958
G1 X139.32 Y186.29 E200.30612
G1 X131.36 Y185.10 E200.77396
G1 X130.69 Y184.96 E200.81370
G1 X114.97 Y181.76 E201.74634
G1 X113.12 Y181.32 E201.85646
G1 X111.47 Y180.75 E201.95810
G1 X109.86 Y179.99 E202.06166
G1 X108.29 Y179.03 E202.16842
G1 X106.80 Y177.86 E202.27836
G1 X105.40 Y176.48 E202.39257
G1 X104.13 Y174.90 E202.51093
G1 X102.99 Y173.11 E202.63411
G1 X102.00 Y171.13 E202.76265
G1 X101.14 Y168.94 E202.89951
G1 X100.31 Y165.99 E203.07777
G1 X99.79 Y163.29 E203.23758
G1 X99.63 Y161.74 E203.32830
G1 X99.64 Y160.16 E203.41961
G1 X99.81 Y158.62 E203.50970
G1 X100.12 Y157.12 E203.59894
G1 X100.58 Y155.68 E203.68687
G1 X101.17 Y154.30 E203.77405
G1 X101.89 Y152.99 E203.86082
G1 X102.72 Y151.76 E203.94691
G1 X103.66 Y150.63 E204.03263
G1 X104.71 Y149.57 E204.11914
G1 X105.86 Y148.63 E204.20564
G0 F12000 X106.14 Y149.01
G1 F2700 X107.30 Y148.24 E204.28645
G1 X108.04 Y147.82 E204.33581
G1 X109.65 Y147.10 E204.43847
G1 X111.36 Y146.56 E204.54245
G1 X113.08 Y146.19 E204.64475
G1 X115.10 Y145.94 E204.76343
G1 X117.76 Y145.86 E204.91770
G1 X124.35 Y146.25 E205.30180
G1 X124.95 Y146.35 E205.33680
G1 X125.08 Y146.36 E205.34442
G1 X125.25 Y146.35 E205.35479
G1 X125.44 Y146.32 E205.36540
G1 X125.66 Y146.26 E205.37917
G1 X125.92 Y146.16 E205.39505
G1 X126.38 Y145.93 E205.42483
G1 X126.88 Y145.62 E205.45929
G1 X127.59 Y145.09 E205.51079
G1 X128.73 Y144.04 E205.60068
G1 X130.34 Y142.27 E205.74001
G1 X130.72 Y141.80 E205.77475
G1 X131.74 Y140.15 E205.88752
G1 X132.82 Y138.78 E205.98897
G1 X133.94 Y137.68 E206.08030
G1 X134.79 Y137.02 E206.14306
G1 X135.64 Y136.47 E206.20137
G1 X136.49 Y136.03 E206.25721
G1 X137.35 Y135.68 E206.31112
G1 X138.23 Y135.42 E206.36459
G1 X139.38 Y135.19 E206.43277
G1 X140.52 Y135.09 E206.49897
G1 X141.93 Y135.09 E206.58121
G1 X143.32 Y135.13 E206.66210
G1 X143.96 Y134.75 E206.70523
G1 X144.65 Y134.45 E206.74945
G1 X145.32 Y134.23 E206.79007
G1 X145.98 Y134.09 E206.82951
G1 X146.66 Y134.02 E206.86910
G1 X147.50 Y134.01 E206.91781
G1 X148.34 Y134.09 E206.96713
G1 X149.28 Y134.28 E207.02238
G1 X150.37 Y134.60 E207.08879
G1 X150.75 Y134.73 E207.11195
G1 X151.94 Y134.18 E207.18823
G1 X153.67 Y135.86 E207.32827
G1 X154.53 Y135.37 E207.38519
G1 X151.39 Y131.72 E207.66515
G1 X150.72 Y130.84 E207.72967
G1 X150.11 Y129.81 E207.79882
G1 X149.63 Y128.74 E207.86690
G1 X149.33 Y127.70 E207.93016
G1 X149.18 Y126.91 E207.97651
G1 X149.11 Y126.16 E208.02045
G1 X149.12 Y125.39 E208.06520
G1 X149.19 Y124.66 E208.10810
G1 X149.34 Y123.93 E208.15110
G1 X149.56 Y123.21 E208.19472
G1 X149.85 Y122.52 E208.23853
G1 X150.24 Y121.84 E208.28380
G1 X150.71 Y121.21 E208.32974
G1 X151.25 Y120.64 E208.37546
G1 X151.90 Y120.11 E208.42399
G1 X152.61 Y119.68 E208.47224
G1 X153.38 Y119.34 E208.52092
G1 X154.22 Y119.11 E208.57181
G1 X155.07 Y118.99 E208.62154
G1 X155.94 Y118.99 E208.67245
G1 X156.79 Y119.11 E208.72238
G1 X157.60 Y119.33 E208.77112
G1 X158.25 Y119.58 E208.81168
G1 X198.55 Y137.73 E211.38050
G1 X199.97 Y138.48 E211.47358
G1 X200.96 Y139.17 E211.54380
G1 X201.82 Y139.92 E211.61023
G1 X202.59 Y140.75 E211.67591
G1 X203.25 Y141.63 E211.74007
G1 X203.80 Y142.58 E211.80362
G1 X204.24 Y143.57 E211.86664
G1 X204.56 Y144.58 E211.92808
G1 X204.77 Y145.58 E211.98731
G1 X204.89 Y146.62 E212.04852
G1 X204.90 Y148.06 E212.13187
G1 X204.76 Y149.50 E212.21621
G1 X204.47 Y150.93 E212.30068
G1 X203.94 Y152.71 E212.40910
G1 X203.06 Y154.83 E212.54266
G1 X201.97 Y156.88 E212.67709
G1 X199.73 Y160.30 E212.91490
G1 X197.74 Y160.77 E213.03388
G1 X197.74 Y161.72 E213.08950
G1 X193.97 Y171.78 E213.71359
G1 X193.30 Y173.62 E213.82754
G1 X192.54 Y175.20 E213.92937
G1 X191.75 Y176.51 E214.01828
G1 X190.83 Y177.75 E214.10802
G1 X189.93 Y178.71 E214.18467
G1 X188.94 Y179.57 E214.26063
G1 X188.05 Y180.18 E214.32350
G1 X187.10 Y180.69 E214.38604
G1 X186.08 Y181.11 E214.45011
G1 X184.99 Y181.41 E214.51607
G1 X183.85 Y181.59 E214.58320
G1 X182.78 Y181.63 E214.64527
G1 X168.25 Y181.40 E215.49019
G1 X167.27 Y181.32 E215.54720
G1 X166.22 Y181.11 E215.60937
G1 X165.20 Y180.77 E215.67201
G1 X164.23 Y180.28 E215.73489
G1 X163.34 Y179.66 E215.79811
G1 X162.58 Y178.94 E215.85904
G1 X161.94 Y178.14 E215.91810
G1 X161.43 Y177.28 E215.97660
G1 X161.05 Y176.37 E216.03387
G1 X160.79 Y175.45 E216.08905
G1 X160.65 Y174.52 E216.14419
G1 X160.62 Y173.56 E216.19967
G1 X160.70 Y172.59 E216.25633
G1 X160.90 Y171.66 E216.31136
G1 X161.19 Y170.76 E216.36653
G1 X161.59 Y169.89 E216.42227
G1 X162.08 Y169.08 E216.47730
G1 X162.67 Y168.30 E216.53422
G1 X163.36 Y167.57 E216.59247
G1 X164.15 Y166.91 E216.65222
G1 X165.02 Y166.34 E216.71257
G1 X165.96 Y165.86 E216.77397
G1 X166.96 Y165.48 E216.83660
G1 X168.03 Y165.19 E216.90052
G1 X169.05 Y165.02 E216.96085
G1 X174.96 Y164.34 E217.30640
G1 X174.95 Y164.29 E217.30942
G1 X174.94 Y164.20 E217.31429
G1 X174.94 Y164.17 E217.31614
G1 X174.91 Y164.12 E217.31971
G1 X174.90 Y164.08 E217.32174
G1 X174.82 Y164.05 E217.32693
G1 X174.17 Y163.84 E217.36643
G1 X153.22 Y157.08 E218.64583
G1 X153.23 Y157.41 E218.66537
G1 X153.28 Y157.80 E218.68809
G1 X153.41 Y158.41 E218.72404
G1 X153.61 Y158.96 E218.75809
G1 X155.87 Y161.90 E218.97396
G1 X156.84 Y163.78 E219.09686
G1 X157.41 Y165.24 E219.18758
G1 X157.82 Y166.70 E219.27567
G1 X158.06 Y168.16 E219.36220
G1 X158.14 Y169.62 E219.44718
G1 X158.06 Y171.06 E219.53077
G1 X157.84 Y172.47 E219.61366
G1 X157.48 Y173.85 E219.69653
G1 X156.90 Y175.49 E219.79765
G1 X156.02 Y177.37 E219.91846
G1 X154.95 Y179.27 E220.04515
G1 X153.74 Y181.07 E220.17110
G1 X152.69 Y182.30 E220.26499
G1 X151.73 Y183.21 E220.34213
G1 X150.89 Y183.85 E220.40347
G1 X150.00 Y184.40 E220.46433
G1 X149.05 Y184.87 E220.52583
G1 X148.03 Y185.27 E220.58976
G1 X146.66 Y185.64 E220.67232
G1 X145.18 Y185.89 E220.75914
G1 X143.26 Y186.01 E220.87074
G1 X140.83 Y185.95 E221.01237
G1 X139.37 Y185.83 E221.09722
G1 X131.44 Y184.64 E221.56348
G1 X130.78 Y184.50 E221.60250
G1 X115.07 Y181.30 E222.53474
G1 X113.25 Y180.88 E222.64300
G1 X111.65 Y180.31 E222.74181
G1 X110.08 Y179.58 E222.84251
G1 X108.56 Y178.64 E222.94625
G1 X107.11 Y177.51 E223.05309
G1 X105.75 Y176.17 E223.16418
G1 X104.51 Y174.62 E223.27948
G1 X103.39 Y172.88 E223.39976
G1 X102.42 Y170.94 E223.52569
G1 X101.58 Y168.79 E223.65992
G1 X100.76 Y165.88 E223.83577
G1 X100.25 Y163.22 E223.99321
G1 X100.10 Y161.71 E224.08125
G1 X100.11 Y160.19 E224.16971
G1 X100.27 Y158.70 E224.25711
G1 X100.58 Y157.24 E224.34355
G1 X101.02 Y155.84 E224.42891
G1 X101.59 Y154.50 E224.51344
G1 X102.29 Y153.23 E224.59763
G1 X103.09 Y152.04 E224.68112
G1 X104.00 Y150.94 E224.76437
G1 X105.02 Y149.92 E224.84821
G1 X106.14 Y149.01 E224.93198
G0 F12000 X106.42 Y149.38
G1 F2700 X107.54 Y148.63 E225.01036
G1 X108.25 Y148.24 E225.05750
G1 X109.82 Y147.54 E225.15749
G1 X111.48 Y147.01 E225.25866
G1 X113.15 Y146.65 E225.35835
G1 X115.14 Y146.41 E225.47456
G1 X117.75 Y146.33 E225.62645
G1 X124.30 Y146.72 E226.00776
G1 X124.89 Y146.82 E226.04268
G1 X125.09 Y146.83 E226.05427
G1 X125.30 Y146.82 E226.06638
G1 X125.54 Y146.77 E226.08083
G1 X125.81 Y146.70 E226.09669
G1 X126.10 Y146.59 E226.11513
G1 X126.61 Y146.33 E226.14811
G1 X127.15 Y146.00 E226.18484
G1 X127.89 Y145.44 E226.23872
G1 X129.06 Y144.38 E226.33079
G1 X130.70 Y142.56 E226.47287
G1 X131.10 Y142.07 E226.50959
G1 X132.12 Y140.42 E226.62262
G1 X133.17 Y139.10 E226.72076
G1 X134.25 Y138.03 E226.80897
G1 X135.06 Y137.40 E226.86891
G1 X135.87 Y136.88 E226.92471
G1 X136.69 Y136.46 E226.97800
G1 X137.51 Y136.12 E227.02946
G1 X138.34 Y135.87 E227.08027
G1 X139.45 Y135.65 E227.14579
G1 X140.54 Y135.55 E227.20930
G1 X141.92 Y135.56 E227.28986
G1 X143.47 Y135.61 E227.37964
G1 X143.54 Y135.55 E227.38531
G1 X144.17 Y135.16 E227.42800
G1 X144.82 Y134.88 E227.46897
G1 X145.44 Y134.69 E227.50686
G1 X146.06 Y134.56 E227.54362
G1 X146.69 Y134.49 E227.58046
G1 X147.48 Y134.48 E227.62644
G1 X148.28 Y134.56 E227.67307
G1 X149.17 Y134.73 E227.72566
G1 X150.23 Y135.04 E227.79006
G1 X150.77 Y135.23 E227.82359
G1 X151.85 Y134.74 E227.89233
G1 X153.60 Y136.43 E228.03410
G1 X154.81 Y135.74 E228.11531
G1 X156.51 Y137.97 E228.27825
G1 X157.16 Y137.73 E228.31850
G1 X151.75 Y131.42 E228.80141
G1 X151.10 Y130.57 E228.86365
G1 X150.52 Y129.60 E228.92957
G1 X150.07 Y128.58 E228.99421
G1 X149.78 Y127.59 E229.05439
G1 X149.64 Y126.85 E229.09808
G1 X149.58 Y126.14 E229.13945
G1 X149.58 Y125.42 E229.18159
G1 X149.66 Y124.73 E229.22186
G1 X149.79 Y124.04 E229.26225
G1 X150.00 Y123.38 E229.30300
G1 X150.27 Y122.73 E229.34387
G1 X150.63 Y122.10 E229.38594
G1 X151.07 Y121.51 E229.42865
G1 X151.57 Y120.98 E229.47108
G1 X152.17 Y120.49 E229.51597
G1 X152.83 Y120.09 E229.56053
G1 X153.53 Y119.78 E229.60552
G1 X154.31 Y119.56 E229.65249
G1 X155.10 Y119.46 E229.69859
G1 X155.91 Y119.46 E229.74578
G1 X156.70 Y119.57 E229.79218
G1 X157.46 Y119.77 E229.83774
G1 X158.07 Y120.01 E229.87618
G1 X198.35 Y138.15 E232.44341
G1 X199.72 Y138.88 E232.53397
G1 X200.67 Y139.54 E232.60110
G1 X201.50 Y140.25 E232.66464
G1 X202.23 Y141.04 E232.72736
G1 X202.86 Y141.89 E232.78853
G1 X203.38 Y142.79 E232.84908
G1 X203.80 Y143.74 E232.90910
G1 X204.10 Y144.70 E232.96766
G1 X204.31 Y145.65 E233.02440
G1 X204.42 Y146.65 E233.08292
G1 X204.44 Y148.04 E233.16337
G1 X204.30 Y149.43 E233.24484
G1 X204.02 Y150.81 E233.32671
G1 X203.50 Y152.56 E233.43244
G1 X202.64 Y154.63 E233.56332
G1 X201.57 Y156.64 E233.69523
G1 X199.44 Y159.89 E233.92103
G1 X197.49 Y160.35 E234.03785
G1 X197.34 Y160.40 E234.04680
G1 X197.29 Y160.42 E234.05021
G1 X197.27 Y160.58 E234.05956
G1 X197.27 Y161.64 E234.12093
G1 X193.54 Y171.58 E234.73822
G1 X193.54 Y171.58 E234.73828
G1 X192.87 Y173.44 E234.85303
G1 X192.13 Y174.98 E234.95229
G1 X191.37 Y176.25 E235.03857
G1 X190.47 Y177.45 E235.12548
G1 X189.61 Y178.38 E235.19909
G1 X188.66 Y179.20 E235.27212
G1 X187.80 Y179.78 E235.33211
G1 X186.90 Y180.27 E235.39177
G1 X185.93 Y180.67 E235.45276
G1 X184.89 Y180.96 E235.51557
G1 X183.80 Y181.13 E235.57953
G1 X182.77 Y181.17 E235.63932
G1 X168.27 Y180.93 E236.48261
G1 X167.33 Y180.86 E236.53718
G1 X166.34 Y180.66 E236.59602
G1 X165.38 Y180.34 E236.65498
G1 X164.47 Y179.88 E236.71402
G1 X163.63 Y179.29 E236.77327
G1 X162.92 Y178.62 E236.83030
G1 X162.33 Y177.88 E236.88559
G1 X161.85 Y177.06 E236.94038
G1 X161.49 Y176.21 E236.99416
G1 X161.25 Y175.36 E237.04589
G1 X161.11 Y174.47 E237.09780
G1 X161.08 Y173.57 E237.15002
G1 X161.16 Y172.66 E237.20347
G1 X161.35 Y171.78 E237.25541
G1 X161.62 Y170.93 E237.30751
G1 X162.00 Y170.11 E237.36026
G1 X162.46 Y169.34 E237.41229
G1 X163.03 Y168.60 E237.46625
G1 X163.68 Y167.91 E237.52138
G1 X164.43 Y167.29 E237.57808
G1 X165.25 Y166.75 E237.63540
G1 X166.15 Y166.29 E237.69392
G1 X167.11 Y165.92 E237.75362
G1 X168.12 Y165.65 E237.81484
G1 X169.12 Y165.48 E237.87315
G1 X175.19 Y164.78 E238.22830
G1 X175.34 Y164.75 E238.23763
G1 X175.37 Y164.70 E238.24075
G1 X175.39 Y164.64 E238.24492
G1 X175.41 Y164.56 E238.24952
G1 X175.42 Y164.47 E238.25474
G1 X175.42 Y164.34 E238.26213
G1 X175.42 Y164.25 E238.26760
G1 X175.40 Y164.13 E238.27470
G1 X175.38 Y164.04 E238.27995
G1 X175.35 Y163.95 E238.28565
G1 X175.31 Y163.87 E238.29074
G1 X175.28 Y163.81 E238.29483
G1 X175.25 Y163.77 E238.29758
G1 X175.23 Y163.74 E238.29988
G1 X175.20 Y163.71 E238.30211
G1 X175.17 Y163.69 E238.30416
G1 X175.13 Y163.67 E238.30691
G1 X174.98 Y163.61 E238.31591
G1 X174.31 Y163.40 E238.35672
G1 X152.82 Y156.46 E239.66965
G1 X152.78 Y156.68 E239.68309
G1 X152.76 Y157.03 E239.70330
G1 X152.77 Y157.46 E239.72836
G1 X152.82 Y157.88 E239.75254
G1 X152.97 Y158.53 E239.79177
G1 X153.19 Y159.18 E239.83171
G1 X155.48 Y162.15 E240.04953
G1 X156.41 Y163.97 E240.16858
G1 X156.97 Y165.38 E240.25656
G1 X157.36 Y166.80 E240.34182
G1 X157.59 Y168.22 E240.42540
G1 X157.67 Y169.62 E240.50741
G1 X157.59 Y171.01 E240.58820
G1 X157.38 Y172.38 E240.66839
G1 X157.04 Y173.72 E240.74873
G1 X156.47 Y175.31 E240.84734
G1 X155.61 Y177.16 E240.96583
G1 X154.55 Y179.03 E241.09039
G1 X153.37 Y180.79 E241.21374
G1 X152.35 Y181.98 E241.30462
G1 X151.43 Y182.85 E241.37883
G1 X150.62 Y183.47 E241.43756
G1 X149.77 Y184.00 E241.49576
G1 X148.86 Y184.45 E241.55472
G1 X147.88 Y184.83 E241.61603
G1 X146.56 Y185.19 E241.69575
G1 X145.13 Y185.42 E241.77987
G1 X143.26 Y185.54 E241.88890
G1 X140.85 Y185.48 E242.02856
G1 X139.43 Y185.37 E242.11171
G1 X131.52 Y184.18 E242.57639
G1 X130.88 Y184.05 E242.61470
G1 X115.17 Y180.85 E243.54658
G1 X113.38 Y180.43 E243.65293
G1 X111.83 Y179.88 E243.74889
G1 X110.30 Y179.17 E243.84673
G1 X108.83 Y178.26 E243.94744
G1 X107.42 Y177.16 E244.05121
G1 X106.09 Y175.86 E244.15917
G1 X104.89 Y174.35 E244.27141
G1 X103.80 Y172.65 E244.38884
G1 X102.85 Y170.75 E244.51205
G1 X102.03 Y168.64 E244.64374
G1 X101.22 Y165.77 E244.81710
G1 X100.71 Y163.15 E244.97224
G1 X100.56 Y161.69 E245.05759
G1 X100.57 Y160.22 E245.14326
G1 X100.73 Y158.77 E245.22785
G1 X101.03 Y157.36 E245.31163
G1 X101.46 Y156.00 E245.39431
G1 X102.01 Y154.71 E245.47625
G1 X102.69 Y153.48 E245.55784
G1 X103.47 Y152.32 E245.63882
G1 X104.35 Y151.25 E245.71950
G1 X105.34 Y150.26 E245.80063
G1 X106.42 Y149.38 E245.88172
G0 F12000 X106.69 Y149.76
G1 F2700 X107.78 Y149.03 E245.95768
G1 X108.46 Y148.66 E246.00259
G1 X109.98 Y147.97 E246.09989
G1 X111.60 Y147.46 E246.19821
G1 X113.23 Y147.11 E246.29534
G1 X115.17 Y146.87 E246.40908
G1 X117.74 Y146.79 E246.55853
G1 X124.25 Y147.18 E246.93710
G1 X124.84 Y147.28 E246.97203
G1 X125.09 Y147.29 E246.98693
G1 X125.35 Y147.28 E247.00184
G1 X125.64 Y147.23 E247.01899
G1 X125.96 Y147.14 E247.03831
G1 X126.29 Y147.01 E247.05884
G1 X126.84 Y146.74 E247.09469
G1 X127.40 Y146.39 E247.13298
G1 X128.19 Y145.80 E247.19009
G1 X129.39 Y144.70 E247.28459
G1 X131.06 Y142.86 E247.42905
G1 X131.48 Y142.35 E247.46780
G1 X132.50 Y140.69 E247.58104
G1 X133.52 Y139.41 E247.67596
G1 X134.56 Y138.38 E247.76095
G1 X135.34 Y137.78 E247.81817
G1 X136.10 Y137.28 E247.87136
G1 X136.88 Y136.88 E247.92215
G1 X137.66 Y136.56 E247.97111
G1 X138.46 Y136.32 E248.01936
G1 X139.51 Y136.12 E248.08210
G1 X140.56 Y136.02 E248.14292
G1 X141.91 Y136.03 E248.22185
G1 X143.62 Y136.08 E248.32099
G1 X143.81 Y135.93 E248.33479
G1 X144.39 Y135.58 E248.37415
G1 X144.98 Y135.32 E248.41194
G1 X145.56 Y135.14 E248.44703
G1 X146.13 Y135.02 E248.48111
G1 X146.72 Y134.95 E248.51521
G1 X147.46 Y134.95 E248.55839
G1 X148.21 Y135.02 E248.60241
G1 X149.06 Y135.18 E248.65232
G1 X150.09 Y135.49 E248.71480
G1 X150.80 Y135.74 E248.75855
G1 X151.75 Y135.29 E248.81974
G1 X153.53 Y137.01 E248.96323
G1 X154.69 Y136.35 E249.04108
G1 X156.35 Y138.53 E249.20051
G1 X157.95 Y137.93 E249.29961
G1 X152.11 Y131.13 E249.82044
G1 X151.49 Y130.31 E249.88040
G1 X150.94 Y129.38 E249.94306
G1 X150.51 Y128.42 E250.00435
G1 X150.23 Y127.48 E250.06136
G1 X150.10 Y126.79 E250.10233
G1 X150.05 Y126.12 E250.14119
G1 X150.05 Y125.44 E250.18072
G1 X150.12 Y124.80 E250.21836
G1 X150.24 Y124.16 E250.25609
G1 X150.44 Y123.54 E250.29403
G1 X150.69 Y122.94 E250.33198
G1 X151.02 Y122.36 E250.37077
G1 X151.43 Y121.81 E250.41032
G1 X151.89 Y121.32 E250.44942
G1 X152.44 Y120.87 E250.49064
G1 X153.04 Y120.51 E250.53161
G1 X153.69 Y120.22 E250.57285
G1 X154.41 Y120.02 E250.61597
G1 X155.13 Y119.92 E250.65831
G1 X155.88 Y119.93 E250.70190
G1 X156.61 Y120.03 E250.74479
G1 X157.31 Y120.22 E250.78715
G1 X157.89 Y120.44 E250.82335
G1 X198.14 Y138.57 E253.38905
G1 X199.48 Y139.28 E253.47703
G1 X200.39 Y139.91 E253.54119
G1 X201.18 Y140.59 E253.60181
G1 X201.87 Y141.34 E253.66152
G1 X202.47 Y142.15 E253.71966
G1 X202.97 Y143.00 E253.77725
G1 X203.36 Y143.90 E253.83424
G1 X203.65 Y144.82 E253.89005
G1 X203.84 Y145.73 E253.94417
G1 X203.96 Y146.68 E254.00006
G1 X203.97 Y148.01 E254.07754
G1 X203.84 Y149.36 E254.15620
G1 X203.57 Y150.70 E254.23547
G1 X203.06 Y152.40 E254.33854
G1 X202.21 Y154.44 E254.46676
G1 X201.17 Y156.40 E254.59612
G1 X199.15 Y159.48 E254.80988
G1 X197.36 Y159.90 E254.91714
G1 X197.17 Y159.96 E254.92874
G1 X197.02 Y160.03 E254.93818
G1 X196.93 Y160.09 E254.94426
G1 X196.91 Y160.10 E254.94563
G1 X196.90 Y160.12 E254.94670
G1 X196.90 Y160.12 E254.94707
G1 X196.89 Y160.13 E254.94766
G1 X196.88 Y160.14 E254.94857
G1 X196.86 Y160.19 E254.95164
G1 X196.84 Y160.26 E254.95609
G1 X196.83 Y160.33 E254.96024
G1 X196.81 Y160.56 E254.97355
G1 X196.81 Y161.55 E255.03121
G1 X193.09 Y171.45 E255.64550
G1 X192.44 Y173.26 E255.75727
G1 X191.72 Y174.76 E255.85400
G1 X190.98 Y175.99 E255.93758
G1 X190.11 Y177.15 E256.02167
G1 X189.28 Y178.04 E256.09232
G1 X188.37 Y178.83 E256.16238
G1 X187.56 Y179.38 E256.21944
G1 X186.70 Y179.85 E256.27618
G1 X185.78 Y180.22 E256.33415
G1 X184.79 Y180.50 E256.39383
G1 X183.76 Y180.66 E256.45467
G1 X182.77 Y180.70 E256.51208
G1 X168.29 Y180.47 E257.35386
G1 X167.40 Y180.40 E257.40592
G1 X166.46 Y180.21 E257.46140
G1 X165.56 Y179.91 E257.51672
G1 X164.71 Y179.48 E257.57185
G1 X163.93 Y178.93 E257.62714
G1 X163.27 Y178.30 E257.68030
G1 X162.71 Y177.61 E257.73183
G1 X162.26 Y176.85 E257.78294
G1 X161.93 Y176.06 E257.83313
G1 X161.70 Y175.26 E257.88149
G1 X161.58 Y174.43 E257.93016
G1 X161.55 Y173.59 E257.97912
G1 X161.63 Y172.73 E258.02937
G1 X161.80 Y171.90 E258.07822
G1 X162.06 Y171.10 E258.12727
G1 X162.42 Y170.32 E258.17695
G1 X162.85 Y169.60 E258.22601
G1 X163.38 Y168.90 E258.27695
G1 X164.00 Y168.25 E258.32903
G1 X164.71 Y167.66 E258.38267
G1 X165.49 Y167.15 E258.43698
G1 X166.34 Y166.71 E258.49256
G1 X167.25 Y166.36 E258.54939
G1 X168.22 Y166.10 E258.60790
G1 X169.18 Y165.94 E258.66422
G1 X175.26 Y165.24 E259.01978
G1 X175.47 Y165.21 E259.03223
G1 X175.54 Y165.18 E259.03638
G1 X175.59 Y165.16 E259.03969
G1 X175.62 Y165.14 E259.04196
G1 X175.64 Y165.12 E259.04332
G1 X175.69 Y165.07 E259.04752
G1 X175.72 Y165.03 E259.05087
G1 X175.75 Y164.98 E259.05426
G1 X175.79 Y164.89 E259.05994
G1 X175.84 Y164.75 E259.06846
G1 X175.86 Y164.65 E259.07431
G1 X175.88 Y164.52 E259.08206
G1 X175.89 Y164.34 E259.09224
G1 X175.88 Y164.20 E259.10068
G1 X175.86 Y164.05 E259.10936
G1 X175.83 Y163.91 E259.11778
G1 X175.78 Y163.77 E259.12623
G1 X175.73 Y163.66 E259.13325
G1 X175.67 Y163.55 E259.14041
G1 X175.61 Y163.47 E259.14616
G1 X175.55 Y163.40 E259.15163
G1 X175.48 Y163.34 E259.15682
G1 X175.42 Y163.30 E259.16149
G1 X175.31 Y163.24 E259.16854
G1 X175.14 Y163.18 E259.17911
G1 X174.46 Y162.96 E259.22092
G1 X152.84 Y155.97 E260.54108
G1 X152.50 Y155.89 E260.56150
G1 X152.50 Y155.90 E260.56171
G1 X152.46 Y156.00 E260.56831
G1 X152.38 Y156.27 E260.58470
G1 X152.31 Y156.63 E260.60588
G1 X152.29 Y157.03 E260.62894
G1 X152.30 Y157.49 E260.65575
G1 X152.36 Y157.96 E260.68344
G1 X152.52 Y158.66 E260.72500
G1 X152.77 Y159.38 E260.76906
G1 X152.78 Y159.42 E260.77174
G1 X155.08 Y162.41 E260.99076
G1 X155.99 Y164.17 E261.10594
G1 X156.52 Y165.53 E261.19118
G1 X156.91 Y166.90 E261.27355
G1 X157.13 Y168.27 E261.35418
G1 X157.20 Y169.62 E261.43328
G1 X157.13 Y170.96 E261.51122
G1 X156.92 Y172.28 E261.58876
G1 X156.59 Y173.58 E261.66652
G1 X156.04 Y175.14 E261.76265
G1 X155.19 Y176.95 E261.87886
G1 X154.16 Y178.78 E262.00125
G1 X153.00 Y180.51 E262.12204
G1 X152.02 Y181.66 E262.20991
G1 X151.12 Y182.50 E262.28116
G1 X150.36 Y183.08 E262.33724
G1 X149.54 Y183.59 E262.39288
G1 X148.68 Y184.02 E262.44929
G1 X147.73 Y184.39 E262.50797
G1 X146.46 Y184.73 E262.58485
G1 X145.07 Y184.96 E262.66632
G1 X143.25 Y185.08 E262.77273
G1 X140.88 Y185.02 E262.91042
G1 X139.48 Y184.90 E262.99194
G1 X131.60 Y183.72 E263.45497
G1 X130.97 Y183.59 E263.49257
G1 X115.27 Y180.39 E264.42403
G1 X113.52 Y179.98 E264.52854
G1 X112.00 Y179.45 E264.62166
G1 X110.53 Y178.75 E264.71662
G1 X109.09 Y177.88 E264.81425
G1 X107.73 Y176.81 E264.91495
G1 X106.44 Y175.54 E265.01980
G1 X105.26 Y174.08 E265.12906
G1 X104.20 Y172.42 E265.24354
G1 X103.27 Y170.56 E265.36414
G1 X102.47 Y168.50 E265.49322
G1 X101.67 Y165.66 E265.66416
G1 X101.17 Y163.09 E265.81687
G1 X101.03 Y161.67 E265.89965
G1 X101.04 Y160.24 E265.98248
G1 X101.19 Y158.84 E266.06426
G1 X101.48 Y157.48 E266.14530
G1 X101.90 Y156.17 E266.22535
G1 X102.43 Y154.91 E266.30469
G1 X103.09 Y153.72 E266.38374
G1 X103.84 Y152.60 E266.46213
G1 X104.70 Y151.56 E266.54026
G1 X105.65 Y150.61 E266.61872
G1 X106.69 Y149.76 E266.69712
G0 F12000 X106.97 Y150.13
G1 F2700 X108.03 Y149.43 E266.77072
G1 X108.67 Y149.07 E266.81337
G1 X110.15 Y148.41 E266.90801
G1 X111.72 Y147.91 E267.00345
G1 X113.31 Y147.57 E267.09802
G1 X115.21 Y147.34 E267.20931
G1 X117.74 Y147.26 E267.35631
G1 X124.19 Y147.64 E267.73215
G1 X124.79 Y147.75 E267.76749
G1 X125.09 Y147.76 E267.78489
G1 X125.41 Y147.74 E267.80353
G1 X125.74 Y147.69 E267.82292
G1 X126.11 Y147.58 E267.84512
G1 X126.47 Y147.44 E267.86805
G1 X127.07 Y147.14 E267.90698
G1 X127.67 Y146.78 E267.94742
G1 X128.49 Y146.16 E268.00719
G1 X129.71 Y145.04 E268.10374
G1 X131.42 Y143.16 E268.25134
G1 X131.86 Y142.62 E268.29170
G1 X132.88 Y140.96 E268.40523
G1 X133.86 Y139.72 E268.49684
G1 X134.87 Y138.74 E268.57871
G1 X135.60 Y138.16 E268.63311
G1 X136.34 Y137.69 E268.68381
G1 X137.08 Y137.31 E268.73206
G1 X137.82 Y137.00 E268.77849
G1 X138.57 Y136.78 E268.82415
G1 X139.58 Y136.58 E268.88421
G1 X140.58 Y136.49 E268.94229
G1 X141.91 Y136.49 E269.01959
G1 X143.76 Y136.55 E269.12752
G1 X143.78 Y136.54 E269.12834
G1 X144.07 Y136.32 E269.15004
G1 X144.60 Y136.00 E269.18606
G1 X145.15 Y135.76 E269.22065
G1 X145.68 Y135.59 E269.25296
G1 X146.21 Y135.48 E269.28439
G1 X146.74 Y135.42 E269.31573
G1 X147.44 Y135.41 E269.35619
G1 X148.15 Y135.48 E269.39751
G1 X148.94 Y135.63 E269.44482
G1 X149.94 Y135.93 E269.50529
G1 X150.82 Y136.24 E269.55928
G1 X151.66 Y135.85 E269.61290
G1 X153.45 Y137.59 E269.75813
G1 X154.57 Y136.96 E269.83257
G1 X156.19 Y139.09 E269.98850
G1 X158.74 Y138.13 E270.14641
G1 X152.48 Y130.84 E270.70521
G1 X151.88 Y130.05 E270.76276
G1 X151.35 Y129.17 E270.82224
G1 X150.95 Y128.26 E270.88009
G1 X150.69 Y127.37 E270.93403
G1 X150.57 Y126.72 E270.97228
G1 X150.51 Y126.10 E271.00863
G1 X150.51 Y125.47 E271.04548
G1 X150.58 Y124.86 E271.08061
G1 X150.69 Y124.27 E271.11561
G1 X150.87 Y123.70 E271.15076
G1 X151.11 Y123.14 E271.18576
G1 X151.41 Y122.61 E271.22137
G1 X151.79 Y122.11 E271.25760
G1 X152.21 Y121.66 E271.29341
G1 X152.71 Y121.25 E271.33099
G1 X153.26 Y120.92 E271.36836
G1 X153.85 Y120.66 E271.40583
G1 X154.50 Y120.48 E271.44508
G1 X155.16 Y120.39 E271.48379
G1 X155.84 Y120.39 E271.52366
G1 X156.52 Y120.48 E271.56303
G1 X157.17 Y120.66 E271.60219
G1 X157.71 Y120.87 E271.63620
G1 X197.94 Y138.98 E274.20036
G1 X199.24 Y139.67 E274.28586
G1 X200.10 Y140.28 E274.34697
G1 X200.85 Y140.93 E274.40466
G1 X201.51 Y141.64 E274.46141
G1 X202.08 Y142.40 E274.51659
G1 X202.55 Y143.22 E274.57113
G1 X202.93 Y144.06 E274.62513
G1 X203.20 Y144.93 E274.67809
G1 X203.38 Y145.80 E274.72972
G1 X203.49 Y146.71 E274.78286
G1 X203.50 Y148.00 E274.85749
G1 X203.38 Y149.29 E274.93330
G1 X203.12 Y150.59 E275.01000
G1 X202.62 Y152.24 E275.11042
G1 X201.79 Y154.24 E275.23586
G1 X200.77 Y156.16 E275.36277
G1 X198.87 Y159.07 E275.56447
G1 X197.21 Y159.45 E275.66320
G1 X197.00 Y159.53 E275.67640
G1 X196.81 Y159.62 E275.68862
G1 X196.66 Y159.71 E275.69872
G1 X196.61 Y159.75 E275.70245
G1 X196.56 Y159.79 E275.70615
G1 X196.53 Y159.83 E275.70900
G1 X196.49 Y159.89 E275.71298
G1 X196.46 Y159.94 E275.71670
G1 X196.42 Y160.03 E275.72248
G1 X196.39 Y160.15 E275.72941
G1 X196.37 Y160.26 E275.73595
G1 X196.34 Y160.54 E275.75224
G1 X196.34 Y161.47 E275.80641
G1 X192.66 Y171.29 E276.41573
G1 X192.01 Y173.08 E276.52646
G1 X191.31 Y174.54 E276.62062
G1 X190.59 Y175.73 E276.70160
G1 X189.75 Y176.85 E276.78274
G1 X188.96 Y177.70 E276.85047
G1 X188.09 Y178.46 E276.91761
G1 X187.32 Y178.98 E276.97166
G1 X186.50 Y179.42 E277.02557
G1 X185.63 Y179.78 E277.08052
G1 X184.69 Y180.04 E277.13707
G1 X183.71 Y180.20 E277.19473
G1 X182.76 Y180.24 E277.24982
G1 X168.31 Y180.00 E278.08997
G1 X167.46 Y179.93 E278.13957
G1 X166.58 Y179.76 E278.19173
G1 X165.74 Y179.47 E278.24338
G1 X164.95 Y179.08 E278.29461
G1 X164.23 Y178.57 E278.34599
G1 X163.61 Y177.99 E278.39524
G1 X163.10 Y177.34 E278.44305
G1 X162.68 Y176.64 E278.49043
G1 X162.37 Y175.90 E278.53707
G1 X162.16 Y175.16 E278.58204
G1 X162.04 Y174.39 E278.62744
G1 X162.02 Y173.60 E278.67315
G1 X162.09 Y172.79 E278.72018
G1 X162.25 Y172.03 E278.76589
G1 X162.50 Y171.27 E278.81195
G1 X162.83 Y170.54 E278.85861
G1 X163.24 Y169.86 E278.90467
G1 X163.74 Y169.21 E278.95257
G1 X164.32 Y168.60 E279.00162
G1 X164.99 Y168.04 E279.05216
G1 X165.72 Y167.55 E279.10349
G1 X166.53 Y167.14 E279.15613
G1 X167.40 Y166.81 E279.21014
G1 X168.32 Y166.56 E279.26589
G1 X169.24 Y166.41 E279.32015
G1 X175.33 Y165.70 E279.67599
G1 X175.57 Y165.66 E279.69046
G1 X175.71 Y165.62 E279.69875
G1 X175.81 Y165.57 E279.70538
G1 X175.89 Y165.52 E279.71066
G1 X175.96 Y165.46 E279.71619
G1 X176.04 Y165.38 E279.72281
G1 X176.11 Y165.28 E279.72986
G1 X176.17 Y165.19 E279.73580
G1 X176.23 Y165.05 E279.74498
G1 X176.29 Y164.88 E279.75516
G1 X176.32 Y164.73 E279.76431
G1 X176.35 Y164.55 E279.77480
G1 X176.36 Y164.35 E279.78650
G1 X176.35 Y164.15 E279.79832
G1 X176.32 Y163.96 E279.80934
G1 X176.28 Y163.78 E279.82033
G1 X176.22 Y163.61 E279.83037
G1 X176.15 Y163.45 E279.84096
G1 X176.06 Y163.30 E279.85067
G1 X175.98 Y163.18 E279.85954
G1 X175.88 Y163.07 E279.86777
G1 X175.78 Y162.98 E279.87584
G1 X175.66 Y162.90 E279.88437
G1 X175.51 Y162.82 E279.89407
G1 X175.30 Y162.74 E279.90693
G1 X174.60 Y162.51 E279.94987
G1 X152.97 Y155.53 E281.27098
G1 X152.50 Y155.41 E281.29924
G1 X152.40 Y155.40 E281.30520
G1 X152.31 Y155.41 E281.30985
G1 X152.28 Y155.41 E281.31186
G1 X152.28 Y155.41 E281.31216
G1 X152.27 Y155.41 E281.31242
G1 X152.25 Y155.43 E281.31363
G1 X152.24 Y155.44 E281.31511
G1 X152.21 Y155.48 E281.31771
G1 X152.14 Y155.58 E281.32504
G1 X152.08 Y155.70 E281.33261
G1 X152.02 Y155.84 E281.34147
G1 X151.92 Y156.18 E281.36233
G1 X151.85 Y156.57 E281.38492
G1 X151.82 Y157.02 E281.41142
G1 X151.84 Y157.53 E281.44072
G1 X151.90 Y158.04 E281.47058
G1 X152.07 Y158.79 E281.51536
G1 X152.33 Y159.54 E281.56140
G1 X152.39 Y159.66 E281.56949
G1 X154.69 Y162.66 E281.78884
G1 X155.56 Y164.36 E281.90028
G1 X156.08 Y165.68 E281.98272
G1 X156.45 Y167.00 E282.06224
G1 X156.67 Y168.32 E282.13987
G1 X156.74 Y169.62 E282.21606
G1 X156.67 Y170.91 E282.29115
G1 X156.47 Y172.19 E282.36599
G1 X156.15 Y173.44 E282.44128
G1 X155.60 Y174.96 E282.53489
G1 X154.78 Y176.74 E282.64876
G1 X153.76 Y178.54 E282.76905
G1 X152.62 Y180.22 E282.88724
G1 X151.68 Y181.34 E282.97206
G1 X150.82 Y182.14 E283.04044
G1 X150.09 Y182.70 E283.09382
G1 X149.32 Y183.18 E283.14688
G1 X148.49 Y183.59 E283.20079
G1 X147.59 Y183.94 E283.25678
G1 X146.36 Y184.28 E283.33085
G1 X145.02 Y184.50 E283.40960
G1 X143.24 Y184.61 E283.51345
G1 X140.90 Y184.55 E283.64915
G1 X139.53 Y184.44 E283.72899
G1 X131.68 Y183.26 E284.19042
G1 X131.06 Y183.13 E284.22731
G1 X115.36 Y179.94 E285.15836
G1 X113.65 Y179.53 E285.26102
G1 X112.18 Y179.02 E285.35131
G1 X110.75 Y178.34 E285.44341
G1 X109.36 Y177.49 E285.53802
G1 X108.03 Y176.46 E285.63562
G1 X106.79 Y175.23 E285.73734
G1 X105.64 Y173.81 E285.84354
G1 X104.61 Y172.19 E285.95520
G1 X103.70 Y170.38 E286.07308
G1 X102.91 Y168.35 E286.19958
G1 X102.12 Y165.56 E286.36805
G1 X101.63 Y163.02 E286.51846
G1 X101.50 Y161.65 E286.59855
G1 X101.50 Y160.27 E286.67858
G1 X101.65 Y158.92 E286.75762
G1 X101.93 Y157.60 E286.83592
G1 X102.33 Y156.33 E286.91331
G1 X102.85 Y155.12 E286.99004
G1 X103.48 Y153.96 E287.06649
G1 X104.22 Y152.88 E287.14232
G1 X105.04 Y151.88 E287.21789
G1 X105.96 Y150.96 E287.29367
G1 X106.97 Y150.13 E287.36935
G0 F12000 X107.25 Y150.51
G1 F2700 X108.27 Y149.83 E287.44057
G1 X108.88 Y149.49 E287.48095
G1 X110.32 Y148.84 E287.57287
G1 X111.84 Y148.36 E287.66549
G1 X113.38 Y148.03 E287.75750
G1 X115.24 Y147.80 E287.86639
G1 X117.73 Y147.72 E288.01095
G1 X124.14 Y148.11 E288.38406
G1 X124.73 Y148.21 E288.41928
G1 X125.09 Y148.23 E288.44006
G1 X125.46 Y148.21 E288.46160
G1 X125.84 Y148.14 E288.48407
G1 X126.25 Y148.03 E288.50869
G1 X126.67 Y147.87 E288.53483
G1 X127.29 Y147.56 E288.57502
G1 X127.94 Y147.16 E288.61918
G1 X128.78 Y146.52 E288.68060
G1 X130.05 Y145.36 E288.78061
G1 X131.75 Y143.48 E288.92805
G1 X132.24 Y142.89 E288.97278
G1 X133.26 Y141.22 E289.08623
G1 X134.21 Y140.04 E289.17449
G1 X135.18 Y139.09 E289.25324
G1 X135.88 Y138.54 E289.30491
G1 X136.57 Y138.09 E289.35300
G1 X137.27 Y137.73 E289.39875
G1 X137.97 Y137.44 E289.44273
G1 X138.68 Y137.23 E289.48572
G1 X139.65 Y137.04 E289.54311
G1 X140.60 Y136.95 E289.59851
G1 X141.90 Y136.96 E289.67412
G1 X143.79 Y137.01 E289.78385
G1 X143.96 Y136.99 E289.79425
G1 X143.96 Y136.99 E289.79430
G1 X144.34 Y136.70 E289.82165
G1 X144.82 Y136.41 E289.85432
G1 X145.31 Y136.19 E289.88571
G1 X145.80 Y136.04 E289.91523
G1 X146.28 Y135.94 E289.94398
G1 X146.77 Y135.88 E289.97258
G1 X147.42 Y135.88 E290.01030
G1 X148.08 Y135.94 E290.04894
G1 X148.83 Y136.09 E290.09359
G1 X149.80 Y136.37 E290.15205
G1 X150.84 Y136.74 E290.21632
G1 X151.56 Y136.41 E290.26238
G1 X153.38 Y138.17 E290.40937
G1 X154.44 Y137.56 E290.48040
G1 X156.03 Y139.65 E290.63276
G1 X158.70 Y138.65 E290.79848
G1 X159.57 Y140.47 E290.91604
G1 X160.90 Y139.94 E290.99907
G1 X152.84 Y130.54 E291.71900
G1 X152.26 Y129.79 E291.77431
G1 X151.77 Y128.96 E291.83053
G1 X151.39 Y128.10 E291.88494
G1 X151.14 Y127.26 E291.93579
G1 X151.03 Y126.66 E291.97138
G1 X150.98 Y126.08 E292.00517
G1 X150.98 Y125.49 E292.03940
G1 X151.04 Y124.94 E292.07190
G1 X151.15 Y124.39 E292.10424
G1 X151.31 Y123.86 E292.13653
G1 X151.53 Y123.35 E292.16862
G1 X151.81 Y122.87 E292.20103
G1 X152.14 Y122.41 E292.23406
G1 X152.53 Y122.00 E292.26654
G1 X152.98 Y121.64 E292.30044
G1 X153.47 Y121.33 E292.33416
G1 X154.01 Y121.10 E292.36794
G1 X154.59 Y120.94 E292.40333
G1 X155.19 Y120.86 E292.43828
G1 X155.81 Y120.86 E292.47449
G1 X156.42 Y120.94 E292.51040
G1 X157.02 Y121.10 E292.54634
G1 X157.53 Y121.30 E292.57821
G1 X197.73 Y139.40 E295.14073
G1 X198.99 Y140.07 E295.22372
G1 X199.81 Y140.64 E295.28175
G1 X200.53 Y141.26 E295.33660
G1 X201.16 Y141.94 E295.39031
G1 X201.69 Y142.66 E295.44254
G1 X202.14 Y143.43 E295.49406
G1 X202.49 Y144.23 E295.54501
G1 X202.75 Y145.05 E295.59523
G1 X202.92 Y145.88 E295.64430
G1 X203.03 Y146.74 E295.69475
G1 X203.04 Y147.97 E295.76642
G1 X202.91 Y149.22 E295.83942
G1 X202.66 Y150.47 E295.91352
G1 X202.18 Y152.09 E296.01126
G1 X201.37 Y154.04 E296.13406
G1 X200.36 Y155.92 E296.25843
G1 X198.58 Y158.65 E296.44804
G1 X197.08 Y159.00 E296.53723
G1 X196.82 Y159.10 E296.55364
G1 X196.58 Y159.21 E296.56872
G1 X196.40 Y159.32 E296.58135
G1 X196.30 Y159.40 E296.58835
G1 X196.23 Y159.47 E296.59427
G1 X196.15 Y159.56 E296.60108
G1 X196.09 Y159.65 E296.60744
G1 X196.04 Y159.75 E296.61392
G1 X195.99 Y159.88 E296.62221
G1 X195.94 Y160.03 E296.63181
G1 X195.90 Y160.19 E296.64125
G1 X195.87 Y160.51 E296.65987
G1 X195.87 Y161.38 E296.71056
G1 X192.22 Y171.12 E297.31499
G1 X191.57 Y172.90 E297.42472
G1 X190.90 Y174.32 E297.51623
G1 X190.20 Y175.47 E297.59459
G1 X189.40 Y176.55 E297.67286
G1 X188.64 Y177.37 E297.73759
G1 X187.80 Y178.09 E297.80180
G1 X187.07 Y178.59 E297.85292
G1 X186.30 Y179.00 E297.90397
G1 X185.48 Y179.34 E297.95587
G1 X184.59 Y179.59 E298.00927
G1 X183.66 Y179.73 E298.06375
G1 X182.76 Y179.77 E298.11651
G1 X168.33 Y179.53 E298.95509
G1 X167.52 Y179.47 E299.00231
G1 X166.70 Y179.31 E299.05103
G1 X165.92 Y179.04 E299.09900
G1 X165.19 Y178.68 E299.14638
G1 X164.52 Y178.21 E299.19376
G1 X163.96 Y177.67 E299.23910
G1 X163.48 Y177.08 E299.28319
G1 X163.10 Y176.43 E299.32692
G1 X162.81 Y175.75 E299.37005
G1 X162.62 Y175.06 E299.41158
G1 X162.51 Y174.34 E299.45373
G1 X162.48 Y173.61 E299.49619
G1 X162.55 Y172.86 E299.54001
G1 X162.70 Y172.15 E299.58263
G1 X162.93 Y171.44 E299.62562
G1 X163.24 Y170.76 E299.66923
G1 X163.62 Y170.12 E299.71233
G1 X164.09 Y169.51 E299.75721
G1 X164.64 Y168.94 E299.80325
G1 X165.26 Y168.41 E299.85071
G1 X165.96 Y167.96 E299.89900
G1 X166.72 Y167.57 E299.94871
G1 X167.54 Y167.25 E299.99987
G1 X168.42 Y167.01 E300.05284
G1 X169.31 Y166.87 E300.10514
G1 X175.40 Y166.16 E300.46123
G1 X175.69 Y166.11 E300.47841
G1 X175.87 Y166.05 E300.48981
G1 X176.03 Y165.98 E300.49990
G1 X176.16 Y165.90 E300.50867
G1 X176.28 Y165.80 E300.51805
G1 X176.39 Y165.69 E300.52705
G1 X176.50 Y165.54 E300.53755
G1 X176.58 Y165.41 E300.54670
G1 X176.67 Y165.22 E300.55906
G1 X176.73 Y165.02 E300.57089
G1 X176.78 Y164.81 E300.58327
G1 X176.81 Y164.60 E300.59593
G1 X176.82 Y164.34 E300.61094
G1 X176.81 Y164.11 E300.62433
G1 X176.78 Y163.88 E300.63775
G1 X176.72 Y163.65 E300.65185
G1 X176.66 Y163.44 E300.66435
G1 X176.57 Y163.24 E300.67717
G1 X176.45 Y163.04 E300.69055
G1 X176.34 Y162.89 E300.70142
G1 X176.21 Y162.74 E300.71286
G1 X176.06 Y162.61 E300.72431
G1 X175.90 Y162.50 E300.73613
G1 X175.71 Y162.40 E300.74843
G1 X175.45 Y162.29 E300.76468
G1 X174.74 Y162.07 E300.80779
G1 X153.09 Y155.07 E302.13060
G1 X152.58 Y154.95 E302.16095
G1 X152.42 Y154.94 E302.17024
G1 X152.26 Y154.94 E302.17920
G1 X152.17 Y154.96 E302.18498
G1 X152.10 Y154.98 E302.18871
G1 X152.03 Y155.02 E302.19386
G1 X151.97 Y155.05 E302.19755
G1 X151.91 Y155.11 E302.20278
G1 X151.83 Y155.21 E302.20974
G1 X151.74 Y155.34 E302.21896
G1 X151.65 Y155.50 E302.22988
G1 X151.58 Y155.69 E302.24149
G1 X151.47 Y156.07 E302.26490
G1 X151.39 Y156.51 E302.29080
G1 X151.36 Y157.02 E302.32009
G1 X151.37 Y157.55 E302.35125
G1 X151.44 Y158.12 E302.38457
G1 X151.62 Y158.91 E302.43166
G1 X151.90 Y159.71 E302.48065
G1 X151.98 Y159.90 E302.49290
G1 X154.29 Y162.91 E302.71316
G1 X155.14 Y164.55 E302.82075
G1 X155.64 Y165.83 E302.90043
G1 X155.99 Y167.10 E302.97713
G1 X156.20 Y168.37 E303.05181
G1 X156.27 Y169.62 E303.12498
G1 X156.20 Y170.87 E303.19727
G1 X156.01 Y172.09 E303.26946
G1 X155.70 Y173.31 E303.34223
G1 X155.17 Y174.78 E303.43332
G1 X154.36 Y176.52 E303.54488
G1 X153.36 Y178.29 E303.66303
G1 X152.25 Y179.94 E303.77863
G1 X151.34 Y181.01 E303.86040
G1 X150.52 Y181.79 E303.92585
G1 X149.83 Y182.31 E303.97658
G1 X149.09 Y182.78 E304.02711
G1 X148.30 Y183.17 E304.07842
G1 X147.44 Y183.50 E304.13175
G1 X146.26 Y183.82 E304.20304
G1 X144.97 Y184.03 E304.27909
G1 X143.23 Y184.15 E304.38037
G1 X140.93 Y184.09 E304.51410
G1 X139.59 Y183.98 E304.59225
G1 X131.76 Y182.80 E305.05209
G1 X131.15 Y182.68 E305.08833
G1 X115.47 Y179.48 E306.01891
G1 X113.78 Y179.09 E306.11970
G1 X112.36 Y178.59 E306.20723
G1 X110.97 Y177.93 E306.29639
G1 X109.62 Y177.11 E306.38797
G1 X108.34 Y176.11 E306.48250
G1 X107.13 Y174.92 E306.58110
G1 X106.02 Y173.54 E306.68425
G1 X105.02 Y171.96 E306.79300
G1 X104.13 Y170.19 E306.90825
G1 X103.35 Y168.20 E307.03216
G1 X102.58 Y165.45 E307.19815
G1 X102.10 Y162.95 E307.34619
G1 X101.96 Y161.62 E307.42364
G1 X101.97 Y160.29 E307.50089
G1 X102.11 Y158.99 E307.57712
G1 X102.38 Y157.72 E307.65269
G1 X102.77 Y156.49 E307.72744
G1 X103.27 Y155.32 E307.80166
G1 X103.88 Y154.21 E307.87545
G1 X104.59 Y153.16 E307.94877
G1 X105.39 Y152.19 E308.02177
G1 X106.28 Y151.30 E308.09484
G1 X107.25 Y150.51 E308.16784
G0 F12000 X107.53 Y150.88
G1 F2700 X108.51 Y150.23 E308.23662
G1 X109.08 Y149.91 E308.27479
G1 X110.48 Y149.28 E308.36402
G1 X111.96 Y148.81 E308.45378
G1 X113.46 Y148.49 E308.54323
G1 X115.28 Y148.27 E308.64967
G1 X117.72 Y148.19 E308.79179
G1 X124.08 Y148.57 E309.16215
G1 X124.68 Y148.67 E309.19737
G1 X125.10 Y148.69 E309.22153
G1 X125.51 Y148.67 E309.24581
G1 X125.95 Y148.59 E309.27176
G1 X126.39 Y148.47 E309.29831
G1 X126.86 Y148.29 E309.32731
G1 X127.52 Y147.96 E309.37017
G1 X128.19 Y147.55 E309.41632
G1 X129.08 Y146.88 E309.48106
G1 X130.38 Y145.69 E309.58280
G1 X132.11 Y143.78 E309.73299
G1 X132.62 Y143.16 E309.77975
G1 X133.65 Y141.49 E309.89341
G1 X134.56 Y140.35 E309.97844
G1 X135.48 Y139.44 E310.05399
G1 X136.15 Y138.92 E310.10288
G1 X136.81 Y138.49 E310.14846
G1 X137.47 Y138.15 E310.19166
G1 X138.13 Y137.88 E310.23316
G1 X138.79 Y137.68 E310.27358
G1 X139.72 Y137.50 E310.32819
G1 X140.62 Y137.42 E310.38090
G1 X141.89 Y137.42 E310.45489
G1 X143.81 Y137.48 E310.56647
G1 X144.07 Y137.44 E310.58162
G1 X144.14 Y137.42 E310.58618
G1 X144.20 Y137.39 E310.59006
G1 X144.60 Y137.09 E310.61922
G1 X145.03 Y136.82 E310.64856
G1 X145.48 Y136.63 E310.67672
G1 X145.91 Y136.49 E310.70350
G1 X146.35 Y136.40 E310.72952
G1 X146.80 Y136.35 E310.75543
G1 X147.40 Y136.35 E310.79036
G1 X148.01 Y136.40 E310.82631
G1 X148.72 Y136.54 E310.86836
G1 X149.66 Y136.82 E310.92490
G1 X150.87 Y137.24 E310.99940
G1 X151.47 Y136.96 E311.03799
G1 X153.07 Y138.52 E311.16780
G1 X152.88 Y138.99 E311.19750
G1 X154.32 Y138.17 E311.29398
G1 X155.87 Y140.21 E311.44286
G1 X158.47 Y139.23 E311.60385
G1 X159.34 Y141.06 E311.72180
G1 X161.68 Y140.14 E311.86806
G1 X153.20 Y130.25 E312.62525
G1 X152.65 Y129.53 E312.67820
G1 X152.18 Y128.74 E312.73124
G1 X151.83 Y127.94 E312.78230
G1 X151.59 Y127.15 E312.82998
G1 X151.49 Y126.60 E312.86286
G1 X151.44 Y126.06 E312.89413
G1 X151.44 Y125.52 E312.92575
G1 X151.50 Y125.00 E312.95568
G1 X151.60 Y124.50 E312.98530
G1 X151.75 Y124.02 E313.01478
G1 X151.95 Y123.56 E313.04395
G1 X152.19 Y123.12 E313.07308
G1 X152.50 Y122.71 E313.10291
G1 X152.85 Y122.35 E313.13210
G1 X153.25 Y122.02 E313.16238
G1 X153.69 Y121.75 E313.19247
G1 X154.16 Y121.54 E313.22252
G1 X154.69 Y121.39 E313.25399
G1 X155.22 Y121.32 E313.28525
G1 X155.78 Y121.32 E313.31785
G1 X156.33 Y121.40 E313.35024
G1 X156.88 Y121.55 E313.38298
G1 X157.35 Y121.73 E313.41262
G1 X197.53 Y139.82 E315.97361
G1 X198.75 Y140.47 E316.05408
G1 X199.53 Y141.01 E316.10910
G1 X200.20 Y141.60 E316.16102
G1 X200.80 Y142.24 E316.21173
G1 X201.30 Y142.92 E316.26097
G1 X201.72 Y143.64 E316.30947
G1 X202.05 Y144.39 E316.35745
G1 X202.30 Y145.17 E316.40479
G1 X202.46 Y145.95 E316.45131
G1 X202.56 Y146.77 E316.49907
G1 X202.57 Y147.95 E316.56783
G1 X202.45 Y149.16 E316.63803
G1 X202.21 Y150.36 E316.70952
G1 X201.74 Y151.93 E316.80459
G1 X200.95 Y153.84 E316.92469
G1 X199.96 Y155.69 E317.04658
G1 X198.29 Y158.24 E317.22414
G1 X196.96 Y158.56 E317.30383
G1 X196.63 Y158.67 E317.32363
G1 X196.37 Y158.80 E317.34090
G1 X196.13 Y158.94 E317.35687
G1 X196.00 Y159.04 E317.36623
G1 X195.88 Y159.16 E317.37601
G1 X195.78 Y159.27 E317.38487
G1 X195.70 Y159.40 E317.39358
G1 X195.62 Y159.55 E317.40393
G1 X195.54 Y159.72 E317.41474
G1 X195.48 Y159.92 E317.42684
G1 X195.44 Y160.12 E317.43853
G1 X195.41 Y160.49 E317.46013
G1 X195.41 Y161.30 E317.50727
G1 X191.78 Y170.96 E318.10679
G1 X191.15 Y172.72 E318.21542
G1 X190.48 Y174.09 E318.30435
G1 X189.82 Y175.21 E318.38005
G1 X189.04 Y176.25 E318.45550
G1 X188.31 Y177.03 E318.51727
G1 X187.52 Y177.72 E318.57847
G1 X186.83 Y178.19 E318.62676
G1 X186.10 Y178.58 E318.67484
G1 X185.32 Y178.90 E318.72377
G1 X184.49 Y179.13 E318.77397
G1 X183.62 Y179.27 E318.82534
G1 X182.75 Y179.30 E318.87577
G1 X168.35 Y179.07 E319.71273
G1 X167.59 Y179.01 E319.75750
G1 X166.82 Y178.86 E319.80290
G1 X166.10 Y178.61 E319.84719
G1 X165.43 Y178.28 E319.89068
G1 X164.82 Y177.85 E319.93413
G1 X164.30 Y177.36 E319.97558
G1 X163.87 Y176.81 E320.01594
G1 X163.51 Y176.22 E320.05597
G1 X163.25 Y175.59 E320.09548
G1 X163.07 Y174.96 E320.13363
G1 X162.97 Y174.30 E320.17255
G1 X162.95 Y173.63 E320.21175
G1 X163.01 Y172.93 E320.25230
G1 X163.15 Y172.26 E320.29189
G1 X163.36 Y171.61 E320.33183
G1 X163.66 Y170.98 E320.37243
G1 X164.01 Y170.39 E320.41247
G1 X164.44 Y169.81 E320.45436
G1 X164.96 Y169.28 E320.49737
G1 X165.54 Y168.79 E320.54176
G1 X166.19 Y168.36 E320.58701
G1 X166.91 Y167.99 E320.63380
G1 X167.69 Y167.69 E320.68215
G1 X168.52 Y167.47 E320.73236
G1 X169.37 Y167.33 E320.78267
G1 X175.45 Y166.63 E321.13810
G1 X175.80 Y166.56 E321.15906
G1 X176.04 Y166.49 E321.17327
G1 X176.25 Y166.39 E321.18713
G1 X176.43 Y166.28 E321.19921
G1 X176.60 Y166.15 E321.21180
G1 X176.75 Y165.99 E321.22442
G1 X176.89 Y165.80 E321.23783
G1 X177.00 Y165.62 E321.25042
G1 X177.10 Y165.39 E321.26475
G1 X177.19 Y165.13 E321.28057
G1 X177.24 Y164.91 E321.29414
G1 X177.28 Y164.63 E321.31020
G1 X177.29 Y164.34 E321.32713
G1 X177.28 Y164.06 E321.34349
G1 X177.24 Y163.79 E321.35920
G1 X177.18 Y163.53 E321.37528
G1 X177.09 Y163.27 E321.39108
G1 X176.98 Y163.03 E321.40617
G1 X176.85 Y162.79 E321.42205
G1 X176.71 Y162.59 E321.43622
G1 X176.54 Y162.41 E321.45087
G1 X176.35 Y162.25 E321.46524
G1 X176.14 Y162.10 E321.48032
G1 X175.91 Y161.98 E321.49527
G1 X175.60 Y161.85 E321.51476
G1 X174.89 Y161.62 E321.55823
G1 X153.22 Y154.63 E322.88154
G1 X152.66 Y154.49 E322.91518
G1 X152.43 Y154.47 E322.92867
G1 X152.22 Y154.48 E322.94065
G1 X152.05 Y154.51 E322.95073
G1 X151.93 Y154.55 E322.95821
G1 X151.79 Y154.61 E322.96684
G1 X151.69 Y154.69 E322.97447
G1 X151.57 Y154.79 E322.98348
G1 X151.46 Y154.92 E322.99316
G1 X151.34 Y155.10 E323.00616
G1 X151.23 Y155.30 E323.01923
G1 X151.13 Y155.54 E323.03430
G1 X151.01 Y155.97 E323.06013
G1 X150.93 Y156.46 E323.08915
G1 X150.89 Y157.01 E323.12130
G1 X150.91 Y157.59 E323.15490
G1 X150.98 Y158.20 E323.19050
G1 X151.17 Y159.04 E323.24058
G1 X151.47 Y159.89 E323.29313
G1 X151.58 Y160.14 E323.30908
G1 X153.90 Y163.16 E323.53004
G1 X154.71 Y164.74 E323.63378
G1 X155.20 Y165.98 E323.71077
G1 X155.54 Y167.20 E323.78457
G1 X155.74 Y168.42 E323.85625
G1 X155.80 Y169.62 E323.92650
G1 X155.74 Y170.82 E323.99594
G1 X155.55 Y172.00 E324.06549
G1 X155.25 Y173.17 E324.13569
G1 X154.74 Y174.60 E324.22428
G1 X153.95 Y176.31 E324.33354
G1 X152.97 Y178.05 E324.44956
G1 X151.88 Y179.66 E324.56253
G1 X151.00 Y180.69 E324.64133
G1 X150.22 Y181.43 E324.70383
G1 X149.56 Y181.93 E324.75190
G1 X148.86 Y182.37 E324.79989
G1 X148.11 Y182.74 E324.84868
G1 X147.30 Y183.06 E324.89933
G1 X146.16 Y183.36 E324.96778
G1 X144.91 Y183.57 E325.04111
G1 X143.22 Y183.68 E325.13984
G1 X140.95 Y183.62 E325.27159
G1 X139.64 Y183.51 E325.34810
G1 X131.85 Y182.34 E325.80630
G1 X131.25 Y182.22 E325.84183
G1 X115.56 Y179.03 E326.77199
G1 X113.91 Y178.64 E326.87093
G1 X112.53 Y178.16 E326.95563
G1 X111.19 Y177.52 E327.04190
G1 X109.89 Y176.73 E327.13048
G1 X108.65 Y175.76 E327.22191
G1 X107.48 Y174.61 E327.31739
G1 X106.40 Y173.26 E327.41747
G1 X105.42 Y171.73 E327.52332
G1 X104.55 Y170.00 E327.63592
G1 X103.80 Y168.05 E327.75725
G1 X103.03 Y165.34 E327.92085
G1 X102.56 Y162.88 E328.06650
G1 X102.43 Y161.60 E328.14134
G1 X102.43 Y160.32 E328.21573
G1 X102.57 Y159.06 E328.28922
G1 X102.83 Y157.84 E328.36200
G1 X103.21 Y156.66 E328.43413
G1 X103.69 Y155.52 E328.50574
G1 X104.28 Y154.45 E328.57696
G1 X104.96 Y153.44 E328.64773
G1 X105.73 Y152.50 E328.71821
G1 X106.59 Y151.65 E328.78865
G1 X107.53 Y150.88 E328.85888
G0 F12000 X107.80 Y151.26
G1 F2700 X108.75 Y150.62 E328.92531
G1 X109.29 Y150.32 E328.96121
G1 X110.65 Y149.72 E329.04777
G1 X112.08 Y149.26 E329.13466
G1 X113.54 Y148.95 E329.22156
G1 X115.31 Y148.73 E329.32554
G1 X117.72 Y148.66 E329.46527
G1 X124.03 Y149.03 E329.83284
G1 X124.64 Y149.14 E329.86853
G1 X125.09 Y149.16 E329.89513
G1 X125.57 Y149.13 E329.92319
G1 X126.05 Y149.05 E329.95121
G1 X126.54 Y148.91 E329.98077
G1 X127.04 Y148.72 E330.01216
G1 X127.75 Y148.37 E330.05785
G1 X128.46 Y147.93 E330.10635
G1 X129.38 Y147.23 E330.17392
G1 X130.71 Y146.02 E330.27805
G1 X132.47 Y144.08 E330.43054
G1 X133.00 Y143.43 E330.47932
G1 X134.03 Y141.76 E330.59324
G1 X134.90 Y140.66 E330.67496
G1 X135.79 Y139.79 E330.74738
G1 X136.42 Y139.30 E330.79350
G1 X137.04 Y138.90 E330.83647
G1 X137.66 Y138.58 E330.87718
G1 X138.28 Y138.32 E330.91623
G1 X138.91 Y138.14 E330.95398
G1 X139.78 Y137.96 E331.00593
G1 X140.64 Y137.88 E331.05595
G1 X141.88 Y137.89 E331.12826
G1 X143.84 Y137.95 E331.24199
G1 X144.16 Y137.90 E331.26073
G1 X144.32 Y137.85 E331.27044
G1 X144.44 Y137.80 E331.27811
G1 X144.46 Y137.78 E331.27983
G1 X144.87 Y137.47 E331.30942
G1 X145.25 Y137.24 E331.33539
G1 X145.64 Y137.07 E331.36038
G1 X146.03 Y136.94 E331.38435
G1 X146.43 Y136.86 E331.40770
G1 X146.82 Y136.81 E331.43085
G1 X147.38 Y136.81 E331.46305
G1 X147.95 Y136.86 E331.49632
G1 X148.61 Y136.99 E331.53576
G1 X149.51 Y137.26 E331.59024
G1 X150.89 Y137.74 E331.67509
G1 X151.37 Y137.52 E331.70606
G1 X152.52 Y138.63 E331.79875
G1 X151.91 Y140.07 E331.88956
G1 X154.19 Y138.78 E332.04206
G1 X155.47 Y140.45 E332.16445
G1 X154.79 Y141.11 E332.21973
G1 X158.23 Y139.82 E332.43344
G1 X159.11 Y141.66 E332.55185
G1 X161.52 Y140.70 E332.70268
G1 X162.48 Y142.65 E332.82867
G1 X162.27 Y142.78 E332.84315
G1 X165.17 Y141.92 E333.01897
G1 X166.00 Y143.90 E333.14372
G1 X165.55 Y144.15 E333.17327
G1 X168.62 Y143.41 E333.35656
G1 X162.03 Y139.82 E333.79262
G1 X153.56 Y129.96 E334.54816
G1 X153.03 Y129.26 E334.59875
G1 X152.60 Y128.53 E334.64856
G1 X152.27 Y127.78 E334.69618
G1 X152.05 Y127.04 E334.74078
G1 X151.95 Y126.53 E334.77100
G1 X151.91 Y126.04 E334.79971
G1 X151.91 Y125.54 E334.82865
G1 X151.96 Y125.07 E334.85601
G1 X152.05 Y124.62 E334.88295
G1 X152.19 Y124.18 E334.90963
G1 X152.36 Y123.77 E334.93585
G1 X152.59 Y123.38 E334.96178
G1 X152.86 Y123.01 E334.98841
G1 X153.16 Y122.69 E335.01423
G1 X153.52 Y122.40 E335.04091
G1 X153.91 Y122.16 E335.06733
G1 X154.32 Y121.98 E335.09368
G1 X154.78 Y121.85 E335.12124
G1 X155.25 Y121.79 E335.14886
G1 X155.75 Y121.79 E335.17774
G1 X156.24 Y121.86 E335.20661
G1 X156.73 Y121.99 E335.23615
G1 X157.17 Y122.16 E335.26368
G1 X197.32 Y140.24 E337.82306
G1 X198.51 Y140.87 E337.90098
G1 X199.24 Y141.38 E337.95295
G1 X199.88 Y141.93 E338.00198
G1 X200.44 Y142.53 E338.04973
G1 X200.91 Y143.17 E338.09594
G1 X201.31 Y143.85 E338.14149
G1 X201.62 Y144.56 E338.18646
G1 X201.85 Y145.29 E338.23100
G1 X202.00 Y146.03 E338.27497
G1 X202.09 Y146.80 E338.32003
G1 X202.11 Y147.93 E338.38589
G1 X201.99 Y149.09 E338.45323
G1 X201.76 Y150.25 E338.52211
G1 X201.30 Y151.77 E338.61457
G1 X200.53 Y153.64 E338.73198
G1 X199.56 Y155.45 E338.85130
G1 X198.00 Y157.83 E339.01681
G1 X196.83 Y158.11 E339.08689
G1 X196.45 Y158.24 E339.11020
G1 X196.15 Y158.38 E339.12986
G1 X195.87 Y158.56 E339.14896
G1 X195.70 Y158.69 E339.16118
G1 X195.55 Y158.83 E339.17318
G1 X195.41 Y158.99 E339.18563
G1 X195.29 Y159.16 E339.19756
G1 X195.20 Y159.35 E339.20976
G1 X195.11 Y159.56 E339.22328
G1 X195.03 Y159.81 E339.23847
G1 X194.98 Y160.05 E339.25248
G1 X194.94 Y160.48 E339.27753
G1 X194.94 Y161.22 E339.32054
G1 X191.35 Y170.79 E339.91514
G1 X190.72 Y172.53 E340.02273
G1 X190.07 Y173.88 E340.10914
G1 X189.43 Y174.95 E340.18215
G1 X188.68 Y175.95 E340.25470
G1 X187.99 Y176.69 E340.31355
G1 X187.23 Y177.35 E340.37178
G1 X186.59 Y177.79 E340.41713
G1 X185.90 Y178.16 E340.46238
G1 X185.17 Y178.46 E340.50823
G1 X184.39 Y178.68 E340.55529
G1 X183.57 Y178.80 E340.60354
G1 X182.75 Y178.84 E340.65158
G1 X168.38 Y178.60 E341.48697
G1 X167.65 Y178.55 E341.52929
G1 X166.94 Y178.41 E341.57130
G1 X166.28 Y178.18 E341.61198
G1 X165.67 Y177.87 E341.65162
G1 X165.11 Y177.49 E341.69106
G1 X164.64 Y177.04 E341.72864
G1 X164.25 Y176.55 E341.76523
G1 X163.93 Y176.01 E341.80159
G1 X163.69 Y175.44 E341.83758
G1 X163.53 Y174.87 E341.87229
G1 X163.44 Y174.26 E341.90797
G1 X163.42 Y173.64 E341.94391
G1 X163.47 Y173.00 E341.98126
G1 X163.60 Y172.38 E342.01776
G1 X163.80 Y171.78 E342.05457
G1 X164.07 Y171.19 E342.09223
G1 X164.40 Y170.65 E342.12930
G1 X164.80 Y170.12 E342.16813
G1 X165.28 Y169.62 E342.20809
G1 X165.82 Y169.16 E342.24939
G1 X166.43 Y168.76 E342.29166
G1 X167.10 Y168.42 E342.33554
G1 X167.83 Y168.14 E342.38098
G1 X168.62 Y167.93 E342.42848
G1 X169.44 Y167.79 E342.47672
G1 X175.52 Y167.09 E342.83263
G1 X175.91 Y167.02 E342.85542
G1 X176.21 Y166.92 E342.87400
G1 X176.47 Y166.80 E342.89075
G1 X176.70 Y166.66 E342.90633
G1 X176.91 Y166.49 E342.92235
G1 X177.11 Y166.29 E342.93843
G1 X177.27 Y166.07 E342.95419
G1 X177.41 Y165.84 E342.97004
G1 X177.53 Y165.56 E342.98770
G1 X177.63 Y165.27 E343.00561
G1 X177.70 Y164.99 E343.02228
G1 X177.74 Y164.68 E343.04033
G1 X177.76 Y164.34 E343.06041
G1 X177.74 Y164.04 E343.07793
G1 X177.70 Y163.70 E343.09740
G1 X177.62 Y163.39 E343.11597
G1 X177.53 Y163.10 E343.13398
G1 X177.40 Y162.81 E343.15209
G1 X177.24 Y162.54 E343.17015
G1 X177.06 Y162.29 E343.18806
G1 X176.87 Y162.08 E343.20509
G1 X176.64 Y161.88 E343.22276
G1 X176.38 Y161.70 E343.24088
G1 X176.10 Y161.55 E343.25929
G1 X175.77 Y161.42 E343.28011
G1 X153.34 Y154.18 E344.65031
G1 X152.74 Y154.03 E344.68604
G1 X152.44 Y154.00 E344.70327
G1 X152.17 Y154.01 E344.71903
G1 X151.94 Y154.05 E344.73236
G1 X151.74 Y154.12 E344.74466
G1 X151.56 Y154.21 E344.75674
G1 X151.40 Y154.32 E344.76796
G1 X151.24 Y154.46 E344.78052
G1 X151.09 Y154.64 E344.79400
G1 X150.94 Y154.86 E344.80925
G1 X150.81 Y155.11 E344.82599
G1 X150.69 Y155.38 E344.84319
G1 X150.56 Y155.86 E344.87193
G1 X150.46 Y156.41 E344.90420
G1 X150.43 Y157.00 E344.93856
G1 X150.44 Y157.64 E344.97583
G1 X150.52 Y158.27 E345.01301
G1 X150.72 Y159.17 E345.06630
G1 X151.03 Y160.06 E345.12113
G1 X151.18 Y160.38 E345.14194
G1 X153.50 Y163.41 E345.36348
G1 X154.29 Y164.94 E345.46343
G1 X154.75 Y166.12 E345.53765
G1 X155.08 Y167.30 E345.60856
G1 X155.27 Y168.47 E345.67730
G1 X155.34 Y169.62 E345.74464
G1 X155.27 Y170.77 E345.81123
G1 X155.09 Y171.91 E345.87813
G1 X154.81 Y173.03 E345.94581
G1 X154.31 Y174.43 E346.03188
G1 X153.53 Y176.10 E346.13883
G1 X152.57 Y177.80 E346.25272
G1 X151.51 Y179.38 E346.36309
G1 X150.66 Y180.37 E346.43888
G1 X149.92 Y181.07 E346.49841
G1 X149.30 Y181.55 E346.54387
G1 X148.63 Y181.96 E346.58922
G1 X147.92 Y182.31 E346.63549
G1 X147.15 Y182.61 E346.68350
G1 X146.06 Y182.91 E346.74913
G1 X144.86 Y183.11 E346.81976
G1 X143.21 Y183.21 E346.91592
G1 X140.98 Y183.16 E347.04569
G1 X139.70 Y183.05 E347.12051
G1 X131.93 Y181.88 E347.57713
G1 X115.67 Y178.57 E348.54163
G1 X114.04 Y178.19 E348.63878
G1 X112.71 Y177.72 E348.72064
G1 X111.41 Y177.11 E348.80402
G1 X110.16 Y176.34 E348.88960
G1 X108.96 Y175.41 E348.97801
G1 X107.83 Y174.29 E349.07032
G1 X106.78 Y172.99 E349.16734
G1 X105.83 Y171.50 E349.27034
G1 X104.98 Y169.81 E349.38024
G1 X104.24 Y167.90 E349.49906
G1 X103.48 Y165.24 E349.66012
G1 X103.02 Y162.81 E349.80342
G1 X102.89 Y161.58 E349.87562
G1 X102.90 Y160.35 E349.94717
G1 X103.03 Y159.14 E350.01790
G1 X103.28 Y157.96 E350.08801
G1 X103.64 Y156.82 E350.15745
G1 X104.11 Y155.73 E350.22648
G1 X104.68 Y154.69 E350.29510
G1 X105.34 Y153.72 E350.36331
G1 X106.08 Y152.82 E350.43127
G1 X106.90 Y151.99 E350.49900
G1 X107.80 Y151.26 E350.56650
G0 F12000 X108.08 Y151.63
G1 F2700 X109.00 Y151.02 E350.63052
G1 X109.50 Y150.74 E350.66419
G1 X110.82 Y150.15 E350.74806
G1 X112.20 Y149.71 E350.83208
G1 X113.61 Y149.41 E350.91643
G1 X115.35 Y149.20 E351.01795
G1 X117.71 Y149.12 E351.15524
G1 X123.98 Y149.50 E351.52008
G1 X124.58 Y149.60 E351.55576
G1 X125.09 Y149.63 E351.58568
G1 X125.62 Y149.60 E351.61654
G1 X126.16 Y149.51 E351.64779
G1 X126.68 Y149.36 E351.67972
G1 X127.23 Y149.15 E351.71377
G1 X127.98 Y148.78 E351.76212
G1 X128.73 Y148.31 E351.81349
G1 X129.67 Y147.60 E351.88222
G1 X131.04 Y146.35 E351.98980
G1 X132.83 Y144.38 E352.14477
G1 X133.38 Y143.70 E352.19545
G1 X134.41 Y142.03 E352.30962
G1 X135.25 Y140.97 E352.38808
G1 X136.10 Y140.14 E352.45729
G1 X136.69 Y139.68 E352.50064
G1 X137.27 Y139.30 E352.54109
G1 X137.86 Y139.00 E352.57927
G1 X138.44 Y138.76 E352.61580
G1 X139.02 Y138.59 E352.65094
G1 X139.85 Y138.43 E352.70022
G1 X140.66 Y138.35 E352.74750
G1 X141.88 Y138.36 E352.81818
G1 X143.87 Y138.41 E352.93407
G1 X144.26 Y138.36 E352.95726
G1 X144.48 Y138.29 E352.97057
G1 X144.67 Y138.20 E352.98266
G1 X144.73 Y138.16 E352.98706
G1 X145.13 Y137.85 E353.01611
G1 X145.46 Y137.65 E353.03875
G1 X145.81 Y137.50 E353.06051
G1 X146.15 Y137.39 E353.08174
G1 X146.50 Y137.32 E353.10240
G1 X146.85 Y137.28 E353.12281
G1 X147.36 Y137.28 E353.15228
G1 X147.88 Y137.33 E353.18287
G1 X148.50 Y137.45 E353.21964
G1 X149.37 Y137.70 E353.27218
G1 X150.91 Y138.25 E353.36727
G1 X151.28 Y138.08 E353.39070
G1 X151.97 Y138.74 E353.44632
G1 X151.05 Y140.93 E353.58406
G1 X150.62 Y141.29 E353.61653
G1 X150.73 Y141.28 E353.62258
G1 X154.07 Y139.38 E353.84603
G1 X154.85 Y140.40 E353.92072
G1 X153.00 Y142.19 E354.07042
G1 X153.43 Y142.12 E354.09565
G1 X157.99 Y140.40 E354.37929
G1 X158.54 Y141.54 E354.45281
G1 X156.34 Y143.21 E354.61325
G1 X156.49 Y143.19 E354.62181
G1 X161.29 Y141.29 E354.92228
G1 X161.88 Y142.48 E354.99910
G1 X159.24 Y144.16 E355.18058
G1 X159.29 Y144.16 E355.18350
G1 X164.90 Y142.49 E355.52348
G1 X165.41 Y143.69 E355.59957
G1 X162.44 Y145.33 E355.79679
G1 X162.66 Y145.32 E355.80996
G1 X169.23 Y143.74 E356.20261
G1 X169.70 Y144.97 E356.27913
G1 X166.51 Y146.47 E356.48406
G1 X173.03 Y145.28 E356.86962
G1 X162.32 Y139.46 E357.57798
G1 X153.93 Y129.66 E358.32775
G1 X153.42 Y129.00 E358.37610
G1 X153.01 Y128.31 E358.42265
G1 X152.70 Y127.62 E358.46686
G1 X152.50 Y126.93 E358.50837
G1 X152.42 Y126.47 E358.53585
G1 X152.38 Y126.02 E358.56205
G1 X152.38 Y125.57 E358.58838
G1 X152.42 Y125.14 E358.61311
G1 X152.50 Y124.73 E358.63739
G1 X152.62 Y124.34 E358.66127
G1 X152.78 Y123.97 E358.68452
G1 X152.98 Y123.63 E358.70727
G1 X153.22 Y123.31 E358.73070
G1 X153.48 Y123.03 E358.75319
G1 X153.79 Y122.78 E358.77614
G1 X154.12 Y122.58 E358.79899
G1 X154.48 Y122.42 E358.82157
G1 X154.87 Y122.31 E358.84532
G1 X155.28 Y122.25 E358.86919
G1 X155.72 Y122.25 E358.89447
