;-- START GCODE --
;Sliced for Type A Machines Series 1
;Sliced at: Fri 04-09-2015 11:46:57
;Basic settings: Layer height: 0.3 Walls: 1.4 Fill: 25
;Print Speed: 50 Support: 0
;Retraction Speed: 40 Retraction Distance: 1.2
;Print time: #P_TIME#
;Filament used: #F_AMNT#m #F_WGHT#g
;Filament cost: #F_COST#
M106 S255	 ;start with the fan on
G21        ;metric values
G90        ;absolute positioning
M106 S255    ;start with the fan on
G28     ;move to endstops
G29		;allows for auto-levelling
G1 X150 Y5  Z15.0 F12000 ;center and move the platform down 15mm
M109 S220 ;Heat To temp
G92 E0                  ;zero the extruded length
G1 F200 E30              ;extrude 30mm of feed stock
G92 E0                  ;zero the extruded length again
G1 X175 Y25  Z0 F12000 ;remove bugger
G1 X220 F12000 ;remove bugger
G1 X150 Y150  Z15 F12000 ;recenter and begin
G1 F12000

;Layer count: 20
;LAYER:0
M106 S255
G0 F12000 X107.09 Y144.90 Z0.30
;TYPE:SKIRT
G1 F2700 X108.55 Y143.93 E0.10183
G1 X109.72 Y143.28 E0.17999
G1 X110.11 Y143.12 E0.20409
G1 X111.58 Y142.46 E0.29793
G1 X113.69 Y141.79 E0.42632
G1 X115.76 Y141.34 E0.54948
G1 X118.09 Y141.06 E0.68583
G1 X120.99 Y140.97 E0.85487
G1 X126.60 Y141.31 E1.18111
G1 X126.99 Y140.94 E1.21245
G1 X128.21 Y139.60 E1.31750
G1 X128.22 Y139.59 E1.31833
G1 X129.12 Y138.12 E1.41902
G1 X130.53 Y136.35 E1.55009
G1 X132.01 Y134.90 E1.67039
G1 X133.22 Y133.95 E1.76010
G1 X134.42 Y133.18 E1.84277
G1 X135.65 Y132.54 E1.92339
G1 X136.92 Y132.03 E2.00319
G1 X138.24 Y131.64 E2.08295
G1 X139.78 Y131.33 E2.17461
G1 X141.36 Y131.18 E2.26672
G1 X142.87 Y131.19 E2.35449
G1 X143.61 Y130.87 E2.40113
G1 X144.18 Y130.72 E2.43543
G1 X144.04 Y129.98 E2.47870
G1 X143.94 Y128.80 E2.54756
G1 X143.94 Y127.39 E2.62980
G1 X144.23 Y125.40 E2.74659
G1 X144.67 Y123.99 E2.83267
G1 X145.17 Y122.81 E2.90691
G1 X145.84 Y121.64 E2.98524
G1 X146.65 Y120.54 E3.06448
G1 X147.60 Y119.53 E3.14495
G1 X148.77 Y118.57 E3.23356
G1 X150.04 Y117.80 E3.31937
G1 X151.43 Y117.18 E3.40795
G1 X152.97 Y116.75 E3.50124
G1 X154.47 Y116.55 E3.58872
G1 X155.97 Y116.55 E3.67626
G1 X157.47 Y116.75 E3.76419
G1 X159.01 Y117.17 E3.85691
G1 X160.78 Y117.93 E3.96911
G1 X196.78 Y134.14 E6.26384
G1 X198.52 Y135.07 E6.37812
G1 X199.93 Y136.05 E6.47776
G1 X201.15 Y137.11 E6.57213
G1 X202.27 Y138.31 E6.66713
G1 X203.23 Y139.60 E6.76092
G1 X204.03 Y140.99 E6.85405
G1 X204.67 Y142.44 E6.94623
G1 X205.13 Y143.90 E7.03494
G1 X205.44 Y145.32 E7.11977
G1 X205.61 Y146.81 E7.20689
G1 X205.63 Y148.70 E7.31663
G1 X205.44 Y150.59 E7.42679
G1 X205.08 Y152.40 E7.53403
G1 X204.44 Y154.54 E7.66389
G1 X203.43 Y156.97 E7.81725
G1 X202.20 Y159.28 E7.96895
G1 X198.83 Y164.43 E8.32675
G1 X198.09 Y164.60 E8.37069
G1 X195.36 Y171.87 E8.82223
G1 X194.65 Y173.83 E8.94305
G1 X193.74 Y175.73 E9.06586
G1 X192.75 Y177.38 E9.17774
G1 X191.56 Y178.98 E9.29348
G1 X190.33 Y180.29 E9.39797
G1 X188.98 Y181.45 E9.50133
G1 X187.68 Y182.35 E9.59345
G1 X186.30 Y183.09 E9.68449
G1 X184.81 Y183.70 E9.77776
G1 X183.20 Y184.15 E9.87498
G1 X181.53 Y184.42 E9.97335
G1 X180.09 Y184.47 E10.05723
G1 X166.89 Y184.26 E10.82425
G1 X166.62 Y184.26 E10.84035
G1 X165.17 Y184.15 E10.92465
G1 X163.54 Y183.82 E11.02132
G1 X161.89 Y183.26 E11.12267
G1 X160.33 Y182.47 E11.22438
G1 X158.89 Y181.46 E11.32645
G1 X158.49 Y181.08 E11.35868
G1 X158.00 Y181.79 E11.40872
G1 X156.66 Y183.38 E11.52970
G1 X155.35 Y184.61 E11.63389
G1 X154.16 Y185.52 E11.72126
G1 X152.90 Y186.30 E11.80705
G1 X151.59 Y186.95 E11.89254
G1 X150.15 Y187.51 E11.98234
G1 X148.35 Y188.00 E12.09065
G1 X146.47 Y188.31 E12.20132
G1 X144.21 Y188.46 E12.33261
G1 X141.59 Y188.39 E12.48499
G1 X139.93 Y188.25 E12.58186
G1 X132.40 Y187.12 E13.02456
G1 X117.29 Y184.04 E13.92071
G1 X115.28 Y183.57 E14.04093
G1 X113.28 Y182.87 E14.16376
G1 X111.33 Y181.95 E14.28942
G1 X109.42 Y180.78 E14.41939
G1 X107.61 Y179.37 E14.55278
G1 X105.92 Y177.70 E14.69050
G1 X104.41 Y175.82 E14.83117
G1 X103.08 Y173.74 E14.97449
G1 X101.96 Y171.50 E15.12023
G1 X101.00 Y169.06 E15.27261
G1 X100.12 Y165.93 E15.46139
G1 X99.57 Y163.04 E15.63244
G1 X99.38 Y161.14 E15.74355
G1 X99.38 Y159.18 E15.85718
G1 X99.59 Y157.26 E15.96931
G1 X99.99 Y155.40 E16.08008
G1 X100.56 Y153.62 E16.18873
G1 X101.28 Y151.92 E16.29609
G1 X102.16 Y150.31 E16.40286
G1 X103.19 Y148.80 E16.50904
G1 X104.35 Y147.39 E16.61491
G1 X105.65 Y146.08 E16.72226
G1 X107.09 Y144.90 E16.83048
G0 F12000 X107.37 Y145.28
G1 F2700 X108.79 Y144.33 E16.92984
G1 X109.93 Y143.70 E17.00543
G1 X110.30 Y143.55 E17.02854
G1 X111.75 Y142.90 E17.12102
G1 X113.81 Y142.24 E17.24655
G1 X115.83 Y141.80 E17.36715
G1 X118.12 Y141.53 E17.50110
G1 X120.99 Y141.44 E17.66764
G1 X126.77 Y141.78 E18.00412
G1 X127.33 Y141.27 E18.04822
G1 X128.57 Y139.90 E18.15558
G1 X128.60 Y139.86 E18.15843
G1 X129.51 Y138.38 E18.25938
G1 X130.88 Y136.66 E18.38713
G1 X132.31 Y135.25 E18.50430
G1 X133.49 Y134.33 E18.59121
G1 X134.65 Y133.58 E18.67139
G1 X135.84 Y132.97 E18.74943
G1 X137.07 Y132.47 E18.82665
G1 X138.35 Y132.09 E18.90382
G1 X139.85 Y131.79 E18.99286
G1 X141.38 Y131.65 E19.08224
G1 X142.97 Y131.66 E19.17448
G1 X143.76 Y131.31 E19.22481
G1 X144.71 Y131.05 E19.28205
G1 X144.50 Y129.92 E19.34903
G1 X144.40 Y128.78 E19.41543
G1 X144.40 Y127.42 E19.49448
G1 X144.69 Y125.50 E19.60716
G1 X145.11 Y124.15 E19.68976
G1 X145.59 Y123.02 E19.76109
G1 X146.23 Y121.89 E19.83626
G1 X147.01 Y120.84 E19.91230
G1 X147.91 Y119.88 E19.98940
G1 X149.04 Y118.95 E20.07433
G1 X150.25 Y118.22 E20.15655
G1 X151.58 Y117.62 E20.24135
G1 X153.07 Y117.21 E20.33072
G1 X154.50 Y117.02 E20.41457
G1 X155.94 Y117.02 E20.49856
G1 X157.38 Y117.21 E20.58286
G1 X158.86 Y117.61 E20.67184
G1 X160.60 Y118.36 E20.78189
G1 X196.58 Y134.56 E23.07552
G1 X198.28 Y135.47 E23.18733
G1 X199.64 Y136.41 E23.28385
G1 X200.83 Y137.44 E23.37537
G1 X201.91 Y138.60 E23.46737
G1 X202.84 Y139.86 E23.55817
G1 X203.62 Y141.20 E23.64828
G1 X204.24 Y142.60 E23.73747
G1 X204.68 Y144.01 E23.82337
G1 X204.97 Y145.40 E23.90559
G1 X205.14 Y146.84 E23.99008
G1 X205.16 Y148.68 E24.09692
G1 X204.98 Y150.52 E24.20421
G1 X204.62 Y152.28 E24.30885
G1 X204.00 Y154.38 E24.43605
G1 X203.00 Y156.77 E24.58670
G1 X201.80 Y159.04 E24.73592
G1 X198.54 Y164.01 E25.08167
G1 X197.74 Y164.20 E25.12926
G1 X194.90 Y171.79 E25.60003
G1 X194.22 Y173.65 E25.71502
G1 X193.33 Y175.51 E25.83526
G1 X192.36 Y177.12 E25.94451
G1 X191.20 Y178.68 E26.05734
G1 X190.01 Y179.96 E26.15883
G1 X188.70 Y181.09 E26.25930
G1 X187.44 Y181.95 E26.34846
G1 X186.10 Y182.67 E26.43664
G1 X184.66 Y183.26 E26.52683
G1 X183.10 Y183.70 E26.62092
G1 X181.49 Y183.95 E26.71618
G1 X180.08 Y184.01 E26.79773
G1 X166.90 Y183.79 E27.56394
G1 X166.63 Y183.79 E27.57946
G1 X165.24 Y183.68 E27.66107
G1 X163.66 Y183.37 E27.75436
G1 X162.07 Y182.83 E27.85201
G1 X160.57 Y182.06 E27.94990
G1 X159.18 Y181.10 E28.04805
G1 X158.41 Y180.36 E28.11021
G1 X157.63 Y181.51 E28.19069
G1 X156.32 Y183.06 E28.30862
G1 X155.05 Y184.25 E28.40993
G1 X153.89 Y185.13 E28.49461
G1 X152.68 Y185.89 E28.57781
G1 X151.40 Y186.53 E28.66081
G1 X150.00 Y187.07 E28.74794
G1 X148.25 Y187.54 E28.85336
G1 X146.41 Y187.84 E28.96137
G1 X144.21 Y187.99 E29.09010
G1 X141.62 Y187.92 E29.24051
G1 X139.99 Y187.79 E29.33569
G1 X132.48 Y186.66 E29.77679
G1 X117.39 Y183.59 E30.67182
G1 X115.41 Y183.12 E30.79017
G1 X113.46 Y182.44 E30.91017
G1 X111.55 Y181.54 E31.03300
G1 X109.69 Y180.40 E31.15995
G1 X107.92 Y179.02 E31.29023
G1 X106.27 Y177.39 E31.42479
G1 X104.79 Y175.55 E31.56249
G1 X103.49 Y173.51 E31.70294
G1 X102.38 Y171.31 E31.84600
G1 X101.45 Y168.91 E31.99582
G1 X100.58 Y165.82 E32.18213
G1 X100.03 Y162.97 E32.35076
G1 X99.84 Y161.12 E32.45924
G1 X99.85 Y159.21 E32.57008
G1 X100.05 Y157.34 E32.67940
G1 X100.44 Y155.52 E32.78743
G1 X100.99 Y153.78 E32.89347
G1 X101.70 Y152.13 E32.99823
G1 X102.56 Y150.55 E33.10242
G1 X103.56 Y149.08 E33.20606
G1 X104.69 Y147.70 E33.30937
G1 X105.96 Y146.43 E33.41405
G1 X107.37 Y145.28 E33.51958
G0 F12000 X107.65 Y145.66
G1 F2700 X109.04 Y144.73 E33.61659
G1 X110.13 Y144.12 E33.68952
G1 X110.49 Y143.97 E33.71180
G1 X111.92 Y143.33 E33.80285
G1 X113.92 Y142.69 E33.92551
G1 X115.91 Y142.26 E34.04348
G1 X118.16 Y141.99 E34.17504
G1 X120.98 Y141.90 E34.33920
G1 X126.93 Y142.26 E34.68569
G1 X126.95 Y142.24 E34.68715
G1 X127.65 Y141.60 E34.74227
G1 X128.91 Y140.21 E34.85152
G1 X128.98 Y140.13 E34.85751
G1 X129.89 Y138.65 E34.95846
G1 X131.22 Y136.98 E35.08291
G1 X132.62 Y135.60 E35.19692
G1 X133.76 Y134.71 E35.28105
G1 X134.88 Y133.99 E35.35871
G1 X136.04 Y133.39 E35.43420
G1 X137.23 Y132.91 E35.50887
G1 X138.46 Y132.54 E35.58348
G1 X139.92 Y132.25 E35.66986
G1 X141.40 Y132.12 E35.75655
G1 X142.97 Y132.12 E35.84763
G1 X143.06 Y132.13 E35.85292
G1 X143.92 Y131.75 E35.90726
G1 X145.29 Y131.38 E35.98984
G1 X145.18 Y131.01 E36.01249
G1 X144.97 Y129.86 E36.08054
G1 X144.87 Y128.76 E36.14443
G1 X144.87 Y127.46 E36.22028
G1 X145.14 Y125.61 E36.32886
G1 X145.54 Y124.31 E36.40798
G1 X146.01 Y123.23 E36.47636
G1 X146.62 Y122.15 E36.54836
G1 X147.37 Y121.14 E36.62120
G1 X148.23 Y120.22 E36.69501
G1 X149.31 Y119.33 E36.77619
G1 X150.47 Y118.63 E36.85481
G1 X151.74 Y118.06 E36.93587
G1 X153.16 Y117.67 E37.02133
G1 X154.53 Y117.48 E37.10154
G1 X155.91 Y117.48 E37.18192
G1 X157.29 Y117.67 E37.26265
G1 X158.70 Y118.05 E37.34790
G1 X160.41 Y118.79 E37.45580
G1 X196.37 Y134.98 E39.74835
G1 X198.03 Y135.86 E39.85758
G1 X199.35 Y136.78 E39.95110
G1 X200.51 Y137.78 E40.03973
G1 X201.55 Y138.90 E40.12873
G1 X202.45 Y140.12 E40.21649
G1 X203.20 Y141.41 E40.30364
G1 X203.80 Y142.77 E40.38985
G1 X204.23 Y144.13 E40.47294
G1 X204.51 Y145.47 E40.55255
G1 X204.68 Y146.87 E40.63435
G1 X204.69 Y148.66 E40.73828
G1 X204.52 Y150.45 E40.84277
G1 X204.17 Y152.17 E40.94485
G1 X203.56 Y154.22 E41.06938
G1 X202.58 Y156.57 E41.21725
G1 X201.39 Y158.80 E41.36401
G1 X198.25 Y163.60 E41.69771
G1 X197.39 Y163.81 E41.74894
G1 X194.46 Y171.62 E42.23417
G1 X193.79 Y173.47 E42.34811
G1 X192.92 Y175.29 E42.46577
G1 X191.97 Y176.87 E42.57236
G1 X190.84 Y178.38 E42.68232
G1 X189.69 Y179.62 E42.78089
G1 X188.41 Y180.72 E42.87840
G1 X187.19 Y181.56 E42.96467
G1 X185.90 Y182.25 E43.04989
G1 X184.51 Y182.82 E43.13713
G1 X183.00 Y183.24 E43.22802
G1 X181.44 Y183.49 E43.32010
G1 X180.08 Y183.54 E43.39932
G1 X166.91 Y183.32 E44.16483
G1 X166.65 Y183.32 E44.17971
G1 X165.30 Y183.22 E44.25865
G1 X163.78 Y182.92 E44.34856
G1 X162.25 Y182.40 E44.44248
G1 X160.81 Y181.66 E44.53655
G1 X159.48 Y180.74 E44.63081
G1 X158.33 Y179.65 E44.72291
G1 X157.26 Y181.23 E44.83382
G1 X155.98 Y182.74 E44.94874
G1 X154.75 Y183.90 E45.04713
G1 X153.63 Y184.75 E45.12911
G1 X152.45 Y185.48 E45.20975
G1 X151.21 Y186.10 E45.29020
G1 X149.85 Y186.63 E45.37463
G1 X148.15 Y187.09 E45.47729
G1 X146.36 Y187.38 E45.58259
G1 X144.19 Y187.52 E45.70881
G1 X141.64 Y187.46 E45.85713
G1 X140.04 Y187.32 E45.95073
G1 X132.56 Y186.20 E46.39019
G1 X117.49 Y183.13 E47.28409
G1 X115.54 Y182.67 E47.40060
G1 X113.64 Y182.01 E47.51777
G1 X111.77 Y181.13 E47.63771
G1 X109.95 Y180.01 E47.76163
G1 X108.23 Y178.67 E47.88884
G1 X106.62 Y177.08 E48.02028
G1 X105.17 Y175.27 E48.15491
G1 X103.89 Y173.28 E48.29246
G1 X102.81 Y171.12 E48.43285
G1 X101.89 Y168.76 E48.58013
G1 X101.03 Y165.72 E48.76396
G1 X100.49 Y162.91 E48.93027
G1 X100.31 Y161.09 E49.03607
G1 X100.32 Y159.24 E49.14412
G1 X100.51 Y157.41 E49.25063
G1 X100.89 Y155.64 E49.35593
G1 X101.43 Y153.95 E49.45934
G1 X102.12 Y152.33 E49.56152
G1 X102.96 Y150.79 E49.66316
G1 X103.94 Y149.36 E49.76416
G1 X105.04 Y148.02 E49.86499
G1 X106.28 Y146.77 E49.96700
G1 X107.65 Y145.66 E50.06976
G0 F12000 X107.92 Y146.03
G1 F2700 X109.28 Y145.13 E50.16434
G1 X110.34 Y144.54 E50.23472
G1 X110.66 Y144.40 E50.25538
G1 X112.08 Y143.77 E50.34571
G1 X114.05 Y143.14 E50.46550
G1 X115.99 Y142.72 E50.58092
G1 X118.19 Y142.46 E50.71002
G1 X120.97 Y142.37 E50.87173
G1 X127.08 Y142.73 E51.22702
G1 X127.24 Y142.61 E51.23893
G1 X127.99 Y141.92 E51.29830
G1 X129.25 Y140.53 E51.40742
G1 X129.36 Y140.40 E51.41709
G1 X130.27 Y138.92 E51.51820
G1 X131.57 Y137.29 E51.63938
G1 X132.93 Y135.95 E51.75023
G1 X134.03 Y135.09 E51.83163
G1 X135.12 Y134.39 E51.90672
G1 X136.23 Y133.81 E51.97969
G1 X137.38 Y133.35 E52.05178
G1 X138.57 Y133.00 E52.12378
G1 X139.99 Y132.72 E52.20755
G1 X141.42 Y132.58 E52.29150
G1 X142.96 Y132.59 E52.38095
G1 X143.15 Y132.59 E52.39194
G1 X144.07 Y132.19 E52.45039
G1 X145.72 Y131.75 E52.54965
G1 X145.88 Y131.73 E52.55877
G1 X145.63 Y130.90 E52.60911
G1 X145.43 Y129.79 E52.67450
G1 X145.33 Y128.74 E52.73588
G1 X145.33 Y127.49 E52.80853
G1 X145.60 Y125.71 E52.91311
G1 X145.98 Y124.47 E52.98871
G1 X146.43 Y123.43 E53.05417
G1 X147.01 Y122.40 E53.12300
G1 X147.72 Y121.44 E53.19261
G1 X148.55 Y120.56 E53.26308
G1 X149.58 Y119.71 E53.34059
G1 X150.69 Y119.04 E53.41561
G1 X151.90 Y118.50 E53.49295
G1 X153.25 Y118.12 E53.57444
G1 X154.56 Y117.95 E53.65101
G1 X155.88 Y117.95 E53.72779
G1 X157.20 Y118.12 E53.80500
G1 X158.55 Y118.49 E53.88647
G1 X160.22 Y119.21 E53.99219
G1 X196.17 Y135.40 E56.28362
G1 X197.79 Y136.26 E56.39038
G1 X199.07 Y137.15 E56.48083
G1 X200.18 Y138.12 E56.56655
G1 X201.19 Y139.20 E56.65258
G1 X202.06 Y140.37 E56.73736
G1 X202.78 Y141.62 E56.82144
G1 X203.36 Y142.94 E56.90471
G1 X203.78 Y144.25 E56.98501
G1 X204.05 Y145.55 E57.06207
G1 X204.21 Y146.90 E57.14117
G1 X204.23 Y148.64 E57.24219
G1 X204.06 Y150.38 E57.34382
G1 X203.72 Y152.06 E57.44329
G1 X203.12 Y154.07 E57.56516
G1 X202.16 Y156.37 E57.71039
G1 X200.99 Y158.56 E57.85457
G1 X197.96 Y163.19 E58.17626
G1 X197.04 Y163.41 E58.23113
G1 X194.05 Y171.39 E58.72679
G1 X193.36 Y173.28 E58.84373
G1 X192.50 Y175.07 E58.95879
G1 X191.59 Y176.60 E59.06275
G1 X190.49 Y178.08 E59.16985
G1 X189.36 Y179.28 E59.26546
G1 X188.13 Y180.35 E59.36004
G1 X186.95 Y181.16 E59.44331
G1 X185.70 Y181.83 E59.52564
G1 X184.36 Y182.38 E59.60986
G1 X182.91 Y182.78 E59.69767
G1 X181.39 Y183.02 E59.78657
G1 X180.07 Y183.07 E59.86347
G1 X166.92 Y182.86 E60.62816
G1 X166.67 Y182.86 E60.64240
G1 X165.36 Y182.76 E60.71872
G1 X163.90 Y182.47 E60.80519
G1 X162.43 Y181.97 E60.89549
G1 X161.05 Y181.26 E60.98571
G1 X159.77 Y180.37 E61.07609
G1 X158.67 Y179.33 E61.16440
G1 X158.28 Y178.85 E61.19998
G1 X158.21 Y178.99 E61.20904
G1 X156.89 Y180.95 E61.34629
G1 X155.64 Y182.41 E61.45816
G1 X154.45 Y183.54 E61.55363
G1 X153.36 Y184.37 E61.63301
G1 X152.22 Y185.08 E61.71102
G1 X151.02 Y185.67 E61.78897
G1 X149.71 Y186.18 E61.87073
G1 X148.05 Y186.63 E61.97054
G1 X146.31 Y186.92 E62.07314
G1 X144.19 Y187.06 E62.19680
G1 X141.67 Y186.99 E62.34314
G1 X140.09 Y186.86 E62.43505
G1 X132.64 Y185.74 E62.87292
G1 X117.59 Y182.68 E63.76570
G1 X115.67 Y182.23 E63.88035
G1 X113.81 Y181.57 E63.99475
G1 X111.99 Y180.72 E64.11175
G1 X110.22 Y179.63 E64.23264
G1 X108.54 Y178.31 E64.35678
G1 X106.96 Y176.76 E64.48510
G1 X105.54 Y175.00 E64.61667
G1 X104.30 Y173.05 E64.75132
G1 X103.23 Y170.93 E64.88911
G1 X102.33 Y168.61 E65.03375
G1 X101.48 Y165.61 E65.21517
G1 X100.95 Y162.84 E65.37907
G1 X100.77 Y161.07 E65.48229
G1 X100.78 Y159.26 E65.58743
G1 X100.97 Y157.49 E65.69126
G1 X101.34 Y155.76 E65.79382
G1 X101.87 Y154.11 E65.89455
G1 X102.54 Y152.53 E65.99412
G1 X103.36 Y151.04 E66.09319
G1 X104.31 Y149.63 E66.19167
G1 X105.38 Y148.33 E66.28986
G1 X106.59 Y147.12 E66.38924
G1 X107.92 Y146.03 E66.48932
G0 F12000 X108.20 Y146.41
G1 F2700 X109.52 Y145.53 E66.58151
G1 X110.54 Y144.96 E66.64929
G1 X110.86 Y144.83 E66.66923
G1 X112.25 Y144.20 E66.75788
G1 X114.17 Y143.59 E66.87486
G1 X116.06 Y143.18 E66.98773
G1 X118.23 Y142.92 E67.11442
G1 X120.97 Y142.84 E67.27363
G1 X127.22 Y143.21 E67.63771
G1 X127.54 Y142.96 E67.66137
G1 X128.32 Y142.26 E67.72238
G1 X129.60 Y140.84 E67.83340
G1 X129.74 Y140.67 E67.84624
G1 X130.65 Y139.19 E67.94732
G1 X131.92 Y137.60 E68.06523
G1 X133.24 Y136.30 E68.17292
G1 X134.30 Y135.47 E68.25150
G1 X135.35 Y134.79 E68.32403
G1 X136.43 Y134.24 E68.39451
G1 X137.54 Y133.79 E68.46407
G1 X138.68 Y133.45 E68.53348
G1 X140.05 Y133.18 E68.61458
G1 X141.44 Y133.05 E68.69584
G1 X142.95 Y133.06 E68.78361
G1 X143.24 Y133.06 E68.80035
G1 X144.23 Y132.63 E68.86284
G1 X145.81 Y132.21 E68.95795
G1 X146.48 Y132.13 E68.99735
G1 X146.09 Y130.79 E69.07876
G1 X145.89 Y129.73 E69.14142
G1 X145.80 Y128.72 E69.20036
G1 X145.80 Y127.53 E69.26981
G1 X146.05 Y125.81 E69.37027
G1 X146.42 Y124.63 E69.44241
G1 X146.84 Y123.64 E69.50496
G1 X147.40 Y122.66 E69.57059
G1 X148.08 Y121.74 E69.63703
G1 X148.87 Y120.90 E69.70418
G1 X149.85 Y120.09 E69.77792
G1 X150.91 Y119.46 E69.84939
G1 X152.06 Y118.94 E69.92298
G1 X153.35 Y118.58 E70.00053
G1 X154.59 Y118.42 E70.07348
G1 X155.85 Y118.42 E70.14671
G1 X157.10 Y118.58 E70.22029
G1 X158.40 Y118.93 E70.29802
G1 X160.03 Y119.64 E70.40158
G1 X195.96 Y135.82 E72.69192
G1 X197.55 Y136.66 E72.79613
G1 X198.78 Y137.52 E72.88358
G1 X199.86 Y138.45 E72.96641
G1 X200.83 Y139.50 E73.04940
G1 X201.67 Y140.63 E73.13118
G1 X202.37 Y141.84 E73.21229
G1 X202.93 Y143.10 E73.29257
G1 X203.33 Y144.37 E73.37007
G1 X203.59 Y145.62 E73.44451
G1 X203.74 Y146.93 E73.52092
G1 X203.76 Y148.62 E73.61904
G1 X203.59 Y150.31 E73.71786
G1 X203.27 Y151.94 E73.81473
G1 X202.68 Y153.91 E73.93393
G1 X201.74 Y156.17 E74.07645
G1 X200.59 Y158.32 E74.21816
G1 X197.68 Y162.78 E74.52776
G1 X196.69 Y163.01 E74.58634
G1 X193.61 Y171.24 E75.09671
G1 X192.93 Y173.10 E75.21229
G1 X192.09 Y174.85 E75.32483
G1 X191.20 Y176.35 E75.42615
G1 X190.13 Y177.78 E75.53031
G1 X189.04 Y178.95 E75.62295
G1 X187.84 Y179.98 E75.71461
G1 X186.71 Y180.76 E75.79494
G1 X185.50 Y181.41 E75.87441
G1 X184.21 Y181.94 E75.95563
G1 X182.81 Y182.33 E76.04024
G1 X181.35 Y182.56 E76.12597
G1 X180.07 Y182.61 E76.20054
G1 X166.93 Y182.39 E76.96448
G1 X166.69 Y182.39 E76.97814
G1 X165.43 Y182.29 E77.05177
G1 X164.03 Y182.01 E77.13486
G1 X162.61 Y181.54 E77.22147
G1 X161.29 Y180.86 E77.30787
G1 X160.07 Y180.01 E77.39433
G1 X159.01 Y179.01 E77.47882
G1 X158.22 Y178.03 E77.55238
G1 X157.81 Y178.74 E77.60016
G1 X156.52 Y180.66 E77.73485
G1 X155.31 Y182.09 E77.84367
G1 X154.14 Y183.18 E77.93627
G1 X153.09 Y183.98 E78.01294
G1 X151.99 Y184.67 E78.08842
G1 X150.83 Y185.25 E78.16378
G1 X149.56 Y185.74 E78.24290
G1 X147.95 Y186.18 E78.33989
G1 X146.26 Y186.45 E78.43979
G1 X144.18 Y186.59 E78.56088
G1 X141.69 Y186.53 E78.70525
G1 X140.15 Y186.40 E78.79546
G1 X132.72 Y185.28 E79.23175
G1 X117.69 Y182.22 E80.12340
G1 X115.80 Y181.78 E80.23621
G1 X113.99 Y181.14 E80.34777
G1 X112.21 Y180.31 E80.46186
G1 X110.49 Y179.25 E80.57978
G1 X108.84 Y177.97 E80.70079
G1 X107.31 Y176.45 E80.82602
G1 X105.92 Y174.73 E80.95453
G1 X104.70 Y172.82 E81.08633
G1 X103.66 Y170.74 E81.22141
G1 X102.77 Y168.46 E81.36350
G1 X101.94 Y165.50 E81.54244
G1 X101.41 Y162.77 E81.70402
G1 X101.24 Y161.05 E81.80455
G1 X101.25 Y159.29 E81.90691
G1 X101.43 Y157.56 E82.00792
G1 X101.79 Y155.88 E82.10776
G1 X102.31 Y154.27 E82.20586
G1 X102.96 Y152.74 E82.30285
G1 X103.76 Y151.28 E82.39935
G1 X104.68 Y149.91 E82.49525
G1 X105.73 Y148.64 E82.59092
G1 X106.90 Y147.47 E82.68762
G1 X108.20 Y146.41 E82.78497
G0 F12000 X108.48 Y146.78
G1 F2700 X109.76 Y145.93 E82.87478
G1 X110.74 Y145.38 E82.93993
G1 X111.05 Y145.25 E82.95913
G1 X112.42 Y144.64 E83.04623
G1 X114.28 Y144.04 E83.16034
G1 X116.14 Y143.65 E83.27065
G1 X118.26 Y143.39 E83.39488
G1 X120.96 Y143.30 E83.55171
G1 X127.28 Y143.68 E83.91975
G1 X127.34 Y143.69 E83.92323
G1 X127.42 Y143.64 E83.92847
G1 X127.84 Y143.32 E83.95948
G1 X128.65 Y142.58 E84.02304
G1 X129.96 Y141.14 E84.13636
G1 X130.12 Y140.94 E84.15123
G1 X131.03 Y139.46 E84.25256
G1 X132.26 Y137.91 E84.36716
G1 X133.55 Y136.65 E84.47168
G1 X134.57 Y135.85 E84.54749
G1 X135.59 Y135.20 E84.61754
G1 X136.62 Y134.66 E84.68544
G1 X137.69 Y134.23 E84.75244
G1 X138.79 Y133.90 E84.81924
G1 X140.12 Y133.64 E84.89774
G1 X141.47 Y133.51 E84.97631
G1 X142.95 Y133.52 E85.06239
G1 X143.34 Y133.53 E85.08501
G1 X144.38 Y133.07 E85.15148
G1 X145.89 Y132.67 E85.24241
G1 X147.01 Y132.55 E85.30794
G1 X147.17 Y132.54 E85.31695
G1 X146.92 Y131.99 E85.35239
G1 X146.54 Y130.68 E85.43144
G1 X146.35 Y129.67 E85.49150
G1 X146.27 Y128.70 E85.54786
G1 X146.27 Y127.56 E85.61418
G1 X146.51 Y125.92 E85.71053
G1 X146.86 Y124.79 E85.77920
G1 X147.26 Y123.85 E85.83878
G1 X147.79 Y122.91 E85.90125
G1 X148.44 Y122.04 E85.96450
G1 X149.19 Y121.24 E86.02832
G1 X150.12 Y120.47 E86.09835
G1 X151.12 Y119.87 E86.16622
G1 X152.22 Y119.38 E86.23606
G1 X153.44 Y119.04 E86.30964
G1 X154.62 Y118.88 E86.37901
G1 X155.82 Y118.88 E86.44864
G1 X157.01 Y119.04 E86.51864
G1 X158.24 Y119.37 E86.59263
G1 X159.84 Y120.06 E86.69406
G1 X195.76 Y136.24 E88.98330
G1 X197.30 Y137.06 E89.08494
G1 X198.49 Y137.89 E89.16935
G1 X199.53 Y138.79 E89.24933
G1 X200.47 Y139.80 E89.32932
G1 X201.28 Y140.89 E89.40815
G1 X201.95 Y142.05 E89.48620
G1 X202.49 Y143.26 E89.56352
G1 X202.88 Y144.49 E89.63820
G1 X203.13 Y145.70 E89.71003
G1 X203.28 Y146.96 E89.78375
G1 X203.30 Y148.60 E89.87902
G1 X203.13 Y150.24 E89.97499
G1 X202.81 Y151.83 E90.06925
G1 X202.24 Y153.75 E90.18582
G1 X201.32 Y155.97 E90.32564
G1 X200.19 Y158.09 E90.46483
G1 X197.39 Y162.37 E90.76238
G1 X196.34 Y162.62 E90.82460
G1 X193.15 Y171.13 E91.35327
G1 X192.50 Y172.92 E91.46396
G1 X191.68 Y174.63 E91.57393
G1 X190.81 Y176.09 E91.67259
G1 X189.77 Y177.48 E91.77392
G1 X188.72 Y178.61 E91.86360
G1 X187.56 Y179.61 E91.95229
G1 X186.46 Y180.36 E92.02969
G1 X185.30 Y180.99 E92.10625
G1 X184.06 Y181.50 E92.18450
G1 X182.71 Y181.87 E92.26593
G1 X181.30 Y182.09 E92.34853
G1 X180.06 Y182.14 E92.42071
G1 X166.93 Y181.93 E93.18396
G1 X166.71 Y181.93 E93.19698
G1 X165.49 Y181.83 E93.26799
G1 X164.15 Y181.56 E93.34764
G1 X162.80 Y181.10 E93.43052
G1 X161.53 Y180.46 E93.51310
G1 X160.36 Y179.65 E93.59567
G1 X159.36 Y178.69 E93.67637
G1 X158.50 Y177.64 E93.75551
G1 X158.19 Y177.12 E93.79040
G1 X157.42 Y178.50 E93.88248
G1 X156.15 Y180.38 E94.01457
G1 X154.97 Y181.77 E94.12042
G1 X153.84 Y182.83 E94.21005
G1 X152.83 Y183.60 E94.28407
G1 X151.77 Y184.26 E94.35690
G1 X150.64 Y184.82 E94.42981
G1 X149.42 Y185.30 E94.50620
G1 X147.85 Y185.72 E94.60035
G1 X146.20 Y185.99 E94.69760
G1 X144.17 Y186.12 E94.81613
G1 X141.72 Y186.06 E94.95852
G1 X140.20 Y185.94 E95.04704
G1 X132.81 Y184.82 E95.48169
G1 X117.79 Y181.77 E96.37227
G1 X115.93 Y181.33 E96.48322
G1 X114.17 Y180.71 E96.59195
G1 X112.44 Y179.90 E96.70321
G1 X110.75 Y178.86 E96.81800
G1 X109.15 Y177.61 E96.93599
G1 X107.66 Y176.14 E97.05809
G1 X106.30 Y174.46 E97.18359
G1 X105.11 Y172.59 E97.31247
G1 X104.09 Y170.55 E97.44490
G1 X103.22 Y168.31 E97.58440
G1 X102.39 Y165.39 E97.76091
G1 X101.88 Y162.70 E97.92012
G1 X101.70 Y161.03 E98.01797
G1 X101.71 Y159.31 E98.11754
G1 X101.89 Y157.63 E98.21575
G1 X102.24 Y156.00 E98.31291
G1 X102.74 Y154.44 E98.40832
G1 X103.38 Y152.94 E98.50274
G1 X104.16 Y151.52 E98.59663
G1 X105.06 Y150.19 E98.68997
G1 X106.07 Y148.96 E98.78308
G1 X107.22 Y147.81 E98.87712
G1 X108.48 Y146.78 E98.97174
G0 F12000 X108.75 Y147.16
G1 F2700 X110.01 Y146.32 E99.05916
G1 X110.95 Y145.80 E99.12171
G1 X111.24 Y145.68 E99.13998
G1 X112.58 Y145.07 E99.22567
G1 X114.41 Y144.49 E99.33691
G1 X116.22 Y144.10 E99.44466
G1 X118.30 Y143.85 E99.56644
G1 X120.95 Y143.77 E99.72083
G1 X127.23 Y144.14 E100.08613
G1 X127.43 Y144.18 E100.09817
G1 X127.45 Y144.17 E100.09973
G1 X127.69 Y144.02 E100.11547
G1 X128.14 Y143.68 E100.14839
G1 X128.98 Y142.91 E100.21479
G1 X130.33 Y141.43 E100.33120
G1 X130.50 Y141.22 E100.34706
G1 X131.42 Y139.72 E100.44898
G1 X132.61 Y138.23 E100.56019
G1 X133.85 Y137.00 E100.66158
G1 X134.84 Y136.23 E100.73466
G1 X135.82 Y135.60 E100.80215
G1 X136.82 Y135.09 E100.86750
G1 X137.85 Y134.67 E100.93194
G1 X138.91 Y134.35 E100.99618
G1 X140.19 Y134.10 E101.07202
G1 X141.49 Y133.98 E101.14785
G1 X142.94 Y133.99 E101.23230
G1 X143.43 Y134.00 E101.26068
G1 X144.54 Y133.51 E101.33120
G1 X145.98 Y133.12 E101.41800
G1 X147.04 Y133.01 E101.48002
G1 X147.88 Y133.00 E101.52896
G1 X147.36 Y131.83 E101.60385
G1 X146.99 Y130.57 E101.67970
G1 X146.81 Y129.60 E101.73710
G1 X146.73 Y128.68 E101.79102
G1 X146.73 Y127.59 E101.85414
G1 X146.96 Y126.02 E101.94638
G1 X147.30 Y124.95 E102.01157
G1 X147.68 Y124.06 E102.06823
G1 X148.18 Y123.17 E102.12756
G1 X148.80 Y122.34 E102.18756
G1 X149.51 Y121.58 E102.24809
G1 X150.39 Y120.85 E102.31441
G1 X151.34 Y120.28 E102.37868
G1 X152.38 Y119.81 E102.44480
G1 X153.53 Y119.50 E102.51442
G1 X154.65 Y119.35 E102.58009
G1 X155.79 Y119.35 E102.64617
G1 X156.92 Y119.50 E102.71266
G1 X158.09 Y119.81 E102.78286
G1 X159.66 Y120.49 E102.88207
G1 X195.55 Y136.66 E105.17024
G1 X197.06 Y137.46 E105.26944
G1 X198.21 Y138.26 E105.35080
G1 X199.21 Y139.12 E105.42786
G1 X200.11 Y140.09 E105.50485
G1 X200.89 Y141.14 E105.58064
G1 X201.54 Y142.26 E105.65572
G1 X202.05 Y143.43 E105.72999
G1 X202.43 Y144.61 E105.80194
G1 X202.67 Y145.77 E105.87115
G1 X202.81 Y146.99 E105.94224
G1 X202.83 Y148.58 E106.03454
G1 X202.67 Y150.17 E106.12769
G1 X202.36 Y151.72 E106.21941
G1 X201.80 Y153.60 E106.33327
G1 X200.90 Y155.77 E106.47038
G1 X199.79 Y157.85 E106.60704
G1 X197.10 Y161.96 E106.89259
G1 X196.00 Y162.22 E106.95838
G1 X192.72 Y170.97 E107.50155
G1 X192.07 Y172.74 E107.61123
G1 X191.27 Y174.41 E107.71857
G1 X190.42 Y175.83 E107.81460
G1 X189.41 Y177.18 E107.91307
G1 X188.39 Y178.27 E107.99975
G1 X187.27 Y179.24 E108.08556
G1 X186.22 Y179.96 E108.15996
G1 X185.10 Y180.56 E108.23363
G1 X183.91 Y181.05 E108.30888
G1 X182.61 Y181.42 E108.38716
G1 X181.26 Y181.63 E108.46659
G1 X180.06 Y181.68 E108.53650
G1 X166.94 Y181.46 E109.29894
G1 X166.73 Y181.46 E109.31137
G1 X165.55 Y181.37 E109.37970
G1 X164.27 Y181.11 E109.45598
G1 X162.98 Y180.68 E109.53516
G1 X161.77 Y180.06 E109.61392
G1 X160.66 Y179.29 E109.69261
G1 X159.70 Y178.38 E109.76949
G1 X158.88 Y177.37 E109.84483
G1 X158.22 Y176.25 E109.92027
G1 X158.18 Y176.16 E109.92615
G1 X158.10 Y176.34 E109.93796
G1 X157.02 Y178.25 E110.06545
G1 X155.77 Y180.10 E110.19495
G1 X154.63 Y181.45 E110.29775
G1 X153.54 Y182.47 E110.38451
G1 X152.56 Y183.22 E110.45583
G1 X151.54 Y183.85 E110.52608
G1 X150.46 Y184.39 E110.59644
G1 X149.27 Y184.85 E110.67022
G1 X147.75 Y185.26 E110.76154
G1 X146.15 Y185.53 E110.85607
G1 X144.16 Y185.66 E110.97204
G1 X141.74 Y185.59 E111.11245
G1 X140.25 Y185.47 E111.19929
G1 X132.89 Y184.36 E111.63234
G1 X117.89 Y181.31 E112.52179
G1 X116.06 Y180.88 E112.63084
G1 X114.34 Y180.28 E112.73685
G1 X112.66 Y179.49 E112.84517
G1 X111.02 Y178.48 E112.95693
G1 X109.46 Y177.26 E113.07184
G1 X108.00 Y175.83 E113.19083
G1 X106.68 Y174.19 E113.31327
G1 X105.52 Y172.36 E113.43929
G1 X104.51 Y170.36 E113.56902
G1 X103.66 Y168.17 E113.70599
G1 X102.85 Y165.28 E113.87998
G1 X102.34 Y162.63 E114.03683
G1 X102.17 Y161.00 E114.13211
G1 X102.18 Y159.34 E114.22883
G1 X102.36 Y157.71 E114.32429
G1 X102.69 Y156.12 E114.41865
G1 X103.18 Y154.60 E114.51150
G1 X103.80 Y153.15 E114.60331
G1 X104.55 Y151.77 E114.69458
G1 X105.43 Y150.47 E114.78540
G1 X106.42 Y149.27 E114.87591
G1 X107.53 Y148.16 E114.96731
G1 X108.75 Y147.16 E115.05922
G0 F12000 X109.03 Y147.53
G1 F2700 X110.25 Y146.72 E115.14415
G1 X111.15 Y146.22 E115.20415
G1 X111.40 Y146.12 E115.21997
G1 X112.75 Y145.51 E115.30577
G1 X114.52 Y144.94 E115.41409
G1 X116.30 Y144.56 E115.51934
G1 X118.33 Y144.32 E115.63872
G1 X120.95 Y144.24 E115.79066
G1 X127.17 Y144.61 E116.15317
G1 X127.50 Y144.66 E116.17259
G1 X127.68 Y144.58 E116.18408
G1 X127.95 Y144.41 E116.20269
G1 X128.44 Y144.04 E116.23797
G1 X129.31 Y143.25 E116.30655
G1 X130.67 Y141.74 E116.42485
G1 X130.88 Y141.49 E116.44393
G1 X131.80 Y139.99 E116.54572
G1 X132.96 Y138.54 E116.65371
G1 X134.16 Y137.36 E116.75190
G1 X135.11 Y136.61 E116.82219
G1 X136.05 Y136.00 E116.88717
G1 X137.01 Y135.51 E116.95005
G1 X138.00 Y135.11 E117.01184
G1 X139.02 Y134.81 E117.07349
G1 X140.25 Y134.56 E117.14671
G1 X141.51 Y134.45 E117.21985
G1 X142.93 Y134.45 E117.30262
G1 X143.52 Y134.47 E117.33716
G1 X143.54 Y134.46 E117.33808
G1 X144.69 Y133.95 E117.41139
G1 X146.06 Y133.59 E117.49403
G1 X147.07 Y133.48 E117.55260
G1 X148.06 Y133.47 E117.61032
G1 X148.72 Y133.53 E117.64897
G1 X148.34 Y132.90 E117.69200
G1 X147.80 Y131.67 E117.77020
G1 X147.45 Y130.47 E117.84294
G1 X147.28 Y129.54 E117.89763
G1 X147.20 Y128.66 E117.94909
G1 X147.20 Y127.63 E118.00902
G1 X147.42 Y126.13 E118.09715
G1 X147.74 Y125.11 E118.15886
G1 X148.10 Y124.26 E118.21264
G1 X148.57 Y123.42 E118.26873
G1 X149.16 Y122.64 E118.32553
G1 X149.83 Y121.92 E118.38273
G1 X150.66 Y121.24 E118.44533
G1 X151.56 Y120.70 E118.50603
G1 X152.53 Y120.25 E118.56839
G1 X153.62 Y119.96 E118.63408
G1 X154.68 Y119.81 E118.69612
G1 X155.76 Y119.81 E118.75866
G1 X156.83 Y119.96 E118.82151
G1 X157.93 Y120.25 E118.88797
G1 X159.47 Y120.92 E118.98503
G1 X195.35 Y137.07 E121.27211
G1 X196.81 Y137.85 E121.36875
G1 X197.92 Y138.62 E121.44707
G1 X198.89 Y139.46 E121.52128
G1 X199.75 Y140.39 E121.59527
G1 X200.50 Y141.40 E121.66807
G1 X201.12 Y142.47 E121.74014
G1 X201.62 Y143.59 E121.81144
G1 X201.97 Y144.73 E121.88056
G1 X202.21 Y145.85 E121.94722
G1 X202.35 Y147.02 E122.01556
G1 X202.36 Y148.56 E122.10501
G1 X202.21 Y150.10 E122.19531
G1 X201.91 Y151.61 E122.28441
G1 X201.36 Y153.44 E122.39565
G1 X200.47 Y155.57 E122.53007
G1 X199.39 Y157.61 E122.66424
G1 X196.81 Y161.55 E122.93769
G1 X195.65 Y161.82 E123.00720
G1 X192.28 Y170.81 E123.56474
G1 X191.64 Y172.56 E123.67337
G1 X190.86 Y174.19 E123.77819
G1 X190.04 Y175.57 E123.87159
G1 X189.05 Y176.88 E123.96711
G1 X188.07 Y177.94 E124.05092
G1 X186.99 Y178.87 E124.13371
G1 X185.98 Y179.56 E124.20518
G1 X184.90 Y180.14 E124.27599
G1 X183.75 Y180.61 E124.34824
G1 X182.51 Y180.96 E124.42332
G1 X181.21 Y181.16 E124.49962
G1 X180.05 Y181.21 E124.56715
G1 X166.95 Y181.00 E125.32883
G1 X166.74 Y181.00 E125.34069
G1 X165.62 Y180.91 E125.40633
G1 X164.39 Y180.66 E125.47923
G1 X163.16 Y180.24 E125.55468
G1 X162.01 Y179.66 E125.62964
G1 X160.95 Y178.92 E125.70441
G1 X160.04 Y178.06 E125.77747
G1 X159.27 Y177.10 E125.84904
G1 X158.64 Y176.04 E125.92080
G1 X158.20 Y175.02 E125.98551
G1 X157.68 Y176.13 E126.05686
G1 X156.62 Y178.01 E126.18222
G1 X155.40 Y179.82 E126.30909
G1 X154.29 Y181.13 E126.40887
G1 X153.24 Y182.12 E126.49271
G1 X152.30 Y182.83 E126.56138
G1 X151.31 Y183.45 E126.62910
G1 X150.27 Y183.97 E126.69692
G1 X149.13 Y184.41 E126.76795
G1 X147.66 Y184.81 E126.85651
G1 X146.10 Y185.06 E126.94833
G1 X144.15 Y185.19 E127.06174
G1 X141.77 Y185.13 E127.20017
G1 X140.31 Y185.01 E127.28532
G1 X132.97 Y183.91 E127.71678
G1 X117.99 Y180.86 E128.60511
G1 X116.20 Y180.43 E128.71231
G1 X114.52 Y179.85 E128.81549
G1 X112.88 Y179.08 E128.92090
G1 X111.28 Y178.09 E129.02968
G1 X109.77 Y176.91 E129.14149
G1 X108.35 Y175.51 E129.25731
G1 X107.06 Y173.91 E129.37673
G1 X105.92 Y172.13 E129.49985
G1 X104.94 Y170.17 E129.62698
G1 X104.10 Y168.02 E129.76134
G1 X103.30 Y165.18 E129.93290
G1 X102.80 Y162.57 E130.08738
G1 X102.64 Y160.98 E130.17997
G1 X102.65 Y159.37 E130.27390
G1 X102.82 Y157.78 E130.36656
G1 X103.14 Y156.24 E130.45819
G1 X103.62 Y154.76 E130.54842
G1 X104.22 Y153.35 E130.63763
G1 X104.95 Y152.01 E130.72633
G1 X105.80 Y150.75 E130.81457
G1 X106.77 Y149.58 E130.90255
G1 X107.84 Y148.50 E130.99124
G1 X109.03 Y147.53 E131.08051
G0 F12000 X109.31 Y147.91
G1 F2700 X110.49 Y147.12 E131.16309
G1 X111.35 Y146.64 E131.22043
G1 X111.59 Y146.54 E131.23549
G1 X112.92 Y145.95 E131.31976
G1 X114.64 Y145.39 E131.42521
G1 X116.37 Y145.03 E131.52785
G1 X118.37 Y144.78 E131.64483
G1 X120.94 Y144.70 E131.79433
G1 X127.12 Y145.07 E132.15411
G1 X127.56 Y145.15 E132.18024
G1 X127.62 Y145.12 E132.18403
G1 X127.90 Y144.99 E132.20215
G1 X128.21 Y144.79 E132.22342
G1 X128.74 Y144.40 E132.26140
G1 X129.64 Y143.57 E132.33249
G1 X131.03 Y142.04 E132.45309
G1 X131.26 Y141.76 E132.47420
G1 X132.18 Y140.26 E132.57624
G1 X133.30 Y138.85 E132.68092
G1 X134.47 Y137.71 E132.77599
G1 X135.38 Y136.99 E132.84352
G1 X136.29 Y136.41 E132.90588
G1 X137.21 Y135.93 E132.96626
G1 X138.15 Y135.55 E133.02550
G1 X139.13 Y135.26 E133.08459
G1 X140.32 Y135.03 E133.15514
G1 X141.53 Y134.91 E133.22560
G1 X142.92 Y134.92 E133.30668
G1 X143.66 Y134.94 E133.34983
G1 X143.76 Y134.87 E133.35697
G1 X144.85 Y134.40 E133.42565
G1 X146.15 Y134.04 E133.50414
G1 X147.09 Y133.94 E133.55927
G1 X148.04 Y133.94 E133.61425
G1 X148.97 Y134.02 E133.66826
G1 X149.71 Y134.17 E133.71206
G1 X149.42 Y133.79 E133.73951
G1 X148.76 Y132.68 E133.81452
G1 X148.24 Y131.51 E133.88928
G1 X147.90 Y130.36 E133.95888
G1 X147.74 Y129.48 E134.01090
G1 X147.66 Y128.64 E134.05985
G1 X147.66 Y127.66 E134.11658
G1 X147.88 Y126.23 E134.20065
G1 X148.17 Y125.27 E134.25891
G1 X148.52 Y124.47 E134.30972
G1 X148.97 Y123.68 E134.36266
G1 X149.51 Y122.94 E134.41626
G1 X150.15 Y122.26 E134.47017
G1 X150.93 Y121.62 E134.52905
G1 X151.77 Y121.11 E134.58612
G1 X152.69 Y120.69 E134.64478
G1 X153.72 Y120.41 E134.70650
G1 X154.71 Y120.28 E134.76491
G1 X155.73 Y120.28 E134.82384
G1 X156.74 Y120.42 E134.88312
G1 X157.78 Y120.70 E134.94590
G1 X159.28 Y121.34 E135.04076
G1 X195.14 Y137.49 E137.32675
G1 X196.57 Y138.25 E137.42088
G1 X197.63 Y138.99 E137.49614
G1 X198.56 Y139.79 E137.56739
G1 X199.39 Y140.69 E137.63845
G1 X200.11 Y141.66 E137.70822
G1 X200.71 Y142.68 E137.77735
G1 X201.18 Y143.76 E137.84563
G1 X201.52 Y144.85 E137.91196
G1 X201.75 Y145.93 E137.97601
G1 X201.88 Y147.05 E138.04172
G1 X201.90 Y148.54 E138.12827
G1 X201.75 Y150.03 E138.21570
G1 X201.46 Y151.49 E138.30219
G1 X200.92 Y153.28 E138.41078
G1 X200.05 Y155.38 E138.54249
G1 X198.99 Y157.37 E138.67413
G1 X196.52 Y161.14 E138.93558
G1 X195.30 Y161.43 E139.00866
G1 X191.84 Y170.64 E139.58074
G1 X191.21 Y172.38 E139.68827
G1 X190.45 Y173.97 E139.79052
G1 X189.65 Y175.31 E139.88128
G1 X188.69 Y176.59 E139.97394
G1 X187.75 Y177.60 E140.05474
G1 X186.70 Y178.50 E140.13465
G1 X185.73 Y179.17 E140.20320
G1 X184.70 Y179.72 E140.27105
G1 X183.60 Y180.17 E140.34033
G1 X182.41 Y180.50 E140.41226
G1 X181.17 Y180.70 E140.48534
G1 X180.05 Y180.74 E140.55055
G1 X166.96 Y180.53 E141.31153
G1 X166.76 Y180.53 E141.32275
G1 X165.68 Y180.44 E141.38571
G1 X164.51 Y180.21 E141.45523
G1 X163.34 Y179.81 E141.52698
G1 X162.25 Y179.26 E141.59813
G1 X161.25 Y178.56 E141.66897
G1 X160.38 Y177.74 E141.73821
G1 X159.65 Y176.84 E141.80603
G1 X159.06 Y175.83 E141.87401
G1 X158.61 Y174.79 E141.93941
G1 X158.31 Y173.74 E142.00327
G1 X158.29 Y173.60 E142.01132
G1 X158.13 Y174.06 E142.04000
G1 X157.27 Y175.92 E142.15876
G1 X156.22 Y177.76 E142.28199
G1 X155.03 Y179.54 E142.40626
G1 X153.95 Y180.81 E142.50299
G1 X152.94 Y181.76 E142.58395
G1 X152.03 Y182.45 E142.64997
G1 X151.08 Y183.04 E142.71503
G1 X150.08 Y183.54 E142.78040
G1 X148.98 Y183.97 E142.84875
G1 X147.56 Y184.35 E142.93447
G1 X146.04 Y184.60 E143.02359
G1 X144.14 Y184.72 E143.13449
G1 X141.79 Y184.66 E143.27083
G1 X140.36 Y184.54 E143.35434
G1 X133.05 Y183.45 E143.78422
G1 X118.09 Y180.40 E144.67141
G1 X116.33 Y179.99 E144.77675
G1 X114.70 Y179.41 E144.87712
G1 X113.10 Y178.66 E144.97964
G1 X111.55 Y177.71 E145.08540
G1 X110.08 Y176.56 E145.19414
G1 X108.69 Y175.20 E145.30688
G1 X107.44 Y173.64 E145.42324
G1 X106.33 Y171.90 E145.54341
G1 X105.37 Y169.98 E145.66786
G1 X104.54 Y167.87 E145.79966
G1 X103.75 Y165.07 E145.96877
G1 X103.26 Y162.50 E146.12088
G1 X103.10 Y160.96 E146.21084
G1 X103.11 Y159.39 E146.30192
G1 X103.28 Y157.85 E146.39183
G1 X103.60 Y156.36 E146.48079
G1 X104.05 Y154.92 E146.56834
G1 X104.64 Y153.55 E146.65495
G1 X105.35 Y152.25 E146.74112
G1 X106.18 Y151.03 E146.82675
G1 X107.11 Y149.90 E146.91219
G1 X108.16 Y148.85 E146.99825
G1 X109.31 Y147.91 E147.08474
G0 F12000 X109.59 Y148.28
G1 F2700 X110.73 Y147.52 E147.16490
G1 X111.56 Y147.06 E147.21967
G1 X111.78 Y146.97 E147.23372
G1 X113.08 Y146.38 E147.31668
G1 X114.76 Y145.84 E147.41925
G1 X116.45 Y145.49 E147.51934
G1 X118.40 Y145.25 E147.63385
G1 X120.93 Y145.17 E147.78092
G1 X127.06 Y145.53 E148.13795
G1 X127.58 Y145.62 E148.16845
G1 X127.61 Y145.62 E148.17039
G1 X127.70 Y145.60 E148.17534
G1 X127.81 Y145.55 E148.18258
G1 X128.13 Y145.40 E148.20295
G1 X128.48 Y145.18 E148.22689
G1 X129.03 Y144.76 E148.26748
G1 X129.97 Y143.90 E148.34104
G1 X131.38 Y142.35 E148.46316
G1 X131.64 Y142.03 E148.48687
G1 X132.56 Y140.53 E148.58942
G1 X133.65 Y139.16 E148.69083
G1 X134.78 Y138.06 E148.78269
G1 X135.66 Y137.37 E148.84740
G1 X136.52 Y136.81 E148.90731
G1 X137.41 Y136.36 E148.96512
G1 X138.31 Y135.99 E149.02185
G1 X139.24 Y135.71 E149.07828
G1 X140.39 Y135.49 E149.14624
G1 X141.55 Y135.38 E149.21395
G1 X142.91 Y135.38 E149.29340
G1 X143.80 Y135.41 E149.34504
G1 X143.99 Y135.28 E149.35850
G1 X145.00 Y134.84 E149.42255
G1 X146.24 Y134.50 E149.49688
G1 X147.12 Y134.41 E149.54849
G1 X148.02 Y134.40 E149.60075
G1 X148.90 Y134.49 E149.65213
G1 X149.87 Y134.67 E149.70972
G1 X150.97 Y135.00 E149.77596
G1 X150.98 Y135.00 E149.77682
G1 X150.98 Y135.00 E149.77703
G1 X150.49 Y134.42 E149.82122
G1 X149.81 Y133.53 E149.88648
G1 X149.17 Y132.47 E149.95826
G1 X148.68 Y131.34 E150.02964
G1 X148.36 Y130.25 E150.09609
G1 X148.20 Y129.41 E150.14545
G1 X148.13 Y128.62 E150.19190
G1 X148.13 Y127.70 E150.24543
G1 X148.33 Y126.33 E150.32540
G1 X148.61 Y125.44 E150.38018
G1 X148.93 Y124.68 E150.42807
G1 X149.36 Y123.93 E150.47784
G1 X149.87 Y123.24 E150.52821
G1 X150.47 Y122.60 E150.57879
G1 X151.20 Y122.00 E150.63399
G1 X151.99 Y121.52 E150.68747
G1 X152.85 Y121.13 E150.74238
G1 X153.81 Y120.87 E150.80016
G1 X154.74 Y120.75 E150.85493
G1 X155.70 Y120.75 E150.91027
G1 X156.65 Y120.87 E150.96602
G1 X157.63 Y121.14 E151.02501
G1 X159.09 Y121.77 E151.11772
G1 X194.94 Y137.91 E153.40261
G1 X196.33 Y138.65 E153.49419
G1 X197.35 Y139.36 E153.56644
G1 X198.24 Y140.13 E153.63481
G1 X199.03 Y140.99 E153.70283
G1 X199.72 Y141.91 E153.76965
G1 X200.29 Y142.90 E153.83575
G1 X200.74 Y143.92 E153.90104
G1 X201.07 Y144.97 E153.96457
G1 X201.29 Y146.00 E154.02600
G1 X201.42 Y147.08 E154.08902
G1 X201.43 Y148.52 E154.17266
G1 X201.29 Y149.97 E154.25730
G1 X201.00 Y151.38 E154.34118
G1 X200.48 Y153.13 E154.44710
G1 X199.63 Y155.18 E154.57608
G1 X198.59 Y157.14 E154.70523
G1 X196.24 Y160.73 E154.95466
G1 X194.92 Y161.04 E155.03342
G1 X194.92 Y161.12 E155.03818
G1 X191.42 Y170.44 E155.61653
G1 X190.78 Y172.20 E155.72560
G1 X190.04 Y173.75 E155.82533
G1 X189.26 Y175.05 E155.91339
G1 X188.34 Y176.28 E156.00317
G1 X187.42 Y177.26 E156.08102
G1 X186.42 Y178.13 E156.15800
G1 X185.49 Y178.77 E156.22358
G1 X184.50 Y179.30 E156.28854
G1 X183.45 Y179.73 E156.35482
G1 X182.31 Y180.05 E156.42361
G1 X181.12 Y180.24 E156.49357
G1 X180.04 Y180.28 E156.55645
G1 X166.96 Y180.06 E157.31661
G1 X166.78 Y180.06 E157.32725
G1 X165.75 Y179.98 E157.38753
G1 X164.63 Y179.76 E157.45367
G1 X163.52 Y179.38 E157.52170
G1 X162.49 Y178.86 E157.58902
G1 X161.54 Y178.20 E157.65597
G1 X160.73 Y177.43 E157.72138
G1 X160.03 Y176.57 E157.78544
G1 X159.47 Y175.62 E157.84968
G1 X159.05 Y174.64 E157.91159
G1 X158.77 Y173.64 E157.97193
G1 X158.62 Y172.63 E158.03126
G1 X158.59 Y171.60 E158.09115
G1 X158.68 Y170.59 E158.15026
G1 X158.88 Y169.60 E158.20869
G1 X159.19 Y168.64 E158.26746
G1 X159.61 Y167.72 E158.32657
G1 X160.14 Y166.84 E158.38590
G1 X160.77 Y166.01 E158.44685
G1 X161.50 Y165.25 E158.50782
G1 X162.32 Y164.56 E158.56992
G1 X163.23 Y163.96 E158.63342
G1 X164.21 Y163.47 E158.69710
G1 X165.25 Y163.07 E158.76181
G1 X166.34 Y162.77 E158.82771
G1 X167.36 Y162.60 E158.88756
G1 X155.43 Y158.75 E159.61610
G1 X156.66 Y160.35 E159.73336
G1 X157.62 Y162.22 E159.85556
G1 X158.19 Y163.67 E159.94580
G1 X158.60 Y165.13 E160.03395
G1 X158.84 Y166.60 E160.12089
G1 X158.92 Y168.07 E160.20616
G1 X158.84 Y169.51 E160.28997
G1 X158.62 Y170.92 E160.37288
G1 X158.27 Y172.29 E160.45509
G1 X157.70 Y173.89 E160.55390
G1 X156.85 Y175.70 E160.67021
G1 X155.83 Y177.52 E160.79139
G1 X154.66 Y179.25 E160.91306
G1 X153.61 Y180.48 E161.00679
G1 X152.63 Y181.40 E161.08483
G1 X151.77 Y182.06 E161.14815
G1 X150.86 Y182.63 E161.21068
G1 X149.89 Y183.11 E161.27345
G1 X148.84 Y183.52 E161.33911
G1 X147.46 Y183.90 E161.42201
G1 X145.99 Y184.14 E161.50848
G1 X144.13 Y184.26 E161.61681
G1 X141.82 Y184.20 E161.75118
G1 X140.42 Y184.08 E161.83306
G1 X133.13 Y182.99 E162.26129
G1 X118.19 Y179.95 E163.14736
G1 X116.46 Y179.54 E163.25085
G1 X114.87 Y178.98 E163.34843
G1 X113.32 Y178.25 E163.44809
G1 X111.82 Y177.33 E163.55079
G1 X110.38 Y176.21 E163.65643
G1 X109.04 Y174.89 E163.76604
G1 X107.82 Y173.37 E163.87935
G1 X106.73 Y171.67 E163.99669
G1 X105.79 Y169.79 E164.11847
G1 X104.99 Y167.72 E164.24766
G1 X104.21 Y164.96 E164.41434
G1 X103.72 Y162.43 E164.56408
G1 X103.57 Y160.94 E164.65141
G1 X103.58 Y159.42 E164.73964
G1 X103.74 Y157.93 E164.82681
G1 X104.05 Y156.48 E164.91298
G1 X104.49 Y155.09 E164.99790
G1 X105.06 Y153.76 E165.08192
G1 X105.75 Y152.50 E165.16549
G1 X106.55 Y151.31 E165.24861
G1 X107.46 Y150.21 E165.33144
G1 X108.47 Y149.19 E165.41483
G1 X109.59 Y148.28 E165.49863
G0 F12000 X109.86 Y148.66
G1 F2700 X110.98 Y147.92 E165.57637
G1 X111.76 Y147.48 E165.62853
G1 X111.95 Y147.40 E165.64036
G1 X113.25 Y146.82 E165.72325
G1 X114.88 Y146.30 E165.82295
G1 X116.53 Y145.94 E165.92049
G1 X118.44 Y145.71 E166.03255
G1 X120.93 Y145.64 E166.17722
G1 X127.01 Y146.00 E166.53140
G1 X127.54 Y146.09 E166.56285
G1 X127.57 Y146.09 E166.56448
G1 X127.64 Y146.09 E166.56838
G1 X127.72 Y146.07 E166.57292
G1 X127.84 Y146.04 E166.58070
G1 X127.99 Y145.98 E166.58998
G1 X128.36 Y145.80 E166.61381
G1 X128.74 Y145.56 E166.63999
G1 X129.32 Y145.13 E166.68212
G1 X130.31 Y144.23 E166.75958
G1 X131.73 Y142.66 E166.88266
G1 X132.02 Y142.30 E166.90963
G1 X132.94 Y140.80 E167.01204
G1 X134.00 Y139.48 E167.11019
G1 X135.09 Y138.41 E167.19888
G1 X135.93 Y137.75 E167.26082
G1 X136.75 Y137.22 E167.31821
G1 X137.60 Y136.78 E167.37348
G1 X138.46 Y136.43 E167.42763
G1 X139.35 Y136.17 E167.48151
G1 X140.45 Y135.95 E167.54680
G1 X141.57 Y135.84 E167.61183
G1 X142.91 Y135.85 E167.68960
G1 X143.94 Y135.88 E167.74978
G1 X144.22 Y135.69 E167.76955
G1 X145.16 Y135.28 E167.82897
G1 X146.32 Y134.96 E167.89915
G1 X147.15 Y134.88 E167.94731
G1 X148.00 Y134.87 E167.99684
G1 X148.83 Y134.95 E168.04553
G1 X149.76 Y135.13 E168.10051
G1 X150.82 Y135.44 E168.16477
G1 X150.99 Y135.50 E168.17493
G1 X151.76 Y135.19 E168.22339
G1 X150.85 Y134.13 E168.30496
G1 X150.19 Y133.27 E168.36787
G1 X149.59 Y132.25 E168.43641
G1 X149.12 Y131.19 E168.50439
G1 X148.81 Y130.14 E168.56768
G1 X148.66 Y129.35 E168.61438
G1 X148.60 Y128.60 E168.65838
G1 X148.60 Y127.73 E168.70871
G1 X148.79 Y126.44 E168.78462
G1 X149.05 Y125.60 E168.83587
G1 X149.35 Y124.88 E168.88085
G1 X149.75 Y124.19 E168.92742
G1 X150.23 Y123.53 E168.97463
G1 X150.79 Y122.94 E169.02183
G1 X151.47 Y122.38 E169.07332
G1 X152.21 Y121.94 E169.12323
G1 X153.01 Y121.57 E169.17437
G1 X153.90 Y121.33 E169.22819
G1 X154.78 Y121.21 E169.27938
G1 X155.66 Y121.21 E169.33111
G1 X156.56 Y121.33 E169.38329
G1 X157.47 Y121.58 E169.43854
G1 X158.90 Y122.20 E169.52911
G1 X194.73 Y138.33 E171.81286
G1 X196.08 Y139.05 E171.90194
G1 X197.06 Y139.73 E171.97116
G1 X197.91 Y140.47 E172.03664
G1 X198.67 Y141.29 E172.10166
G1 X199.33 Y142.17 E172.16545
G1 X199.87 Y143.11 E172.22853
G1 X200.31 Y144.09 E172.29091
G1 X200.62 Y145.08 E172.35157
G1 X200.83 Y146.07 E172.41044
G1 X200.95 Y147.11 E172.47077
G1 X200.97 Y148.50 E172.55156
G1 X200.83 Y149.90 E172.63333
G1 X200.55 Y151.27 E172.71461
G1 X200.04 Y152.97 E172.81790
G1 X199.21 Y154.98 E172.94419
G1 X198.18 Y156.90 E173.07085
G1 X195.95 Y160.32 E173.30819
G1 X194.45 Y160.67 E173.39757
G1 X194.45 Y161.03 E173.41891
G1 X190.98 Y170.28 E173.99260
G1 X190.35 Y172.02 E174.10031
G1 X189.63 Y173.53 E174.19746
G1 X188.87 Y174.79 E174.28294
G1 X187.98 Y175.99 E174.36982
G1 X187.10 Y176.93 E174.44470
G1 X186.13 Y177.76 E174.51876
G1 X185.25 Y178.37 E174.58138
G1 X184.31 Y178.88 E174.64347
G1 X183.30 Y179.29 E174.70673
G1 X182.21 Y179.59 E174.77234
G1 X181.08 Y179.77 E174.83911
G1 X180.03 Y179.81 E174.89966
G1 X166.97 Y179.60 E175.65913
G1 X166.80 Y179.60 E175.66913
G1 X165.81 Y179.52 E175.72673
G1 X164.75 Y179.31 E175.78949
G1 X163.70 Y178.95 E175.85382
G1 X162.73 Y178.46 E175.91727
G1 X161.84 Y177.84 E175.98035
G1 X161.07 Y177.11 E176.04197
G1 X160.42 Y176.30 E176.10218
G1 X159.89 Y175.41 E176.16277
G1 X159.49 Y174.48 E176.22107
G1 X159.23 Y173.54 E176.27799
G1 X159.08 Y172.59 E176.33407
G1 X159.05 Y171.61 E176.39071
G1 X159.14 Y170.66 E176.44661
G1 X159.33 Y169.72 E176.50197
G1 X159.62 Y168.81 E176.55772
G1 X160.03 Y167.93 E176.61377
G1 X160.52 Y167.10 E176.67004
G1 X161.13 Y166.31 E176.72796
G1 X161.82 Y165.59 E176.78592
G1 X162.60 Y164.94 E176.84497
G1 X163.47 Y164.37 E176.90541
G1 X164.40 Y163.89 E176.96624
G1 X165.39 Y163.51 E177.02802
G1 X166.44 Y163.23 E177.09121
G1 X167.43 Y163.06 E177.14947
G1 X169.54 Y162.82 E177.27316
G1 X154.21 Y157.87 E178.20989
G1 X154.24 Y157.97 E178.21642
G1 X156.26 Y160.60 E178.40912
G1 X157.20 Y162.41 E178.52753
G1 X157.75 Y163.81 E178.61495
G1 X158.14 Y165.23 E178.70028
G1 X158.38 Y166.65 E178.78421
G1 X158.45 Y168.07 E178.86656
G1 X158.38 Y169.46 E178.94753
G1 X158.16 Y170.82 E179.02771
G1 X157.82 Y172.15 E179.10747
G1 X157.26 Y173.71 E179.20376
G1 X156.44 Y175.49 E179.31776
G1 X155.43 Y177.27 E179.43677
G1 X154.29 Y178.97 E179.55589
G1 X153.28 Y180.16 E179.64656
G1 X152.33 Y181.05 E179.72173
G1 X151.50 Y181.68 E179.78235
G1 X150.63 Y182.23 E179.84230
G1 X149.70 Y182.69 E179.90257
G1 X148.69 Y183.08 E179.96557
G1 X147.36 Y183.44 E180.04563
G1 X145.94 Y183.67 E180.12940
G1 X144.12 Y183.79 E180.23517
G1 X141.84 Y183.73 E180.36756
G1 X140.47 Y183.62 E180.44774
G1 X133.21 Y182.53 E180.87439
G1 X118.29 Y179.49 E181.75934
G1 X116.59 Y179.09 E181.86098
G1 X115.05 Y178.55 E181.95572
G1 X113.54 Y177.84 E182.05247
G1 X112.08 Y176.94 E182.15217
G1 X110.69 Y175.86 E182.25471
G1 X109.39 Y174.57 E182.36124
G1 X108.20 Y173.10 E182.47148
G1 X107.14 Y171.44 E182.58592
G1 X106.22 Y169.60 E182.70505
G1 X105.43 Y167.57 E182.83168
G1 X104.66 Y164.85 E182.99588
G1 X104.18 Y162.37 E183.14326
G1 X104.04 Y160.91 E183.22796
G1 X104.04 Y159.44 E183.31340
G1 X104.20 Y158.00 E183.39776
G1 X104.50 Y156.60 E183.48119
G1 X104.93 Y155.25 E183.56349
G1 X105.48 Y153.96 E183.64493
G1 X106.15 Y152.74 E183.72593
G1 X106.92 Y151.59 E183.80647
G1 X107.80 Y150.52 E183.88677
G1 X108.78 Y149.54 E183.96749
G1 X109.86 Y148.66 E184.04857
G0 F12000 X110.14 Y149.03
G1 F2700 X111.22 Y148.31 E184.12395
G1 X111.97 Y147.90 E184.17351
G1 X112.13 Y147.83 E184.18376
G1 X113.42 Y147.25 E184.26589
G1 X115.00 Y146.75 E184.36274
G1 X116.60 Y146.41 E184.45771
G1 X118.47 Y146.18 E184.56737
G1 X120.92 Y146.10 E184.70954
G1 X126.96 Y146.46 E185.06099
G1 X127.49 Y146.55 E185.09244
G1 X127.58 Y146.56 E185.09750
G1 X127.69 Y146.55 E185.10408
G1 X127.82 Y146.53 E185.11193
G1 X127.98 Y146.49 E185.12146
G1 X128.19 Y146.41 E185.13436
G1 X128.59 Y146.21 E185.16038
G1 X129.00 Y145.95 E185.18891
G1 X129.62 Y145.48 E185.23373
G1 X130.64 Y144.56 E185.31371
G1 X132.09 Y142.96 E185.43909
G1 X132.40 Y142.57 E185.46808
G1 X133.33 Y141.07 E185.57076
G1 X134.34 Y139.79 E185.66559
G1 X135.39 Y138.76 E185.75108
G1 X136.20 Y138.13 E185.81033
G1 X136.99 Y137.62 E185.86511
G1 X137.79 Y137.20 E185.91791
G1 X138.62 Y136.87 E185.96948
G1 X139.46 Y136.62 E186.02075
G1 X140.52 Y136.41 E186.08344
G1 X141.59 Y136.31 E186.14578
G1 X142.90 Y136.32 E186.22186
G1 X144.08 Y136.35 E186.29059
G1 X144.45 Y136.10 E186.31663
G1 X145.31 Y135.72 E186.37141
G1 X146.41 Y135.42 E186.43744
G1 X147.17 Y135.34 E186.48216
G1 X147.98 Y135.34 E186.52895
G1 X148.77 Y135.41 E186.57495
G1 X149.65 Y135.58 E186.62733
G1 X150.68 Y135.88 E186.68951
G1 X151.00 Y136.00 E186.70916
G1 X152.26 Y135.50 E186.78785
G1 X153.64 Y136.91 E186.90285
G1 X153.78 Y136.83 E186.91245
G1 X151.21 Y133.84 E187.14212
G1 X150.58 Y133.01 E187.20270
G1 X150.00 Y132.04 E187.26804
G1 X149.56 Y131.03 E187.33257
G1 X149.26 Y130.03 E187.39273
G1 X149.12 Y129.29 E187.43677
G1 X149.06 Y128.58 E187.47826
G1 X149.06 Y127.76 E187.52545
G1 X149.24 Y126.54 E187.59724
G1 X149.49 Y125.76 E187.64504
G1 X149.77 Y125.09 E187.68705
G1 X150.14 Y124.44 E187.73052
G1 X150.59 Y123.83 E187.77448
G1 X151.11 Y123.28 E187.81840
G1 X151.74 Y122.76 E187.86617
G1 X152.42 Y122.35 E187.91245
G1 X153.17 Y122.01 E187.95990
G1 X154.00 Y121.79 E188.00975
G1 X154.81 Y121.68 E188.05730
G1 X155.63 Y121.68 E188.10548
G1 X156.46 Y121.79 E188.15403
G1 X157.32 Y122.02 E188.20555
G1 X158.72 Y122.62 E188.29396
G1 X194.53 Y138.75 E190.57664
G1 X195.84 Y139.45 E190.66320
G1 X196.77 Y140.10 E190.72932
G1 X197.59 Y140.80 E190.79195
G1 X198.31 Y141.59 E190.85397
G1 X198.94 Y142.43 E190.91477
G1 X199.46 Y143.32 E190.97483
G1 X199.87 Y144.25 E191.03422
G1 X200.17 Y145.20 E191.09208
G1 X200.37 Y146.15 E191.14834
G1 X200.49 Y147.14 E191.20604
G1 X200.50 Y148.47 E191.28387
G1 X200.37 Y149.83 E191.36283
G1 X200.10 Y151.16 E191.44155
G1 X199.60 Y152.81 E191.54214
G1 X198.79 Y154.78 E191.66572
G1 X197.78 Y156.66 E191.78985
G1 X195.66 Y159.91 E192.01519
G1 X193.98 Y160.30 E192.11520
G1 X193.98 Y160.95 E192.15304
G1 X190.53 Y170.15 E192.72417
G1 X189.92 Y171.84 E192.82854
G1 X189.22 Y173.31 E192.92306
G1 X188.49 Y174.53 E193.00591
G1 X187.62 Y175.69 E193.08988
G1 X186.78 Y176.59 E193.16184
G1 X185.85 Y177.39 E193.23293
G1 X185.00 Y177.97 E193.29261
G1 X184.11 Y178.45 E193.35180
G1 X183.15 Y178.85 E193.41206
G1 X182.11 Y179.14 E193.47452
G1 X181.03 Y179.31 E193.53812
G1 X180.03 Y179.34 E193.59634
G1 X166.98 Y179.13 E194.35505
G1 X166.82 Y179.13 E194.36447
G1 X165.87 Y179.06 E194.41939
G1 X164.87 Y178.86 E194.47877
G1 X163.88 Y178.52 E194.53937
G1 X162.97 Y178.06 E194.59903
G1 X162.13 Y177.47 E194.65818
G1 X161.41 Y176.79 E194.71603
G1 X160.80 Y176.04 E194.77248
G1 X160.30 Y175.19 E194.82926
G1 X159.93 Y174.33 E194.88404
G1 X159.68 Y173.44 E194.93752
G1 X159.55 Y172.54 E194.99037
G1 X159.52 Y171.63 E195.04376
G1 X159.60 Y170.72 E195.09650
G1 X159.78 Y169.84 E195.14878
G1 X160.06 Y168.98 E195.20142
G1 X160.44 Y168.15 E195.25445
G1 X160.91 Y167.36 E195.30768
G1 X161.48 Y166.61 E195.36257
G1 X162.14 Y165.93 E195.41750
G1 X162.88 Y165.31 E195.47350
G1 X163.70 Y164.77 E195.53095
G1 X164.59 Y164.32 E195.58884
G1 X165.54 Y163.95 E195.64780
G1 X166.54 Y163.68 E195.70823
G1 X167.50 Y163.53 E195.76449
G1 X171.73 Y163.04 E196.01228
G1 X153.55 Y157.17 E197.12247
G1 X153.56 Y157.26 E197.12781
G1 X153.68 Y157.76 E197.15787
G1 X153.83 Y158.20 E197.18471
G1 X155.87 Y160.85 E197.37932
G1 X156.77 Y162.61 E197.49388
G1 X157.31 Y163.96 E197.57861
G1 X157.69 Y165.33 E197.66104
G1 X157.91 Y166.70 E197.74196
G1 X157.98 Y168.07 E197.82141
G1 X157.91 Y169.41 E197.89959
G1 X157.71 Y170.73 E197.97706
G1 X157.37 Y172.01 E198.05430
G1 X156.83 Y173.53 E198.14806
G1 X156.02 Y175.28 E198.25976
G1 X155.03 Y177.03 E198.37664
G1 X153.91 Y178.69 E198.49316
G1 X152.94 Y179.84 E198.58082
G1 X152.03 Y180.69 E198.65302
G1 X151.24 Y181.30 E198.71103
G1 X150.40 Y181.82 E198.76838
G1 X149.51 Y182.26 E198.82611
G1 X148.54 Y182.64 E198.88647
G1 X147.26 Y182.98 E198.96371
G1 X145.88 Y183.21 E199.04475
G1 X144.11 Y183.32 E199.14796
G1 X141.87 Y183.27 E199.27837
G1 X140.52 Y183.16 E199.35687
G1 X133.29 Y182.07 E199.78193
G1 X118.39 Y179.04 E200.66575
G1 X116.72 Y178.64 E200.76554
G1 X115.23 Y178.12 E200.85751
G1 X113.77 Y177.43 E200.95132
G1 X112.35 Y176.56 E201.04794
G1 X111.00 Y175.51 E201.14745
G1 X109.73 Y174.26 E201.25086
G1 X108.58 Y172.82 E201.35809
G1 X107.54 Y171.21 E201.46963
G1 X106.64 Y169.41 E201.58610
G1 X105.87 Y167.43 E201.71010
G1 X105.11 Y164.75 E201.87183
G1 X104.64 Y162.30 E202.01690
G1 X104.50 Y160.89 E202.09892
G1 X104.51 Y159.47 E202.18157
G1 X104.66 Y158.08 E202.26312
G1 X104.95 Y156.72 E202.34388
G1 X105.36 Y155.41 E202.42349
G1 X105.90 Y154.16 E202.50233
G1 X106.55 Y152.98 E202.58075
G1 X107.30 Y151.87 E202.65873
G1 X108.15 Y150.84 E202.73648
G1 X109.10 Y149.89 E202.81457
G1 X110.14 Y149.03 E202.89288
G0 F12000 X110.42 Y149.41
G1 F2700 X111.46 Y148.71 E202.96587
G1 X112.17 Y148.32 E203.01284
G1 X112.34 Y148.25 E203.02386
G1 X113.58 Y147.69 E203.10287
G1 X115.12 Y147.20 E203.19685
G1 X116.68 Y146.87 E203.28926
G1 X118.51 Y146.64 E203.39646
G1 X120.91 Y146.57 E203.53625
G1 X126.90 Y146.93 E203.88490
G1 X127.44 Y147.02 E203.91676
G1 X127.58 Y147.03 E203.92479
G1 X127.73 Y147.02 E203.93358
G1 X127.93 Y146.98 E203.94520
G1 X128.13 Y146.93 E203.95733
G1 X128.38 Y146.83 E203.97295
G1 X128.81 Y146.62 E204.00074
G1 X129.27 Y146.33 E204.03227
G1 X129.92 Y145.84 E204.07971
G1 X130.96 Y144.89 E204.16174
G1 X132.43 Y143.27 E204.28901
G1 X132.78 Y142.84 E204.32114
G1 X133.71 Y141.33 E204.42382
G1 X134.69 Y140.10 E204.51534
G1 X135.70 Y139.11 E204.59771
G1 X136.47 Y138.51 E204.65414
G1 X137.22 Y138.02 E204.70641
G1 X137.99 Y137.63 E204.75666
G1 X138.77 Y137.31 E204.80567
G1 X139.57 Y137.07 E204.85439
G1 X140.59 Y136.87 E204.91441
G1 X141.61 Y136.78 E204.97401
G1 X142.89 Y136.78 E205.04847
G1 X144.22 Y136.82 E205.12563
G1 X144.68 Y136.50 E205.15805
G1 X145.47 Y136.16 E205.20823
G1 X146.49 Y135.88 E205.27006
G1 X147.20 Y135.81 E205.31133
G1 X147.96 Y135.80 E205.35538
G1 X148.70 Y135.87 E205.39876
G1 X149.54 Y136.03 E205.44848
G1 X150.53 Y136.33 E205.50873
G1 X151.00 Y136.49 E205.53768
G1 X152.14 Y136.05 E205.60849
G1 X153.56 Y137.50 E205.72640
G1 X154.51 Y136.96 E205.78981
G1 X151.57 Y133.54 E206.05163
G1 X150.97 Y132.75 E206.10985
G1 X150.42 Y131.83 E206.17196
G1 X149.99 Y130.86 E206.23314
G1 X149.72 Y129.92 E206.29013
G1 X149.59 Y129.22 E206.33146
G1 X149.53 Y128.56 E206.37049
G1 X149.53 Y127.80 E206.41449
G1 X149.70 Y126.65 E206.48217
G1 X149.92 Y125.92 E206.52648
G1 X150.19 Y125.30 E206.56561
G1 X150.53 Y124.70 E206.60586
G1 X150.95 Y124.13 E206.64662
G1 X151.43 Y123.62 E206.68725
G1 X152.01 Y123.14 E206.73127
G1 X152.64 Y122.76 E206.77398
G1 X153.33 Y122.45 E206.81766
G1 X154.09 Y122.25 E206.86358
G1 X154.84 Y122.14 E206.90750
G1 X155.60 Y122.14 E206.95208
G1 X156.37 Y122.25 E206.99710
G1 X157.16 Y122.46 E207.04486
G1 X158.53 Y123.05 E207.13108
G1 X194.32 Y139.17 E209.41267
G1 X195.60 Y139.84 E209.49668
G1 X196.49 Y140.47 E209.55984
G1 X197.26 Y141.14 E209.61955
G1 X197.96 Y141.88 E209.67857
G1 X198.55 Y142.68 E209.73633
G1 X199.04 Y143.53 E209.79342
G1 X199.43 Y144.42 E209.84984
G1 X199.72 Y145.32 E209.90489
G1 X199.91 Y146.23 E209.95859
G1 X200.02 Y147.16 E210.01354
G1 X200.03 Y148.46 E210.08852
G1 X199.90 Y149.76 E210.16462
G1 X199.65 Y151.04 E210.24074
G1 X199.16 Y152.66 E210.33870
G1 X198.37 Y154.58 E210.45957
G1 X197.38 Y156.42 E210.58118
G1 X195.37 Y159.49 E210.79448
G1 X193.52 Y159.93 E210.90512
G1 X193.52 Y160.87 E210.95952
G1 X190.10 Y169.99 E211.52572
G1 X189.49 Y171.66 E211.62901
G1 X188.81 Y173.09 E211.72102
G1 X188.10 Y174.27 E211.80115
G1 X187.26 Y175.39 E211.88230
G1 X186.45 Y176.25 E211.95130
G1 X185.56 Y177.02 E212.01946
G1 X184.76 Y177.57 E212.07614
G1 X183.91 Y178.03 E212.13247
G1 X183.00 Y178.41 E212.18974
G1 X182.01 Y178.68 E212.24907
G1 X180.99 Y178.84 E212.30949
G1 X180.02 Y178.88 E212.36539
G1 X166.93 Y178.66 E213.12683
G1 X166.83 Y178.66 E213.13212
G1 X165.94 Y178.59 E213.18436
G1 X164.99 Y178.41 E213.24036
G1 X164.07 Y178.09 E213.29726
G1 X163.21 Y177.66 E213.35310
G1 X162.43 Y177.11 E213.40837
G1 X161.75 Y176.47 E213.46235
G1 X161.19 Y175.77 E213.51500
G1 X160.72 Y174.98 E213.56813
G1 X160.37 Y174.17 E213.61930
G1 X160.14 Y173.34 E213.66939
G1 X160.01 Y172.50 E213.71890
G1 X159.99 Y171.64 E213.76908
G1 X160.06 Y170.79 E213.81862
G1 X160.23 Y169.96 E213.86780
G1 X160.50 Y169.15 E213.91739
G1 X160.85 Y168.37 E213.96741
G1 X161.29 Y167.63 E214.01759
G1 X161.84 Y166.92 E214.06945
G1 X162.46 Y166.27 E214.12137
G1 X163.15 Y165.69 E214.17431
G1 X163.94 Y165.17 E214.22870
G1 X164.78 Y164.74 E214.28370
G1 X165.68 Y164.40 E214.33982
G1 X166.64 Y164.14 E214.39747
G1 X167.56 Y163.99 E214.45178
G1 X173.02 Y163.36 E214.77107
G1 X173.02 Y163.34 E214.77172
G1 X173.02 Y163.27 E214.77620
G1 X173.02 Y163.21 E214.77946
G1 X173.01 Y163.13 E214.78404
G1 X173.00 Y163.08 E214.78743
G1 X172.97 Y163.02 E214.79118
G1 X172.96 Y162.98 E214.79373
G1 X172.94 Y162.95 E214.79561
G1 X172.94 Y162.94 E214.79587
G1 X172.94 Y162.94 E214.79600
G1 X172.84 Y162.90 E214.80218
G1 X153.06 Y156.52 E216.01016
G1 X153.05 Y156.64 E216.01720
G1 X153.06 Y156.97 E216.03651
G1 X153.11 Y157.34 E216.05835
G1 X153.23 Y157.89 E216.09081
G1 X153.41 Y158.42 E216.12367
G1 X155.47 Y161.10 E216.32023
G1 X156.35 Y162.80 E216.43100
G1 X156.86 Y164.11 E216.51292
G1 X157.23 Y165.43 E216.59245
G1 X157.45 Y166.75 E216.67049
G1 X157.52 Y168.07 E216.74697
G1 X157.45 Y169.36 E216.82229
G1 X157.25 Y170.63 E216.89712
G1 X156.93 Y171.88 E216.97178
G1 X156.40 Y173.36 E217.06307
G1 X155.61 Y175.06 E217.17246
G1 X154.64 Y176.78 E217.28721
G1 X153.54 Y178.41 E217.40113
G1 X152.60 Y179.52 E217.48578
G1 X151.73 Y180.34 E217.55507
G1 X150.97 Y180.91 E217.61038
G1 X150.17 Y181.41 E217.66515
G1 X149.32 Y181.83 E217.72039
G1 X148.40 Y182.19 E217.77800
G1 X147.16 Y182.53 E217.85242
G1 X145.83 Y182.75 E217.93082
G1 X144.10 Y182.86 E218.03147
G1 X141.90 Y182.80 E218.15990
G1 X140.58 Y182.69 E218.23670
G1 X133.37 Y181.61 E218.66012
G1 X118.49 Y178.58 E219.54287
G1 X116.85 Y178.19 E219.64081
G1 X115.40 Y177.69 E219.72995
G1 X113.99 Y177.02 E219.82087
G1 X112.62 Y176.18 E219.91449
G1 X111.31 Y175.16 E220.01090
G1 X110.08 Y173.95 E220.11114
G1 X108.95 Y172.55 E220.21535
G1 X107.95 Y170.97 E220.32399
G1 X107.07 Y169.22 E220.43779
G1 X106.31 Y167.28 E220.55930
G1 X105.57 Y164.64 E220.71855
G1 X105.11 Y162.23 E220.86120
G1 X104.97 Y160.87 E220.94064
G1 X104.97 Y159.50 E221.02045
G1 X105.12 Y158.15 E221.09925
G1 X105.40 Y156.84 E221.17722
G1 X105.80 Y155.57 E221.25420
G1 X106.32 Y154.37 E221.33047
G1 X106.94 Y153.22 E221.40628
G1 X107.67 Y152.15 E221.48175
G1 X108.49 Y151.15 E221.55689
G1 X109.41 Y150.23 E221.63231
G1 X110.42 Y149.41 E221.70794
G0 F12000 X110.69 Y149.78
G1 F2700 X111.70 Y149.11 E221.77849
G1 X112.37 Y148.74 E221.82285
G1 X112.52 Y148.68 E221.83229
G1 X113.75 Y148.13 E221.91059
G1 X115.24 Y147.65 E222.00171
G1 X116.76 Y147.32 E222.09157
G1 X118.55 Y147.11 E222.19631
G1 X120.91 Y147.03 E222.33366
G1 X126.85 Y147.39 E222.67958
G1 X127.39 Y147.48 E222.71131
G1 X127.58 Y147.49 E222.72289
G1 X127.79 Y147.48 E222.73483
G1 X128.03 Y147.44 E222.74875
G1 X128.28 Y147.37 E222.76395
G1 X128.56 Y147.26 E222.78152
G1 X129.04 Y147.02 E222.81242
G1 X129.53 Y146.72 E222.84633
G1 X130.22 Y146.20 E222.89638
G1 X131.29 Y145.22 E222.98088
G1 X132.80 Y143.56 E223.11132
G1 X133.16 Y143.12 E223.14444
G1 X134.09 Y141.60 E223.24764
G1 X135.04 Y140.41 E223.33589
G1 X136.01 Y139.46 E223.41505
G1 X136.74 Y138.89 E223.46871
G1 X137.46 Y138.43 E223.51846
G1 X138.19 Y138.05 E223.56617
G1 X138.93 Y137.75 E223.61265
G1 X139.69 Y137.53 E223.65872
G1 X140.66 Y137.33 E223.71614
G1 X141.63 Y137.24 E223.77305
G1 X142.88 Y137.25 E223.84582
G1 X144.36 Y137.29 E223.93159
G1 X144.90 Y136.91 E223.97023
G1 X145.62 Y136.60 E224.01581
G1 X146.58 Y136.34 E224.07346
G1 X147.23 Y136.27 E224.11128
G1 X147.94 Y136.27 E224.15261
G1 X148.63 Y136.33 E224.19324
G1 X149.43 Y136.49 E224.24041
G1 X150.39 Y136.77 E224.29860
G1 X151.01 Y136.99 E224.33705
G1 X152.02 Y136.59 E224.39994
G1 X153.47 Y138.08 E224.52070
G1 X154.56 Y137.46 E224.59353
G1 X156.10 Y139.47 E224.74049
G1 X156.99 Y139.14 E224.79574
G1 X151.94 Y133.25 E225.24676
G1 X151.35 Y132.48 E225.30268
G1 X150.83 Y131.61 E225.36159
G1 X150.43 Y130.70 E225.41933
G1 X150.17 Y129.81 E225.47318
G1 X150.05 Y129.16 E225.51190
G1 X149.99 Y128.53 E225.54843
G1 X149.99 Y127.83 E225.58917
G1 X150.15 Y126.75 E225.65280
G1 X150.36 Y126.08 E225.69363
G1 X150.61 Y125.51 E225.72985
G1 X150.92 Y124.95 E225.76689
G1 X151.31 Y124.43 E225.80445
G1 X151.75 Y123.97 E225.84175
G1 X152.28 Y123.52 E225.88209
G1 X152.86 Y123.18 E225.92120
G1 X153.49 Y122.89 E225.96118
G1 X154.18 Y122.70 E226.00312
G1 X154.87 Y122.61 E226.04340
G1 X155.57 Y122.61 E226.08438
G1 X156.28 Y122.70 E226.12583
G1 X157.01 Y122.90 E226.16984
G1 X158.34 Y123.48 E226.25393
G1 X194.12 Y139.59 E228.53438
G1 X195.35 Y140.24 E228.61587
G1 X196.20 Y140.84 E228.67598
G1 X196.94 Y141.47 E228.73280
G1 X197.60 Y142.18 E228.78886
G1 X198.16 Y142.94 E228.84364
G1 X198.62 Y143.74 E228.89771
G1 X199.00 Y144.58 E228.95108
G1 X199.27 Y145.44 E229.00339
G1 X199.45 Y146.30 E229.05449
G1 X199.55 Y147.19 E229.10679
G1 X199.57 Y148.43 E229.17881
G1 X199.44 Y149.69 E229.25211
G1 X199.19 Y150.93 E229.32562
G1 X198.72 Y152.50 E229.42091
G1 X197.94 Y154.38 E229.53908
G1 X196.98 Y156.19 E229.65822
G1 X195.08 Y159.08 E229.85945
G1 X193.36 Y159.49 E229.96257
G1 X193.21 Y159.54 E229.97187
G1 X193.12 Y159.59 E229.97766
G1 X193.08 Y159.60 E229.97983
G1 X193.08 Y159.62 E229.98104
G1 X193.07 Y159.66 E229.98347
G1 X193.05 Y159.84 E229.99363
G1 X193.05 Y160.78 E230.04838
G1 X189.67 Y169.80 E230.60810
G1 X189.06 Y171.48 E230.71191
G1 X188.40 Y172.86 E230.80134
G1 X187.71 Y174.01 E230.87889
G1 X186.91 Y175.09 E230.95709
G1 X186.13 Y175.92 E231.02313
G1 X185.28 Y176.65 E231.08837
G1 X184.52 Y177.17 E231.14212
G1 X183.71 Y177.61 E231.19553
G1 X182.84 Y177.96 E231.24985
G1 X181.91 Y178.22 E231.30598
G1 X180.94 Y178.38 E231.36323
G1 X180.02 Y178.41 E231.41680
G1 X166.93 Y178.20 E232.17754
G1 X166.85 Y178.20 E232.18219
G1 X166.00 Y178.13 E232.23175
G1 X165.11 Y177.96 E232.28437
G1 X164.25 Y177.66 E232.33755
G1 X163.45 Y177.26 E232.38956
G1 X162.72 Y176.75 E232.44095
G1 X162.10 Y176.16 E232.49111
G1 X161.57 Y175.50 E232.54000
G1 X161.14 Y174.77 E232.58935
G1 X160.81 Y174.02 E232.63705
G1 X160.60 Y173.25 E232.68364
G1 X160.48 Y172.46 E232.72991
G1 X160.45 Y171.65 E232.77684
G1 X160.52 Y170.86 E232.82323
G1 X160.68 Y170.08 E232.86932
G1 X160.93 Y169.32 E232.91586
G1 X161.26 Y168.58 E232.96281
G1 X161.68 Y167.89 E233.00997
G1 X162.19 Y167.22 E233.05872
G1 X162.77 Y166.61 E233.10768
G1 X163.43 Y166.06 E233.15753
G1 X164.17 Y165.58 E233.20890
G1 X164.97 Y165.17 E233.26100
G1 X165.82 Y164.84 E233.31430
G1 X166.74 Y164.60 E233.36918
G1 X167.62 Y164.45 E233.42144
G1 X173.15 Y163.81 E233.74494
G1 X173.32 Y163.78 E233.75456
G1 X173.34 Y163.77 E233.75614
G1 X173.35 Y163.77 E233.75697
G1 X173.37 Y163.75 E233.75800
G1 X173.38 Y163.73 E233.75954
G1 X173.40 Y163.71 E233.76084
G1 X173.42 Y163.65 E233.76490
G1 X173.45 Y163.57 E233.76964
G1 X173.47 Y163.49 E233.77465
G1 X173.48 Y163.38 E233.78081
G1 X173.49 Y163.28 E233.78680
G1 X173.48 Y163.16 E233.79361
G1 X173.47 Y163.04 E233.80058
G1 X173.44 Y162.95 E233.80608
G1 X173.41 Y162.85 E233.81209
G1 X173.37 Y162.76 E233.81789
G1 X173.34 Y162.70 E233.82208
G1 X173.30 Y162.65 E233.82574
G1 X173.26 Y162.60 E233.82949
G1 X173.23 Y162.58 E233.83126
G1 X173.19 Y162.55 E233.83464
G1 X173.13 Y162.52 E233.83816
G1 X172.98 Y162.46 E233.84765
G1 X152.73 Y155.92 E235.08421
G1 X152.68 Y155.91 E235.08738
G1 X152.66 Y156.00 E235.09264
G1 X152.61 Y156.28 E235.10921
G1 X152.59 Y156.62 E235.12943
G1 X152.60 Y157.02 E235.15234
G1 X152.65 Y157.41 E235.17535
G1 X152.78 Y158.02 E235.21179
G1 X153.00 Y158.65 E235.25020
G1 X155.08 Y161.35 E235.44862
G1 X155.92 Y162.99 E235.55559
G1 X156.42 Y164.26 E235.63477
G1 X156.77 Y165.53 E235.71146
G1 X156.98 Y166.80 E235.78649
G1 X157.05 Y168.07 E235.86006
G1 X156.98 Y169.31 E235.93253
G1 X156.79 Y170.54 E236.00466
G1 X156.48 Y171.74 E236.07685
G1 X155.97 Y173.18 E236.16562
G1 X155.19 Y174.85 E236.27270
G1 X154.24 Y176.54 E236.38531
G1 X153.17 Y178.13 E236.49664
G1 X152.26 Y179.20 E236.57824
G1 X151.43 Y179.98 E236.64469
G1 X150.71 Y180.53 E236.69727
G1 X149.95 Y181.00 E236.74950
G1 X149.13 Y181.41 E236.80214
G1 X148.25 Y181.75 E236.85714
G1 X147.06 Y182.07 E236.92873
G1 X145.78 Y182.28 E237.00441
G1 X144.09 Y182.39 E237.10250
G1 X141.92 Y182.34 E237.22896
G1 X140.63 Y182.23 E237.30408
G1 X133.46 Y181.15 E237.72590
G1 X118.59 Y178.13 E238.60752
G1 X116.98 Y177.75 E238.70361
G1 X115.58 Y177.25 E238.78992
G1 X114.21 Y176.61 E238.87796
G1 X112.88 Y175.79 E238.96855
G1 X111.61 Y174.81 E239.06193
G1 X110.43 Y173.63 E239.15901
G1 X109.33 Y172.28 E239.26016
G1 X108.36 Y170.75 E239.36589
G1 X107.50 Y169.04 E239.47704
G1 X106.76 Y167.13 E239.59597
G1 X106.02 Y164.53 E239.75276
G1 X105.57 Y162.16 E239.89309
G1 X105.43 Y160.85 E239.96985
G1 X105.44 Y159.52 E240.04681
G1 X105.58 Y158.22 E240.12286
G1 X105.85 Y156.96 E240.19816
G1 X106.24 Y155.74 E240.27245
G1 X106.74 Y154.57 E240.34612
G1 X107.34 Y153.47 E240.41939
G1 X108.05 Y152.43 E240.49227
G1 X108.84 Y151.46 E240.56486
G1 X109.72 Y150.58 E240.63760
G1 X110.69 Y149.78 E240.71054
G0 F12000 X110.97 Y150.16
G1 F2700 X111.95 Y149.51 E240.77867
G1 X112.58 Y149.16 E240.82045
G1 X112.71 Y149.10 E240.82895
G1 X113.92 Y148.56 E240.90585
G1 X115.36 Y148.10 E240.99410
G1 X116.83 Y147.78 E241.08135
G1 X118.58 Y147.57 E241.18374
G1 X120.90 Y147.50 E241.31859
G1 X126.79 Y147.85 E241.66177
G1 X127.33 Y147.95 E241.69345
G1 X127.59 Y147.96 E241.70853
G1 X127.84 Y147.94 E241.72314
G1 X128.13 Y147.90 E241.73995
G1 X128.44 Y147.81 E241.75859
G1 X128.74 Y147.69 E241.77760
G1 X129.27 Y147.43 E241.81191
G1 X129.80 Y147.10 E241.84804
G1 X130.52 Y146.56 E241.90054
G1 X131.62 Y145.55 E241.98768
G1 X133.15 Y143.87 E242.11951
G1 X133.54 Y143.39 E242.15549
G1 X134.47 Y141.87 E242.25892
G1 X135.38 Y140.73 E242.34391
G1 X136.32 Y139.81 E242.41990
G1 X137.01 Y139.27 E242.47083
G1 X137.69 Y138.83 E242.51805
G1 X138.38 Y138.47 E242.56320
G1 X139.08 Y138.19 E242.60711
G1 X139.80 Y137.98 E242.65062
G1 X140.72 Y137.79 E242.70537
G1 X141.65 Y137.71 E242.75955
G1 X142.87 Y137.71 E242.83069
G1 X144.50 Y137.76 E242.92500
G1 X145.13 Y137.32 E242.96992
G1 X145.78 Y137.04 E243.01086
G1 X146.67 Y136.80 E243.06436
G1 X147.25 Y136.74 E243.09868
G1 X147.92 Y136.73 E243.13727
G1 X148.57 Y136.79 E243.17528
G1 X149.32 Y136.94 E243.21985
G1 X150.25 Y137.21 E243.27598
G1 X151.02 Y137.49 E243.32379
G1 X151.91 Y137.14 E243.37888
G1 X153.39 Y138.66 E243.50255
G1 X154.44 Y138.07 E243.57257
G1 X155.94 Y140.03 E243.71601
G1 X157.78 Y139.34 E243.83014
G1 X152.30 Y132.95 E244.31907
G1 X151.74 Y132.22 E244.37264
G1 X151.25 Y131.40 E244.42831
G1 X150.87 Y130.54 E244.48262
G1 X150.62 Y129.71 E244.53338
G1 X150.51 Y129.10 E244.56938
G1 X150.46 Y128.51 E244.60340
G1 X150.46 Y127.87 E244.64101
G1 X150.61 Y126.85 E244.70053
G1 X150.80 Y126.24 E244.73788
G1 X151.03 Y125.71 E244.77114
G1 X151.31 Y125.21 E244.80506
G1 X151.66 Y124.73 E244.83938
G1 X152.06 Y124.31 E244.87335
G1 X152.55 Y123.91 E244.91001
G1 X153.07 Y123.59 E244.94550
G1 X153.64 Y123.33 E244.98173
G1 X154.27 Y123.16 E245.01976
G1 X154.90 Y123.08 E245.05641
G1 X155.54 Y123.08 E245.09384
G1 X156.19 Y123.16 E245.13165
G1 X156.86 Y123.34 E245.17193
G1 X158.15 Y123.90 E245.25386
G1 X193.91 Y140.00 E247.53324
G1 X195.11 Y140.64 E247.61223
G1 X195.91 Y141.20 E247.66926
G1 X196.62 Y141.81 E247.72320
G1 X197.24 Y142.48 E247.77625
G1 X197.77 Y143.19 E247.82800
G1 X198.21 Y143.96 E247.87910
G1 X198.56 Y144.75 E247.92948
G1 X198.82 Y145.56 E247.97898
G1 X198.99 Y146.38 E248.02746
G1 X199.09 Y147.22 E248.07708
G1 X199.10 Y148.41 E248.14625
G1 X198.98 Y149.62 E248.21668
G1 X198.74 Y150.82 E248.28758
G1 X198.28 Y152.34 E248.38021
G1 X197.52 Y154.18 E248.49574
G1 X196.58 Y155.95 E248.61230
G1 X194.79 Y158.67 E248.80153
G1 X193.22 Y159.04 E248.89581
G1 X193.03 Y159.11 E248.90716
G1 X192.89 Y159.17 E248.91600
G1 X192.78 Y159.24 E248.92359
G1 X192.75 Y159.26 E248.92563
G1 X192.72 Y159.29 E248.92801
G1 X192.71 Y159.31 E248.92983
G1 X192.69 Y159.34 E248.93130
G1 X192.67 Y159.37 E248.93369
G1 X192.65 Y159.42 E248.93684
G1 X192.63 Y159.50 E248.94151
G1 X192.61 Y159.60 E248.94727
G1 X192.59 Y159.82 E248.96011
G1 X192.59 Y160.70 E249.01132
G1 X189.22 Y169.66 E249.56769
G1 X188.63 Y171.29 E249.66886
G1 X187.98 Y172.64 E249.75569
G1 X187.32 Y173.75 E249.83060
G1 X186.55 Y174.79 E249.90594
G1 X185.81 Y175.58 E249.96898
G1 X184.99 Y176.28 E250.03133
G1 X184.27 Y176.78 E250.08216
G1 X183.51 Y177.19 E250.13266
G1 X182.69 Y177.52 E250.18391
G1 X181.81 Y177.77 E250.23691
G1 X180.89 Y177.91 E250.29103
G1 X180.01 Y177.95 E250.34228
G1 X166.94 Y177.73 E251.10221
G1 X166.87 Y177.73 E251.10622
G1 X166.07 Y177.67 E251.15315
G1 X165.24 Y177.50 E251.20239
G1 X164.43 Y177.23 E251.25187
G1 X163.69 Y176.85 E251.30006
G1 X163.02 Y176.39 E251.34753
G1 X162.44 Y175.84 E251.39387
G1 X161.95 Y175.24 E251.43900
G1 X161.55 Y174.56 E251.48460
G1 X161.25 Y173.86 E251.52876
G1 X161.05 Y173.15 E251.57190
G1 X160.94 Y172.42 E251.61488
G1 X160.92 Y171.66 E251.65861
G1 X160.98 Y170.93 E251.70179
G1 X161.13 Y170.20 E251.74480
G1 X161.36 Y169.49 E251.78827
G1 X161.68 Y168.80 E251.83225
G1 X162.07 Y168.15 E251.87633
G1 X162.55 Y167.53 E251.92209
G1 X163.09 Y166.95 E251.96801
G1 X163.71 Y166.44 E252.01481
G1 X164.41 Y165.98 E252.06310
G1 X165.16 Y165.60 E252.11231
G1 X165.97 Y165.28 E252.16274
G1 X166.84 Y165.05 E252.21492
G1 X167.69 Y164.91 E252.26517
G1 X173.22 Y164.27 E252.58885
G1 X173.42 Y164.24 E252.60071
G1 X173.51 Y164.21 E252.60624
G1 X173.58 Y164.18 E252.61040
G1 X173.63 Y164.15 E252.61382
G1 X173.67 Y164.12 E252.61675
G1 X173.72 Y164.06 E252.62160
G1 X173.77 Y164.00 E252.62562
G1 X173.81 Y163.92 E252.63073
G1 X173.85 Y163.83 E252.63697
G1 X173.90 Y163.71 E252.64442
G1 X173.93 Y163.57 E252.65265
G1 X173.95 Y163.43 E252.66051
G1 X173.96 Y163.28 E252.66947
G1 X173.95 Y163.12 E252.67890
G1 X173.93 Y162.96 E252.68828
G1 X173.90 Y162.83 E252.69592
G1 X173.85 Y162.68 E252.70493
G1 X173.79 Y162.56 E252.71271
G1 X173.72 Y162.44 E252.72051
G1 X173.66 Y162.36 E252.72672
G1 X173.59 Y162.28 E252.73285
G1 X173.51 Y162.21 E252.73907
G1 X173.43 Y162.15 E252.74458
G1 X173.32 Y162.09 E252.75176
G1 X173.15 Y162.03 E252.76256
G1 X152.86 Y155.47 E254.00214
G1 X152.46 Y155.38 E254.02579
G1 X152.40 Y155.37 E254.02924
G1 X152.37 Y155.42 E254.03230
G1 X152.33 Y155.50 E254.03758
G1 X152.28 Y155.61 E254.04473
G1 X152.20 Y155.90 E254.06216
G1 X152.14 Y156.22 E254.08133
G1 X152.12 Y156.62 E254.10433
G1 X152.13 Y157.06 E254.12974
G1 X152.18 Y157.49 E254.15503
G1 X152.33 Y158.15 E254.19457
G1 X152.56 Y158.82 E254.23546
G1 X152.60 Y158.89 E254.24029
G1 X154.68 Y161.61 E254.43925
G1 X155.50 Y163.18 E254.54237
G1 X155.98 Y164.41 E254.61881
G1 X156.32 Y165.63 E254.69260
G1 X156.52 Y166.85 E254.76469
G1 X156.58 Y168.07 E254.83535
G1 X156.52 Y169.26 E254.90497
G1 X156.33 Y170.44 E254.97445
G1 X156.04 Y171.61 E255.04411
G1 X155.54 Y173.00 E255.13037
G1 X154.78 Y174.64 E255.23513
G1 X153.84 Y176.29 E255.34561
G1 X152.80 Y177.84 E255.45434
G1 X151.92 Y178.88 E255.53289
G1 X151.13 Y179.62 E255.59642
G1 X150.44 Y180.15 E255.64639
G1 X149.72 Y180.60 E255.69597
G1 X148.95 Y180.98 E255.74616
G1 X148.11 Y181.31 E255.79843
G1 X146.97 Y181.62 E255.86723
G1 X145.73 Y181.82 E255.94020
G1 X144.09 Y181.93 E256.03578
G1 X141.95 Y181.87 E256.16015
G1 X140.69 Y181.77 E256.23363
G1 X133.54 Y180.69 E256.65387
G1 X118.69 Y177.67 E257.53436
G1 X117.11 Y177.30 E257.62861
G1 X115.76 Y176.82 E257.71213
G1 X114.43 Y176.20 E257.79726
G1 X113.15 Y175.41 E257.88480
G1 X111.92 Y174.46 E257.97512
G1 X110.77 Y173.32 E258.06907
G1 X109.71 Y172.01 E258.16716
G1 X108.76 Y170.51 E258.27008
G1 X107.92 Y168.85 E258.37855
G1 X107.20 Y166.98 E258.49487
G1 X106.48 Y164.43 E258.64923
G1 X106.03 Y162.09 E258.78714
G1 X105.90 Y160.83 E258.86127
G1 X105.91 Y159.55 E258.93544
G1 X106.04 Y158.30 E259.00869
G1 X106.30 Y157.08 E259.08124
G1 X106.68 Y155.90 E259.15293
G1 X107.16 Y154.78 E259.22399
G1 X107.74 Y153.71 E259.29471
G1 X108.42 Y152.71 E259.36498
G1 X109.19 Y151.78 E259.43501
G1 X110.04 Y150.92 E259.50517
G1 X110.97 Y150.16 E259.57534
G0 F12000 X111.25 Y150.53
G1 F2700 X112.19 Y149.91 E259.64108
G1 X112.78 Y149.58 E259.68027
G1 X112.91 Y149.53 E259.68834
G1 X114.08 Y149.00 E259.76332
G1 X115.48 Y148.55 E259.84870
G1 X116.91 Y148.25 E259.93339
G1 X118.62 Y148.04 E260.03333
G1 X120.89 Y147.97 E260.16579
G1 X126.74 Y148.32 E260.50618
G1 X127.28 Y148.41 E260.53827
G1 X127.59 Y148.43 E260.55585
G1 X127.90 Y148.41 E260.57431
G1 X128.22 Y148.35 E260.59312
G1 X128.58 Y148.25 E260.61473
G1 X128.93 Y148.12 E260.63671
G1 X129.49 Y147.84 E260.67310
G1 X130.06 Y147.49 E260.71189
G1 X130.81 Y146.92 E260.76668
G1 X131.96 Y145.88 E260.85661
G1 X133.50 Y144.18 E260.98993
G1 X133.92 Y143.65 E261.02913
G1 X134.86 Y142.14 E261.13251
G1 X135.73 Y141.04 E261.21411
G1 X136.62 Y140.16 E261.28698
G1 X137.28 Y139.65 E261.33513
G1 X137.92 Y139.24 E261.37979
G1 X138.57 Y138.90 E261.42245
G1 X139.23 Y138.63 E261.46380
G1 X139.91 Y138.43 E261.50470
G1 X140.79 Y138.26 E261.55683
G1 X141.67 Y138.18 E261.60832
G1 X142.87 Y138.18 E261.67778
G1 X144.57 Y138.23 E261.77680
G1 X144.66 Y138.22 E261.78209
G1 X144.71 Y138.18 E261.78591
G1 X145.36 Y137.73 E261.83167
G1 X145.93 Y137.48 E261.86797
G1 X146.75 Y137.26 E261.91733
G1 X147.28 Y137.20 E261.94819
G1 X147.90 Y137.20 E261.98406
G1 X148.50 Y137.26 E262.01938
G1 X149.21 Y137.39 E262.06128
G1 X150.10 Y137.66 E262.11546
G1 X151.03 Y137.98 E262.17265
G1 X151.79 Y137.69 E262.21986
G1 X153.31 Y139.25 E262.34641
G1 X154.32 Y138.67 E262.41370
G1 X155.78 Y140.59 E262.55365
G1 X158.19 Y139.68 E262.70322
G1 X159.02 Y141.32 E262.81016
G1 X159.82 Y141.01 E262.85989
G1 X152.66 Y132.66 E263.49903
G1 X152.12 Y131.96 E263.55032
G1 X151.66 Y131.19 E263.60273
G1 X151.31 Y130.38 E263.65368
G1 X151.08 Y129.60 E263.70122
G1 X150.97 Y129.03 E263.73457
G1 X150.93 Y128.49 E263.76614
G1 X150.93 Y127.90 E263.80054
G1 X151.06 Y126.96 E263.85595
G1 X151.24 Y126.40 E263.88985
G1 X151.44 Y125.92 E263.92018
G1 X151.71 Y125.46 E263.95095
G1 X152.02 Y125.03 E263.98204
G1 X152.38 Y124.65 E264.01271
G1 X152.82 Y124.29 E264.04558
G1 X153.29 Y124.00 E264.07755
G1 X153.80 Y123.77 E264.11001
G1 X154.37 Y123.62 E264.14407
G1 X154.93 Y123.54 E264.17713
G1 X155.51 Y123.54 E264.21096
G1 X156.10 Y123.62 E264.24526
G1 X156.70 Y123.78 E264.28175
G1 X157.96 Y124.33 E264.36146
G1 X193.71 Y140.42 E266.63980
G1 X194.87 Y141.04 E266.71624
G1 X195.63 Y141.57 E266.77026
G1 X196.29 Y142.15 E266.82132
G1 X196.88 Y142.78 E266.87133
G1 X197.38 Y143.45 E266.92015
G1 X197.79 Y144.17 E266.96820
G1 X198.12 Y144.91 E267.01561
G1 X198.37 Y145.68 E267.06231
G1 X198.53 Y146.45 E267.10818
G1 X198.62 Y147.25 E267.15516
G1 X198.63 Y148.39 E267.22137
G1 X198.52 Y149.55 E267.28900
G1 X198.29 Y150.70 E267.35735
G1 X197.84 Y152.19 E267.44731
G1 X197.10 Y153.98 E267.56006
G1 X196.18 Y155.71 E267.67415
G1 X194.51 Y158.26 E267.85134
G1 X193.09 Y158.59 E267.93583
G1 X192.85 Y158.68 E267.95050
G1 X192.67 Y158.76 E267.96243
G1 X192.52 Y158.86 E267.97258
G1 X192.45 Y158.91 E267.97762
G1 X192.39 Y158.97 E267.98264
G1 X192.34 Y159.03 E267.98714
G1 X192.29 Y159.10 E267.99194
G1 X192.25 Y159.17 E267.99670
G1 X192.21 Y159.27 E268.00306
G1 X192.18 Y159.39 E268.01027
G1 X192.15 Y159.53 E268.01865
G1 X192.12 Y159.79 E268.03400
G1 X192.12 Y160.61 E268.08166
G1 X188.79 Y169.50 E268.63314
G1 X188.20 Y171.12 E268.73329
G1 X187.57 Y172.42 E268.81755
G1 X186.94 Y173.49 E268.88976
G1 X186.19 Y174.49 E268.96227
G1 X185.48 Y175.24 E269.02235
G1 X184.71 Y175.91 E269.08174
G1 X184.03 Y176.38 E269.12960
G1 X183.31 Y176.77 E269.17722
G1 X182.54 Y177.08 E269.22552
G1 X181.72 Y177.31 E269.27531
G1 X180.85 Y177.45 E269.32626
G1 X180.01 Y177.48 E269.37518
G1 X166.95 Y177.27 E270.13436
G1 X166.89 Y177.27 E270.13779
G1 X166.13 Y177.21 E270.18209
G1 X165.36 Y177.05 E270.22790
G1 X164.61 Y176.80 E270.27371
G1 X163.93 Y176.45 E270.31805
G1 X163.31 Y176.03 E270.36164
G1 X162.78 Y175.52 E270.40419
G1 X162.34 Y174.97 E270.44547
G1 X161.97 Y174.35 E270.48740
G1 X161.69 Y173.71 E270.52794
G1 X161.51 Y173.05 E270.56765
G1 X161.41 Y172.37 E270.60739
G1 X161.38 Y171.68 E270.64781
G1 X161.45 Y170.99 E270.68790
G1 X161.58 Y170.32 E270.72783
G1 X161.80 Y169.66 E270.76817
G1 X162.09 Y169.02 E270.80913
G1 X162.45 Y168.41 E270.85011
G1 X162.90 Y167.83 E270.89286
G1 X163.41 Y167.29 E270.93582
G1 X163.99 Y166.81 E270.97951
G1 X164.64 Y166.38 E271.02480
G1 X165.35 Y166.02 E271.07109
G1 X166.11 Y165.73 E271.11873
G1 X166.93 Y165.51 E271.16807
G1 X167.75 Y165.37 E271.21637
G1 X173.28 Y164.73 E271.53993
G1 X173.53 Y164.69 E271.55451
G1 X173.68 Y164.64 E271.56370
G1 X173.80 Y164.59 E271.57111
G1 X173.90 Y164.53 E271.57803
G1 X173.99 Y164.46 E271.58456
G1 X174.08 Y164.36 E271.59228
G1 X174.16 Y164.26 E271.59979
G1 X174.22 Y164.14 E271.60756
G1 X174.29 Y164.00 E271.61669
G1 X174.35 Y163.83 E271.62705
G1 X174.39 Y163.65 E271.63768
G1 X174.41 Y163.48 E271.64760
G1 X174.42 Y163.27 E271.66011
G1 X174.41 Y163.08 E271.67105
G1 X174.38 Y162.88 E271.68283
G1 X174.34 Y162.70 E271.69370
G1 X174.28 Y162.52 E271.70480
G1 X174.20 Y162.34 E271.71586
G1 X174.12 Y162.19 E271.72570
G1 X174.03 Y162.06 E271.73508
G1 X173.92 Y161.95 E271.74430
G1 X173.81 Y161.84 E271.75323
G1 X173.68 Y161.75 E271.76237
G1 X173.52 Y161.67 E271.77251
G1 X173.31 Y161.59 E271.78606
G1 X152.99 Y155.03 E273.02715
G1 X152.53 Y154.92 E273.05417
G1 X152.42 Y154.91 E273.06094
G1 X152.31 Y154.91 E273.06716
G1 X152.25 Y154.92 E273.07099
G1 X152.21 Y154.93 E273.07338
G1 X152.17 Y154.95 E273.07546
G1 X152.14 Y154.97 E273.07789
G1 X152.09 Y155.01 E273.08147
G1 X152.04 Y155.08 E273.08641
G1 X151.98 Y155.17 E273.09291
G1 X151.90 Y155.31 E273.10193
G1 X151.84 Y155.46 E273.11135
G1 X151.75 Y155.79 E273.13125
G1 X151.68 Y156.17 E273.15389
G1 X151.65 Y156.61 E273.17964
G1 X151.67 Y157.08 E273.20691
G1 X151.73 Y157.57 E273.23566
G1 X151.88 Y158.28 E273.27764
G1 X152.13 Y158.99 E273.32170
G1 X152.19 Y159.13 E273.33026
G1 X154.29 Y161.86 E273.53026
G1 X155.07 Y163.38 E273.62959
G1 X155.53 Y164.56 E273.70321
G1 X155.86 Y165.73 E273.77417
G1 X156.06 Y166.90 E273.84325
G1 X156.12 Y168.07 E273.91094
G1 X156.06 Y169.22 E273.97782
G1 X155.88 Y170.35 E274.04460
G1 X155.59 Y171.47 E274.11168
G1 X155.11 Y172.83 E274.19551
G1 X154.36 Y174.43 E274.29791
G1 X153.45 Y176.05 E274.40625
G1 X152.43 Y177.56 E274.51242
G1 X151.59 Y178.55 E274.58797
G1 X150.82 Y179.27 E274.64858
G1 X150.18 Y179.76 E274.69585
G1 X149.49 Y180.19 E274.74285
G1 X148.76 Y180.55 E274.79049
G1 X147.96 Y180.86 E274.84012
G1 X146.87 Y181.16 E274.90611
G1 X145.67 Y181.35 E274.97638
G1 X144.08 Y181.46 E275.06939
G1 X141.97 Y181.41 E275.19178
G1 X140.74 Y181.30 E275.26357
G1 X133.62 Y180.23 E275.68222
G1 X118.79 Y177.22 E276.56160
G1 X117.24 Y176.85 E276.65399
G1 X115.93 Y176.39 E276.73468
G1 X114.65 Y175.79 E276.81693
G1 X113.41 Y175.03 E276.90147
G1 X112.23 Y174.11 E276.98864
G1 X111.12 Y173.01 E277.07951
G1 X110.09 Y171.73 E277.17459
G1 X109.17 Y170.28 E277.27455
G1 X108.35 Y168.66 E277.38034
G1 X107.64 Y166.83 E277.49413
G1 X106.93 Y164.32 E277.64600
G1 X106.49 Y162.03 E277.78161
G1 X106.37 Y160.80 E277.85311
G1 X106.37 Y159.58 E277.92443
G1 X106.50 Y158.37 E277.99493
G1 X106.75 Y157.20 E278.06469
G1 X107.11 Y156.06 E278.13375
G1 X107.58 Y154.98 E278.20229
G1 X108.14 Y153.95 E278.27035
G1 X108.79 Y152.99 E278.33811
G1 X109.53 Y152.09 E278.40558
G1 X110.35 Y151.27 E278.47302
G1 X111.25 Y150.53 E278.54051
G0 F12000 X111.53 Y150.91
G1 F2700 X112.43 Y150.31 E278.60387
G1 X112.98 Y150.00 E278.64040
G1 X113.08 Y149.96 E278.64649
G1 X114.25 Y149.43 E278.72118
G1 X115.60 Y149.00 E278.80368
G1 X116.99 Y148.71 E278.88581
G1 X118.65 Y148.50 E278.98330
G1 X120.89 Y148.43 E279.11332
G1 X126.69 Y148.78 E279.45097
G1 X127.23 Y148.87 E279.48306
G1 X127.59 Y148.89 E279.50407
G1 X127.95 Y148.87 E279.52516
G1 X128.33 Y148.81 E279.54726
G1 X128.72 Y148.70 E279.57092
G1 X129.13 Y148.54 E279.59628
G1 X129.72 Y148.25 E279.63456
G1 X130.32 Y147.87 E279.67607
G1 X131.12 Y147.27 E279.73384
G1 X132.28 Y146.21 E279.82550
G1 X133.85 Y144.47 E279.96157
G1 X134.30 Y143.93 E280.00279
G1 X135.24 Y142.41 E280.10644
G1 X136.08 Y141.35 E280.18477
G1 X136.93 Y140.51 E280.25448
G1 X137.55 Y140.03 E280.29982
G1 X138.16 Y139.64 E280.34195
G1 X138.77 Y139.32 E280.38206
G1 X139.39 Y139.07 E280.42083
G1 X140.02 Y138.88 E280.45919
G1 X140.86 Y138.72 E280.50866
G1 X141.69 Y138.64 E280.55746
G1 X142.86 Y138.65 E280.62523
G1 X144.59 Y138.70 E280.72612
G1 X144.80 Y138.67 E280.73840
G1 X144.85 Y138.65 E280.74136
G1 X144.86 Y138.65 E280.74183
G1 X144.98 Y138.56 E280.75074
G1 X145.59 Y138.14 E280.79352
G1 X146.09 Y137.92 E280.82520
G1 X146.84 Y137.72 E280.87040
G1 X147.31 Y137.67 E280.89781
G1 X147.88 Y137.66 E280.93089
G1 X148.44 Y137.72 E280.96358
G1 X149.10 Y137.85 E281.00288
G1 X149.96 Y138.10 E281.05501
G1 X151.04 Y138.48 E281.12161
G1 X151.67 Y138.23 E281.16089
G1 X153.18 Y139.78 E281.28670
G1 X153.14 Y139.87 E281.29251
G1 X154.19 Y139.28 E281.36252
G1 X155.62 Y141.15 E281.49895
G1 X157.96 Y140.26 E281.64455
G1 X158.80 Y141.91 E281.75193
G1 X160.60 Y141.20 E281.86421
G1 X153.02 Y132.37 E282.54066
G1 X152.51 Y131.70 E282.58954
G1 X152.08 Y130.97 E282.63877
G1 X151.75 Y130.22 E282.68629
G1 X151.53 Y129.49 E282.73074
G1 X151.44 Y128.97 E282.76143
G1 X151.39 Y128.47 E282.79049
G1 X151.39 Y127.94 E282.82170
G1 X151.52 Y127.06 E282.87299
G1 X151.68 Y126.56 E282.90342
G1 X151.86 Y126.13 E282.93084
G1 X152.10 Y125.72 E282.95840
G1 X152.38 Y125.33 E282.98633
G1 X152.70 Y124.99 E283.01367
G1 X153.09 Y124.67 E283.04282
G1 X153.51 Y124.42 E283.07119
G1 X153.96 Y124.21 E283.09994
G1 X154.46 Y124.08 E283.13001
G1 X154.96 Y124.01 E283.15945
G1 X155.48 Y124.01 E283.18967
G1 X156.00 Y124.08 E283.22039
G1 X156.55 Y124.22 E283.25314
G1 X157.77 Y124.75 E283.33072
G1 X193.50 Y140.84 E285.60797
G1 X194.62 Y141.44 E285.68189
G1 X195.34 Y141.94 E285.73286
G1 X195.97 Y142.48 E285.78099
G1 X196.52 Y143.07 E285.82803
G1 X196.99 Y143.71 E285.87382
G1 X197.38 Y144.38 E285.91893
G1 X197.69 Y145.08 E285.96333
G1 X197.91 Y145.80 E286.00722
G1 X198.07 Y146.53 E286.05053
G1 X198.16 Y147.28 E286.09477
G1 X198.17 Y148.37 E286.15812
G1 X198.06 Y149.48 E286.22290
G1 X197.84 Y150.59 E286.28865
G1 X197.41 Y152.03 E286.37594
G1 X196.68 Y153.78 E286.48597
G1 X195.78 Y155.47 E286.59760
G1 X194.22 Y157.85 E286.76272
G1 X192.95 Y158.15 E286.83850
G1 X192.68 Y158.24 E286.85508
G1 X192.45 Y158.35 E286.87003
G1 X192.25 Y158.47 E286.88334
G1 X192.15 Y158.56 E286.89121
G1 X192.04 Y158.65 E286.89927
G1 X191.97 Y158.74 E286.90636
G1 X191.90 Y158.84 E286.91339
G1 X191.83 Y158.98 E286.92213
G1 X191.77 Y159.11 E286.93049
G1 X191.72 Y159.28 E286.94074
G1 X191.69 Y159.44 E286.95054
G1 X191.65 Y159.78 E286.97016
G1 X191.65 Y160.53 E287.01369
G1 X188.35 Y169.33 E287.56026
G1 X187.77 Y170.93 E287.65931
G1 X187.16 Y172.20 E287.74099
G1 X186.55 Y173.23 E287.81062
G1 X185.83 Y174.19 E287.88018
G1 X185.16 Y174.91 E287.93734
G1 X184.42 Y175.54 E287.99375
G1 X183.79 Y175.98 E288.03869
G1 X183.11 Y176.34 E288.08339
G1 X182.39 Y176.64 E288.12867
G1 X181.62 Y176.85 E288.17537
G1 X180.80 Y176.98 E288.22315
G1 X180.00 Y177.01 E288.26969
G1 X166.96 Y176.80 E289.02816
G1 X166.91 Y176.80 E289.03095
G1 X166.19 Y176.75 E289.07258
G1 X165.48 Y176.60 E289.11501
G1 X164.79 Y176.37 E289.15707
G1 X164.17 Y176.05 E289.19762
G1 X163.61 Y175.66 E289.23731
G1 X163.13 Y175.21 E289.27604
G1 X162.72 Y174.70 E289.31357
G1 X162.39 Y174.14 E289.35172
G1 X162.13 Y173.55 E289.38879
G1 X161.97 Y172.95 E289.42499
G1 X161.87 Y172.33 E289.46150
G1 X161.85 Y171.69 E289.49866
G1 X161.91 Y171.06 E289.53554
G1 X162.03 Y170.44 E289.57238
G1 X162.23 Y169.83 E289.60973
G1 X162.50 Y169.24 E289.64762
G1 X162.84 Y168.68 E289.68555
G1 X163.25 Y168.13 E289.72527
G1 X163.73 Y167.64 E289.76519
G1 X164.27 Y167.19 E289.80587
G1 X164.88 Y166.79 E289.84814
G1 X165.54 Y166.45 E289.89147
G1 X166.26 Y166.17 E289.93626
G1 X167.03 Y165.96 E289.98290
G1 X167.82 Y165.83 E290.02914
G1 X173.35 Y165.19 E290.35287
G1 X173.64 Y165.14 E290.37017
G1 X173.85 Y165.08 E290.38247
G1 X174.02 Y165.00 E290.39344
G1 X174.17 Y164.91 E290.40357
G1 X174.30 Y164.80 E290.41390
G1 X174.43 Y164.66 E290.42459
G1 X174.54 Y164.52 E290.43533
G1 X174.64 Y164.36 E290.44628
G1 X174.72 Y164.17 E290.45824
G1 X174.79 Y163.97 E290.47065
G1 X174.85 Y163.73 E290.48475
G1 X174.88 Y163.52 E290.49700
G1 X174.89 Y163.27 E290.51155
G1 X174.88 Y163.03 E290.52541
G1 X174.84 Y162.79 E290.53965
G1 X174.79 Y162.57 E290.55261
G1 X174.72 Y162.34 E290.56670
G1 X174.62 Y162.14 E290.57974
G1 X174.51 Y161.94 E290.59273
G1 X174.38 Y161.76 E290.60552
G1 X174.25 Y161.62 E290.61704
G1 X174.10 Y161.48 E290.62911
G1 X173.91 Y161.35 E290.64226
G1 X173.72 Y161.25 E290.65498
G1 X173.46 Y161.15 E290.67097
G1 X153.11 Y154.57 E291.91413
G1 X152.62 Y154.46 E291.94324
G1 X152.43 Y154.44 E291.95463
G1 X152.27 Y154.44 E291.96393
G1 X152.13 Y154.47 E291.97178
G1 X152.03 Y154.50 E291.97795
G1 X151.94 Y154.55 E291.98406
G1 X151.85 Y154.61 E291.99022
G1 X151.75 Y154.69 E291.99767
G1 X151.67 Y154.79 E292.00517
G1 X151.57 Y154.94 E292.01568
G1 X151.48 Y155.10 E292.02655
G1 X151.40 Y155.30 E292.03870
G1 X151.29 Y155.69 E292.06256
G1 X151.22 Y156.11 E292.08714
G1 X151.19 Y156.61 E292.11615
G1 X151.20 Y157.12 E292.14586
G1 X151.26 Y157.65 E292.17689
G1 X151.43 Y158.41 E292.22203
G1 X151.70 Y159.17 E292.26894
G1 X151.79 Y159.37 E292.28174
G1 X153.89 Y162.11 E292.48239
G1 X154.65 Y163.57 E292.57792
G1 X155.09 Y164.70 E292.64880
G1 X155.41 Y165.83 E292.71685
G1 X155.59 Y166.95 E292.78299
G1 X155.65 Y168.07 E292.84777
G1 X155.59 Y169.17 E292.91180
G1 X155.42 Y170.26 E292.97587
G1 X155.14 Y171.33 E293.04051
G1 X154.68 Y172.65 E293.12180
G1 X153.95 Y174.21 E293.22188
G1 X153.05 Y175.80 E293.32809
G1 X152.06 Y177.28 E293.43163
G1 X151.25 Y178.23 E293.50416
G1 X150.52 Y178.91 E293.56189
G1 X149.91 Y179.38 E293.60647
G1 X149.26 Y179.78 E293.65094
G1 X148.57 Y180.13 E293.69604
G1 X147.82 Y180.42 E293.74294
G1 X146.77 Y180.70 E293.80609
G1 X145.62 Y180.89 E293.87371
G1 X144.07 Y180.99 E293.96416
G1 X142.00 Y180.94 E294.08457
G1 X140.79 Y180.84 E294.15473
G1 X133.70 Y179.77 E294.57173
G1 X118.89 Y176.76 E295.44998
G1 X117.38 Y176.40 E295.54051
G1 X116.11 Y175.96 E295.61837
G1 X114.88 Y175.38 E295.69775
G1 X113.68 Y174.65 E295.77926
G1 X112.54 Y173.75 E295.86337
G1 X111.46 Y172.69 E295.95112
G1 X110.47 Y171.46 E296.04313
G1 X109.57 Y170.05 E296.14025
G1 X108.78 Y168.47 E296.24339
G1 X108.08 Y166.69 E296.35454
G1 X107.38 Y164.21 E296.50402
G1 X106.95 Y161.96 E296.63724
G1 X106.83 Y160.78 E296.70605
G1 X106.84 Y159.60 E296.77458
G1 X106.96 Y158.44 E296.84228
G1 X107.20 Y157.31 E296.90937
G1 X107.55 Y156.23 E296.97575
G1 X108.00 Y155.18 E297.04168
G1 X108.54 Y154.19 E297.10720
G1 X109.17 Y153.27 E297.17238
G1 X109.88 Y152.40 E297.23729
G1 X110.66 Y151.62 E297.30206
G1 X111.53 Y150.91 E297.36686
G0 F12000 X111.80 Y151.28
G1 F2700 X112.68 Y150.70 E297.42781
G1 X113.19 Y150.42 E297.46179
G1 X113.25 Y150.40 E297.46544
G1 X114.42 Y149.87 E297.54023
G1 X115.72 Y149.45 E297.61986
G1 X117.06 Y149.17 E297.69944
G1 X118.69 Y148.97 E297.79453
G1 X120.88 Y148.90 E297.92211
G1 X126.63 Y149.24 E298.25690
G1 X127.18 Y149.34 E298.28946
G1 X127.59 Y149.36 E298.31292
G1 X128.00 Y149.33 E298.33726
G1 X128.44 Y149.26 E298.36285
G1 X128.87 Y149.14 E298.38874
G1 X129.32 Y148.97 E298.41671
G1 X129.94 Y148.66 E298.45734
G1 X130.58 Y148.26 E298.50111
G1 X131.42 Y147.63 E298.56187
G1 X132.61 Y146.54 E298.65604
G1 X134.20 Y144.78 E298.79355
G1 X134.69 Y144.19 E298.83800
G1 X135.62 Y142.68 E298.94156
G1 X136.43 Y141.67 E299.01658
G1 X137.24 Y140.86 E299.08312
G1 X137.82 Y140.41 E299.12569
G1 X138.39 Y140.04 E299.16530
G1 X138.97 Y139.75 E299.20286
G1 X139.54 Y139.51 E299.23907
G1 X140.13 Y139.34 E299.27483
G1 X140.92 Y139.18 E299.32169
G1 X141.71 Y139.11 E299.36775
G1 X142.85 Y139.11 E299.43389
G1 X144.62 Y139.16 E299.53664
G1 X144.91 Y139.12 E299.55361
G1 X145.02 Y139.09 E299.56034
G1 X145.10 Y139.05 E299.56541
G1 X145.25 Y138.94 E299.57656
G1 X145.82 Y138.55 E299.61646
G1 X146.24 Y138.36 E299.64350
G1 X146.92 Y138.18 E299.68456
G1 X147.33 Y138.13 E299.70847
G1 X147.86 Y138.13 E299.73887
G1 X148.37 Y138.18 E299.76887
G1 X148.99 Y138.30 E299.80558
G1 X149.82 Y138.54 E299.85569
G1 X151.05 Y138.98 E299.93174
G1 X151.55 Y138.78 E299.96311
G1 X152.63 Y139.89 E300.05299
G1 X152.19 Y140.95 E300.12028
G1 X154.07 Y139.89 E300.24610
G1 X155.34 Y141.56 E300.36827
G1 X155.02 Y141.87 E300.39428
G1 X157.74 Y140.85 E300.56286
G1 X158.58 Y142.50 E300.67057
G1 X160.74 Y141.65 E300.80535
G1 X161.67 Y143.47 E300.92435
G1 X164.08 Y142.75 E301.07064
G1 X164.88 Y144.67 E301.19150
G1 X166.86 Y144.20 E301.31022
G1 X161.09 Y141.06 E301.69181
G1 X153.38 Y132.07 E302.37995
G1 X152.90 Y131.44 E302.42652
G1 X152.49 Y130.76 E302.47253
G1 X152.19 Y130.06 E302.51663
G1 X151.99 Y129.38 E302.55794
G1 X151.90 Y128.91 E302.58596
G1 X151.86 Y128.45 E302.61251
G1 X151.86 Y127.97 E302.64058
G1 X151.98 Y127.17 E302.68782
G1 X152.11 Y126.72 E302.71472
G1 X152.28 Y126.34 E302.73919
G1 X152.49 Y125.97 E302.76358
G1 X152.74 Y125.63 E302.78831
G1 X153.02 Y125.33 E302.81232
G1 X153.36 Y125.05 E302.83776
G1 X153.73 Y124.83 E302.86253
G1 X154.12 Y124.65 E302.88753
G1 X154.55 Y124.53 E302.91368
G1 X154.99 Y124.47 E302.93948
G1 X155.45 Y124.47 E302.96616
G1 X155.91 Y124.54 E302.99325
G1 X156.40 Y124.67 E303.02226
G1 X157.59 Y125.18 E303.09768
G1 X193.29 Y141.26 E305.37378
G1 X194.38 Y141.84 E305.44521
G1 X195.06 Y142.31 E305.49313
G1 X195.64 Y142.82 E305.53841
G1 X196.16 Y143.37 E305.58246
G1 X196.60 Y143.97 E305.62526
G1 X196.96 Y144.59 E305.66730
G1 X197.25 Y145.24 E305.70878
G1 X197.46 Y145.92 E305.74986
G1 X197.61 Y146.60 E305.79056
G1 X197.69 Y147.31 E305.83210
G1 X197.70 Y148.35 E305.89255
G1 X197.60 Y149.41 E305.95452
G1 X197.38 Y150.48 E306.01766
G1 X196.97 Y151.87 E306.10234
G1 X196.26 Y153.58 E306.20969
G1 X195.37 Y155.24 E306.31876
G1 X193.93 Y157.44 E306.47185
G1 X192.83 Y157.70 E306.53783
G1 X192.50 Y157.81 E306.55773
G1 X192.22 Y157.94 E306.57557
G1 X191.99 Y158.09 E306.59188
G1 X191.84 Y158.20 E306.60257
G1 X191.71 Y158.33 E306.61321
G1 X191.60 Y158.46 E306.62294
G1 X191.50 Y158.60 E306.63336
G1 X191.41 Y158.77 E306.64451
G1 X191.33 Y158.96 E306.65603
G1 X191.27 Y159.17 E306.66877
G1 X191.22 Y159.38 E306.68119
G1 X191.19 Y159.75 E306.70337
G1 X191.19 Y160.44 E306.74336
G1 X187.92 Y169.17 E307.28502
G1 X187.91 Y169.17 E307.28507
G1 X187.34 Y170.75 E307.38306
G1 X186.75 Y171.98 E307.46222
G1 X186.16 Y172.97 E307.52916
G1 X185.47 Y173.89 E307.59586
G1 X184.84 Y174.57 E307.65006
G1 X184.14 Y175.17 E307.70355
G1 X183.54 Y175.58 E307.74552
G1 X182.91 Y175.92 E307.78736
G1 X182.24 Y176.20 E307.82964
G1 X181.52 Y176.40 E307.87314
G1 X180.76 Y176.52 E307.91774
G1 X180.00 Y176.55 E307.96200
G1 X166.96 Y176.34 E308.71967
G1 X166.93 Y176.34 E308.72188
G1 X166.26 Y176.28 E308.76082
G1 X165.60 Y176.15 E308.79987
G1 X164.97 Y175.94 E308.83825
G1 X164.41 Y175.65 E308.87495
G1 X163.91 Y175.30 E308.91073
G1 X163.47 Y174.89 E308.94563
G1 X163.10 Y174.44 E308.97936
G1 X162.80 Y173.93 E309.01386
G1 X162.57 Y173.40 E309.04731
G1 X162.42 Y172.85 E309.08014
G1 X162.34 Y172.29 E309.11330
G1 X162.32 Y171.71 E309.14726
G1 X162.37 Y171.13 E309.18099
G1 X162.49 Y170.56 E309.21475
G1 X162.67 Y170.00 E309.24900
G1 X162.92 Y169.45 E309.28387
G1 X163.23 Y168.94 E309.31875
G1 X163.61 Y168.44 E309.35544
G1 X164.05 Y167.98 E309.39236
G1 X164.54 Y167.56 E309.42994
G1 X165.11 Y167.19 E309.46918
G1 X165.73 Y166.88 E309.50968
G1 X166.40 Y166.62 E309.55159
G1 X167.13 Y166.42 E309.59541
G1 X167.88 Y166.30 E309.63971
G1 X173.42 Y165.66 E309.96362
G1 X173.75 Y165.60 E309.98333
G1 X174.01 Y165.52 E309.99927
G1 X174.24 Y165.42 E310.01332
G1 X174.44 Y165.29 E310.02741
G1 X174.62 Y165.14 E310.04084
G1 X174.78 Y164.97 E310.05461
G1 X174.93 Y164.78 E310.06863
G1 X175.06 Y164.57 E310.08301
G1 X175.16 Y164.34 E310.09709
G1 X175.24 Y164.09 E310.11282
G1 X175.30 Y163.83 E310.12840
G1 X175.34 Y163.56 E310.14423
G1 X175.35 Y163.26 E310.16128
G1 X175.34 Y163.00 E310.17688
G1 X175.30 Y162.71 E310.19365
G1 X175.24 Y162.44 E310.20996
G1 X175.15 Y162.18 E310.22582
G1 X175.04 Y161.93 E310.24193
G1 X174.91 Y161.69 E310.25765
G1 X174.75 Y161.47 E310.27331
G1 X174.57 Y161.28 E310.28829
G1 X174.39 Y161.12 E310.30270
G1 X174.16 Y160.96 E310.31885
G1 X173.91 Y160.82 E310.33536
G1 X173.62 Y160.71 E310.35355
G1 X153.23 Y154.12 E311.59899
G1 X152.69 Y154.00 E311.63089
G1 X152.44 Y153.97 E311.64561
G1 X152.22 Y153.98 E311.65881
G1 X152.02 Y154.01 E311.67037
G1 X151.85 Y154.07 E311.68052
G1 X151.70 Y154.14 E311.69024
G1 X151.56 Y154.24 E311.70031
G1 X151.43 Y154.36 E311.71069
G1 X151.30 Y154.51 E311.72235
G1 X151.17 Y154.70 E311.73567
G1 X151.06 Y154.91 E311.74968
G1 X150.96 Y155.15 E311.76426
G1 X150.84 Y155.58 E311.79063
G1 X150.75 Y156.06 E311.81865
G1 X150.72 Y156.60 E311.85039
G1 X150.74 Y157.14 E311.88191
G1 X150.81 Y157.74 E311.91663
G1 X150.98 Y158.53 E311.96391
G1 X151.26 Y159.33 E312.01334
G1 X151.39 Y159.61 E312.03113
G1 X153.50 Y162.36 E312.23233
G1 X154.22 Y163.76 E312.32406
G1 X154.65 Y164.85 E312.39218
G1 X154.95 Y165.93 E312.45734
G1 X155.13 Y167.00 E312.52054
G1 X155.18 Y168.07 E312.58236
G1 X155.13 Y169.12 E312.64353
G1 X154.96 Y170.16 E312.70496
G1 X154.70 Y171.20 E312.76707
G1 X154.24 Y172.47 E312.84584
G1 X153.53 Y174.00 E312.94361
G1 X152.65 Y175.56 E313.04769
G1 X151.68 Y177.00 E313.14863
G1 X150.91 Y177.91 E313.21815
G1 X150.22 Y178.56 E313.27296
G1 X149.65 Y178.99 E313.31488
G1 X149.04 Y179.37 E313.35670
G1 X148.38 Y179.70 E313.39935
G1 X147.67 Y179.98 E313.44355
G1 X146.67 Y180.25 E313.50388
G1 X145.57 Y180.43 E313.56879
G1 X144.06 Y180.53 E313.65668
G1 X142.02 Y180.47 E313.77512
G1 X140.85 Y180.38 E313.84358
G1 X133.78 Y179.31 E314.25900
G1 X118.99 Y176.31 E315.13612
G1 X117.51 Y175.96 E315.22480
G1 X116.29 Y175.53 E315.29989
G1 X115.10 Y174.97 E315.37631
G1 X113.95 Y174.26 E315.45480
G1 X112.85 Y173.40 E315.53585
G1 X111.81 Y172.38 E315.62043
G1 X110.85 Y171.19 E315.70942
G1 X109.98 Y169.82 E315.80363
G1 X109.20 Y168.28 E315.90412
G1 X108.53 Y166.54 E316.01277
G1 X107.84 Y164.10 E316.15971
G1 X107.41 Y161.89 E316.29057
G1 X107.30 Y160.76 E316.35676
G1 X107.30 Y159.63 E316.42249
G1 X107.42 Y158.52 E316.48738
G1 X107.66 Y157.44 E316.55175
G1 X107.99 Y156.39 E316.61549
G1 X108.42 Y155.39 E316.67884
G1 X108.94 Y154.44 E316.74176
G1 X109.54 Y153.55 E316.80438
G1 X110.22 Y152.72 E316.86672
G1 X110.98 Y151.96 E316.92886
G1 X111.80 Y151.28 E316.99090
G0 F12000 X112.08 Y151.66
G1 F2700 X112.92 Y151.10 E317.04943
G1 X113.39 Y150.84 E317.08084
G1 X113.43 Y150.82 E317.08355
G1 X114.59 Y150.31 E317.15694
G1 X115.84 Y149.90 E317.23370
G1 X117.14 Y149.63 E317.31073
G1 X118.72 Y149.43 E317.40335
G1 X120.87 Y149.37 E317.52849
G1 X126.58 Y149.71 E317.86055
G1 X127.13 Y149.80 E317.89299
G1 X127.59 Y149.83 E317.92005
G1 X128.06 Y149.80 E317.94754
G1 X128.53 Y149.72 E317.97530
G1 X129.01 Y149.58 E318.00409
G1 X129.50 Y149.40 E318.03450
G1 X130.18 Y149.06 E318.07830
G1 X130.85 Y148.64 E318.12466
G1 X131.71 Y148.00 E318.18671
G1 X132.94 Y146.87 E318.28421
G1 X134.56 Y145.08 E318.42411
G1 X135.07 Y144.47 E318.47045
G1 X136.00 Y142.94 E318.57430
G1 X136.77 Y141.98 E318.64610
G1 X137.55 Y141.21 E318.70944
G1 X138.09 Y140.79 E318.74923
G1 X138.62 Y140.45 E318.78631
G1 X139.16 Y140.17 E318.82137
G1 X139.70 Y139.95 E318.85506
G1 X140.24 Y139.79 E318.88820
G1 X140.99 Y139.64 E318.93240
G1 X141.73 Y139.57 E318.97578
G1 X142.84 Y139.58 E319.04023
G1 X144.65 Y139.63 E319.14525
G1 X145.01 Y139.58 E319.16627
G1 X145.18 Y139.53 E319.17707
G1 X145.34 Y139.45 E319.18684
G1 X145.52 Y139.32 E319.20012
G1 X146.04 Y138.96 E319.23706
G1 X146.40 Y138.80 E319.25946
G1 X147.01 Y138.64 E319.29636
G1 X147.36 Y138.60 E319.31682
G1 X147.84 Y138.60 E319.34449
G1 X148.30 Y138.64 E319.37175
G1 X148.88 Y138.75 E319.40585
G1 X149.67 Y138.99 E319.45398
G1 X151.06 Y139.48 E319.53938
G1 X151.44 Y139.33 E319.56292
G1 X152.08 Y139.99 E319.61680
G1 X151.23 Y142.02 E319.74460
G1 X151.19 Y142.05 E319.74782
G1 X153.94 Y140.49 E319.93189
G1 X154.72 Y141.51 E320.00629
G1 X153.30 Y142.88 E320.12105
G1 X153.14 Y143.03 E320.13384
G1 X153.32 Y143.00 E320.14462
G1 X157.51 Y141.43 E320.40448
G1 X158.08 Y142.55 E320.47760
G1 X156.30 Y143.90 E320.60738
G1 X160.51 Y142.24 E320.87050
G1 X161.12 Y143.41 E320.94711
G1 X159.02 Y144.74 E321.09130
G1 X163.81 Y143.32 E321.38161
G1 X164.31 Y144.52 E321.45745
G1 X161.86 Y145.88 E321.62015
G1 X167.76 Y144.46 E321.97303
G1 X168.20 Y145.69 E322.04921
G1 X165.70 Y146.87 E322.20974
G1 X170.98 Y145.90 E322.52142
G1 X161.39 Y140.69 E323.15560
G1 X153.75 Y131.78 E323.83802
G1 X153.28 Y131.18 E323.88230
G1 X152.91 Y130.54 E323.92505
G1 X152.62 Y129.90 E323.96577
G1 X152.44 Y129.27 E324.00388
G1 X152.36 Y128.84 E324.02923
G1 X152.32 Y128.43 E324.05333
G1 X152.32 Y128.00 E324.07815
G1 X152.43 Y127.27 E324.12133
G1 X152.55 Y126.88 E324.14477
G1 X152.70 Y126.54 E324.16633
G1 X152.88 Y126.23 E324.18752
G1 X153.10 Y125.93 E324.20905
G1 X153.34 Y125.67 E324.22973
G1 X153.63 Y125.43 E324.25149
G1 X153.94 Y125.24 E324.27266
G1 X154.28 Y125.09 E324.29391
G1 X154.65 Y124.99 E324.31615
G1 X155.02 Y124.94 E324.33831
G1 X155.42 Y124.94 E324.36138
G1 X155.82 Y124.99 E324.38495
G1 X156.24 Y125.11 E324.41017
G1 X157.40 Y125.61 E324.48343
G1 X193.09 Y141.68 E326.75847
G1 X194.13 Y142.24 E326.82735
G1 X194.77 Y142.68 E326.87227
G1 X195.32 Y143.15 E326.91459
G1 X195.80 Y143.67 E326.95567
G1 X196.21 Y144.22 E326.99544
G1 X196.55 Y144.80 E327.03451
G1 X196.81 Y145.41 E327.07300
G1 X197.01 Y146.04 E327.11129
G1 X197.15 Y146.68 E327.14937
G1 X197.22 Y147.34 E327.18828
G1 X197.24 Y148.33 E327.24582
G1 X197.13 Y149.34 E327.30493
G1 X196.93 Y150.37 E327.36546
G1 X196.53 Y151.72 E327.44747
G1 X195.84 Y153.38 E327.55209
G1 X194.97 Y155.00 E327.65867
G1 X193.64 Y157.03 E327.79974
G1 X192.69 Y157.25 E327.85640
G1 X192.33 Y157.38 E327.87890
G1 X192.01 Y157.53 E327.89944
G1 X191.72 Y157.71 E327.91940
G1 X191.54 Y157.85 E327.93265
G1 X191.37 Y158.01 E327.94589
G1 X191.23 Y158.17 E327.95859
G1 X191.10 Y158.37 E327.97226
G1 X190.99 Y158.56 E327.98521
G1 X190.89 Y158.80 E328.00006
G1 X190.82 Y159.05 E328.01553
G1 X190.76 Y159.31 E328.03061
G1 X190.72 Y159.73 E328.05543
G1 X190.72 Y160.36 E328.09187
G1 X187.48 Y169.00 E328.62821
G1 X187.48 Y169.00 E328.62827
G1 X186.91 Y170.57 E328.72559
G1 X186.34 Y171.76 E328.80218
G1 X185.77 Y172.71 E328.86646
G1 X185.12 Y173.59 E328.93029
G1 X184.51 Y174.23 E328.98153
G1 X183.85 Y174.80 E329.03210
G1 X183.30 Y175.18 E329.07110
G1 X182.71 Y175.50 E329.11005
G1 X182.09 Y175.76 E329.14936
G1 X181.42 Y175.94 E329.18968
G1 X180.71 Y176.05 E329.23116
G1 X179.99 Y176.08 E329.27304
G1 X166.97 Y175.87 E330.02995
G1 X166.94 Y175.87 E330.03158
G1 X166.32 Y175.82 E330.06784
G1 X165.72 Y175.70 E330.10351
G1 X165.16 Y175.51 E330.13814
G1 X164.65 Y175.25 E330.17108
G1 X164.20 Y174.94 E330.20297
G1 X163.81 Y174.57 E330.23401
G1 X163.49 Y174.17 E330.26401
G1 X163.22 Y173.72 E330.29473
G1 X163.01 Y173.24 E330.32465
G1 X162.88 Y172.75 E330.35404
G1 X162.80 Y172.25 E330.38396
G1 X162.78 Y171.72 E330.41466
G1 X162.83 Y171.19 E330.44518
G1 X162.94 Y170.68 E330.47585
G1 X163.10 Y170.17 E330.50704
G1 X163.33 Y169.67 E330.53891
G1 X163.61 Y169.20 E330.57076
G1 X163.96 Y168.74 E330.60435
G1 X164.37 Y168.32 E330.63830
G1 X164.82 Y167.94 E330.67284
G1 X165.34 Y167.59 E330.70901
G1 X165.92 Y167.30 E330.74660
G1 X166.55 Y167.06 E330.78566
G1 X167.23 Y166.88 E330.82676
G1 X167.95 Y166.76 E330.86905
G1 X173.49 Y166.12 E331.19308
G1 X173.86 Y166.05 E331.21521
G1 X174.18 Y165.95 E331.23431
G1 X174.46 Y165.82 E331.25278
G1 X174.71 Y165.67 E331.26946
G1 X174.94 Y165.48 E331.28689
G1 X175.14 Y165.27 E331.30382
G1 X175.31 Y165.05 E331.32025
G1 X175.47 Y164.78 E331.33823
G1 X175.59 Y164.52 E331.35499
G1 X175.69 Y164.21 E331.37377
G1 X175.76 Y163.92 E331.39139
G1 X175.81 Y163.60 E331.41016
G1 X175.82 Y163.27 E331.42907
G1 X175.81 Y162.95 E331.44775
G1 X175.76 Y162.62 E331.46693
G1 X175.69 Y162.32 E331.48514
G1 X175.58 Y162.00 E331.50438
G1 X175.46 Y161.72 E331.52265
G1 X175.30 Y161.44 E331.54136
G1 X175.12 Y161.19 E331.55911
G1 X174.90 Y160.95 E331.57796
G1 X174.67 Y160.74 E331.59582
G1 X174.40 Y160.56 E331.61495
G1 X174.11 Y160.40 E331.63429
G1 X173.78 Y160.27 E331.65491
G1 X153.36 Y153.68 E332.90174
G1 X152.77 Y153.54 E332.93735
G1 X152.47 Y153.50 E332.95494
G1 X152.17 Y153.51 E332.97244
G1 X151.91 Y153.56 E332.98754
G1 X151.68 Y153.63 E333.00178
G1 X151.47 Y153.74 E333.01540
G1 X151.28 Y153.87 E333.02891
G1 X151.09 Y154.04 E333.04340
G1 X150.92 Y154.23 E333.05819
G1 X150.77 Y154.46 E333.07404
G1 X150.64 Y154.71 E333.09084
G1 X150.52 Y155.00 E333.10911
G1 X150.38 Y155.47 E333.13755
G1 X150.29 Y156.00 E333.16893
G1 X150.25 Y156.58 E333.20242
G1 X150.27 Y157.19 E333.23800
G1 X150.35 Y157.81 E333.27436
G1 X150.53 Y158.66 E333.32480
G1 X150.83 Y159.51 E333.37706
G1 X150.99 Y159.85 E333.39907
G1 X153.10 Y162.61 E333.60101
G1 X153.80 Y163.95 E333.68890
G1 X154.21 Y165.00 E333.75427
G1 X154.50 Y166.03 E333.81654
G1 X154.66 Y167.06 E333.87679
G1 X154.72 Y168.07 E333.93569
G1 X154.66 Y169.07 E333.99402
G1 X154.51 Y170.07 E334.05279
G1 X154.25 Y171.06 E334.11232
G1 X153.81 Y172.30 E334.18862
G1 X153.12 Y173.79 E334.28410
G1 X152.26 Y175.31 E334.38604
G1 X151.31 Y176.72 E334.48439
G1 X150.57 Y177.59 E334.55090
G1 X149.92 Y178.20 E334.60275
G1 X149.38 Y178.61 E334.64202
G1 X148.81 Y178.97 E334.68130
G1 X148.19 Y179.27 E334.72136
G1 X147.53 Y179.53 E334.76295
G1 X146.57 Y179.79 E334.82044
G1 X145.51 Y179.96 E334.88264
