;-- START GCODE --
;Sliced for Type A Machines Series 1
;Sliced at: Thu 03-09-2015 14:53:01
;Basic settings: Layer height: 0.3 Walls: 1.4 Fill: 25
;Print Speed: 50 Support: 0
;Retraction Speed: 40 Retraction Distance: 1.2
;Print time: #P_TIME#
;Filament used: #F_AMNT#m #F_WGHT#g
;Filament cost: #F_COST#
M106 S255	 ;start with the fan on
G21        ;metric values
G90        ;absolute positioning
M106 S255    ;start with the fan on
G28     ;move to endstops
G29		;allows for auto-levelling
G1 X150 Y5  Z15.0 F12000 ;center and move the platform down 15mm
M109 S220 ;Heat To temp
G92 E0                  ;zero the extruded length
G1 F200 E30              ;extrude 30mm of feed stock
G92 E0                  ;zero the extruded length again
G1 X175 Y25  Z0 F12000 ;remove bugger
G1 X220 F12000 ;remove bugger
G1 X150 Y150  Z15 F12000 ;recenter and begin
G1 F12000

;Layer count: 58
;LAYER:0
M106 S255
G0 F12000 X142.42 Y116.72 Z0.30
;TYPE:SKIRT
G1 F2700 X149.78 Y116.69 E0.42761
G1 X150.80 Y116.69 E0.48707
G1 X153.35 Y116.69 E0.63505
G1 X159.59 Y116.69 E0.99813
G1 X160.37 Y116.69 E1.04330
G1 X160.99 Y116.69 E1.07910
G1 X160.99 Y116.69 E1.07922
G1 X164.64 Y116.70 E1.29136
G1 X169.43 Y116.69 E1.56983
G1 X171.49 Y116.70 E1.68985
G1 X172.78 Y116.41 E1.76629
G1 X176.29 Y117.41 E1.97849
G1 X179.55 Y119.36 E2.19945
G1 X181.52 Y122.64 E2.42163
G1 X182.22 Y125.17 E2.57420
G1 X182.21 Y132.19 E2.98245
G1 X182.21 Y133.81 E3.07637
G1 X182.21 Y134.42 E3.11200
G1 X182.13 Y135.38 E3.16778
G1 X182.23 Y135.48 E3.17625
G1 X182.23 Y136.28 E3.22275
G1 X182.43 Y136.48 E3.23919
G1 X182.43 Y146.44 E3.81837
G1 X184.03 Y146.71 E3.91264
G1 X184.03 Y160.64 E4.72199
G1 X181.55 Y163.12 E4.92625
G1 X181.55 Y163.64 E4.95642
G1 X181.57 Y163.99 E4.97656
G1 X181.44 Y166.05 E5.09695
G1 X181.19 Y167.89 E5.20489
G1 X180.80 Y169.71 E5.31266
G1 X180.29 Y171.49 E5.42059
G1 X179.65 Y173.24 E5.52859
G1 X178.89 Y174.93 E5.63623
G1 X178.16 Y176.27 E5.72520
G1 X178.01 Y176.56 E5.74410
G1 X177.01 Y178.13 E5.85224
G1 X175.91 Y179.61 E5.95969
G1 X174.96 Y180.72 E6.04472
G1 X174.71 Y181.01 E6.06691
G1 X173.39 Y182.34 E6.17590
G1 X171.99 Y183.56 E6.28333
G1 X170.51 Y184.68 E6.39110
G1 X168.96 Y185.68 E6.49901
G1 X167.56 Y186.45 E6.59128
G1 X167.25 Y186.61 E6.61163
G1 X165.63 Y187.35 E6.71518
G1 X163.90 Y188.00 E6.82270
G1 X162.12 Y188.53 E6.93069
G1 X160.32 Y188.93 E7.03797
G1 X159.21 Y189.09 E7.10323
G1 X158.37 Y189.17 E7.15234
G1 X156.71 Y189.33 E7.24885
G1 X154.66 Y189.33 E7.36789
G1 X153.03 Y189.18 E7.46317
G1 X152.23 Y189.10 E7.51005
G1 X151.08 Y188.93 E7.57769
G1 X149.26 Y188.54 E7.68556
G1 X147.49 Y188.01 E7.79328
G1 X145.75 Y187.36 E7.90115
G1 X144.06 Y186.59 E8.00914
G1 X142.75 Y185.87 E8.09573
G1 X142.46 Y185.72 E8.11503
G1 X140.87 Y184.69 E8.22502
G1 X139.39 Y183.57 E8.33253
G1 X138.29 Y182.61 E8.41793
G1 X138.02 Y182.39 E8.43797
G1 X136.68 Y181.03 E8.54865
G1 X135.48 Y179.63 E8.65609
G1 X134.37 Y178.14 E8.76401
G1 X133.37 Y176.58 E8.87175
G1 X132.63 Y175.21 E8.96205
G1 X132.47 Y174.90 E8.98246
G1 X131.72 Y173.25 E9.08795
G1 X131.08 Y171.51 E9.19568
G1 X130.57 Y169.73 E9.30346
G1 X130.19 Y167.91 E9.41111
G1 X129.93 Y166.07 E9.51908
G1 X129.85 Y164.78 E9.59421
G1 X129.81 Y164.44 E9.61434
G1 X129.82 Y162.91 E9.70321
G1 X127.57 Y162.00 E9.84440
G1 X122.15 Y159.81 E10.18398
G1 X121.40 Y148.45 E10.84557
G1 X126.24 Y145.69 E11.16908
G1 X126.72 Y142.37 E11.36398
G1 X131.94 Y140.89 E11.67913
G1 X133.17 Y137.78 E11.87346
G1 X138.31 Y137.62 E12.17271
G1 X138.76 Y136.99 E12.21784
G1 X138.76 Y129.57 E12.64876
G1 X139.86 Y129.57 E12.71299
G1 X139.86 Y126.49 E12.89218
G1 X139.89 Y125.49 E12.95032
G1 X140.10 Y124.07 E13.03347
G1 X142.42 Y116.72 E13.48181
G0 F12000 X142.76 Y117.18
G1 F2700 X149.78 Y117.15 E13.88966
G1 X150.80 Y117.15 E13.94900
G1 X153.25 Y117.15 E14.09146
G1 X159.59 Y117.15 E14.46001
G1 X160.42 Y117.16 E14.50785
G1 X160.61 Y117.16 E14.51895
G1 X160.61 Y117.16 E14.51900
G1 X164.64 Y117.17 E14.75324
G1 X169.43 Y117.16 E15.03164
G1 X171.55 Y117.16 E15.15475
G1 X172.76 Y116.89 E15.22726
G1 X176.10 Y117.84 E15.42899
G1 X179.21 Y119.70 E15.63960
G1 X181.09 Y122.83 E15.85136
G1 X181.75 Y125.23 E15.99651
G1 X181.74 Y132.19 E16.40104
G1 X181.75 Y133.81 E16.49514
G1 X181.75 Y134.40 E16.52955
G1 X181.65 Y135.50 E16.59366
G1 X181.64 Y135.55 E16.59646
G1 X181.77 Y135.67 E16.60673
G1 X181.77 Y136.47 E16.65323
G1 X181.97 Y136.67 E16.66967
G1 X181.97 Y146.84 E17.26060
G1 X183.57 Y147.11 E17.35487
G1 X183.57 Y160.44 E18.13004
G1 X181.08 Y162.93 E18.33447
G1 X181.09 Y163.66 E18.37672
G1 X181.10 Y163.99 E18.39582
G1 X180.97 Y166.01 E18.51353
G1 X180.73 Y167.81 E18.61953
G1 X180.35 Y169.59 E18.72540
G1 X179.85 Y171.35 E18.83138
G1 X179.22 Y173.06 E18.93739
G1 X178.47 Y174.72 E19.04314
G1 X177.75 Y176.05 E19.13112
G1 X177.61 Y176.32 E19.14908
G1 X176.63 Y177.86 E19.25519
G1 X175.54 Y179.32 E19.36077
G1 X174.60 Y180.42 E19.44502
G1 X174.37 Y180.70 E19.46609
G1 X173.07 Y182.00 E19.57303
G1 X171.70 Y183.20 E19.67857
G1 X170.25 Y184.29 E19.78439
G1 X168.72 Y185.28 E19.89036
G1 X167.34 Y186.04 E19.98148
G1 X167.05 Y186.20 E20.00085
G1 X165.46 Y186.93 E20.10262
G1 X163.75 Y187.56 E20.20821
G1 X162.00 Y188.08 E20.31427
G1 X160.23 Y188.47 E20.41964
G1 X159.15 Y188.63 E20.48326
G1 X158.32 Y188.71 E20.53166
G1 X156.69 Y188.86 E20.62689
G1 X154.69 Y188.86 E20.74337
G1 X153.08 Y188.71 E20.83736
G1 X152.28 Y188.63 E20.88361
G1 X151.16 Y188.47 E20.94960
G1 X149.38 Y188.09 E21.05550
G1 X147.63 Y187.57 E21.16131
G1 X145.93 Y186.93 E21.26724
G1 X144.27 Y186.17 E21.37325
G1 X142.98 Y185.46 E21.45904
G1 X142.70 Y185.31 E21.47740
G1 X141.14 Y184.31 E21.58525
G1 X139.69 Y183.21 E21.69088
G1 X138.60 Y182.27 E21.77451
G1 X138.34 Y182.04 E21.79447
G1 X137.03 Y180.72 E21.90301
G1 X135.84 Y179.34 E22.00860
G1 X134.75 Y177.88 E22.11457
G1 X133.78 Y176.34 E22.22033
G1 X133.04 Y174.99 E22.30963
G1 X132.89 Y174.70 E22.32901
G1 X132.15 Y173.07 E22.43265
G1 X131.53 Y171.36 E22.53843
G1 X131.02 Y169.61 E22.64428
G1 X130.65 Y167.84 E22.74998
G1 X130.40 Y166.03 E22.85600
G1 X130.31 Y164.73 E22.93143
G1 X130.28 Y164.41 E22.95004
G1 X130.29 Y162.60 E23.05565
G1 X127.74 Y161.57 E23.21530
G1 X122.60 Y159.48 E23.53783
G1 X121.89 Y148.71 E24.16546
G1 X126.67 Y145.99 E24.48527
G1 X127.14 Y142.74 E24.67588
G1 X132.28 Y141.28 E24.98680
G1 X133.49 Y138.24 E25.17675
G1 X138.56 Y138.08 E25.47181
G1 X139.22 Y137.13 E25.53897
G1 X139.22 Y130.04 E25.95141
G1 X140.33 Y130.04 E26.01563
G1 X140.33 Y126.50 E26.22150
G1 X140.36 Y125.53 E26.27773
G1 X140.55 Y124.18 E26.35712
G1 X142.76 Y117.18 E26.78351
G0 F12000 X143.11 Y117.65
G1 F2700 X149.78 Y117.62 E27.17154
G1 X150.80 Y117.62 E27.23082
G1 X153.94 Y117.62 E27.41344
G1 X159.59 Y117.62 E27.74183
G1 X160.15 Y117.62 E27.77415
G1 X160.23 Y117.62 E27.77868
G1 X164.64 Y117.64 E28.03494
G1 X169.43 Y117.62 E28.31341
G1 X171.59 Y117.63 E28.43936
G1 X172.75 Y117.37 E28.50812
G1 X175.92 Y118.27 E28.69947
G1 X178.87 Y120.04 E28.89968
G1 X180.65 Y123.01 E29.10098
G1 X181.29 Y125.29 E29.23877
G1 X181.28 Y132.19 E29.63958
G1 X181.28 Y133.81 E29.73391
G1 X181.28 Y134.38 E29.76698
G1 X181.19 Y135.43 E29.82830
G1 X181.13 Y135.70 E29.84410
G1 X181.30 Y135.87 E29.85783
G1 X181.30 Y136.67 E29.90432
G1 X181.50 Y136.87 E29.92076
G1 X181.50 Y146.65 E30.48943
G1 X181.30 Y146.85 E30.50587
G1 X181.30 Y147.05 E30.51749
G1 X181.17 Y147.18 E30.52818
G1 X183.10 Y147.50 E30.64190
G1 X183.10 Y160.25 E31.38289
G1 X180.61 Y162.74 E31.58740
G1 X180.62 Y163.66 E31.64116
G1 X180.64 Y163.98 E31.65980
G1 X180.51 Y165.96 E31.77495
G1 X180.27 Y167.73 E31.87895
G1 X179.90 Y169.48 E31.98286
G1 X179.40 Y171.20 E32.08693
G1 X178.79 Y172.88 E32.19100
G1 X178.05 Y174.51 E32.29477
G1 X177.34 Y175.83 E32.38182
G1 X177.21 Y176.09 E32.39887
G1 X176.24 Y177.60 E32.50297
G1 X175.18 Y179.03 E32.60659
G1 X174.21 Y180.17 E32.69352
G1 X174.02 Y180.38 E32.71005
G1 X172.75 Y181.66 E32.81494
G1 X171.41 Y182.84 E32.91858
G1 X169.98 Y183.91 E33.02246
G1 X168.48 Y184.88 E33.12652
G1 X167.12 Y185.63 E33.21645
G1 X166.84 Y185.78 E33.23478
G1 X165.28 Y186.49 E33.33481
G1 X163.61 Y187.12 E33.43849
G1 X161.89 Y187.63 E33.54260
G1 X160.15 Y188.01 E33.64606
G1 X159.09 Y188.16 E33.70804
G1 X158.28 Y188.24 E33.75580
G1 X156.67 Y188.40 E33.84969
G1 X154.71 Y188.40 E33.96361
G1 X153.12 Y188.25 E34.05632
G1 X152.34 Y188.17 E34.10186
G1 X151.24 Y188.01 E34.16627
G1 X149.50 Y187.63 E34.27021
G1 X147.78 Y187.13 E34.37412
G1 X146.11 Y186.50 E34.47807
G1 X144.48 Y185.75 E34.58216
G1 X143.25 Y185.08 E34.66352
G1 X142.93 Y184.91 E34.68448
G1 X141.41 Y183.92 E34.79027
G1 X139.98 Y182.85 E34.89392
G1 X138.88 Y181.89 E34.97862
G1 X138.66 Y181.70 E34.99581
G1 X137.37 Y180.40 E35.10222
G1 X136.20 Y179.05 E35.20583
G1 X135.14 Y177.62 E35.30984
G1 X134.18 Y176.11 E35.41375
G1 X133.45 Y174.77 E35.50191
G1 X133.31 Y174.49 E35.52034
G1 X132.59 Y172.90 E35.62209
G1 X131.97 Y171.22 E35.72590
G1 X131.48 Y169.50 E35.82988
G1 X131.11 Y167.75 E35.93365
G1 X130.86 Y165.98 E36.03769
G1 X130.78 Y164.68 E36.11370
G1 X130.74 Y164.39 E36.13044
G1 X130.75 Y162.41 E36.24576
G1 X130.76 Y162.29 E36.25264
G1 X127.92 Y161.14 E36.43117
G1 X123.05 Y159.16 E36.73670
G1 X122.37 Y148.97 E37.33042
G1 X127.10 Y146.28 E37.64644
G1 X127.56 Y143.11 E37.83271
G1 X132.63 Y141.66 E38.13945
G1 X133.81 Y138.70 E38.32502
G1 X138.81 Y138.54 E38.61578
G1 X139.69 Y137.28 E38.70505
G1 X139.69 Y130.50 E39.09894
G1 X140.80 Y130.50 E39.16317
G1 X140.80 Y126.50 E39.39571
G1 X140.82 Y125.57 E39.45002
G1 X141.01 Y124.28 E39.52560
G1 X143.11 Y117.65 E39.93004
G0 F12000 X143.45 Y118.11
G1 F2700 X149.78 Y118.08 E40.29825
G1 X150.80 Y118.08 E40.35753
G1 X153.82 Y118.08 E40.53277
G1 X159.59 Y118.08 E40.86843
G1 X164.64 Y118.10 E41.16160
G1 X169.43 Y118.09 E41.44006
G1 X171.65 Y118.10 E41.56892
G1 X172.74 Y117.85 E41.63394
G1 X175.73 Y118.70 E41.81484
G1 X178.53 Y120.38 E42.00465
G1 X180.22 Y123.20 E42.19553
G1 X180.82 Y125.36 E42.32588
G1 X180.81 Y132.19 E42.72303
G1 X180.81 Y133.81 E42.81748
G1 X180.82 Y134.36 E42.84933
G1 X180.73 Y135.37 E42.90779
G1 X180.63 Y135.81 E42.93421
G1 X180.63 Y135.86 E42.93706
G1 X180.84 Y136.06 E42.95350
G1 X180.84 Y136.86 E43.00000
G1 X181.03 Y137.06 E43.01644
G1 X181.03 Y146.46 E43.56267
G1 X180.84 Y146.66 E43.57911
G1 X180.84 Y146.86 E43.59073
G1 X180.63 Y147.06 E43.60717
G1 X180.63 Y147.46 E43.63042
G1 X180.62 Y147.47 E43.63141
G1 X180.64 Y147.56 E43.63700
G1 X182.63 Y147.90 E43.75466
G1 X182.63 Y160.06 E44.46148
G1 X180.15 Y162.55 E44.66607
G1 X180.16 Y163.69 E44.73228
G1 X180.17 Y163.98 E44.74957
G1 X180.05 Y165.91 E44.86204
G1 X179.81 Y167.65 E44.96411
G1 X179.44 Y169.37 E45.06611
G1 X178.96 Y171.06 E45.16818
G1 X178.35 Y172.71 E45.27034
G1 X177.64 Y174.31 E45.37219
G1 X176.93 Y175.61 E45.45819
G1 X176.80 Y175.85 E45.47434
G1 X175.86 Y177.34 E45.57647
G1 X174.82 Y178.74 E45.67818
G1 X173.89 Y179.82 E45.76090
G1 X173.89 Y179.82 E45.76096
G1 X173.68 Y180.07 E45.77988
G1 X172.43 Y181.32 E45.88271
G1 X171.11 Y182.47 E45.98442
G1 X169.71 Y183.53 E46.08634
G1 X168.24 Y184.48 E46.18844
G1 X166.90 Y185.22 E46.27725
G1 X166.63 Y185.36 E46.29460
G1 X165.10 Y186.06 E46.39285
G1 X163.46 Y186.68 E46.49460
G1 X161.77 Y187.18 E46.59671
G1 X160.07 Y187.55 E46.69828
G1 X159.04 Y187.70 E46.75866
G1 X158.23 Y187.78 E46.80572
G1 X156.65 Y187.93 E46.89839
G1 X154.73 Y187.93 E47.00969
G1 X153.16 Y187.78 E47.10111
G1 X152.40 Y187.71 E47.14601
G1 X151.33 Y187.56 E47.20879
G1 X149.61 Y187.18 E47.31082
G1 X147.93 Y186.69 E47.41273
G1 X146.29 Y186.07 E47.51477
G1 X144.69 Y185.34 E47.61687
G1 X143.39 Y184.63 E47.70292
G1 X143.17 Y184.51 E47.71740
G1 X141.67 Y183.54 E47.82110
G1 X140.27 Y182.49 E47.92284
G1 X139.19 Y181.55 E48.00622
G1 X138.97 Y181.36 E48.02292
G1 X137.71 Y180.09 E48.12723
G1 X136.57 Y178.76 E48.22890
G1 X135.52 Y177.35 E48.33101
G1 X134.58 Y175.87 E48.43293
G1 X133.86 Y174.55 E48.52010
G1 X133.72 Y174.29 E48.53750
G1 X133.02 Y172.72 E48.63737
G1 X132.41 Y171.07 E48.73928
G1 X131.93 Y169.39 E48.84130
G1 X131.57 Y167.67 E48.94313
G1 X131.32 Y165.93 E49.04523
G1 X131.24 Y164.64 E49.12065
G1 X131.21 Y164.36 E49.13675
G1 X131.22 Y162.43 E49.24945
G1 X131.26 Y161.98 E49.27517
G1 X128.09 Y160.71 E49.47356
G1 X123.49 Y158.84 E49.76210
G1 X122.86 Y149.23 E50.32187
G1 X127.53 Y146.57 E50.63421
G1 X127.97 Y143.47 E50.81619
G1 X132.98 Y142.05 E51.11878
G1 X134.13 Y139.15 E51.29985
G1 X139.06 Y139.00 E51.58636
G1 X140.16 Y137.43 E51.69766
G1 X140.16 Y130.97 E52.07313
G1 X141.26 Y130.97 E52.13735
G1 X141.26 Y126.51 E52.39658
G1 X141.29 Y125.61 E52.44897
G1 X141.47 Y124.39 E52.52079
G1 X143.45 Y118.11 E52.90323
G0 F12000 X143.79 Y118.58
G1 F2700 X149.78 Y118.55 E53.25162
G1 X150.80 Y118.55 E53.31084
G1 X153.69 Y118.55 E53.47876
G1 X159.59 Y118.55 E53.82168
G1 X164.64 Y118.57 E54.11491
G1 X169.43 Y118.55 E54.39337
G1 X171.70 Y118.56 E54.52525
G1 X172.72 Y118.33 E54.58634
G1 X175.54 Y119.13 E54.75679
G1 X178.19 Y120.72 E54.93622
G1 X179.79 Y123.38 E55.11662
G1 X180.35 Y125.42 E55.23961
G1 X180.35 Y132.19 E55.63304
G1 X180.35 Y133.82 E55.72767
G1 X180.35 Y134.34 E55.75830
G1 X180.27 Y135.30 E55.81390
G1 X180.15 Y135.84 E55.84591
G1 X180.17 Y135.85 E55.84723
G1 X180.17 Y136.05 E55.85885
G1 X180.37 Y136.25 E55.87529
G1 X180.37 Y137.05 E55.92179
G1 X180.57 Y137.25 E55.93823
G1 X180.57 Y146.26 E56.46202
G1 X180.37 Y146.46 E56.47846
G1 X180.37 Y146.66 E56.49009
G1 X180.17 Y146.86 E56.50653
G1 X180.17 Y147.26 E56.52977
G1 X180.12 Y147.31 E56.53356
G1 X180.23 Y147.97 E56.57232
G1 X182.17 Y148.29 E56.68645
G1 X182.17 Y159.86 E57.35915
G1 X179.67 Y162.36 E57.56424
G1 X179.68 Y162.43 E57.56826
G1 X179.69 Y163.69 E57.64138
G1 X179.71 Y163.98 E57.65849
G1 X179.58 Y165.87 E57.76834
G1 X179.35 Y167.57 E57.86848
G1 X178.99 Y169.26 E57.96852
G1 X178.52 Y170.91 E58.06865
G1 X177.92 Y172.53 E58.16883
G1 X177.22 Y174.10 E58.26878
G1 X176.52 Y175.39 E58.35384
G1 X176.40 Y175.62 E58.36908
G1 X175.47 Y177.07 E58.46914
G1 X174.45 Y178.45 E58.56899
G1 X173.50 Y179.56 E58.65394
G1 X173.34 Y179.75 E58.66870
G1 X172.11 Y180.98 E58.76952
G1 X170.82 Y182.11 E58.86929
G1 X169.44 Y183.15 E58.96926
G1 X168.00 Y184.08 E59.06942
G1 X166.68 Y184.81 E59.15706
G1 X166.43 Y184.94 E59.17344
G1 X164.92 Y185.63 E59.26991
G1 X163.31 Y186.24 E59.36974
G1 X161.66 Y186.72 E59.46992
G1 X159.98 Y187.09 E59.56957
G1 X158.98 Y187.24 E59.62832
G1 X158.19 Y187.31 E59.67473
G1 X156.62 Y187.46 E59.76605
G1 X154.75 Y187.47 E59.87480
G1 X153.21 Y187.32 E59.96488
G1 X152.45 Y187.25 E60.00914
G1 X151.41 Y187.10 E60.07033
G1 X149.73 Y186.73 E60.17040
G1 X148.08 Y186.24 E60.27036
G1 X146.47 Y185.64 E60.37047
G1 X144.90 Y184.92 E60.47067
G1 X143.65 Y184.24 E60.55342
G1 X143.41 Y184.11 E60.56941
G1 X141.94 Y183.16 E60.67096
G1 X140.57 Y182.12 E60.77078
G1 X139.54 Y181.23 E60.84979
G1 X139.29 Y181.02 E60.86913
G1 X138.05 Y179.77 E60.97126
G1 X136.93 Y178.47 E61.07104
G1 X135.90 Y177.09 E61.17115
G1 X134.98 Y175.63 E61.27118
G1 X134.28 Y174.33 E61.35729
G1 X134.14 Y174.08 E61.37370
G1 X133.45 Y172.54 E61.47167
G1 X132.86 Y170.93 E61.57166
G1 X132.38 Y169.28 E61.67170
G1 X132.03 Y167.59 E61.77163
G1 X131.79 Y165.89 E61.87179
G1 X131.71 Y164.61 E61.94605
G1 X131.67 Y164.34 E61.96208
G1 X131.69 Y162.44 E62.07211
G1 X131.75 Y161.68 E62.11677
G1 X128.26 Y160.28 E62.33496
G1 X123.94 Y158.52 E62.60655
G1 X123.34 Y149.49 E63.13241
G1 X127.96 Y146.86 E63.44106
G1 X128.39 Y143.84 E63.61869
G1 X133.33 Y142.44 E63.91704
G1 X134.45 Y139.61 E64.09374
G1 X139.30 Y139.45 E64.37595
G1 X140.62 Y137.57 E64.50948
G1 X140.62 Y131.44 E64.86629
G1 X141.73 Y131.44 E64.93052
G1 X141.73 Y126.52 E65.21648
G1 X141.75 Y125.65 E65.26689
G1 X141.92 Y124.49 E65.33496
G1 X143.79 Y118.58 E65.69545
G0 F12000 X144.13 Y119.04
G1 F2700 X149.78 Y119.02 E66.02402
G1 X150.80 Y119.02 E66.08319
G1 X153.56 Y119.02 E66.24372
G1 X159.59 Y119.02 E66.59396
G1 X164.64 Y119.03 E66.88725
G1 X169.43 Y119.02 E67.16571
G1 X171.75 Y119.03 E67.30044
G1 X172.71 Y118.81 E67.35778
G1 X175.36 Y119.56 E67.51784
G1 X177.85 Y121.06 E67.68689
G1 X179.36 Y123.57 E67.85688
G1 X179.89 Y125.48 E67.97251
G1 X179.88 Y132.19 E68.36216
G1 X179.88 Y133.82 E68.45702
G1 X179.88 Y134.32 E68.48637
G1 X179.80 Y135.23 E68.53912
G1 X179.65 Y135.99 E68.58418
G1 X179.70 Y136.04 E68.58886
G1 X179.70 Y136.25 E68.60049
G1 X179.90 Y136.44 E68.61693
G1 X179.90 Y137.25 E68.66343
G1 X180.10 Y137.44 E68.67987
G1 X180.10 Y146.07 E69.18123
G1 X179.90 Y146.27 E69.19767
G1 X179.90 Y146.47 E69.20929
G1 X179.70 Y146.67 E69.22573
G1 X179.70 Y147.07 E69.24898
G1 X179.61 Y147.16 E69.25670
G1 X179.65 Y147.27 E69.26316
G1 X179.83 Y148.37 E69.32813
G1 X181.70 Y148.69 E69.43867
G1 X181.70 Y159.67 E70.07720
G1 X179.19 Y162.18 E70.28359
G1 X179.21 Y162.45 E70.29910
G1 X179.22 Y163.72 E70.37327
G1 X179.24 Y163.98 E70.38811
G1 X179.12 Y165.82 E70.49529
G1 X178.89 Y167.49 E70.59348
G1 X178.54 Y169.14 E70.69157
G1 X178.07 Y170.77 E70.78981
G1 X177.49 Y172.35 E70.88802
G1 X176.80 Y173.89 E70.98605
G1 X176.13 Y175.14 E71.06823
G1 X176.00 Y175.38 E71.08443
G1 X175.09 Y176.81 E71.18251
G1 X174.09 Y178.16 E71.28040
G1 X173.18 Y179.22 E71.36155
G1 X172.99 Y179.44 E71.37825
G1 X171.79 Y180.64 E71.47701
G1 X170.53 Y181.75 E71.57484
G1 X169.18 Y182.76 E71.67291
G1 X167.76 Y183.68 E71.77114
G1 X166.46 Y184.40 E71.85763
G1 X166.22 Y184.52 E71.87302
G1 X164.74 Y185.20 E71.96772
G1 X163.16 Y185.79 E72.06562
G1 X161.54 Y186.27 E72.16385
G1 X159.90 Y186.63 E72.26159
G1 X158.93 Y186.78 E72.31870
G1 X158.14 Y186.85 E72.36442
G1 X156.60 Y187.00 E72.45451
G1 X154.77 Y187.00 E72.56070
G1 X153.25 Y186.86 E72.64943
G1 X152.51 Y186.78 E72.69305
G1 X151.49 Y186.64 E72.75260
G1 X149.84 Y186.28 E72.85070
G1 X148.22 Y185.80 E72.94880
G1 X146.64 Y185.21 E73.04692
G1 X145.11 Y184.50 E73.14512
G1 X143.84 Y183.81 E73.22925
G1 X143.64 Y183.71 E73.24209
G1 X142.21 Y182.78 E73.34158
G1 X140.86 Y181.76 E73.43945
G1 X139.82 Y180.86 E73.51962
G1 X139.61 Y180.68 E73.53599
G1 X138.39 Y179.45 E73.63603
G1 X137.30 Y178.18 E73.73387
G1 X136.29 Y176.82 E73.83207
G1 X135.38 Y175.40 E73.93012
G1 X134.69 Y174.11 E74.01519
G1 X134.56 Y173.88 E74.03061
G1 X133.88 Y172.37 E74.12671
G1 X133.30 Y170.78 E74.22479
G1 X132.83 Y169.16 E74.32288
G1 X132.49 Y167.51 E74.42085
G1 X132.25 Y165.84 E74.51907
G1 X132.17 Y164.57 E74.59298
G1 X132.14 Y164.31 E74.60815
G1 X132.15 Y162.47 E74.71550
G1 X132.24 Y161.38 E74.77905
G1 X128.44 Y159.84 E75.01711
G1 X124.38 Y158.19 E75.27170
G1 X123.83 Y149.75 E75.76361
G1 X128.38 Y147.15 E76.06853
G1 X128.81 Y144.20 E76.24183
G1 X133.68 Y142.82 E76.53595
G1 X134.77 Y140.06 E76.70828
G1 X139.55 Y139.91 E76.98625
G1 X141.09 Y137.72 E77.14176
G1 X141.09 Y131.90 E77.48015
G1 X142.19 Y131.90 E77.54437
G1 X142.19 Y126.52 E77.85701
G1 X142.22 Y125.69 E77.90545
G1 X142.38 Y124.59 E77.96981
G1 X144.13 Y119.04 E78.30831
G0 F12000 X144.47 Y119.50
G1 F2700 X149.79 Y119.48 E78.61712
G1 X150.80 Y119.48 E78.67617
G1 X153.44 Y119.48 E78.82938
G1 X159.59 Y119.48 E79.18689
G1 X164.64 Y119.50 E79.48018
G1 X169.43 Y119.48 E79.75870
G1 X171.80 Y119.49 E79.89645
G1 X172.70 Y119.30 E79.94991
G1 X175.17 Y120.00 E80.09946
G1 X177.51 Y121.40 E80.25814
G1 X178.93 Y123.75 E80.41765
G1 X179.42 Y125.55 E80.52592
G1 X179.41 Y132.19 E80.91191
G1 X179.41 Y133.82 E81.00688
G1 X179.42 Y134.31 E81.03501
G1 X179.34 Y135.16 E81.08489
G1 X179.14 Y136.14 E81.14297
G1 X179.24 Y136.24 E81.15111
G1 X179.24 Y136.44 E81.16274
G1 X179.44 Y136.64 E81.17917
G1 X179.44 Y137.44 E81.22567
G1 X179.64 Y137.64 E81.24211
G1 X179.64 Y145.88 E81.72104
G1 X179.44 Y146.08 E81.73748
G1 X179.44 Y146.28 E81.74910
G1 X179.24 Y146.48 E81.76554
G1 X179.24 Y146.88 E81.78879
G1 X179.07 Y147.04 E81.80219
G1 X179.19 Y147.38 E81.82325
G1 X179.37 Y148.49 E81.88824
G1 X179.39 Y148.77 E81.90490
G1 X181.24 Y149.08 E82.01350
G1 X181.24 Y159.48 E82.61785
G1 X178.71 Y162.00 E82.82548
G1 X178.75 Y162.47 E82.85253
G1 X178.76 Y163.74 E82.92623
G1 X178.77 Y163.98 E82.94026
G1 X178.65 Y165.77 E83.04487
G1 X178.43 Y167.41 E83.14107
G1 X178.09 Y169.03 E83.23725
G1 X177.63 Y170.62 E83.33352
G1 X177.06 Y172.18 E83.42980
G1 X176.38 Y173.69 E83.52584
G1 X175.70 Y174.94 E83.60901
G1 X175.59 Y175.15 E83.62238
G1 X174.71 Y176.54 E83.71844
G1 X173.72 Y177.87 E83.81441
G1 X172.79 Y178.95 E83.89738
G1 X172.65 Y179.12 E83.91041
G1 X171.47 Y180.30 E84.00708
G1 X170.23 Y181.39 E84.10302
G1 X168.91 Y182.38 E84.19913
G1 X167.52 Y183.28 E84.29539
G1 X166.23 Y183.99 E84.38077
G1 X166.01 Y184.11 E84.39520
G1 X164.56 Y184.77 E84.48808
G1 X163.01 Y185.35 E84.58405
G1 X161.43 Y185.82 E84.68034
G1 X159.82 Y186.17 E84.77614
G1 X158.87 Y186.31 E84.83165
G1 X158.10 Y186.39 E84.87673
G1 X156.58 Y186.53 E84.96548
G1 X154.80 Y186.53 E85.06911
G1 X153.30 Y186.39 E85.15656
G1 X152.56 Y186.32 E85.19954
G1 X151.58 Y186.18 E85.25743
G1 X149.96 Y185.83 E85.35358
G1 X148.37 Y185.36 E85.44973
G1 X146.82 Y184.78 E85.54592
G1 X145.32 Y184.09 E85.64223
G1 X144.06 Y183.40 E85.72536
G1 X143.88 Y183.30 E85.73735
G1 X142.47 Y182.39 E85.83474
G1 X141.16 Y181.40 E85.93067
G1 X140.08 Y180.46 E86.01376
G1 X139.92 Y180.33 E86.02547
G1 X138.74 Y179.14 E86.12337
G1 X137.66 Y177.88 E86.21931
G1 X136.67 Y176.56 E86.31548
G1 X135.78 Y175.16 E86.41163
G1 X135.10 Y173.89 E86.49568
G1 X134.98 Y173.67 E86.51011
G1 X134.31 Y172.19 E86.60434
G1 X133.74 Y170.64 E86.70047
G1 X133.29 Y169.05 E86.79664
G1 X132.94 Y167.43 E86.89270
G1 X132.72 Y165.79 E86.98893
G1 X132.63 Y164.52 E87.06302
G1 X132.61 Y164.29 E87.07671
G1 X132.62 Y162.49 E87.18145
G1 X132.73 Y161.07 E87.26394
G1 X128.61 Y159.41 E87.52185
G1 X124.83 Y157.87 E87.75939
G1 X124.31 Y150.01 E88.21740
G1 X128.81 Y147.45 E88.51863
G1 X129.23 Y144.57 E88.68757
G1 X134.03 Y143.21 E88.97753
G1 X135.09 Y140.52 E89.14543
G1 X139.80 Y140.37 E89.41909
G1 X141.44 Y138.03 E89.58546
G1 X141.56 Y138.05 E89.59213
G1 X141.56 Y132.37 E89.92267
G1 X142.66 Y132.37 E89.98689
G1 X142.66 Y126.53 E90.32621
G1 X142.68 Y125.73 E90.37272
G1 X142.83 Y124.70 E90.43327
G1 X144.47 Y119.50 E90.74988
G0 F12000 X144.82 Y119.97
G1 F2700 X149.79 Y119.95 E91.03887
G1 X150.80 Y119.95 E91.09786
G1 X153.31 Y119.95 E91.24369
G1 X159.59 Y119.95 E91.60852
G1 X164.64 Y119.97 E91.90193
G1 X169.43 Y119.95 E92.18033
G1 X171.85 Y119.96 E92.32105
G1 X172.68 Y119.78 E92.37070
G1 X174.99 Y120.43 E92.50985
G1 X177.17 Y121.74 E92.65814
G1 X178.49 Y123.94 E92.80723
G1 X178.96 Y125.61 E92.90808
G1 X178.95 Y132.19 E93.29035
G1 X178.95 Y133.82 E93.38555
G1 X178.95 Y134.29 E93.41240
G1 X178.88 Y135.09 E93.45943
G1 X178.64 Y136.24 E93.52735
G1 X178.62 Y136.28 E93.53028
G1 X178.77 Y136.43 E93.54236
G1 X178.77 Y136.63 E93.55399
G1 X178.97 Y136.83 E93.57043
G1 X178.97 Y137.63 E93.61692
G1 X179.17 Y137.83 E93.63336
G1 X179.17 Y145.69 E94.08985
G1 X178.97 Y145.88 E94.10629
G1 X178.97 Y146.09 E94.11792
G1 X178.77 Y146.28 E94.13436
G1 X178.77 Y146.69 E94.15761
G1 X178.54 Y146.92 E94.17659
G1 X178.74 Y147.50 E94.21233
G1 X178.91 Y148.54 E94.27382
G1 X178.96 Y149.17 E94.31059
G1 X180.77 Y149.47 E94.41759
G1 X180.77 Y159.28 E94.98777
G1 X178.23 Y161.83 E95.19667
G1 X178.28 Y162.49 E95.23521
G1 X178.29 Y163.75 E95.30868
G1 X178.30 Y163.98 E95.32178
G1 X178.19 Y165.73 E95.42371
G1 X177.97 Y167.33 E95.51797
G1 X177.63 Y168.92 E95.61220
G1 X177.19 Y170.48 E95.70652
G1 X176.63 Y172.00 E95.80089
G1 X175.96 Y173.48 E95.89496
G1 X175.31 Y174.70 E95.97547
G1 X175.19 Y174.91 E95.98959
G1 X174.32 Y176.28 E96.08364
G1 X173.36 Y177.58 E96.17771
G1 X172.47 Y178.62 E96.25730
G1 X172.30 Y178.81 E96.27185
G1 X171.16 Y179.96 E96.36650
G1 X169.94 Y181.03 E96.46051
G1 X168.64 Y182.00 E96.55471
G1 X167.28 Y182.88 E96.64899
G1 X166.01 Y183.58 E96.73322
G1 X165.81 Y183.69 E96.74667
G1 X164.38 Y184.34 E96.83777
G1 X162.87 Y184.91 E96.93181
G1 X161.31 Y185.37 E97.02618
G1 X159.73 Y185.72 E97.12006
G1 X158.81 Y185.85 E97.17398
G1 X158.06 Y185.92 E97.21830
G1 X156.56 Y186.07 E97.30582
G1 X154.82 Y186.07 E97.40684
G1 X153.34 Y185.93 E97.49301
G1 X152.62 Y185.86 E97.53529
G1 X151.66 Y185.72 E97.59159
G1 X150.07 Y185.37 E97.68584
G1 X148.52 Y184.92 E97.77999
G1 X147.00 Y184.35 E97.87426
G1 X145.53 Y183.67 E97.96857
G1 X144.29 Y182.99 E98.05077
G1 X144.12 Y182.90 E98.06197
G1 X142.74 Y182.01 E98.15722
G1 X141.45 Y181.04 E98.25127
G1 X140.45 Y180.16 E98.32851
G1 X140.24 Y179.99 E98.34431
G1 X139.08 Y178.82 E98.44003
G1 X138.02 Y177.59 E98.53404
G1 X137.06 Y176.29 E98.62830
G1 X136.19 Y174.93 E98.72251
G1 X135.51 Y173.67 E98.80547
G1 X135.40 Y173.47 E98.81891
G1 X134.75 Y172.02 E98.91132
G1 X134.19 Y170.50 E99.00548
G1 X133.74 Y168.94 E99.09972
G1 X133.40 Y167.35 E99.19383
G1 X133.18 Y165.75 E99.28812
G1 X133.10 Y164.48 E99.36197
G1 X133.07 Y164.26 E99.37467
G1 X133.09 Y162.50 E99.47673
G1 X133.21 Y160.89 E99.57100
G1 X133.23 Y160.77 E99.57800
G1 X128.79 Y158.98 E99.85622
G1 X125.27 Y157.55 E100.07673
G1 X124.79 Y150.27 E100.50084
G1 X129.24 Y147.74 E100.79835
G1 X129.65 Y144.93 E100.96301
G1 X134.38 Y143.59 E101.24874
G1 X135.41 Y140.98 E101.41220
G1 X140.04 Y140.83 E101.68156
G1 X141.65 Y138.55 E101.84341
G1 X142.02 Y138.63 E101.86572
G1 X142.02 Y132.83 E102.20283
G1 X143.13 Y132.83 E102.26706
G1 X143.13 Y126.53 E102.63311
G1 X143.15 Y125.77 E102.67765
G1 X143.29 Y124.80 E102.73444
G1 X144.82 Y119.97 E103.02905
G0 F12000 X145.16 Y120.43
G1 F2700 X149.79 Y120.41 E103.29827
G1 X150.80 Y120.41 E103.35721
G1 X153.43 Y120.41 E103.50960
G1 X159.59 Y120.41 E103.86787
G1 X164.64 Y120.43 E104.16121
G1 X169.43 Y120.42 E104.43968
G1 X171.90 Y120.43 E104.58324
G1 X172.67 Y120.25 E104.62915
G1 X174.80 Y120.86 E104.75793
G1 X176.84 Y122.08 E104.89580
G1 X178.06 Y124.12 E105.03441
G1 X178.49 Y125.67 E105.12792
G1 X178.48 Y132.19 E105.50646
G1 X178.48 Y133.83 E105.60184
G1 X178.49 Y134.27 E105.62742
G1 X178.42 Y135.02 E105.67158
G1 X178.19 Y136.11 E105.73588
G1 X178.08 Y136.40 E105.75418
G1 X178.31 Y136.62 E105.77243
G1 X178.31 Y136.82 E105.78406
G1 X178.50 Y137.02 E105.80050
G1 X178.50 Y137.82 E105.84699
G1 X178.71 Y138.02 E105.86343
G1 X178.71 Y145.49 E106.29749
G1 X178.50 Y145.69 E106.31393
G1 X178.50 Y145.89 E106.32555
G1 X178.31 Y146.09 E106.34199
G1 X178.31 Y146.49 E106.36524
G1 X178.00 Y146.79 E106.38990
G1 X178.28 Y147.61 E106.44024
G1 X178.45 Y148.60 E106.49821
G1 X178.50 Y149.30 E106.53912
G1 X178.49 Y149.57 E106.55483
G1 X180.31 Y149.87 E106.66200
G1 X180.31 Y159.09 E107.19800
G1 X177.75 Y161.65 E107.40818
G1 X177.81 Y162.51 E107.45820
G1 X177.82 Y163.76 E107.53126
G1 X177.84 Y163.97 E107.54354
G1 X177.73 Y165.68 E107.64279
G1 X177.51 Y167.25 E107.73518
G1 X177.18 Y168.81 E107.82744
G1 X176.75 Y170.33 E107.91977
G1 X176.20 Y171.83 E108.01221
G1 X175.54 Y173.27 E108.10440
G1 X174.90 Y174.48 E108.18403
G1 X174.79 Y174.68 E108.19708
G1 X173.94 Y176.01 E108.28918
G1 X172.99 Y177.29 E108.38126
G1 X172.09 Y178.34 E108.46233
G1 X171.96 Y178.49 E108.47359
G1 X170.84 Y179.62 E108.56614
G1 X169.64 Y180.66 E108.65825
G1 X168.38 Y181.62 E108.75050
G1 X167.04 Y182.48 E108.84285
G1 X165.79 Y183.17 E108.92596
G1 X165.60 Y183.27 E108.93834
G1 X164.20 Y183.91 E109.02770
G1 X162.72 Y184.47 E109.11988
G1 X161.19 Y184.92 E109.21224
G1 X159.65 Y185.26 E109.30422
G1 X158.76 Y185.39 E109.35651
G1 X158.01 Y185.46 E109.40018
G1 X156.53 Y185.60 E109.48636
G1 X154.84 Y185.60 E109.58482
G1 X153.39 Y185.46 E109.66971
G1 X152.67 Y185.40 E109.71133
G1 X151.74 Y185.26 E109.76600
G1 X150.19 Y184.92 E109.85828
G1 X148.67 Y184.47 E109.95051
G1 X147.18 Y183.92 E110.04286
G1 X145.74 Y183.25 E110.13524
G1 X144.57 Y182.61 E110.21268
G1 X144.35 Y182.50 E110.22680
G1 X143.01 Y181.63 E110.31998
G1 X141.74 Y180.68 E110.41204
G1 X140.72 Y179.79 E110.49044
G1 X140.56 Y179.65 E110.50331
G1 X139.42 Y178.50 E110.59693
G1 X138.39 Y177.30 E110.68900
G1 X137.44 Y176.03 E110.78131
G1 X136.59 Y174.69 E110.87358
G1 X135.92 Y173.45 E110.95553
G1 X135.82 Y173.26 E110.96799
G1 X135.18 Y171.84 E111.05849
G1 X134.63 Y170.35 E111.15074
G1 X134.19 Y168.82 E111.24304
G1 X133.86 Y167.27 E111.33518
G1 X133.65 Y165.70 E111.42759
G1 X133.56 Y164.44 E111.50115
G1 X133.54 Y164.24 E111.51286
G1 X133.55 Y162.52 E111.61231
G1 X133.67 Y160.94 E111.70460
G1 X133.75 Y160.47 E111.73200
G1 X128.96 Y158.55 E112.03160
G1 X125.72 Y157.23 E112.23517
G1 X125.28 Y150.53 E112.62532
G1 X129.67 Y148.03 E112.91907
G1 X130.06 Y145.30 E113.07946
G1 X134.72 Y143.98 E113.36095
G1 X135.73 Y141.43 E113.52003
G1 X140.29 Y141.29 E113.78520
G1 X141.85 Y139.07 E113.94256
G1 X142.49 Y139.21 E113.98052
G1 X142.49 Y133.30 E114.32425
G1 X143.59 Y133.30 E114.38848
G1 X143.59 Y126.54 E114.78121
G1 X143.61 Y125.81 E114.82383
G1 X143.74 Y124.91 E114.87686
G1 X145.16 Y120.43 E115.14951
G0 F12000 X145.50 Y120.90
G1 F2700 X149.79 Y120.88 E115.39891
G1 X150.80 Y120.88 E115.45779
G1 X154.19 Y120.88 E115.65447
G1 X159.59 Y120.88 E115.96839
G1 X164.64 Y120.90 E116.26179
G1 X169.43 Y120.88 E116.54026
G1 X171.95 Y120.89 E116.68690
G1 X172.66 Y120.74 E116.72888
G1 X174.61 Y121.29 E116.84715
G1 X176.50 Y122.42 E116.97465
G1 X177.63 Y124.31 E117.10283
G1 X178.03 Y125.74 E117.18892
G1 X178.02 Y132.19 E117.56381
G1 X178.02 Y133.83 E117.65936
G1 X178.02 Y134.25 E117.68365
G1 X177.96 Y134.96 E117.72496
G1 X177.74 Y135.98 E117.78564
G1 X177.54 Y136.52 E117.81929
G1 X177.84 Y136.82 E117.84362
G1 X177.84 Y137.02 E117.85525
G1 X178.04 Y137.22 E117.87169
G1 X178.04 Y138.02 E117.91818
G1 X178.24 Y138.22 E117.93462
G1 X178.24 Y145.30 E118.34624
G1 X178.04 Y145.50 E118.36268
G1 X178.04 Y145.70 E118.37431
G1 X177.84 Y145.90 E118.39075
G1 X177.84 Y146.30 E118.41400
G1 X177.47 Y146.67 E118.44433
G1 X177.83 Y147.73 E118.50930
G1 X177.98 Y148.65 E118.56379
G1 X178.03 Y149.31 E118.60190
G1 X178.02 Y149.61 E118.61981
G1 X178.02 Y149.96 E118.64010
G1 X179.84 Y150.26 E118.74728
G1 X179.84 Y158.90 E119.24911
G1 X177.27 Y161.47 E119.46052
G1 X177.35 Y162.53 E119.52208
G1 X177.36 Y163.78 E119.59491
G1 X177.37 Y163.97 E119.60615
G1 X177.26 Y165.63 E119.70283
G1 X177.05 Y167.17 E119.79323
G1 X176.73 Y168.69 E119.88354
G1 X176.30 Y170.19 E119.97399
G1 X175.76 Y171.65 E120.06439
G1 X175.13 Y173.07 E120.15466
G1 X174.47 Y174.28 E120.23488
G1 X174.39 Y174.44 E120.24549
G1 X173.55 Y175.75 E120.33557
G1 X172.63 Y177.00 E120.42573
G1 X171.73 Y178.04 E120.50586
G1 X171.62 Y178.18 E120.51617
G1 X170.52 Y179.28 E120.60671
G1 X169.35 Y180.30 E120.69688
G1 X168.11 Y181.24 E120.78714
G1 X166.80 Y182.08 E120.87756
G1 X165.57 Y182.76 E120.95955
G1 X165.39 Y182.85 E120.97094
G1 X164.02 Y183.48 E121.05858
G1 X162.57 Y184.03 E121.14878
G1 X161.08 Y184.47 E121.23919
G1 X159.56 Y184.80 E121.32921
G1 X158.70 Y184.92 E121.37991
G1 X157.97 Y185.00 E121.42289
G1 X156.51 Y185.13 E121.50778
G1 X154.86 Y185.13 E121.60374
G1 X153.43 Y185.00 E121.68728
G1 X152.73 Y184.93 E121.72821
G1 X151.82 Y184.80 E121.78129
G1 X150.31 Y184.47 E121.87161
G1 X148.82 Y184.03 E121.96195
G1 X147.36 Y183.49 E122.05231
G1 X145.95 Y182.84 E122.14274
G1 X144.79 Y182.20 E122.21958
G1 X144.59 Y182.10 E122.23255
G1 X143.28 Y181.25 E122.32359
G1 X142.03 Y180.31 E122.41375
G1 X141.05 Y179.45 E122.48987
G1 X140.87 Y179.30 E122.50328
G1 X139.76 Y178.19 E122.59472
G1 X138.75 Y177.01 E122.68490
G1 X137.82 Y175.76 E122.77526
G1 X136.99 Y174.45 E122.86560
G1 X136.33 Y173.23 E122.94650
G1 X136.23 Y173.06 E122.95792
G1 X135.61 Y171.66 E123.04655
G1 X135.07 Y170.21 E123.13690
G1 X134.64 Y168.71 E123.22720
G1 X134.32 Y167.19 E123.31744
G1 X134.11 Y165.65 E123.40791
G1 X134.03 Y164.39 E123.48130
G1 X134.00 Y164.21 E123.49196
G1 X134.02 Y162.54 E123.58873
G1 X134.14 Y160.99 E123.67910
G1 X134.26 Y160.18 E123.72695
G1 X129.14 Y158.12 E124.04791
G1 X126.17 Y156.91 E124.23448
G1 X125.76 Y150.79 E124.59073
G1 X130.10 Y148.32 E124.88079
G1 X130.48 Y145.67 E125.03682
G1 X135.07 Y144.36 E125.31414
G1 X136.05 Y141.89 E125.46884
G1 X140.54 Y141.74 E125.72971
G1 X142.05 Y139.59 E125.88251
G1 X142.95 Y139.79 E125.93619
G1 X142.95 Y133.76 E126.28649
G1 X144.06 Y133.76 E126.35072
G1 X144.06 Y126.55 E126.77012
G1 X144.08 Y125.85 E126.81083
G1 X144.20 Y125.01 E126.86010
G1 X145.50 Y120.90 E127.11075
G0 F12000 X145.84 Y121.36
G1 F2700 X149.79 Y121.35 E127.34034
G1 X150.80 Y121.34 E127.39922
G1 X154.18 Y121.35 E127.59561
G1 X159.59 Y121.35 E127.90970
G1 X164.64 Y121.36 E128.20316
G1 X169.43 Y121.35 E128.48163
G1 X172.00 Y121.36 E128.63100
G1 X172.64 Y121.22 E128.66934
G1 X174.43 Y121.72 E128.77722
G1 X176.16 Y122.76 E128.89432
G1 X177.20 Y124.49 E129.01202
G1 X177.56 Y125.80 E129.09081
G1 X177.55 Y132.19 E129.46192
G1 X177.55 Y133.83 E129.55764
G1 X177.55 Y134.23 E129.58072
G1 X177.50 Y134.89 E129.61917
G1 X177.29 Y135.85 E129.67622
G1 X177.00 Y136.64 E129.72519
G1 X177.37 Y137.01 E129.75569
G1 X177.37 Y137.21 E129.76731
G1 X177.57 Y137.41 E129.78375
G1 X177.57 Y138.21 E129.83025
G1 X177.77 Y138.41 E129.84669
G1 X177.77 Y145.11 E130.23588
G1 X177.57 Y145.31 E130.25232
G1 X177.57 Y145.51 E130.26394
G1 X177.37 Y145.71 E130.28038
G1 X177.37 Y146.11 E130.30363
G1 X176.93 Y146.55 E130.33988
G1 X176.94 Y146.57 E130.34141
G1 X177.38 Y147.84 E130.41938
G1 X177.52 Y148.71 E130.47040
G1 X177.56 Y149.31 E130.50576
G1 X177.55 Y149.60 E130.52229
G1 X177.56 Y150.36 E130.56646
G1 X179.37 Y150.66 E130.67358
G1 X179.37 Y158.71 E131.14123
G1 X176.79 Y161.29 E131.35388
G1 X176.88 Y162.55 E131.42698
G1 X176.89 Y163.80 E131.49958
G1 X176.90 Y163.97 E131.50983
G1 X176.80 Y165.59 E131.60383
G1 X176.59 Y167.09 E131.69230
G1 X176.28 Y168.58 E131.78069
G1 X175.86 Y170.04 E131.86915
G1 X175.33 Y171.47 E131.95764
G1 X174.71 Y172.86 E132.04598
G1 X174.06 Y174.06 E132.12517
G1 X173.98 Y174.21 E132.13492
G1 X173.17 Y175.48 E132.22294
G1 X172.26 Y176.70 E132.31119
G1 X171.40 Y177.71 E132.38848
G1 X171.27 Y177.86 E132.39977
G1 X170.20 Y178.94 E132.48826
G1 X169.06 Y179.94 E132.57654
G1 X167.84 Y180.85 E132.66485
G1 X166.56 Y181.68 E132.75333
G1 X165.34 Y182.35 E132.83418
G1 X165.19 Y182.44 E132.84458
G1 X163.84 Y183.05 E132.93043
G1 X162.42 Y183.58 E133.01871
G1 X160.96 Y184.01 E133.10719
G1 X159.48 Y184.34 E133.19531
G1 X158.65 Y184.46 E133.24435
G1 X157.92 Y184.53 E133.28663
G1 X156.49 Y184.67 E133.37030
G1 X154.88 Y184.67 E133.46364
G1 X153.47 Y184.54 E133.54584
G1 X152.78 Y184.47 E133.58619
G1 X151.91 Y184.34 E133.63763
G1 X150.42 Y184.02 E133.72598
G1 X148.96 Y183.59 E133.81437
G1 X147.54 Y183.06 E133.90282
G1 X146.16 Y182.42 E133.99130
G1 X144.96 Y181.77 E134.07053
G1 X144.83 Y181.69 E134.07930
G1 X143.54 Y180.86 E134.16824
G1 X142.33 Y179.95 E134.25648
G1 X141.35 Y179.10 E134.33199
G1 X141.19 Y178.96 E134.34420
G1 X140.11 Y177.87 E134.43355
G1 X139.12 Y176.72 E134.52178
G1 X138.21 Y175.50 E134.61019
G1 X137.39 Y174.22 E134.69859
G1 X136.74 Y173.01 E134.77846
G1 X136.65 Y172.85 E134.78891
G1 X136.04 Y171.49 E134.87567
G1 X135.52 Y170.06 E134.96408
G1 X135.10 Y168.60 E135.05244
G1 X134.78 Y167.11 E135.14078
G1 X134.57 Y165.60 E135.22926
G1 X134.49 Y164.36 E135.30178
G1 X134.47 Y164.18 E135.31202
G1 X134.48 Y162.56 E135.40618
G1 X134.60 Y161.05 E135.49462
G1 X134.78 Y159.88 E135.56293
G1 X129.31 Y157.68 E135.90525
G1 X126.61 Y156.59 E136.07482
G1 X126.25 Y151.05 E136.39711
G1 X130.53 Y148.62 E136.68350
G1 X130.90 Y146.03 E136.83525
G1 X135.42 Y144.75 E137.10839
G1 X136.37 Y142.34 E137.25866
G1 X140.78 Y142.20 E137.51522
G1 X142.25 Y140.12 E137.66356
G1 X143.42 Y140.37 E137.73289
G1 X143.42 Y134.23 E138.08981
G1 X144.52 Y134.23 E138.15404
G1 X144.52 Y126.56 E138.60018
G1 X144.54 Y125.89 E138.63891
G1 X144.66 Y125.11 E138.68436
G1 X145.84 Y121.36 E138.91307
G0 F12000 X146.18 Y121.83
G1 F2700 X149.79 Y121.81 E139.12290
G1 X150.80 Y121.81 E139.18166
G1 X154.56 Y121.81 E139.40008
G1 X159.59 Y121.81 E139.69209
G1 X164.64 Y121.83 E139.98560
G1 X169.43 Y121.81 E140.26407
G1 X172.05 Y121.83 E140.41641
G1 X172.63 Y121.70 E140.45087
G1 X174.24 Y122.15 E140.54830
G1 X175.81 Y123.10 E140.65502
G1 X176.76 Y124.68 E140.76230
G1 X177.09 Y125.86 E140.83367
G1 X177.08 Y132.18 E141.20106
G1 X177.09 Y133.83 E141.29696
G1 X177.09 Y134.21 E141.31881
G1 X177.03 Y134.82 E141.35440
G1 X176.85 Y135.72 E141.40777
G1 X176.50 Y136.65 E141.46530
G1 X176.45 Y136.75 E141.47177
G1 X176.91 Y137.20 E141.50942
G1 X176.91 Y137.40 E141.52104
G1 X177.11 Y137.60 E141.53748
G1 X177.11 Y138.40 E141.58398
G1 X177.31 Y138.60 E141.60042
G1 X177.31 Y144.91 E141.96717
G1 X177.11 Y145.11 E141.98361
G1 X177.11 Y145.31 E141.99524
G1 X176.91 Y145.51 E142.01167
G1 X176.91 Y145.91 E142.03492
G1 X176.36 Y146.46 E142.08013
G1 X176.52 Y146.76 E142.09964
G1 X176.92 Y147.95 E142.17307
G1 X177.06 Y148.76 E142.22055
G1 X177.10 Y149.32 E142.25318
G1 X177.09 Y149.60 E142.26964
G1 X177.09 Y150.75 E142.33648
G1 X178.91 Y151.06 E142.44348
G1 X178.91 Y158.51 E142.87696
G1 X176.30 Y161.12 E143.09091
G1 X176.42 Y162.57 E143.17551
G1 X176.43 Y163.81 E143.24776
G1 X176.44 Y163.97 E143.25708
G1 X176.34 Y165.54 E143.34846
G1 X176.13 Y167.01 E143.43499
G1 X175.82 Y168.47 E143.52143
G1 X175.41 Y169.90 E143.60795
G1 X174.90 Y171.30 E143.69451
G1 X174.29 Y172.65 E143.78090
G1 X173.65 Y173.84 E143.85915
G1 X173.58 Y173.97 E143.86791
G1 X172.78 Y175.22 E143.95399
G1 X171.90 Y176.41 E144.04033
G1 X171.04 Y177.41 E144.11687
G1 X171.04 Y177.41 E144.11693
G1 X170.93 Y177.55 E144.12715
G1 X169.88 Y178.60 E144.21358
G1 X168.76 Y179.58 E144.29989
G1 X167.57 Y180.47 E144.38634
G1 X166.32 Y181.28 E144.47288
G1 X165.12 Y181.94 E144.55253
G1 X164.98 Y182.02 E144.56197
G1 X163.66 Y182.62 E144.64600
G1 X162.27 Y183.14 E144.73238
G1 X160.85 Y183.56 E144.81891
G1 X159.40 Y183.88 E144.90512
G1 X158.59 Y184.00 E144.95252
G1 X157.88 Y184.07 E144.99415
G1 X156.47 Y184.20 E145.07648
G1 X154.91 Y184.20 E145.16727
G1 X153.52 Y184.07 E145.24818
G1 X152.84 Y184.01 E145.28789
G1 X151.99 Y183.88 E145.33768
G1 X150.54 Y183.57 E145.42413
G1 X149.11 Y183.15 E145.51052
G1 X147.72 Y182.63 E145.59704
G1 X146.36 Y182.00 E145.68362
G1 X145.23 Y181.38 E145.75908
G1 X145.06 Y181.29 E145.76976
G1 X143.81 Y180.48 E145.85661
G1 X142.62 Y179.59 E145.94295
G1 X141.63 Y178.72 E146.01941
G1 X141.50 Y178.62 E146.02893
G1 X140.45 Y177.55 E146.11610
G1 X139.48 Y176.43 E146.20240
G1 X138.59 Y175.23 E146.28890
G1 X137.79 Y173.98 E146.37537
G1 X137.15 Y172.79 E146.45417
G1 X137.07 Y172.64 E146.46359
G1 X136.47 Y171.31 E146.54850
G1 X135.96 Y169.92 E146.63492
G1 X135.55 Y168.49 E146.72142
G1 X135.24 Y167.03 E146.80779
G1 X135.04 Y165.56 E146.89434
G1 X134.96 Y164.32 E146.96662
G1 X134.94 Y164.16 E146.97587
G1 X134.95 Y162.58 E147.06735
G1 X135.06 Y161.10 E147.15381
G1 X135.29 Y159.63 E147.24034
G1 X135.29 Y159.59 E147.24254
G1 X129.49 Y157.25 E147.60643
G1 X127.06 Y156.26 E147.75895
G1 X126.73 Y151.31 E148.04734
G1 X130.96 Y148.91 E148.33003
G1 X131.32 Y146.40 E148.47743
G1 X135.77 Y145.13 E148.74641
G1 X136.69 Y142.80 E148.89224
G1 X141.03 Y142.66 E149.14450
G1 X142.46 Y140.64 E149.28837
G1 X143.88 Y140.95 E149.37334
G1 X143.88 Y134.70 E149.73678
G1 X144.99 Y134.70 E149.80100
G1 X144.99 Y126.56 E150.27383
G1 X145.01 Y125.93 E150.31058
G1 X145.11 Y125.22 E150.35233
G1 X146.18 Y121.83 E150.55909
G0 F12000 X146.53 Y122.29
G1 F2700 X149.79 Y122.28 E150.74910
G1 X150.80 Y122.28 E150.80780
G1 X154.94 Y122.28 E151.04825
G1 X159.59 Y122.28 E151.31817
G1 X164.63 Y122.30 E151.61169
G1 X169.43 Y122.28 E151.89015
G1 X172.10 Y122.29 E152.04546
G1 X172.61 Y122.18 E152.07617
G1 X174.05 Y122.58 E152.16314
G1 X175.48 Y123.44 E152.25949
G1 X176.33 Y124.86 E152.35631
G1 X176.63 Y125.93 E152.42032
G1 X176.62 Y132.18 E152.78405
G1 X176.62 Y133.84 E152.88012
G1 X176.62 Y134.19 E152.90070
G1 X176.57 Y134.75 E152.93343
G1 X176.40 Y135.59 E152.98319
G1 X176.08 Y136.46 E153.03681
G1 X175.87 Y136.83 E153.06152
G1 X176.44 Y137.40 E153.10812
G1 X176.44 Y137.60 E153.11975
G1 X176.64 Y137.80 E153.13619
G1 X176.64 Y138.60 E153.18268
G1 X176.84 Y138.80 E153.19912
G1 X176.84 Y144.72 E153.54344
G1 X176.64 Y144.92 E153.55988
G1 X176.64 Y145.12 E153.57150
G1 X176.44 Y145.32 E153.58794
G1 X176.44 Y145.72 E153.61119
G1 X175.84 Y146.32 E153.66051
G1 X175.84 Y146.49 E153.67051
G1 X176.09 Y146.95 E153.70055
G1 X176.47 Y148.07 E153.76944
G1 X176.59 Y148.81 E153.81345
G1 X176.63 Y149.33 E153.84328
G1 X176.62 Y149.59 E153.85840
G1 X176.63 Y151.15 E153.94908
G1 X178.44 Y151.45 E154.05596
G1 X178.44 Y158.32 E154.45532
G1 X175.81 Y160.95 E154.67158
G1 X175.84 Y161.14 E154.68251
G1 X175.95 Y162.59 E154.76705
G1 X175.96 Y163.82 E154.83900
G1 X175.97 Y163.97 E154.84739
G1 X175.87 Y165.49 E154.93610
G1 X175.67 Y166.93 E155.02069
G1 X175.37 Y168.36 E155.10517
G1 X174.97 Y169.75 E155.18976
G1 X174.47 Y171.12 E155.27440
G1 X173.87 Y172.45 E155.35881
G1 X173.24 Y173.62 E155.43612
G1 X173.18 Y173.74 E155.44398
G1 X172.40 Y174.96 E155.52805
G1 X171.54 Y176.12 E155.61243
G1 X170.67 Y177.13 E155.68963
G1 X170.59 Y177.23 E155.69734
G1 X169.56 Y178.26 E155.78168
G1 X168.47 Y179.21 E155.86604
G1 X167.31 Y180.09 E155.95058
G1 X166.09 Y180.88 E156.03515
G1 X164.90 Y181.53 E156.11368
G1 X164.77 Y181.60 E156.12213
G1 X163.49 Y182.19 E156.20440
G1 X162.13 Y182.70 E156.28882
G1 X160.73 Y183.11 E156.37342
G1 X159.31 Y183.42 E156.45767
G1 X158.53 Y183.54 E156.50349
G1 X157.83 Y183.60 E156.54442
G1 X156.44 Y183.74 E156.62552
G1 X154.93 Y183.74 E156.71370
G1 X153.56 Y183.61 E156.79333
G1 X152.90 Y183.54 E156.83233
G1 X152.07 Y183.43 E156.88054
G1 X150.65 Y183.12 E156.96502
G1 X149.26 Y182.71 E157.04954
G1 X147.90 Y182.19 E157.13407
G1 X146.57 Y181.59 E157.21865
G1 X145.41 Y180.95 E157.29596
G1 X145.30 Y180.89 E157.30308
G1 X144.08 Y180.10 E157.38782
G1 X142.92 Y179.23 E157.47217
G1 X141.95 Y178.39 E157.54657
G1 X141.82 Y178.28 E157.55642
G1 X140.79 Y177.24 E157.64145
G1 X139.84 Y176.14 E157.72582
G1 X138.98 Y174.97 E157.81035
G1 X138.20 Y173.74 E157.89489
G1 X137.56 Y172.57 E157.97265
G1 X137.49 Y172.44 E157.98112
G1 X136.90 Y171.14 E158.06411
G1 X136.40 Y169.77 E158.14862
G1 X136.00 Y168.37 E158.23317
G1 X135.70 Y166.95 E158.31759
G1 X135.50 Y165.51 E158.40220
G1 X135.42 Y164.26 E158.47484
G1 X135.40 Y164.13 E158.48250
G1 X135.41 Y162.60 E158.57131
G1 X135.53 Y161.15 E158.65584
G1 X135.75 Y159.72 E158.74044
G1 X135.84 Y159.31 E158.76469
G1 X129.66 Y156.82 E159.15158
G1 X127.50 Y155.94 E159.28709
G1 X127.22 Y151.57 E159.54152
G1 X131.38 Y149.20 E159.82042
G1 X131.74 Y146.76 E159.96353
G1 X136.12 Y145.52 E160.22829
G1 X137.01 Y143.26 E160.36973
G1 X141.28 Y143.12 E160.61780
G1 X142.66 Y141.16 E160.75717
G1 X144.35 Y141.53 E160.85780
G1 X144.35 Y135.16 E161.22786
G1 X145.46 Y135.16 E161.29208
G1 X145.46 Y126.57 E161.79159
G1 X145.47 Y125.97 E161.82642
G1 X145.57 Y125.32 E161.86442
G1 X146.53 Y122.29 E162.04917
G0 F12000 X146.87 Y122.76
G1 F2700 X149.79 Y122.74 E162.21936
G1 X150.80 Y122.74 E162.27800
G1 X155.32 Y122.75 E162.54048
G1 X155.32 Y122.74 E162.54054
G1 X159.58 Y122.74 E162.78837
G1 X164.64 Y122.76 E163.08201
G1 X169.43 Y122.75 E163.36041
G1 X172.15 Y122.76 E163.51862
G1 X172.60 Y122.66 E163.54554
G1 X173.87 Y123.02 E163.62214
G1 X175.14 Y123.78 E163.70806
G1 X175.90 Y125.05 E163.79440
G1 X176.16 Y125.99 E163.85105
G1 X176.15 Y132.18 E164.21106
G1 X176.15 Y133.84 E164.30731
G1 X176.16 Y134.17 E164.32666
G1 X176.11 Y134.68 E164.35653
G1 X175.95 Y135.46 E164.40267
G1 X175.65 Y136.26 E164.45232
G1 X175.30 Y136.91 E164.49533
G1 X175.97 Y137.59 E164.55090
G1 X175.97 Y137.79 E164.56252
G1 X176.18 Y137.99 E164.57896
G1 X176.18 Y138.79 E164.62546
G1 X176.38 Y138.99 E164.64190
G1 X176.38 Y144.53 E164.96378
G1 X176.18 Y144.73 E164.98022
G1 X176.18 Y144.93 E164.99184
G1 X175.97 Y145.13 E165.00828
G1 X175.97 Y145.53 E165.03153
G1 X175.38 Y146.13 E165.08085
G1 X175.38 Y146.61 E165.10898
G1 X175.66 Y147.13 E165.14360
G1 X176.02 Y148.18 E165.20795
G1 X176.13 Y148.87 E165.24842
G1 X176.16 Y149.33 E165.27551
G1 X176.15 Y149.59 E165.29029
G1 X176.16 Y151.54 E165.40392
G1 X177.97 Y151.84 E165.51068
G1 X177.97 Y158.13 E165.87586
G1 X175.33 Y160.77 E166.09315
G1 X175.31 Y160.78 E166.09437
G1 X175.38 Y161.19 E166.11860
G1 X175.49 Y162.61 E166.20115
G1 X175.50 Y163.84 E166.27270
G1 X175.50 Y163.97 E166.28021
G1 X175.41 Y165.45 E166.36635
G1 X175.21 Y166.85 E166.44896
G1 X174.92 Y168.24 E166.53153
G1 X174.53 Y169.61 E166.61419
G1 X174.04 Y170.94 E166.69679
G1 X173.46 Y172.24 E166.77933
G1 X172.83 Y173.40 E166.85561
G1 X172.78 Y173.50 E166.86260
G1 X172.02 Y174.69 E166.94461
G1 X171.17 Y175.83 E167.02708
G1 X170.32 Y176.83 E167.10333
G1 X170.24 Y176.91 E167.11010
G1 X169.24 Y177.92 E167.19246
G1 X168.17 Y178.85 E167.27489
G1 X167.04 Y179.71 E167.35747
G1 X165.85 Y180.48 E167.44011
G1 X164.68 Y181.12 E167.51752
G1 X164.57 Y181.18 E167.52496
G1 X163.31 Y181.76 E167.60543
G1 X161.98 Y182.26 E167.68794
G1 X160.61 Y182.66 E167.77061
G1 X159.23 Y182.96 E167.85295
G1 X158.48 Y183.07 E167.89713
G1 X157.79 Y183.14 E167.93741
G1 X156.42 Y183.27 E168.01717
G1 X154.95 Y183.27 E168.10284
G1 X153.61 Y183.14 E168.18114
G1 X152.95 Y183.08 E168.21950
G1 X152.16 Y182.97 E168.26605
G1 X150.77 Y182.66 E168.34858
G1 X149.41 Y182.26 E168.43116
G1 X148.08 Y181.76 E168.51376
G1 X146.78 Y181.17 E168.59644
G1 X145.66 Y180.56 E168.67057
G1 X145.54 Y180.49 E168.67900
G1 X144.34 Y179.72 E168.76167
G1 X143.21 Y178.86 E168.84414
G1 X142.22 Y178.00 E168.92044
G1 X142.14 Y177.93 E168.92659
G1 X141.13 Y176.92 E169.00948
G1 X140.21 Y175.85 E169.09191
G1 X139.36 Y174.71 E169.17454
G1 X138.60 Y173.51 E169.25709
G1 X137.97 Y172.35 E169.33384
G1 X137.91 Y172.23 E169.34127
G1 X137.34 Y170.96 E169.42241
G1 X136.85 Y169.63 E169.50501
G1 X136.45 Y168.26 E169.58763
G1 X136.16 Y166.87 E169.67009
G1 X135.96 Y165.46 E169.75277
G1 X135.88 Y164.22 E169.82522
G1 X135.87 Y164.11 E169.83183
G1 X135.88 Y162.62 E169.91803
G1 X135.99 Y161.21 E170.00058
G1 X136.20 Y159.80 E170.08323
G1 X136.38 Y159.02 E170.12959
G1 X129.84 Y156.39 E170.53945
G1 X127.95 Y155.62 E170.65803
G1 X127.70 Y151.83 E170.87855
G1 X131.81 Y149.49 E171.15375
G1 X132.16 Y147.13 E171.29251
G1 X136.47 Y145.90 E171.55311
G1 X137.34 Y143.71 E171.69012
G1 X141.53 Y143.58 E171.93389
G1 X142.86 Y141.68 E172.06879
G1 X144.82 Y142.11 E172.18507
G1 X144.82 Y135.63 E172.56170
G1 X145.92 Y135.63 E172.62593
G1 X145.92 Y126.58 E173.15216
G1 X145.94 Y126.01 E173.18502
G1 X146.02 Y125.43 E173.21925
G1 X146.87 Y122.76 E173.38208
G0 F12000 X147.21 Y123.22
G1 F2700 X149.80 Y123.21 E173.53244
G1 X150.80 Y123.21 E173.59103
G1 X155.67 Y123.21 E173.87397
G1 X155.69 Y123.28 E173.87782
G1 X155.70 Y123.21 E173.88174
G1 X159.58 Y123.21 E174.10755
G1 X164.63 Y123.23 E174.40112
G1 X169.43 Y123.21 E174.67959
G1 X172.20 Y123.22 E174.84076
G1 X172.59 Y123.14 E174.86380
G1 X173.68 Y123.45 E174.92993
G1 X174.80 Y124.12 E175.00551
G1 X175.47 Y125.24 E175.08142
G1 X175.69 Y126.05 E175.13064
G1 X175.69 Y132.18 E175.48698
G1 X175.69 Y133.84 E175.58341
G1 X175.69 Y134.15 E175.60143
G1 X175.65 Y134.62 E175.62850
G1 X175.50 Y135.33 E175.67095
G1 X175.22 Y136.07 E175.71670
G1 X174.87 Y136.72 E175.75959
G1 X174.69 Y136.96 E175.77739
G1 X175.51 Y137.78 E175.84479
G1 X175.51 Y137.98 E175.85641
G1 X175.71 Y138.18 E175.87285
G1 X175.71 Y138.98 E175.91935
G1 X175.91 Y139.18 E175.93579
G1 X175.91 Y144.33 E176.23523
G1 X175.71 Y144.53 E176.25167
G1 X175.71 Y144.73 E176.26330
G1 X175.51 Y144.93 E176.27974
G1 X175.51 Y145.33 E176.30299
G1 X174.91 Y145.93 E176.35230
G1 X174.91 Y146.73 E176.39845
G1 X175.23 Y147.32 E176.43775
G1 X175.56 Y148.30 E176.49754
G1 X175.67 Y148.92 E176.53454
G1 X175.70 Y149.34 E176.55884
G1 X175.69 Y149.58 E176.57251
G1 X175.70 Y151.94 E176.70980
G1 X177.51 Y152.24 E176.81644
G1 X177.51 Y157.93 E177.14745
G1 X175.06 Y160.39 E177.34912
G1 X174.80 Y160.51 E177.36562
G1 X174.91 Y161.24 E177.40854
G1 X175.02 Y162.63 E177.48917
G1 X175.03 Y163.84 E177.55944
G1 X175.04 Y163.97 E177.56701
G1 X174.94 Y165.40 E177.65047
G1 X174.75 Y166.77 E177.73113
G1 X174.47 Y168.13 E177.81175
G1 X174.09 Y169.47 E177.89247
G1 X173.61 Y170.77 E177.97316
G1 X173.04 Y172.03 E178.05373
G1 X172.42 Y173.17 E178.12906
G1 X172.42 Y173.17 E178.12912
G1 X172.37 Y173.27 E178.13515
G1 X171.63 Y174.43 E178.21517
G1 X170.81 Y175.54 E178.29573
G1 X169.97 Y176.51 E178.36996
G1 X169.98 Y176.51 E178.37002
G1 X169.90 Y176.60 E178.37699
G1 X168.92 Y177.58 E178.45730
G1 X167.88 Y178.49 E178.53779
G1 X166.77 Y179.33 E178.61842
G1 X165.61 Y180.08 E178.69912
G1 X164.46 Y180.71 E178.77539
G1 X164.36 Y180.76 E178.78179
G1 X163.13 Y181.33 E178.86054
G1 X161.83 Y181.81 E178.94112
G1 X160.50 Y182.21 E179.02178
G1 X159.15 Y182.50 E179.10228
G1 X158.42 Y182.61 E179.14481
G1 X157.74 Y182.68 E179.18440
G1 X156.40 Y182.80 E179.26293
G1 X154.97 Y182.81 E179.34599
G1 X153.65 Y182.68 E179.42299
G1 X153.00 Y182.62 E179.46071
G1 X152.24 Y182.51 E179.50563
G1 X150.88 Y182.21 E179.58625
G1 X149.56 Y181.82 E179.66683
G1 X148.25 Y181.33 E179.74751
G1 X146.99 Y180.75 E179.82822
G1 X145.86 Y180.13 E179.90352
G1 X145.77 Y180.09 E179.90898
G1 X144.61 Y179.34 E179.98956
G1 X143.50 Y178.50 E180.07008
G1 X142.53 Y177.65 E180.14543
G1 X142.46 Y177.59 E180.15079
G1 X141.48 Y176.60 E180.23155
G1 X140.57 Y175.56 E180.31204
G1 X139.75 Y174.44 E180.39271
G1 X139.00 Y173.27 E180.47341
G1 X138.38 Y172.12 E180.54909
G1 X138.33 Y172.03 E180.55554
G1 X137.77 Y170.78 E180.63478
G1 X137.29 Y169.48 E180.71545
G1 X136.91 Y168.15 E180.79611
G1 X136.62 Y166.79 E180.87667
G1 X136.43 Y165.42 E180.95736
G1 X136.35 Y164.18 E181.02952
G1 X136.34 Y164.08 E181.03515
G1 X136.35 Y162.64 E181.11873
G1 X136.45 Y161.26 E181.19935
G1 X136.66 Y159.89 E181.28001
G1 X136.92 Y158.74 E181.34841
G1 X130.01 Y155.96 E181.78130
G1 X128.39 Y155.30 E181.88287
G1 X128.18 Y152.09 E182.06944
G1 X132.24 Y149.78 E182.34092
G1 X132.57 Y147.49 E182.47540
G1 X136.82 Y146.29 E182.73182
G1 X137.66 Y144.17 E182.86439
G1 X141.77 Y144.04 E183.10386
G1 X143.07 Y142.20 E183.23425
G1 X145.28 Y142.69 E183.36617
G1 X145.28 Y136.09 E183.74937
G1 X146.39 Y136.09 E183.81359
G1 X146.39 Y126.58 E184.36651
G1 X146.40 Y126.05 E184.39744
G1 X146.48 Y125.53 E184.42786
G1 X147.21 Y123.22 E184.56874
G0 F12000 X147.55 Y123.69
G1 F2700 X149.80 Y123.68 E184.69934
G1 X150.80 Y123.67 E184.75781
G1 X155.29 Y123.68 E185.01872
G1 X155.68 Y125.57 E185.13118
G1 X156.08 Y123.68 E185.24374
G1 X159.58 Y123.68 E185.44746
G1 X164.63 Y123.69 E185.74103
G1 X169.43 Y123.68 E186.01956
G1 X172.25 Y123.69 E186.18364
G1 X172.57 Y123.62 E186.20293
G1 X173.50 Y123.88 E186.25862
G1 X174.46 Y124.45 E186.32379
G1 X175.04 Y125.42 E186.38925
G1 X175.23 Y126.12 E186.43116
G1 X175.22 Y132.18 E186.78373
G1 X175.22 Y133.84 E186.88033
G1 X175.22 Y134.13 E186.89712
G1 X175.19 Y134.55 E186.92133
G1 X175.05 Y135.20 E186.96016
G1 X174.80 Y135.88 E187.00194
G1 X174.48 Y136.47 E187.04087
G1 X174.07 Y137.00 E187.08020
G1 X175.04 Y137.97 E187.16001
G1 X175.04 Y138.18 E187.17164
G1 X175.24 Y138.38 E187.18808
G1 X175.24 Y139.18 E187.23457
G1 X175.44 Y139.38 E187.25101
G1 X175.44 Y144.14 E187.52802
G1 X175.24 Y144.34 E187.54446
G1 X175.24 Y144.54 E187.55609
G1 X175.04 Y144.74 E187.57253
G1 X175.04 Y145.14 E187.59578
G1 X174.44 Y145.74 E187.64509
G1 X174.44 Y146.87 E187.71095
G1 X174.50 Y146.95 E187.71656
G1 X174.80 Y147.51 E187.75347
G1 X175.11 Y148.41 E187.80868
G1 X175.20 Y148.98 E187.84220
G1 X175.23 Y149.35 E187.86376
G1 X175.22 Y149.56 E187.87609
G1 X175.24 Y152.33 E188.03727
G1 X177.04 Y152.63 E188.14374
G1 X177.04 Y157.74 E188.44057
G1 X174.78 Y160.00 E188.62662
G1 X174.38 Y160.20 E188.65249
G1 X174.29 Y160.29 E188.65955
G1 X174.45 Y161.30 E188.71882
G1 X174.55 Y162.65 E188.79752
G1 X174.56 Y163.88 E188.86902
G1 X174.57 Y163.96 E188.87408
G1 X174.48 Y165.35 E188.95492
G1 X174.29 Y166.69 E189.03365
G1 X174.01 Y168.02 E189.11237
G1 X173.64 Y169.32 E189.19108
G1 X173.18 Y170.59 E189.26984
G1 X172.62 Y171.83 E189.34851
G1 X172.01 Y172.95 E189.42288
G1 X171.97 Y173.03 E189.42801
G1 X171.25 Y174.16 E189.50601
G1 X170.44 Y175.25 E189.58462
G1 X169.62 Y176.21 E189.65807
G1 X169.55 Y176.28 E189.66396
G1 X168.61 Y177.24 E189.74213
G1 X167.59 Y178.13 E189.82077
G1 X166.51 Y178.94 E189.89945
G1 X165.37 Y179.68 E189.97819
G1 X164.24 Y180.30 E190.05329
G1 X164.15 Y180.35 E190.05875
G1 X162.95 Y180.90 E190.13571
G1 X161.68 Y181.37 E190.21437
G1 X160.38 Y181.76 E190.29309
G1 X159.06 Y182.04 E190.37163
G1 X158.37 Y182.15 E190.41257
G1 X156.38 Y182.34 E190.52871
G1 X154.99 Y182.34 E190.60920
G1 X153.69 Y182.22 E190.68492
G1 X153.06 Y182.16 E190.72194
G1 X152.32 Y182.05 E190.76528
G1 X151.00 Y181.76 E190.84393
G1 X149.70 Y181.38 E190.92264
G1 X148.43 Y180.90 E191.00132
G1 X147.20 Y180.34 E191.08010
G1 X146.10 Y179.74 E191.15299
G1 X146.01 Y179.69 E191.15910
G1 X144.88 Y178.95 E191.23756
G1 X143.80 Y178.14 E191.31614
G1 X142.85 Y177.32 E191.38877
G1 X142.77 Y177.25 E191.39503
G1 X141.82 Y176.29 E191.47370
G1 X140.94 Y175.26 E191.55229
G1 X140.13 Y174.18 E191.63101
G1 X139.40 Y173.03 E191.70973
G1 X138.79 Y171.91 E191.78434
G1 X138.75 Y171.82 E191.78980
G1 X138.20 Y170.61 E191.86719
G1 X137.73 Y169.34 E191.94593
G1 X137.36 Y168.03 E192.02463
G1 X137.08 Y166.71 E192.10328
G1 X136.89 Y165.37 E192.18203
G1 X136.81 Y164.14 E192.25355
G1 X136.80 Y164.06 E192.25858
G1 X136.81 Y162.66 E192.33949
G1 X136.92 Y161.31 E192.41819
G1 X137.12 Y159.97 E192.49691
G1 X137.42 Y158.65 E192.57562
G1 X137.48 Y158.46 E192.58727
G1 X130.19 Y155.52 E193.04403
G1 X128.84 Y154.98 E193.12855
G1 X128.67 Y152.35 E193.28122
G1 X132.67 Y150.08 E193.54899
G1 X132.99 Y147.86 E193.67913
G1 X137.16 Y146.68 E193.93132
G1 X137.98 Y144.62 E194.05953
G1 X142.02 Y144.50 E194.29475
G1 X143.27 Y142.72 E194.42066
G1 X145.75 Y143.27 E194.56828
G1 X145.75 Y136.56 E194.95805
G1 X146.85 Y136.56 E195.02227
G1 X146.85 Y126.59 E195.60187
G1 X146.87 Y126.09 E195.63088
G1 X146.93 Y125.64 E195.65755
G1 X147.55 Y123.69 E195.77648
G0 F12000 X147.89 Y124.15
G1 F2700 X149.80 Y124.14 E195.88732
G1 X150.80 Y124.14 E195.94573
G1 X154.91 Y124.14 E196.18455
G1 X155.45 Y126.74 E196.33898
G1 X153.62 Y127.53 E196.45462
G1 X153.05 Y127.88 E196.49370
G1 X152.63 Y128.22 E196.52461
G1 X152.28 Y128.57 E196.55379
G1 X151.95 Y129.01 E196.58561
G1 X151.68 Y129.46 E196.61653
G1 X151.46 Y129.94 E196.64674
G1 X151.29 Y130.47 E196.67913
G1 X151.20 Y130.97 E196.70888
G1 X151.16 Y131.51 E196.74046
G1 X151.18 Y132.02 E196.76985
G1 X151.28 Y132.58 E196.80284
G1 X151.42 Y133.06 E196.83220
G1 X151.62 Y133.54 E196.86234
G1 X151.88 Y134.01 E196.89336
G1 X152.20 Y134.44 E196.92473
G1 X152.56 Y134.83 E196.95569
G1 X152.97 Y135.18 E196.98670
G1 X153.40 Y135.47 E197.01685
G1 X153.88 Y135.71 E197.04791
G1 X154.37 Y135.89 E197.07838
G1 X154.88 Y136.01 E197.10883
G1 X155.42 Y136.07 E197.14055
G1 X155.95 Y136.07 E197.17130
G1 X156.49 Y136.01 E197.20296
G1 X156.99 Y135.89 E197.23255
G1 X157.48 Y135.71 E197.26339
G1 X157.95 Y135.47 E197.29375
G1 X158.40 Y135.18 E197.32504
G1 X158.81 Y134.83 E197.35622
G1 X159.16 Y134.46 E197.38595
G1 X159.48 Y134.03 E197.41708
G1 X159.74 Y133.56 E197.44850
G1 X159.95 Y133.06 E197.47973
G1 X160.09 Y132.57 E197.50937
G1 X160.18 Y132.04 E197.54061
G1 X160.21 Y131.51 E197.57157
G1 X160.17 Y130.97 E197.60321
G1 X160.07 Y130.47 E197.63274
G1 X159.91 Y129.95 E197.66416
G1 X159.69 Y129.46 E197.69527
G1 X159.43 Y129.03 E197.72486
G1 X159.10 Y128.60 E197.75628
G1 X158.73 Y128.21 E197.78756
G1 X158.33 Y127.89 E197.81686
G1 X157.76 Y127.54 E197.85620
G1 X155.92 Y126.74 E197.97282
G1 X156.46 Y124.14 E198.12705
G1 X159.58 Y124.14 E198.30868
G1 X164.63 Y124.16 E198.60237
G1 X169.43 Y124.14 E198.88084
G1 X172.30 Y124.16 E199.04788
G1 X172.56 Y124.10 E199.06329
G1 X173.31 Y124.31 E199.10854
G1 X174.12 Y124.80 E199.16333
G1 X174.60 Y125.61 E199.21833
G1 X174.76 Y126.18 E199.25284
G1 X174.75 Y132.18 E199.60169
G1 X174.75 Y133.85 E199.69852
G1 X174.76 Y134.11 E199.71404
G1 X174.72 Y134.48 E199.73534
G1 X174.60 Y135.07 E199.77059
G1 X174.37 Y135.68 E199.80842
G1 X174.09 Y136.21 E199.84337
G1 X173.70 Y136.72 E199.88079
G1 X173.41 Y137.00 E199.90402
G1 X174.58 Y138.17 E199.99978
G1 X174.58 Y138.37 E200.01140
G1 X174.78 Y138.57 E200.02784
G1 X174.78 Y139.37 E200.07434
G1 X174.98 Y139.57 E200.09078
G1 X174.98 Y143.95 E200.34535
G1 X174.78 Y144.15 E200.36179
G1 X174.78 Y144.35 E200.37342
G1 X174.58 Y144.55 E200.38986
G1 X174.58 Y144.95 E200.41311
G1 X173.98 Y145.55 E200.46238
G1 X173.98 Y147.03 E200.54829
G1 X174.10 Y147.20 E200.56094
G1 X174.38 Y147.70 E200.59376
G1 X174.66 Y148.52 E200.64447
G1 X174.74 Y149.03 E200.67452
G1 X174.76 Y149.35 E200.69328
G1 X174.75 Y149.56 E200.70538
G1 X174.77 Y152.73 E200.88940
G1 X176.58 Y153.03 E200.99574
G1 X176.58 Y157.55 E201.25840
G1 X174.50 Y159.62 E201.42879
G1 X174.10 Y159.82 E201.45484
G1 X173.80 Y160.12 E201.47983
G1 X173.99 Y161.35 E201.55190
G1 X174.09 Y162.67 E201.62863
G1 X174.10 Y163.89 E201.69977
G1 X174.10 Y163.96 E201.70396
G1 X174.01 Y165.31 E201.78218
G1 X173.84 Y166.62 E201.85897
G1 X173.56 Y167.91 E201.93567
G1 X173.20 Y169.18 E202.01253
G1 X172.74 Y170.42 E202.08930
G1 X172.20 Y171.62 E202.16599
G1 X171.60 Y172.73 E202.23943
G1 X171.57 Y172.79 E202.24359
G1 X170.86 Y173.90 E202.31961
G1 X170.08 Y174.96 E202.39631
G1 X169.26 Y175.92 E202.46968
G1 X169.21 Y175.97 E202.47372
G1 X168.29 Y176.90 E202.54991
G1 X167.29 Y177.77 E202.62662
G1 X166.24 Y178.56 E202.70335
G1 X165.13 Y179.28 E202.78014
G1 X164.01 Y179.89 E202.85410
G1 X163.95 Y179.93 E202.85857
G1 X162.77 Y180.47 E202.93376
G1 X161.53 Y180.93 E203.01049
G1 X160.27 Y181.31 E203.08727
G1 X158.98 Y181.59 E203.16389
G1 X158.31 Y181.69 E203.20326
G1 X156.35 Y181.87 E203.31735
G1 X155.01 Y181.87 E203.39529
G1 X153.74 Y181.75 E203.46972
G1 X153.12 Y181.69 E203.50610
G1 X152.41 Y181.59 E203.54779
G1 X151.12 Y181.31 E203.62448
G1 X149.85 Y180.94 E203.70125
G1 X148.61 Y180.47 E203.77802
G1 X147.41 Y179.92 E203.85482
G1 X146.31 Y179.31 E203.92820
G1 X146.25 Y179.28 E203.93202
G1 X145.14 Y178.57 E204.00839
G1 X144.09 Y177.78 E204.08505
G1 X143.16 Y176.96 E204.15710
G1 X143.09 Y176.91 E204.16222
G1 X142.16 Y175.97 E204.23870
G1 X141.30 Y174.97 E204.31536
G1 X140.51 Y173.91 E204.39213
G1 X139.80 Y172.80 E204.46896
G1 X139.20 Y171.68 E204.54253
G1 X139.16 Y171.62 E204.54700
G1 X138.63 Y170.43 E204.62252
G1 X138.18 Y169.19 E204.69930
G1 X137.81 Y167.92 E204.77606
G1 X137.54 Y166.63 E204.85275
G1 X137.36 Y165.32 E204.92956
G1 X137.28 Y164.10 E205.00067
G1 X137.27 Y164.03 E205.00489
G1 X137.28 Y162.68 E205.08313
G1 X137.38 Y161.37 E205.15991
G1 X137.58 Y160.06 E205.23668
G1 X137.87 Y158.77 E205.31343
G1 X138.04 Y158.19 E205.34888
G1 X130.36 Y155.09 E205.83032
G1 X129.29 Y154.66 E205.89782
G1 X129.15 Y152.62 E206.01659
G1 X133.14 Y150.34 E206.28364
G1 X133.11 Y150.32 E206.28617
G1 X133.41 Y148.23 E206.40914
G1 X137.51 Y147.06 E206.65710
G1 X138.30 Y145.08 E206.78093
G1 X142.27 Y144.95 E207.01191
G1 X143.47 Y143.25 E207.13330
G1 X146.22 Y143.85 E207.29658
G1 X146.22 Y137.03 E207.69297
G1 X147.32 Y137.03 E207.75719
G1 X147.32 Y126.60 E208.36347
G1 X147.33 Y126.13 E208.39056
G1 X147.39 Y125.74 E208.41347
G1 X147.89 Y124.15 E208.51038
G0 F12000 X148.23 Y124.61
G1 F2700 X149.80 Y124.61 E208.60140
G1 X150.81 Y124.61 E208.65981
G1 X154.53 Y124.61 E208.87649
G1 X154.92 Y126.47 E208.98682
G1 X153.40 Y127.12 E209.08286
G1 X152.78 Y127.50 E209.12515
G1 X152.33 Y127.86 E209.15875
G1 X151.92 Y128.28 E209.19249
G1 X151.56 Y128.74 E209.22651
G1 X151.26 Y129.24 E209.26056
G1 X151.03 Y129.77 E209.29425
G1 X150.84 Y130.35 E209.32976
G1 X150.74 Y130.91 E209.36271
G1 X150.69 Y131.50 E209.39720
G1 X150.72 Y132.07 E209.43037
G1 X150.82 Y132.68 E209.46590
G1 X150.98 Y133.22 E209.49882
G1 X151.20 Y133.75 E209.53206
G1 X151.49 Y134.26 E209.56621
G1 X151.84 Y134.74 E209.60052
G1 X152.24 Y135.17 E209.63515
G1 X152.69 Y135.55 E209.66909
G1 X153.17 Y135.87 E209.70242
G1 X153.70 Y136.14 E209.73697
G1 X154.23 Y136.33 E209.76992
G1 X154.80 Y136.47 E209.80406
G1 X155.39 Y136.54 E209.83871
G1 X155.98 Y136.54 E209.87289
G1 X156.57 Y136.47 E209.90742
G1 X157.12 Y136.34 E209.94030
G1 X157.68 Y136.13 E209.97485
G1 X158.18 Y135.88 E210.00781
G1 X158.68 Y135.55 E210.04237
G1 X159.13 Y135.17 E210.07680
G1 X159.52 Y134.75 E210.10962
G1 X159.87 Y134.28 E210.14415
G1 X160.16 Y133.77 E210.17828
G1 X160.39 Y133.22 E210.21263
G1 X160.55 Y132.67 E210.24594
G1 X160.65 Y132.09 E210.28030
G1 X160.68 Y131.50 E210.31469
G1 X160.63 Y130.91 E210.34907
G1 X160.53 Y130.35 E210.38180
G1 X160.35 Y129.78 E210.41658
G1 X160.11 Y129.25 E210.45061
G1 X159.82 Y128.76 E210.48345
G1 X159.45 Y128.28 E210.51857
G1 X159.05 Y127.87 E210.55215
G1 X158.60 Y127.51 E210.58542
G1 X157.97 Y127.12 E210.62857
G1 X156.45 Y126.46 E210.72481
G1 X156.84 Y124.61 E210.83499
G1 X159.58 Y124.61 E210.99454
G1 X164.63 Y124.63 E211.28823
G1 X169.43 Y124.61 E211.56669
G1 X172.35 Y124.62 E211.73670
G1 X172.54 Y124.58 E211.74831
G1 X173.12 Y124.74 E211.78316
G1 X173.78 Y125.14 E211.82755
G1 X174.17 Y125.79 E211.87208
G1 X174.30 Y126.24 E211.89923
G1 X174.29 Y132.18 E212.24441
G1 X174.29 Y133.85 E212.34136
G1 X174.29 Y134.09 E212.35566
G1 X174.26 Y134.41 E212.37409
G1 X174.15 Y134.94 E212.40568
G1 X173.95 Y135.49 E212.43959
G1 X173.69 Y135.96 E212.47059
G1 X173.35 Y136.41 E212.50383
G1 X172.93 Y136.82 E212.53786
G1 X172.72 Y136.97 E212.55277
G1 X174.11 Y138.36 E212.66727
G1 X174.11 Y138.56 E212.67890
G1 X174.31 Y138.76 E212.69534
G1 X174.31 Y139.56 E212.74184
G1 X174.51 Y139.76 E212.75827
G1 X174.51 Y143.75 E212.99041
G1 X174.31 Y143.96 E213.00685
G1 X174.31 Y144.16 E213.01848
G1 X174.11 Y144.35 E213.03492
G1 X174.11 Y144.75 E213.05817
G1 X173.51 Y145.35 E213.10748
G1 X173.51 Y146.60 E213.18008
G1 X172.96 Y146.61 E213.21216
G1 X173.11 Y146.72 E213.22332
G1 X173.44 Y147.08 E213.25154
G1 X173.71 Y147.45 E213.27809
G1 X173.95 Y147.88 E213.30683
G1 X174.20 Y148.64 E213.35300
G1 X174.28 Y149.09 E213.37957
G1 X174.30 Y149.36 E213.39553
G1 X174.29 Y149.55 E213.40647
G1 X174.31 Y152.80 E213.59520
G1 X174.31 Y153.12 E213.61414
G1 X176.11 Y153.42 E213.72056
G1 X176.11 Y157.35 E213.94904
G1 X174.23 Y159.24 E214.10382
G1 X173.83 Y159.44 E214.12973
G1 X173.29 Y159.97 E214.17379
G1 X173.33 Y160.13 E214.18315
G1 X173.52 Y161.40 E214.25804
G1 X173.62 Y162.69 E214.33284
G1 X173.63 Y163.91 E214.40364
G1 X173.63 Y163.96 E214.40696
G1 X173.55 Y165.26 E214.48250
G1 X173.38 Y166.53 E214.55735
G1 X173.11 Y167.79 E214.63209
G1 X172.75 Y169.03 E214.70701
G1 X172.31 Y170.24 E214.78186
G1 X171.78 Y171.41 E214.85658
G1 X171.19 Y172.51 E214.92903
G1 X171.16 Y172.56 E214.93230
G1 X170.48 Y173.63 E215.00634
G1 X169.71 Y174.67 E215.08109
G1 X168.90 Y175.61 E215.15347
G1 X168.87 Y175.65 E215.15668
G1 X167.97 Y176.56 E215.23083
G1 X167.00 Y177.40 E215.30555
G1 X165.97 Y178.18 E215.38038
G1 X164.89 Y178.88 E215.45523
G1 X163.79 Y179.48 E215.52804
G1 X163.74 Y179.51 E215.53155
G1 X162.59 Y180.04 E215.60492
G1 X161.39 Y180.49 E215.67972
G1 X160.15 Y180.85 E215.75457
G1 X158.90 Y181.13 E215.82930
G1 X158.25 Y181.22 E215.86702
G1 X156.33 Y181.41 E215.97918
G1 X155.04 Y181.41 E216.05451
G1 X153.78 Y181.29 E216.12760
G1 X153.17 Y181.23 E216.16333
G1 X152.49 Y181.13 E216.20344
G1 X151.23 Y180.86 E216.27817
G1 X150.00 Y180.49 E216.35299
G1 X148.79 Y180.04 E216.42784
G1 X147.62 Y179.51 E216.50269
G1 X146.53 Y178.91 E216.57511
G1 X146.48 Y178.88 E216.57813
G1 X145.41 Y178.19 E216.65235
G1 X144.38 Y177.41 E216.72711
G1 X143.46 Y176.61 E216.79858
G1 X143.41 Y176.56 E216.80250
G1 X142.50 Y175.66 E216.87685
G1 X141.66 Y174.68 E216.95161
G1 X140.90 Y173.65 E217.02642
G1 X140.21 Y172.56 E217.10127
G1 X139.61 Y171.46 E217.17378
G1 X139.58 Y171.41 E217.17726
G1 X139.06 Y170.25 E217.25093
G1 X138.62 Y169.05 E217.32579
G1 X138.26 Y167.81 E217.40061
G1 X138.00 Y166.55 E217.47534
G1 X137.82 Y165.28 E217.55022
G1 X137.74 Y164.05 E217.62168
G1 X137.74 Y164.00 E217.62431
G1 X137.74 Y162.70 E217.69987
G1 X137.84 Y161.42 E217.77473
G1 X138.04 Y160.15 E217.84956
G1 X138.32 Y158.89 E217.92435
G1 X138.62 Y157.91 E217.98361
G1 X130.54 Y154.66 E218.48980
G1 X129.73 Y154.33 E218.54030
G1 X129.64 Y152.88 E218.62511
G1 X134.05 Y150.36 E218.92028
G1 X133.61 Y150.09 E218.95040
G1 X133.83 Y148.59 E219.03819
G1 X138.39 Y147.30 E219.31401
G1 X138.06 Y146.96 E219.34171
G1 X138.62 Y145.54 E219.43065
G1 X143.01 Y145.40 E219.68605
G1 X142.78 Y145.03 E219.71094
G1 X143.67 Y143.77 E219.80097
G1 X146.68 Y144.43 E219.97989
G1 X146.68 Y137.49 E220.38279
G1 X147.79 Y137.49 E220.44701
G1 X147.79 Y126.60 E221.08002
G1 X147.80 Y126.17 E221.10508
G1 X147.85 Y125.84 E221.12429
G1 X148.23 Y124.61 E221.19920
G0 F12000 X148.58 Y125.08
G1 F2700 X149.80 Y125.07 E221.27040
G1 X154.15 Y125.07 E221.52340
G1 X154.38 Y126.19 E221.58957
G1 X153.19 Y126.70 E221.66515
G1 X152.51 Y127.12 E221.71161
G1 X152.01 Y127.52 E221.74857
G1 X151.57 Y127.97 E221.78503
G1 X151.18 Y128.48 E221.82276
G1 X150.85 Y129.03 E221.85975
G1 X150.59 Y129.61 E221.89667
G1 X150.39 Y130.24 E221.93540
G1 X150.27 Y130.85 E221.97153
G1 X150.23 Y131.51 E222.00976
G1 X150.26 Y132.11 E222.04490
G1 X150.37 Y132.78 E222.08442
G1 X150.54 Y133.38 E222.12026
G1 X150.78 Y133.95 E222.15646
G1 X151.10 Y134.51 E222.19402
G1 X151.48 Y135.04 E222.23170
G1 X151.92 Y135.51 E222.26896
G1 X152.41 Y135.93 E222.30669
G1 X152.94 Y136.27 E222.34326
G1 X153.50 Y136.56 E222.38032
G1 X154.10 Y136.78 E222.41699
G1 X154.72 Y136.93 E222.45412
G1 X155.36 Y137.01 E222.49182
G1 X156.01 Y137.01 E222.52948
G1 X156.65 Y136.93 E222.56694
G1 X157.26 Y136.78 E222.60328
G1 X157.86 Y136.56 E222.64087
G1 X158.41 Y136.28 E222.67651
G1 X158.96 Y135.92 E222.71489
G1 X159.45 Y135.51 E222.75196
G1 X159.88 Y135.05 E222.78856
G1 X160.26 Y134.53 E222.82572
G1 X160.58 Y133.97 E222.86346
G1 X160.83 Y133.38 E222.90096
G1 X161.00 Y132.77 E222.93748
G1 X161.11 Y132.14 E222.97479
G1 X161.14 Y131.50 E223.01226
G1 X161.09 Y130.84 E223.05037
G1 X160.98 Y130.24 E223.08588
G1 X160.79 Y129.62 E223.12375
G1 X160.52 Y129.03 E223.16111
G1 X160.20 Y128.50 E223.19729
G1 X159.81 Y127.98 E223.23519
G1 X159.36 Y127.53 E223.27226
G1 X158.87 Y127.13 E223.30888
G1 X158.19 Y126.71 E223.35532
G1 X156.98 Y126.19 E223.43169
G1 X157.22 Y125.07 E223.49776
G1 X159.58 Y125.07 E223.63522
G1 X164.63 Y125.09 E223.92897
G1 X169.43 Y125.08 E224.20744
G1 X172.40 Y125.09 E224.38035
G1 X172.53 Y125.06 E224.38822
G1 X172.94 Y125.17 E224.41263
G1 X173.44 Y125.47 E224.44662
G1 X173.74 Y125.98 E224.48074
G1 X173.83 Y126.31 E224.50047
G1 X173.82 Y132.18 E224.84194
G1 X173.82 Y133.85 E224.93929
G1 X173.82 Y134.08 E224.95214
G1 X173.80 Y134.34 E224.96771
G1 X173.70 Y134.81 E224.99568
G1 X173.52 Y135.30 E225.02563
G1 X173.30 Y135.71 E225.05265
G1 X173.00 Y136.10 E225.08174
G1 X172.63 Y136.46 E225.11150
G1 X172.20 Y136.76 E225.14184
G1 X171.77 Y136.96 E225.16955
G1 X171.20 Y137.16 E225.20464
G1 X172.25 Y137.16 E225.26561
G1 X173.65 Y138.55 E225.38028
G1 X173.65 Y138.75 E225.39190
G1 X173.84 Y138.95 E225.40834
G1 X173.84 Y139.75 E225.45484
G1 X174.04 Y139.95 E225.47128
G1 X174.04 Y143.56 E225.68098
G1 X173.84 Y143.76 E225.69742
G1 X173.84 Y143.96 E225.70905
G1 X173.65 Y144.16 E225.72548
G1 X173.65 Y144.56 E225.74873
G1 X173.04 Y145.16 E225.79801
G1 X173.04 Y146.14 E225.85503
G1 X170.40 Y146.16 E226.00894
G1 X167.44 Y147.15 E226.18982
G1 X167.44 Y147.23 E226.19464
G1 X169.62 Y146.49 E226.32799
G1 X169.62 Y146.50 E226.32805
G1 X170.01 Y146.36 E226.35215
G1 X170.60 Y146.26 E226.38686
G1 X170.91 Y146.26 E226.40482
G1 X171.20 Y146.28 E226.42209
G1 X171.51 Y146.34 E226.44019
G1 X172.01 Y146.53 E226.47115
G1 X172.28 Y146.68 E226.48952
G1 X172.80 Y147.07 E226.52701
G1 X173.08 Y147.38 E226.55123
G1 X173.31 Y147.70 E226.57437
G1 X173.52 Y148.07 E226.59905
G1 X173.75 Y148.75 E226.64068
G1 X173.81 Y149.14 E226.66372
G1 X173.83 Y149.37 E226.67695
G1 X173.82 Y149.53 E226.68608
G1 X173.84 Y152.80 E226.87626
G1 X173.84 Y153.52 E226.91811
G1 X175.65 Y153.82 E227.02464
G1 X175.65 Y157.16 E227.21894
G1 X173.95 Y158.85 E227.35810
G1 X173.55 Y159.06 E227.38414
G1 X172.78 Y159.82 E227.44740
G1 X172.87 Y160.22 E227.47069
G1 X173.06 Y161.46 E227.54365
G1 X173.16 Y162.71 E227.61653
G1 X173.17 Y163.92 E227.68686
G1 X173.17 Y163.96 E227.68936
G1 X173.09 Y165.21 E227.76228
G1 X172.92 Y166.46 E227.83520
G1 X172.66 Y167.68 E227.90803
G1 X172.31 Y168.89 E227.98095
G1 X171.88 Y170.06 E228.05382
G1 X171.37 Y171.21 E228.12669
G1 X170.78 Y172.29 E228.19815
G1 X170.76 Y172.32 E228.20052
G1 X170.10 Y173.37 E228.27254
G1 X169.35 Y174.38 E228.34533
G1 X168.55 Y175.30 E228.41647
G1 X168.55 Y175.31 E228.41655
G1 X168.52 Y175.34 E228.41919
G1 X167.65 Y176.22 E228.49124
G1 X166.71 Y177.04 E228.56406
G1 X165.70 Y177.80 E228.63694
G1 X164.65 Y178.48 E228.70982
G1 X163.57 Y179.07 E228.78154
G1 X163.53 Y179.09 E228.78404
G1 X162.41 Y179.61 E228.85564
G1 X161.24 Y180.05 E228.92851
G1 X160.03 Y180.40 E229.00141
G1 X158.81 Y180.67 E229.07418
G1 X158.20 Y180.76 E229.11031
G1 X156.31 Y180.94 E229.22049
G1 X155.06 Y180.94 E229.29331
G1 X153.23 Y180.77 E229.40016
G1 X152.57 Y180.67 E229.43862
G1 X151.35 Y180.41 E229.51143
G1 X150.15 Y180.05 E229.58433
G1 X148.97 Y179.61 E229.65718
G1 X147.83 Y179.09 E229.73008
G1 X146.75 Y178.50 E229.80149
G1 X146.72 Y178.48 E229.80372
G1 X145.68 Y177.81 E229.87588
G1 X144.68 Y177.05 E229.94865
G1 X143.76 Y176.25 E230.01959
G1 X143.76 Y176.25 E230.01965
G1 X143.72 Y176.22 E230.02241
G1 X142.85 Y175.34 E230.09462
G1 X142.03 Y174.39 E230.16744
G1 X141.28 Y173.38 E230.24031
G1 X140.61 Y172.32 E230.31322
G1 X140.02 Y171.24 E230.38474
G1 X140.00 Y171.21 E230.38723
G1 X139.49 Y170.08 E230.45901
G1 X139.06 Y168.90 E230.53193
G1 X138.72 Y167.70 E230.60482
G1 X138.46 Y166.47 E230.67765
G1 X138.28 Y165.23 E230.75052
G1 X138.20 Y164.00 E230.82199
G1 X138.20 Y163.98 E230.82334
G1 X138.21 Y162.72 E230.89634
G1 X138.31 Y161.47 E230.96922
G1 X138.50 Y160.23 E231.04206
G1 X138.77 Y159.01 E231.11493
G1 X139.13 Y157.81 E231.18783
G1 X139.19 Y157.65 E231.19797
G1 X130.71 Y154.23 E231.72954
G1 X130.18 Y154.01 E231.76309
G1 X130.12 Y153.14 E231.81400
G1 X134.94 Y150.39 E232.13628
G1 X134.50 Y150.10 E232.16706
G1 X134.12 Y149.85 E232.19352
G1 X134.25 Y148.96 E232.24626
G1 X139.27 Y147.53 E232.55004
G1 X138.93 Y147.18 E232.57840
G1 X138.60 Y146.85 E232.60577
G1 X138.94 Y145.99 E232.65915
G1 X143.84 Y145.84 E232.94398
G1 X143.34 Y145.05 E232.99797
G1 X143.88 Y144.29 E233.05200
G1 X147.15 Y145.00 E233.24664
G1 X147.15 Y137.96 E233.65616
G1 X148.25 Y137.96 E233.72039
G1 X148.25 Y126.61 E234.38007
G1 X148.26 Y126.21 E234.40322
G1 X148.30 Y125.95 E234.41860
G1 X148.58 Y125.08 E234.47164
G0 F12000 X148.92 Y125.54
G1 F2700 X150.81 Y125.54 E234.58131
G1 X153.77 Y125.54 E234.75388
G1 X153.85 Y125.91 E234.77596
G1 X152.97 Y126.29 E234.83141
G1 X152.24 Y126.74 E234.88157
G1 X151.70 Y127.17 E234.92162
G1 X151.22 Y127.66 E234.96161
G1 X150.79 Y128.21 E235.00204
G1 X150.44 Y128.81 E235.04271
G1 X150.15 Y129.44 E235.08259
G1 X149.94 Y130.12 E235.12390
G1 X149.94 Y130.13 E235.12445
G1 X149.81 Y130.79 E235.16390
G1 X149.76 Y131.49 E235.20440
G1 X149.76 Y131.50 E235.20481
G1 X149.79 Y132.17 E235.24397
G1 X149.91 Y132.85 E235.28432
G1 X149.91 Y132.88 E235.28597
G1 X150.10 Y133.53 E235.32538
G1 X150.36 Y134.16 E235.36492
G1 X150.71 Y134.77 E235.40560
G1 X151.12 Y135.33 E235.44616
G1 X151.59 Y135.84 E235.48663
G1 X152.12 Y136.29 E235.52720
G1 X152.13 Y136.30 E235.52761
G1 X152.69 Y136.67 E235.56707
G1 X153.32 Y136.99 E235.60773
G1 X153.96 Y137.23 E235.64756
G1 X154.64 Y137.39 E235.68792
G1 X155.33 Y137.47 E235.72854
G1 X156.04 Y137.47 E235.76969
G1 X156.72 Y137.39 E235.80979
G1 X156.73 Y137.39 E235.81026
G1 X157.39 Y137.23 E235.84965
G1 X158.05 Y136.99 E235.89040
G1 X158.65 Y136.69 E235.92962
G1 X159.24 Y136.30 E235.97040
G1 X159.78 Y135.84 E236.01148
G1 X160.24 Y135.34 E236.05100
G1 X160.65 Y134.79 E236.09094
G1 X161.00 Y134.18 E236.13199
G1 X161.27 Y133.53 E236.17306
G1 X161.46 Y132.88 E236.21208
G1 X161.57 Y132.19 E236.25298
G1 X161.61 Y131.48 E236.29395
G1 X161.56 Y130.80 E236.33404
G1 X161.56 Y130.78 E236.33468
G1 X161.43 Y130.12 E236.37423
G1 X161.22 Y129.46 E236.41454
G1 X160.94 Y128.82 E236.45522
G1 X160.59 Y128.24 E236.49443
G1 X160.16 Y127.68 E236.53535
G1 X159.67 Y127.18 E236.57624
G1 X159.15 Y126.75 E236.61538
G1 X158.40 Y126.30 E236.66609
G1 X157.52 Y125.91 E236.72219
G1 X157.59 Y125.54 E236.74421
G1 X172.45 Y125.56 E237.60773
G1 X172.52 Y125.54 E237.61172
G1 X172.75 Y125.61 E237.62567
G1 X173.10 Y125.81 E237.64931
G1 X173.31 Y126.16 E237.67296
G1 X173.36 Y126.37 E237.68533
G1 X173.36 Y133.85 E238.12049
G1 X173.36 Y134.06 E238.13223
G1 X173.34 Y134.28 E238.14494
G1 X173.25 Y134.69 E238.16928
G1 X173.10 Y135.10 E238.19527
G1 X172.91 Y135.45 E238.21834
G1 X172.65 Y135.79 E238.24327
G1 X172.34 Y136.10 E238.26867
G1 X171.97 Y136.35 E238.29463
G1 X171.59 Y136.53 E238.31868
G1 X170.29 Y136.98 E238.39863
G1 X168.41 Y137.61 E238.51428
G1 X167.13 Y138.05 E238.59260
G1 X162.35 Y139.67 E238.88622
G1 X162.31 Y139.69 E238.88905
G1 X162.27 Y139.72 E238.89162
G1 X162.23 Y139.74 E238.89433
G1 X162.21 Y139.77 E238.89648
G1 X162.37 Y139.72 E238.90670
G1 X162.52 Y139.64 E238.91640
G1 X162.61 Y139.64 E238.92164
G1 X165.05 Y138.82 E239.07070
G1 X166.98 Y138.82 E239.18305
G1 X166.98 Y139.18 E239.20368
G1 X167.18 Y139.11 E239.21605
G1 X167.57 Y138.92 E239.24150
G1 X168.78 Y138.51 E239.31551
G1 X169.17 Y138.32 E239.34106
G1 X170.38 Y137.91 E239.41508
G1 X170.96 Y137.62 E239.45241
G1 X172.06 Y137.62 E239.51646
G1 X173.18 Y138.75 E239.60868
G1 X173.18 Y138.95 E239.62031
G1 X173.38 Y139.15 E239.63675
G1 X173.38 Y139.95 E239.68324
G1 X173.58 Y140.15 E239.69968
G1 X173.58 Y143.37 E239.88695
G1 X173.38 Y143.57 E239.90339
G1 X173.38 Y143.77 E239.91502
G1 X173.18 Y143.97 E239.93146
G1 X173.18 Y144.37 E239.95470
G1 X172.58 Y144.97 E240.00402
G1 X172.58 Y145.68 E240.04535
G1 X170.32 Y145.70 E240.17665
G1 X166.98 Y146.81 E240.38135
G1 X166.98 Y147.88 E240.44354
G1 X170.12 Y146.81 E240.63664
G1 X170.64 Y146.73 E240.66705
G1 X170.89 Y146.72 E240.68159
G1 X171.14 Y146.74 E240.69594
G1 X171.38 Y146.79 E240.71041
G1 X171.81 Y146.95 E240.73730
G1 X172.03 Y147.07 E240.75163
G1 X172.48 Y147.42 E240.78473
G1 X172.72 Y147.67 E240.80500
G1 X172.92 Y147.95 E240.82477
G1 X173.09 Y148.26 E240.84542
G1 X173.30 Y148.87 E240.88251
G1 X173.35 Y149.20 E240.90207
G1 X173.36 Y149.38 E240.91250
G1 X173.36 Y149.54 E240.92198
G1 X173.37 Y152.80 E241.11140
G1 X173.37 Y153.91 E241.17615
G1 X175.18 Y154.21 E241.28280
G1 X175.18 Y156.97 E241.44293
G1 X173.68 Y158.47 E241.56647
G1 X173.28 Y158.67 E241.59239
G1 X172.27 Y159.68 E241.67516
G1 X172.41 Y160.30 E241.71241
G1 X172.60 Y161.51 E241.78337
G1 X172.69 Y162.73 E241.85432
G1 X172.70 Y163.93 E241.92407
G1 X172.70 Y163.96 E241.92593
G1 X172.62 Y165.16 E241.99617
G1 X172.46 Y166.38 E242.06715
G1 X172.21 Y167.57 E242.13803
G1 X171.87 Y168.74 E242.20901
G1 X171.45 Y169.89 E242.27997
G1 X170.95 Y171.00 E242.35086
G1 X170.37 Y172.07 E242.42139
G1 X170.36 Y172.09 E242.42284
G1 X169.71 Y173.10 E242.49280
G1 X168.99 Y174.09 E242.56372
G1 X168.20 Y175.00 E242.63417
G1 X168.18 Y175.02 E242.63561
G1 X167.33 Y175.88 E242.70564
G1 X166.41 Y176.68 E242.77654
G1 X165.44 Y177.41 E242.84746
G1 X164.41 Y178.08 E242.91841
G1 X163.35 Y178.66 E242.98898
G1 X163.32 Y178.68 E242.99049
G1 X162.23 Y179.18 E243.06030
G1 X161.09 Y179.60 E243.13125
G1 X159.92 Y179.95 E243.20222
G1 X158.73 Y180.21 E243.27308
G1 X158.14 Y180.30 E243.30756
G1 X156.29 Y180.47 E243.41581
G1 X155.08 Y180.47 E243.48603
G1 X153.28 Y180.30 E243.59094
G1 X152.66 Y180.21 E243.62776
G1 X151.46 Y179.95 E243.69861
G1 X150.29 Y179.61 E243.76957
G1 X149.15 Y179.18 E243.84050
G1 X148.04 Y178.67 E243.91148
G1 X146.98 Y178.09 E243.98176
G1 X146.98 Y178.09 E243.98182
G1 X146.96 Y178.08 E243.98336
G1 X145.94 Y177.42 E244.05342
G1 X144.97 Y176.69 E244.12432
G1 X144.06 Y175.89 E244.19477
G1 X144.04 Y175.88 E244.19617
G1 X143.19 Y175.02 E244.26624
G1 X142.39 Y174.10 E244.33712
G1 X141.66 Y173.12 E244.40808
G1 X141.01 Y172.09 E244.47906
G1 X140.43 Y171.02 E244.54951
G1 X140.42 Y171.00 E244.55097
G1 X139.93 Y169.90 E244.62089
G1 X139.50 Y168.76 E244.69191
G1 X139.17 Y167.58 E244.76284
G1 X138.91 Y166.39 E244.83372
G1 X138.75 Y165.18 E244.90466
G1 X138.67 Y163.97 E244.97514
G1 X138.67 Y163.95 E244.97625
G1 X138.68 Y162.74 E245.04658
G1 X138.77 Y161.53 E245.11753
G1 X138.95 Y160.32 E245.18842
G1 X139.22 Y159.13 E245.25934
G1 X139.57 Y157.96 E245.33029
G1 X139.77 Y157.44 E245.36263
G1 X139.70 Y157.35 E245.36935
G1 X130.62 Y153.69 E245.93829
G1 X130.60 Y153.40 E245.95524
G1 X135.82 Y150.43 E246.30428
G1 X134.76 Y149.71 E246.37873
G1 X134.62 Y149.62 E246.38842
G1 X134.66 Y149.32 E246.40597
G1 X140.15 Y147.77 E246.73743
G1 X139.27 Y146.85 E246.81104
G1 X139.15 Y146.73 E246.82107
G1 X139.26 Y146.45 E246.83889
G1 X144.66 Y146.28 E247.15314
G1 X143.90 Y145.06 E247.23638
G1 X144.08 Y144.81 E247.25441
G1 X147.61 Y145.58 E247.46468
G1 X147.61 Y138.43 E247.88072
G1 X148.72 Y138.43 E247.94495
G1 X148.72 Y126.62 E248.63131
G1 X148.73 Y126.25 E248.65253
G1 X148.76 Y126.05 E248.66416
G1 X148.92 Y125.54 E248.69519
G0 F12000 X152.63 Y128.88
G1 F2700 X152.34 Y129.27 E248.72349
G1 X152.09 Y129.68 E248.75115
G1 X151.90 Y130.10 E248.77836
G1 X151.75 Y130.58 E248.80746
G1 X151.66 Y131.03 E248.83402
G1 X151.63 Y131.53 E248.86280
G1 X151.65 Y131.96 E248.88829
G1 X151.73 Y132.48 E248.91875
G1 X151.86 Y132.90 E248.94435
G1 X152.04 Y133.34 E248.97173
G1 X152.28 Y133.76 E248.99973
G1 X152.56 Y134.14 E249.02751
G1 X152.89 Y134.50 E249.05556
G1 X153.25 Y134.80 E249.08323
G1 X153.64 Y135.06 E249.11057
G1 X154.06 Y135.28 E249.13807
G1 X154.50 Y135.44 E249.16527
G1 X154.97 Y135.55 E249.19319
G1 X155.44 Y135.61 E249.22088
G1 X155.93 Y135.61 E249.24912
G1 X156.41 Y135.55 E249.27705
G1 X156.85 Y135.45 E249.30346
G1 X157.31 Y135.28 E249.33200
G1 X157.71 Y135.07 E249.35802
G1 X158.12 Y134.80 E249.38710
G1 X158.49 Y134.49 E249.41461
G1 X158.79 Y134.16 E249.44093
G1 X159.09 Y133.77 E249.46940
G1 X159.32 Y133.35 E249.49753
G1 X159.51 Y132.91 E249.52519
G1 X159.64 Y132.47 E249.55185
G1 X159.72 Y131.99 E249.58003
G1 X159.74 Y131.51 E249.60802
G1 X159.71 Y131.02 E249.63633
G1 X159.62 Y130.58 E249.66262
G1 X159.48 Y130.12 E249.69051
G1 X159.28 Y129.68 E249.71876
G1 X159.04 Y129.28 E249.74534
G1 X158.75 Y128.90 E249.77361
G1 X158.42 Y128.56 E249.80099
G1 X158.06 Y128.28 E249.82752
G1 X157.54 Y127.95 E249.86340
G1 X155.69 Y127.15 E249.98056
G1 X153.84 Y127.95 E250.09792
G1 X153.32 Y128.26 E250.13311
G1 X152.95 Y128.56 E250.16060
G1 X152.63 Y128.88 E250.18694
G0 F12000 X152.99 Y129.19
G1 F2700 X152.72 Y129.53 E250.21213
G1 X152.50 Y129.90 E250.23687
G1 X152.33 Y130.27 E250.26065
G1 X152.20 Y130.70 E250.28662
G1 X152.12 Y131.09 E250.30981
G1 X152.09 Y131.53 E250.33534
G1 X152.11 Y131.92 E250.35803
G1 X152.19 Y132.37 E250.38489
G1 X152.30 Y132.75 E250.40796
G1 X152.46 Y133.13 E250.43153
G1 X152.67 Y133.50 E250.45636
G1 X152.92 Y133.85 E250.48137
G1 X153.21 Y134.16 E250.50646
G1 X153.53 Y134.43 E250.53029
G1 X153.87 Y134.66 E250.55441
G1 X154.25 Y134.85 E250.57939
G1 X154.63 Y134.99 E250.60285
G1 X155.05 Y135.09 E250.62779
G1 X155.47 Y135.14 E250.65243
G1 X155.90 Y135.14 E250.67719
G1 X156.32 Y135.09 E250.70219
G1 X156.71 Y135.00 E250.72543
G1 X157.12 Y134.85 E250.75033
G1 X157.48 Y134.67 E250.77393
G1 X157.84 Y134.43 E250.79924
G1 X158.16 Y134.16 E250.82341
G1 X158.44 Y133.85 E250.84775
G1 X158.70 Y133.51 E250.87231
G1 X158.90 Y133.15 E250.89678
G1 X159.07 Y132.75 E250.92171
G1 X159.18 Y132.36 E250.94535
G1 X159.25 Y131.94 E250.97016
G1 X159.28 Y131.52 E250.99466
G1 X159.24 Y131.09 E251.01972
G1 X159.17 Y130.69 E251.04327
G1 X159.04 Y130.28 E251.06799
G1 X158.87 Y129.89 E251.09292
G1 X158.66 Y129.55 E251.11648
G1 X158.40 Y129.21 E251.14139
G1 X158.10 Y128.91 E251.16577
G1 X157.80 Y128.66 E251.18874
G1 X157.33 Y128.37 E251.22078
G1 X155.69 Y127.66 E251.32461
G1 X154.05 Y128.36 E251.42830
G1 X153.58 Y128.65 E251.46010
G1 X153.27 Y128.90 E251.48379
G1 X152.99 Y129.19 E251.50705
G0 F12000 X153.34 Y129.50
G1 F2700 X153.10 Y129.80 E251.52892
G1 X152.92 Y130.11 E251.54990
G1 X152.77 Y130.44 E251.57094
G1 X152.65 Y130.82 E251.59401
G1 X152.59 Y131.15 E251.61370
G1 X152.56 Y131.53 E251.63584
G1 X152.58 Y131.87 E251.65563
G1 X152.64 Y132.27 E251.67943
G1 X152.74 Y132.59 E251.69863
G1 X152.88 Y132.93 E251.72001
G1 X153.06 Y133.25 E251.74148
G1 X153.28 Y133.55 E251.76291
G1 X153.53 Y133.82 E251.78429
G1 X153.82 Y134.06 E251.80627
G1 X154.10 Y134.25 E251.82602
G1 X154.44 Y134.42 E251.84824
G1 X154.78 Y134.55 E251.86904
G1 X155.13 Y134.63 E251.89027
G1 X155.50 Y134.68 E251.91192
G1 X155.87 Y134.68 E251.93337
G1 X156.24 Y134.63 E251.95509
G1 X156.58 Y134.55 E251.97510
G1 X156.94 Y134.42 E251.99734
G1 X157.24 Y134.27 E252.01714
G1 X157.56 Y134.05 E252.03963
G1 X157.84 Y133.82 E252.06058
G1 X158.09 Y133.55 E252.08180
G1 X158.30 Y133.26 E252.10296
G1 X158.49 Y132.93 E252.12495
G1 X158.63 Y132.60 E252.14602
G1 X158.73 Y132.26 E252.16646
G1 X158.79 Y131.88 E252.18869
G1 X158.81 Y131.52 E252.20958
G1 X158.78 Y131.15 E252.23137
G1 X158.72 Y130.80 E252.25190
G1 X158.60 Y130.45 E252.27328
G1 X158.45 Y130.11 E252.29529
G1 X158.27 Y129.81 E252.31530
G1 X158.04 Y129.51 E252.33707
G1 X157.78 Y129.25 E252.35889
G1 X157.53 Y129.04 E252.37791
G1 X157.11 Y128.78 E252.40664
G1 X155.69 Y128.16 E252.49662
G1 X154.27 Y128.78 E252.58652
G1 X153.85 Y129.03 E252.61472
G1 X153.58 Y129.25 E252.63534
G1 X153.34 Y129.50 E252.65548
G0 F12000 X153.69 Y129.81
G1 F2700 X153.49 Y130.06 E252.67400
G1 X153.33 Y130.33 E252.69225
G1 X153.21 Y130.60 E252.70982
G1 X153.10 Y130.93 E252.72983
G1 X153.05 Y131.21 E252.74616
G1 X153.03 Y131.53 E252.76498
G1 X153.04 Y131.82 E252.78191
G1 X153.10 Y132.16 E252.80206
G1 X153.18 Y132.44 E252.81895
G1 X153.30 Y132.72 E252.83643
G1 X153.45 Y133.00 E252.85516
G1 X153.63 Y133.25 E252.87301
G1 X153.85 Y133.48 E252.89143
G1 X154.09 Y133.69 E252.90982
G1 X154.35 Y133.85 E252.92760
G1 X154.62 Y133.99 E252.94551
G1 X154.91 Y134.10 E252.96322
G1 X155.21 Y134.17 E252.98146
G1 X155.53 Y134.21 E253.00007
G1 X155.84 Y134.21 E253.01803
G1 X156.16 Y134.17 E253.03688
G1 X156.44 Y134.11 E253.05361
G1 X156.74 Y134.00 E253.07226
G1 X157.01 Y133.86 E253.08965
G1 X157.28 Y133.68 E253.10840
G1 X157.52 Y133.48 E253.12659
G1 X157.72 Y133.26 E253.14410
G1 X157.91 Y133.00 E253.16260
G1 X158.06 Y132.74 E253.18056
G1 X158.19 Y132.44 E253.19925
G1 X158.27 Y132.15 E253.21667
G1 X158.33 Y131.84 E253.23494
G1 X158.34 Y131.53 E253.25327
G1 X158.32 Y131.21 E253.27186
G1 X158.26 Y130.92 E253.28861
G1 X158.17 Y130.62 E253.30736
G1 X158.03 Y130.32 E253.32606
G1 X157.89 Y130.07 E253.34303
G1 X157.69 Y129.82 E253.36180
G1 X157.48 Y129.60 E253.37956
G1 X157.25 Y129.42 E253.39630
G1 X156.89 Y129.20 E253.42077
G1 X155.69 Y128.67 E253.49719
G1 X154.48 Y129.19 E253.57379
G1 X154.12 Y129.41 E253.59784
G1 X153.89 Y129.60 E253.61508
G1 X153.69 Y129.81 E253.63222
G1 F2400 E252.43222
G0 F12000 X150.12 Y136.31
;TYPE:WALL-INNER
G1 F2400 E253.63222
G1 F2700 X150.63 Y136.86 E253.67593
G1 X151.23 Y137.37 E253.72145
G1 X151.99 Y137.88 E253.77515
G1 X152.76 Y138.28 E253.82535
G1 X153.38 Y138.50 E253.86400
G1 X150.12 Y138.50 E254.05400
G1 X150.12 Y136.31 E254.18164
G0 F12000 X155.53 Y138.87
G1 F2700 X156.12 Y138.87 E254.21593
G1 X156.86 Y138.78 E254.25930
G1 X156.96 Y138.77 E254.26514
G1 X157.79 Y138.57 E254.31511
G1 X158.61 Y138.28 E254.36538
G1 X159.36 Y137.90 E254.41420
G1 X160.08 Y137.42 E254.46446
G1 X160.74 Y136.86 E254.51473
G1 X161.31 Y136.25 E254.56363
G1 X161.83 Y135.55 E254.61395
G1 X162.25 Y134.80 E254.66426
G1 X162.59 Y134.00 E254.71461
G1 X162.82 Y133.19 E254.76349
G1 X162.97 Y132.34 E254.81370
G1 X163.01 Y131.47 E254.86398
G1 X162.95 Y130.70 E254.90908
G1 X162.95 Y130.62 E254.91350
G1 X162.79 Y129.78 E254.96332
G1 X162.53 Y128.96 E255.01345
G1 X162.18 Y128.17 E255.06379
G1 X161.75 Y127.45 E255.11262
G1 X161.36 Y126.94 E255.14951
G1 X164.63 Y126.96 E255.33981
G1 X169.42 Y126.94 E255.61821
G1 X171.97 Y126.95 E255.76590
G1 X171.96 Y132.18 E256.06976
G1 X171.96 Y133.86 E256.16735
G1 X171.96 Y133.99 E256.17526
G1 X171.91 Y134.30 E256.19308
G1 X171.82 Y134.52 E256.20715
G1 X171.73 Y134.69 E256.21851
G1 X171.60 Y134.86 E256.23070
G1 X171.45 Y135.01 E256.24332
G1 X171.26 Y135.14 E256.25653
G1 X171.07 Y135.23 E256.26895
G1 X169.84 Y135.66 E256.34430
G1 X167.96 Y136.29 E256.45970
G1 X166.69 Y136.73 E256.53795
G1 X161.80 Y138.38 E256.83760
G1 X161.55 Y138.51 E256.85434
G1 X161.29 Y138.68 E256.87228
G1 X160.97 Y139.08 E256.90193
G1 X160.92 Y139.21 E256.90994
G1 X159.77 Y139.59 E256.98039
G1 X155.53 Y139.59 E257.22694
G1 X155.53 Y138.87 E257.26879
G0 F12000 X155.06 Y138.97
G1 F2700 X149.65 Y138.97 E257.58334
G1 X149.65 Y134.79 E257.82612
G1 X149.92 Y135.27 E257.85808
G1 X150.40 Y135.93 E257.90521
G1 X150.95 Y136.52 E257.95234
G1 X151.53 Y137.01 E257.99609
G1 X152.23 Y137.48 E258.04524
G1 X152.95 Y137.85 E258.09224
G1 X153.69 Y138.12 E258.13800
G1 X154.47 Y138.31 E258.18506
G1 X155.28 Y138.41 E258.23224
G1 X156.09 Y138.41 E258.27938
G1 X156.82 Y138.32 E258.32222
G1 X156.88 Y138.31 E258.32584
G1 X157.66 Y138.13 E258.37223
G1 X158.42 Y137.85 E258.41928
G1 X159.12 Y137.49 E258.46503
G1 X159.80 Y137.04 E258.51210
G1 X160.42 Y136.52 E258.55916
G1 X160.95 Y135.95 E258.60489
G1 X161.44 Y135.29 E258.65206
G1 X161.84 Y134.59 E258.69912
G1 X162.15 Y133.84 E258.74626
G1 X162.37 Y133.09 E258.79205
G1 X162.50 Y132.29 E258.83908
G1 X162.54 Y131.48 E258.88616
G1 X162.49 Y130.73 E258.92963
G1 X162.49 Y130.68 E258.93282
G1 X162.34 Y129.90 E258.97910
G1 X162.10 Y129.12 E259.02611
G1 X161.76 Y128.38 E259.07322
G1 X161.36 Y127.71 E259.11894
G1 X160.87 Y127.07 E259.16604
G1 X160.30 Y126.49 E259.21322
G1 X160.28 Y126.47 E259.21426
G1 X164.63 Y126.49 E259.46703
G1 X169.42 Y126.47 E259.74544
G1 X172.41 Y126.49 E259.91876
G1 X172.42 Y126.49 E259.91960
G1 X172.43 Y126.52 E259.92111
G1 X172.42 Y132.18 E260.25026
G1 X172.43 Y133.86 E260.34779
G1 X172.43 Y134.02 E260.35738
G1 X172.42 Y134.14 E260.36415
G1 X172.35 Y134.43 E260.38131
G1 X172.25 Y134.71 E260.39909
G1 X172.12 Y134.95 E260.41462
G1 X171.95 Y135.18 E260.43117
G1 X171.75 Y135.37 E260.44774
G1 X171.50 Y135.54 E260.46520
G1 X171.24 Y135.67 E260.48158
G1 X170.00 Y136.09 E260.55826
G1 X168.11 Y136.73 E260.67396
G1 X166.83 Y137.17 E260.75252
G1 X161.99 Y138.81 E261.04984
G1 X161.80 Y138.90 E261.06200
G1 X161.60 Y139.03 E261.07575
G1 X161.38 Y139.31 E261.09635
G1 X161.27 Y139.58 E261.11330
G1 X159.37 Y140.22 E261.22951
G1 X159.37 Y140.06 E261.23876
G1 X155.06 Y140.06 E261.48915
G1 X155.06 Y138.97 E261.55227
G1 F2400 E260.35227
G0 F12000 X149.65 Y128.31
G1 F2400 E261.55227
G1 F2700 X149.65 Y126.64 E261.64939
G1 X149.66 Y126.47 E261.65904
G1 X151.09 Y126.47 E261.74221
G1 X151.07 Y126.49 E261.74349
G1 X150.52 Y127.05 E261.78920
G1 X150.02 Y127.69 E261.83631
G1 X149.65 Y128.31 E261.87841
G0 F12000 X150.02 Y128.60
;TYPE:WALL-OUTER
G1 F2700 X149.72 Y129.27 E261.92097
G1 X149.50 Y129.97 E261.96380
G1 X149.35 Y130.73 E262.00875
G1 X149.30 Y131.43 E262.04971
G1 X149.29 Y131.48 E262.05223
G1 X149.33 Y132.22 E262.09530
G1 X149.44 Y132.92 E262.13665
G1 X149.45 Y132.98 E262.14028
G1 X149.66 Y133.69 E262.18309
G1 X149.94 Y134.36 E262.22570
G1 X150.31 Y135.02 E262.26956
G1 X150.76 Y135.63 E262.31349
G1 X151.27 Y136.18 E262.35745
G1 X151.82 Y136.65 E262.39939
G1 X152.46 Y137.08 E262.44396
G1 X153.13 Y137.42 E262.48781
G1 X153.82 Y137.67 E262.53042
G1 X154.56 Y137.85 E262.57431
G1 X155.31 Y137.94 E262.61821
G1 X156.06 Y137.94 E262.66221
G1 X156.77 Y137.85 E262.70348
G1 X156.81 Y137.85 E262.70586
G1 X157.53 Y137.68 E262.74868
G1 X158.23 Y137.42 E262.79257
G1 X158.89 Y137.09 E262.83512
G1 X159.52 Y136.67 E262.87905
G1 X160.09 Y136.18 E262.92293
G1 X160.59 Y135.65 E262.96553
G1 X161.04 Y135.04 E263.00950
G1 X161.42 Y134.38 E263.05338
G1 X161.71 Y133.69 E263.09731
G1 X161.91 Y132.98 E263.13990
G1 X162.04 Y132.24 E263.18381
G1 X162.07 Y131.48 E263.22768
G1 X162.02 Y130.77 E263.26911
G1 X162.02 Y130.73 E263.27149
G1 X161.88 Y130.01 E263.31423
G1 X161.66 Y129.29 E263.35807
G1 X161.35 Y128.60 E263.40199
G1 X160.97 Y127.97 E263.44458
G1 X160.51 Y127.37 E263.48852
G1 X159.99 Y126.83 E263.53246
G1 X159.41 Y126.37 E263.57515
G1 X158.82 Y126.01 E263.61543
G1 X172.50 Y126.02 E264.41043
G1 X172.56 Y126.04 E264.41402
G1 X172.76 Y126.15 E264.42737
G1 X172.88 Y126.35 E264.44071
G1 X172.90 Y126.43 E264.44548
G1 X172.89 Y133.85 E264.87704
G1 X172.89 Y134.04 E264.88773
G1 X172.88 Y134.21 E264.89748
G1 X172.80 Y134.56 E264.91837
G1 X172.67 Y134.91 E264.94007
G1 X172.52 Y135.20 E264.95924
G1 X172.30 Y135.49 E264.98044
G1 X172.04 Y135.74 E265.00108
G1 X171.73 Y135.95 E265.02281
G1 X171.42 Y136.10 E265.04329
G1 X170.15 Y136.54 E265.12139
G1 X168.26 Y137.17 E265.23704
G1 X166.98 Y137.61 E265.31543
G1 X162.17 Y139.24 E265.61089
G1 X162.05 Y139.30 E265.61848
G1 X162.00 Y139.34 E265.62221
G1 X161.91 Y139.39 E265.62808
G1 X161.79 Y139.54 E265.63962
G1 X161.64 Y139.89 E265.66161
G1 X161.47 Y140.00 E265.67332
G1 X158.91 Y140.87 E265.83068
G1 X158.91 Y140.52 E265.85050
G1 X154.60 Y140.52 E266.10083
G1 X154.59 Y139.44 E266.16396
G1 X149.18 Y139.44 E266.47845
G1 X149.18 Y126.63 E267.22306
G1 X149.19 Y126.29 E267.24242
G1 X149.21 Y126.15 E267.25058
G1 X149.26 Y126.01 E267.25942
G1 X150.81 Y126.00 E267.34928
G1 X152.55 Y126.01 E267.45047
G1 X151.97 Y126.36 E267.48960
G1 X151.38 Y126.83 E267.53357
G1 X150.87 Y127.36 E267.57616
G1 X150.41 Y127.95 E267.62007
G1 X150.02 Y128.60 E267.66405
G1 F2400 E266.46405
G0 F12000 X150.34 Y136.83
;TYPE:FILL
G1 F2400 E267.66405
G1 F2700 X151.85 Y138.34 E267.78816
G0 F12000 X151.53 Y138.34
G1 F2700 X150.28 Y137.08 E267.89140
G0 F12000 X150.28 Y137.36
G1 F2700 X150.60 Y137.05 E267.91746
G0 F12000 X150.28 Y137.43
G1 F2700 X151.19 Y138.34 E267.99242
G0 F12000 X150.53 Y138.34
G1 F2700 X150.28 Y138.09 E268.01322
G0 F12000 X155.84 Y139.03
G1 F2700 X156.34 Y139.21 E268.04543
G1 X156.97 Y139.17 E268.08078
G1 X157.56 Y139.11 E268.12213
G1 X158.21 Y139.43 E268.16401
G0 F12000 X158.87 Y139.43
G1 F2700 X158.08 Y138.64 E268.22862
G0 F12000 X158.56 Y138.46
G1 F2700 X159.53 Y139.43 E268.30773
G0 F12000 X160.07 Y139.31
G1 F2700 X159.01 Y138.25 E268.39507
G0 F12000 X159.45 Y138.03
G1 F2700 X160.57 Y139.15 E268.48704
G0 F12000 X160.94 Y138.86
G1 F2700 X159.84 Y137.77 E268.57664
G0 F12000 X160.24 Y137.50
G1 F2700 X161.25 Y138.51 E268.65962
G0 F12000 X161.66 Y138.26
G1 F2700 X160.59 Y137.20 E268.74740
G0 F12000 X160.94 Y136.88
G1 F2700 X162.14 Y138.09 E268.84641
G0 F12000 X162.63 Y137.92
G1 F2700 X161.26 Y136.54 E268.95972
G0 F12000 X161.56 Y136.19
G1 F2700 X163.13 Y137.75 E269.08873
G0 F12000 X163.62 Y137.59
G1 F2700 X161.84 Y135.81 E269.23512
G0 F12000 X162.09 Y135.41
G1 F2700 X164.11 Y137.42 E269.40087
G0 F12000 X164.60 Y137.25
G1 F2700 X162.33 Y134.98 E269.58754
G0 F12000 X162.54 Y134.53
G1 F2700 X165.10 Y137.09 E269.79763
G0 F12000 X165.59 Y136.92
G1 F2700 X162.74 Y134.07 E270.03210
G0 F12000 X162.89 Y133.56
G1 F2700 X166.08 Y136.75 E270.29476
G0 F12000 X166.57 Y136.59
G1 F2700 X163.01 Y133.03 E270.58738
G0 F12000 X163.11 Y132.47
G1 F2700 X167.07 Y136.42 E270.91264
G0 F12000 X167.56 Y136.25
G1 F2700 X163.15 Y131.85 E271.27476
G0 F12000 X163.15 Y131.19
G1 F2700 X168.05 Y136.09 E271.67736
G0 F12000 X168.54 Y135.92
G1 F2700 X163.09 Y130.46 E272.12582
G0 F12000 X162.91 Y129.63
G1 F2700 X169.03 Y135.75 E272.62887
G0 F12000 X169.53 Y135.59
G1 F2700 X162.56 Y128.62 E273.20154
G0 F12000 X162.37 Y127.11
G1 F2700 X170.51 Y135.25 E273.87062
G0 F12000 X171.00 Y135.08
G1 F2700 X163.03 Y127.11 E274.52590
G0 F12000 X163.69 Y127.11
G1 F2700 X171.40 Y134.83 E275.16013
G0 F12000 X171.68 Y134.44
G1 F2700 X164.35 Y127.11 E275.76272
G0 F12000 X165.00 Y127.11
G1 F2700 X171.80 Y133.90 E276.32092
G0 F12000 X171.80 Y133.24
G1 F2700 X165.66 Y127.11 E276.82495
G0 F12000 X166.32 Y127.11
G1 F2700 X171.80 Y132.59 E277.27481
G0 F12000 X171.80 Y131.93
G1 F2700 X166.98 Y127.11 E277.67051
G0 F12000 X167.64 Y127.11
G1 F2700 X171.80 Y131.27 E278.01208
G0 F12000 X171.80 Y130.61
G1 F2700 X168.30 Y127.11 E278.29936
G0 F12000 X168.96 Y127.11
G1 F2700 X171.80 Y129.95 E278.53255
G0 F12000 X171.80 Y129.29
G1 F2700 X169.62 Y127.11 E278.71166
G0 F12000 X170.28 Y127.11
G1 F2700 X171.80 Y128.63 E278.83660
G0 F12000 X171.80 Y127.97
G1 F2700 X170.94 Y127.11 E278.90745
G0 F12000 X171.60 Y127.11
G1 F2700 X171.80 Y127.31 E278.92410
G0 F12000 X170.02 Y135.42
G1 F2700 X161.76 Y127.16 E279.60259
G1 F2400 E278.40259
G0 F12000 X158.80 Y148.11
;TYPE:WALL-INNER
G1 F2400 E279.60259
G1 F2700 X160.45 Y148.59 E279.70228
G1 X161.85 Y149.00 E279.78739
G1 X162.93 Y149.57 E279.85826
G1 X163.15 Y149.68 E279.87245
G1 X163.33 Y150.06 E279.89668
G1 X163.92 Y150.08 E279.93094
G1 X164.65 Y150.46 E279.97883
G1 X165.88 Y151.44 E280.07015
G1 X166.08 Y151.78 E280.09319
G1 X167.01 Y152.69 E280.16902
G1 X167.75 Y153.53 E280.23371
G1 X168.43 Y154.42 E280.29884
G1 X169.04 Y155.36 E280.36447
G1 X169.59 Y156.34 E280.42931
G1 X170.06 Y157.35 E280.49434
G1 X170.47 Y158.40 E280.55964
G1 X170.79 Y159.47 E280.62474
G1 X171.04 Y160.56 E280.68934
G1 X171.21 Y161.68 E280.75542
G1 X171.29 Y162.78 E280.81960
G1 X171.30 Y163.93 E280.88621
G1 X171.23 Y165.03 E280.95081
G1 X171.08 Y166.13 E281.01499
G1 X170.85 Y167.23 E281.08051
G1 X170.54 Y168.30 E281.14521
G1 X170.15 Y169.37 E281.21139
G1 X169.70 Y170.37 E281.27526
G1 X169.15 Y171.39 E281.34264
G1 X168.56 Y172.31 E281.40549
G1 X167.89 Y173.21 E281.47121
G1 X167.14 Y174.08 E281.53794
G1 X166.38 Y174.85 E281.60086
G1 X165.53 Y175.59 E281.66612
G1 X164.63 Y176.27 E281.73177
G1 X163.69 Y176.88 E281.79671
G1 X162.70 Y177.43 E281.86273
G1 X161.70 Y177.88 E281.92658
G1 X160.64 Y178.28 E281.99237
G1 X159.57 Y178.59 E282.05698
G1 X158.48 Y178.83 E282.12195
G1 X157.97 Y178.91 E282.15191
G1 X156.22 Y179.08 E282.25438
G1 X155.15 Y179.08 E282.31657
G1 X154.00 Y178.97 E282.38324
G1 X153.44 Y178.91 E282.41623
G1 X152.91 Y178.84 E282.44765
G1 X151.82 Y178.60 E282.51232
G1 X150.73 Y178.28 E282.57805
G1 X150.50 Y178.19 E282.59246
G1 X151.21 Y178.40 E282.63518
G1 X151.96 Y178.58 E282.67992
G1 X152.71 Y178.72 E282.72462
G1 X153.48 Y178.82 E282.76947
G1 X154.24 Y178.88 E282.81420
G1 X154.94 Y178.91 E282.85474
G1 X154.98 Y178.91 E282.85725
G1 X155.78 Y178.90 E282.90369
G1 X156.55 Y178.85 E282.94848
G1 X157.32 Y178.76 E282.99331
G1 X158.08 Y178.63 E283.03805
G1 X158.83 Y178.47 E283.08290
G1 X159.57 Y178.26 E283.12775
G1 X160.31 Y178.02 E283.17252
G1 X161.03 Y177.74 E283.21744
G1 X161.73 Y177.43 E283.26229
G1 X162.42 Y177.08 E283.30716
G1 X163.09 Y176.69 E283.35212
G1 X163.74 Y176.28 E283.39691
G1 X164.37 Y175.83 E283.44194
G1 X164.97 Y175.34 E283.48686
G1 X165.55 Y174.83 E283.53178
G1 X166.11 Y174.29 E283.57678
G1 X166.63 Y173.72 E283.62170
G1 X167.12 Y173.12 E283.66666
G1 X167.59 Y172.50 E283.71176
G1 X168.01 Y171.86 E283.75666
G1 X168.41 Y171.19 E283.80169
G1 X168.77 Y170.51 E283.84672
G1 X169.09 Y169.80 E283.89179
G1 X169.38 Y169.08 E283.93684
G1 X169.63 Y168.35 E283.98189
G1 X169.84 Y167.60 E284.02700
G1 X170.01 Y166.85 E284.07204
G1 X170.14 Y166.08 E284.11721
G1 X170.23 Y165.31 E284.16239
G1 X170.28 Y164.53 E284.20752
G1 X170.29 Y163.84 E284.24810
G1 X170.29 Y163.80 E284.25020
G1 X170.26 Y162.98 E284.29778
G1 X170.18 Y162.21 E284.34298
G1 X170.07 Y161.44 E284.38818
G1 X169.91 Y160.68 E284.43340
G1 X169.71 Y159.93 E284.47852
G1 X169.47 Y159.18 E284.52389
G1 X169.20 Y158.46 E284.56907
G1 X168.88 Y157.75 E284.61435
G1 X168.53 Y157.05 E284.65973
G1 X168.13 Y156.38 E284.70498
G1 X167.71 Y155.73 E284.75018
G1 X167.24 Y155.10 E284.79561
G1 X166.74 Y154.50 E284.84090
G1 X166.22 Y153.93 E284.88622
G1 X165.66 Y153.38 E284.93160
G1 X165.06 Y152.87 E284.97713
G1 X164.45 Y152.39 E285.02242
G1 X163.80 Y151.95 E285.06783
G1 X163.14 Y151.54 E285.11329
G1 X162.45 Y151.17 E285.15875
G1 X161.74 Y150.84 E285.20409
G1 X161.01 Y150.55 E285.24963
G1 X160.27 Y150.30 E285.29512
G1 X159.52 Y150.09 E285.34065
G1 X158.75 Y149.93 E285.38619
G1 X157.98 Y149.80 E285.43174
G1 X157.19 Y149.73 E285.47736
G1 X156.48 Y149.70 E285.51912
G1 X156.44 Y149.69 E285.52152
G1 X155.63 Y149.70 E285.56854
G1 X154.84 Y149.76 E285.61417
G1 X154.06 Y149.86 E285.65982
G1 X153.29 Y150.01 E285.70543
G1 X152.53 Y150.20 E285.75113
G1 X151.78 Y150.43 E285.79674
G1 X151.05 Y150.71 E285.84241
G1 X150.33 Y151.02 E285.88810
G1 X149.63 Y151.38 E285.93385
G1 X148.95 Y151.78 E285.97961
G1 X148.30 Y152.22 E286.02537
G1 X147.67 Y152.70 E286.07113
G1 X147.07 Y153.21 E286.11709
G1 X146.50 Y153.76 E286.16288
G1 X145.97 Y154.34 E286.20874
G1 X145.47 Y154.96 E286.25460
G1 X145.01 Y155.59 E286.30048
G1 X144.59 Y156.26 E286.34643
G1 X144.20 Y156.96 E286.39240
G1 X143.86 Y157.67 E286.43834
G1 X143.57 Y158.40 E286.48428
G1 X143.31 Y159.15 E286.53025
G1 X143.11 Y159.91 E286.57621
G1 X142.95 Y160.69 E286.62238
G1 X142.84 Y161.48 E286.66841
G1 X142.77 Y162.26 E286.71442
G1 X142.75 Y162.98 E286.75610
G1 X142.75 Y163.03 E286.75885
G1 X142.78 Y163.85 E286.80666
G1 X142.87 Y164.64 E286.85288
G1 X143.00 Y165.43 E286.89902
G1 X143.17 Y166.20 E286.94517
G1 X143.40 Y166.96 E286.99138
G1 X143.67 Y167.71 E287.03766
G1 X143.99 Y168.44 E287.08383
G1 X144.36 Y169.14 E287.13010
G1 X144.77 Y169.83 E287.17639
G1 X145.22 Y170.49 E287.22271
G1 X145.71 Y171.11 E287.26912
G1 X146.24 Y171.71 E287.31546
G1 X146.81 Y172.27 E287.36178
G1 X147.41 Y172.79 E287.40835
G1 X148.05 Y173.28 E287.45475
G1 X148.71 Y173.72 E287.50108
G1 X149.41 Y174.12 E287.54774
G1 X150.13 Y174.47 E287.59422
G1 X150.87 Y174.78 E287.64070
G1 X151.63 Y175.03 E287.68733
G1 X152.40 Y175.24 E287.73377
G1 X153.19 Y175.40 E287.78048
G1 X153.98 Y175.50 E287.82713
G1 X154.74 Y175.55 E287.87122
G1 X154.77 Y175.55 E287.87320
G1 X155.59 Y175.55 E287.92057
G1 X156.39 Y175.49 E287.96724
G1 X157.19 Y175.38 E288.01399
G1 X157.97 Y175.22 E288.06076
G1 X158.75 Y175.00 E288.10763
G1 X159.51 Y174.74 E288.15440
G1 X160.25 Y174.42 E288.20121
G1 X160.97 Y174.05 E288.24816
G1 X161.66 Y173.63 E288.29512
G1 X162.32 Y173.17 E288.34205
G1 X162.95 Y172.66 E288.38901
G1 X163.54 Y172.11 E288.43606
G1 X164.10 Y171.52 E288.48314
G1 X164.61 Y170.89 E288.53016
G1 X165.07 Y170.23 E288.57725
G1 X165.49 Y169.54 E288.62442
G1 X165.86 Y168.81 E288.67157
G1 X166.18 Y168.07 E288.71881
G1 X166.45 Y167.30 E288.76601
G1 X166.66 Y166.51 E288.81336
G1 X166.81 Y165.71 E288.86074
G1 X166.90 Y164.90 E288.90802
G1 X166.94 Y164.15 E288.95201
G1 X166.94 Y164.10 E288.95440
G1 X166.92 Y163.27 E289.00278
G1 X166.84 Y162.46 E289.05027
G1 X166.69 Y161.66 E289.09778
G1 X166.50 Y160.88 E289.14424
G1 X166.24 Y160.09 E289.19282
G1 X165.92 Y159.33 E289.24047
G1 X165.57 Y158.64 E289.28549
G1 X165.12 Y157.90 E289.33575
G1 X164.65 Y157.23 E289.38346
G1 X164.12 Y156.60 E289.43113
G1 X163.55 Y156.01 E289.47889
G1 X162.94 Y155.46 E289.52682
G1 X162.28 Y154.97 E289.57462
G1 X161.59 Y154.52 E289.62255
G1 X160.86 Y154.12 E289.67058
G1 X160.10 Y153.79 E289.71856
G1 X159.33 Y153.52 E289.76651
G1 X158.53 Y153.30 E289.81460
G1 X157.71 Y153.15 E289.86277
G1 X156.89 Y153.06 E289.91098
G1 X156.14 Y153.05 E289.95465
G1 X156.09 Y153.04 E289.95762
G1 X155.23 Y153.09 E290.00745
G1 X154.41 Y153.20 E290.05573
G1 X153.59 Y153.38 E290.10416
G1 X152.79 Y153.62 E290.15262
G1 X152.02 Y153.93 E290.20099
G1 X151.28 Y154.30 E290.24944
G1 X150.56 Y154.74 E290.29809
G1 X149.88 Y155.22 E290.34666
G1 X149.24 Y155.77 E290.39539
G1 X148.66 Y156.37 E290.44409
G1 X148.12 Y157.01 E290.49287
G1 X147.64 Y157.70 E290.54178
G1 X147.22 Y158.43 E290.59063
G1 X146.86 Y159.19 E290.63956
G1 X146.57 Y159.98 E290.68855
G1 X146.34 Y160.80 E290.73766
G1 X146.19 Y161.63 E290.78675
G1 X146.12 Y162.47 E290.83607
G1 X146.11 Y163.22 E290.87931
G1 X146.11 Y163.28 E290.88293
G1 X146.19 Y164.16 E290.93463
G1 X146.33 Y165.00 E290.98397
G1 X146.56 Y165.82 E291.03346
G1 X146.85 Y166.62 E291.08293
G1 X147.22 Y167.39 E291.13258
G1 X147.66 Y168.13 E291.18226
G1 X148.16 Y168.82 E291.23197
G1 X148.73 Y169.46 E291.28188
G1 X149.35 Y170.05 E291.33172
G1 X150.03 Y170.57 E291.38163
G1 X150.76 Y171.03 E291.43162
G1 X151.53 Y171.43 E291.48176
G1 X152.33 Y171.74 E291.53200
G1 X153.17 Y171.98 E291.58239
G1 X154.02 Y172.13 E291.63271
G1 X154.82 Y172.19 E291.67923
G1 X154.89 Y172.20 E291.68338
G1 X155.74 Y172.19 E291.73273
G1 X156.85 Y172.08 E291.79763
G1 X156.85 Y168.98 E291.97798
G1 X155.03 Y169.03 E292.08369
G1 X154.50 Y169.00 E292.11462
G1 X153.94 Y168.90 E292.14741
G1 X153.41 Y168.75 E292.17985
G1 X152.88 Y168.56 E292.21224
G1 X152.39 Y168.31 E292.24427
G1 X151.91 Y168.02 E292.27695
G1 X151.46 Y167.68 E292.30984
G1 X151.05 Y167.30 E292.34222
G1 X150.68 Y166.88 E292.37489
G1 X150.34 Y166.44 E292.40712
G1 X150.04 Y165.95 E292.44035
G1 X149.80 Y165.45 E292.47266
G1 X149.59 Y164.90 E292.50668
G1 X149.44 Y164.38 E292.53831
G1 X149.34 Y163.82 E292.57143
G1 X149.28 Y163.25 E292.60448
G1 X149.28 Y162.66 E292.63871
G1 X149.33 Y162.12 E292.67050
G1 X149.42 Y161.56 E292.70317
G1 X149.57 Y161.00 E292.73675
G1 X149.76 Y160.47 E292.76945
G1 X149.99 Y159.96 E292.80233
G1 X150.28 Y159.46 E292.83580
G1 X150.60 Y158.98 E292.86933
G1 X150.96 Y158.55 E292.90184
G1 X151.37 Y158.13 E292.93620
G1 X151.79 Y157.76 E292.96846
G1 X152.25 Y157.42 E293.00221
G1 X152.74 Y157.12 E293.03533
G1 X153.26 Y156.85 E293.06946
G1 X153.78 Y156.64 E293.10212
G1 X154.34 Y156.47 E293.13578
G1 X154.90 Y156.34 E293.16933
G1 X155.46 Y156.25 E293.20252
G1 X156.05 Y156.22 E293.23688
G1 X156.62 Y156.22 E293.26961
