;-- START GCODE --
;Sliced for Type A Machines Series 1
;Sliced at: Thu 16-04-2015 01:38:07
;Basic settings: Layer height: 0.2 Walls: 0.8 Fill: 12
;Print Speed: 120 Support: 0
;Retraction Speed: 40 Retraction Distance: 1.2
;Print time: #P_TIME#
;Filament used: #F_AMNT#m #F_WGHT#g
;Filament cost: #F_COST#
M106 S255	 ;start with the fan on
G21        ;metric values
G90        ;absolute positioning
M106 S255    ;start with the fan on
G28     ;move to endstops
G29		;allows for auto-levelling
G1 X150 Y5  Z15.0 F12000 ;center and move the platform down 15mm
M109 S220 ;Heat To temp
G92 E0                  ;zero the extruded length
G1 F200 E30              ;extrude 30mm of feed stock
G92 E0                  ;zero the extruded length again
G1 X175 Y25  Z0 F12000 ;remove bugger
G1 X220 F12000 ;remove bugger
G1 X150 Y150  Z15 F12000 ;recenter and begin
G1 F12000

;Layer count: 36
;LAYER:0
M106 S255
G0 F12000 X137.59 Y139.77 Z0.25
;TYPE:SKIRT
G1 F2700 X159.31 Y139.78 E0.90335
G1 X167.39 Y139.24 E1.23997
G1 X167.39 Y157.25 E1.98887
G1 X167.44 Y165.23 E2.32044
G1 X145.50 Y165.22 E3.23235
G1 X137.61 Y165.32 E3.56065
G1 X137.61 Y147.92 E4.28393
G1 X137.59 Y139.77 E4.62273
G0 F12000 X137.99 Y140.17
G1 F2700 X159.32 Y140.18 E5.50986
G1 X166.99 Y139.66 E5.82936
G1 X166.99 Y157.25 E6.56051
G1 X167.03 Y164.83 E6.87544
G1 X145.50 Y164.82 E7.77081
G1 X138.01 Y164.91 E8.08227
G1 X138.01 Y147.92 E8.78871
G1 X137.99 Y140.17 E9.11088
G0 F12000 X138.39 Y140.57
G1 F2700 X159.35 Y140.58 E9.98242
G1 X166.59 Y140.09 E10.28418
G1 X166.59 Y157.25 E10.99752
G1 X166.63 Y164.43 E11.29579
G1 X145.49 Y164.42 E12.17465
G1 X138.41 Y164.51 E12.46927
G1 X138.41 Y147.92 E13.15888
G1 X138.39 Y140.57 E13.46437
G0 F12000 X138.79 Y140.97
G1 F2700 X159.36 Y140.98 E14.31974
G1 X166.19 Y140.52 E14.60433
G1 X166.19 Y157.25 E15.29992
G1 X166.23 Y164.03 E15.58156
G1 X145.57 Y164.02 E16.44046
G1 X138.81 Y164.10 E16.72170
G1 X138.81 Y147.92 E17.39447
G1 X138.79 Y140.97 E17.68333
G0 F12000 X139.19 Y141.38
G1 F2700 X159.38 Y141.38 E18.52253
G1 X165.79 Y140.95 E18.78995
G1 X165.79 Y157.25 E19.46775
G1 X165.83 Y163.62 E19.73275
G1 X145.57 Y163.62 E20.57515
G1 X139.21 Y163.70 E20.83954
G1 X139.21 Y147.92 E21.49547
G1 X139.19 Y141.38 E21.76771
G0 F12000 X139.59 Y141.78
G1 F2700 X159.39 Y141.78 E22.59069
G1 X165.39 Y141.38 E22.84099
G1 X165.39 Y157.25 E23.50104
G1 X165.43 Y163.22 E23.74941
G1 X145.56 Y163.22 E24.57526
G1 X139.61 Y163.29 E24.82282
G1 X139.61 Y147.92 E25.46191
G1 X139.59 Y141.78 E25.71751
G0 F12000 X139.99 Y142.18
G1 F2700 X159.40 Y142.18 E26.52428
G1 X164.99 Y141.80 E26.75741
G1 X164.99 Y157.25 E27.39966
G1 X165.02 Y162.82 E27.63141
G1 X145.56 Y162.82 E28.44075
G1 X140.01 Y162.89 E28.67147
G1 X140.01 Y147.92 E29.29372
G1 X139.99 Y142.18 E29.53270
G0 F12000 X140.39 Y142.57
G1 F2700 X159.41 Y142.58 E30.32325
G1 X164.59 Y142.23 E30.53925
G1 X164.59 Y157.25 E31.16371
G1 X164.62 Y162.43 E31.37882
G1 X145.55 Y162.42 E32.17166
G1 X140.41 Y162.49 E32.38554
G1 X140.41 Y147.92 E32.99100
G1 X140.39 Y142.57 E33.21335
G0 F12000 X140.79 Y142.97
G1 F2700 X159.42 Y142.98 E33.98772
G1 X164.19 Y142.66 E34.18656
G1 X164.19 Y157.25 E34.79323
G1 X164.22 Y162.03 E34.99175
G1 X145.55 Y162.02 E35.76804
G1 X140.81 Y162.08 E35.96504
G1 X140.81 Y147.92 E36.55362
G1 X140.79 Y142.97 E36.75938
G0 F12000 X141.20 Y143.38
G1 F2700 X159.43 Y143.38 E37.51758
G1 X163.79 Y143.09 E37.69921
G1 X163.79 Y157.25 E38.28808
G1 X163.82 Y161.62 E38.46997
G1 X145.54 Y161.62 E39.22972
G1 X141.21 Y161.68 E39.40992
G1 X141.21 Y147.92 E39.98166
G1 X141.20 Y143.38 E40.17079
G0 F12000 X141.60 Y143.78
G1 F2700 X159.44 Y143.78 E40.91278
G1 X163.39 Y143.51 E41.07728
G1 X163.39 Y157.25 E41.64840
G1 X163.41 Y161.22 E41.81366
G1 X145.54 Y161.22 E42.55690
G1 X141.61 Y161.27 E42.72026
G1 X141.61 Y147.92 E43.27517
G1 X141.60 Y143.78 E43.44766
G0 F12000 X142.00 Y144.18
G1 F2700 X159.47 Y144.18 E44.17411
G1 X162.99 Y143.94 E44.32082
G1 X162.99 Y157.25 E44.87414
G1 X163.01 Y160.82 E45.02278
G1 X145.53 Y160.82 E45.74947
G1 X142.01 Y160.87 E45.89599
G1 X142.01 Y147.92 E46.43405
G1 X142.00 Y144.18 E46.58992
G0 F12000 X142.40 Y144.57
G1 F2700 X159.48 Y144.58 E47.30015
G1 X162.59 Y144.37 E47.42974
G1 X162.59 Y157.25 E47.96531
G1 X162.61 Y160.43 E48.09731
G1 X145.53 Y160.42 E48.80750
G1 X142.41 Y160.46 E48.93718
G1 X142.41 Y147.92 E49.45841
G1 X142.40 Y144.57 E49.59764
G0 F12000 X142.80 Y144.97
G1 F2700 X159.49 Y144.98 E50.29166
G1 X162.19 Y144.80 E50.40408
G1 X162.19 Y157.25 E50.92185
G1 X162.21 Y160.03 E51.03723
G1 X145.52 Y160.02 E51.73091
G1 X142.81 Y160.06 E51.84375
G1 X142.81 Y147.92 E52.34818
G1 X142.80 Y144.97 E52.47079
G0 F12000 X143.20 Y145.38
G1 F2700 X159.51 Y145.38 E53.14863
G1 X161.79 Y145.22 E53.24389
G1 X161.79 Y157.25 E53.74391
G1 X161.81 Y159.62 E53.84265
G1 X145.52 Y159.62 E54.51979
G1 X143.21 Y159.65 E54.61583
G1 X143.21 Y147.92 E55.10343
G1 X143.20 Y145.38 E55.20940
G0 F12000 X143.60 Y145.78
G1 F2700 X159.52 Y145.78 E55.87103
G1 X161.39 Y145.65 E55.94916
G1 X161.39 Y157.25 E56.43139
G1 X161.40 Y159.22 E56.51350
G1 X145.51 Y159.22 E57.17409
G1 X143.61 Y159.25 E57.25329
G1 X143.61 Y147.92 E57.72405
G1 X143.60 Y145.78 E57.81339
G0 F12000 X144.00 Y146.18
G1 F2700 X159.53 Y146.18 E58.45885
G1 X160.99 Y146.08 E58.51981
G1 X160.99 Y157.25 E58.98424
G1 X161.00 Y158.82 E59.04972
G1 X145.51 Y158.82 E59.69381
G1 X144.01 Y158.84 E59.75617
G1 X144.01 Y147.92 E60.21009
G1 X144.00 Y146.18 E60.28281
G0 F12000 X144.41 Y146.57
G1 F2700 X159.54 Y146.58 E60.91205
G1 X160.59 Y146.51 E60.95588
G1 X160.59 Y157.25 E61.40256
G1 X160.60 Y158.43 E61.45142
G1 X145.50 Y158.42 E62.07899
G1 X144.41 Y158.44 E62.12452
G1 X144.41 Y147.92 E62.56160
G1 X144.41 Y146.57 E62.61769
G0 F12000 X144.81 Y146.97
G1 F2700 X159.55 Y146.98 E63.23075
G1 X160.19 Y146.93 E63.25742
G1 X160.19 Y157.25 E63.68631
G1 X160.19 Y158.03 E63.71853
G1 X145.50 Y158.02 E64.32956
G1 X144.81 Y158.03 E64.35825
G1 X144.81 Y147.92 E64.77849
G1 X144.81 Y146.97 E64.81795
G0 F12000 X145.21 Y147.38
G1 F2700 X159.56 Y147.38 E65.41480
G1 X159.79 Y147.36 E65.42430
G1 X159.79 Y157.25 E65.83544
G1 X159.79 Y157.62 E65.85103
G1 X145.49 Y157.62 E66.44555
G1 X145.21 Y157.63 E66.45740
G1 X145.21 Y147.38 E66.88363
G0 F12000 X148.89 Y151.31
G1 F2700 X148.89 Y151.73 E66.90076
G1 X148.88 Y153.47 E66.97348
G1 X148.88 Y153.68 E66.98197
G1 X155.88 Y153.68 E67.27275
G1 X155.87 Y151.31 E67.37107
G1 X148.89 Y151.31 E67.66131
G0 F12000 X148.09 Y151.72
;TYPE:WALL-INNER
G1 F2700 X148.07 Y153.48 E67.73469
G1 X148.12 Y154.48 E67.77614
G1 X156.68 Y154.48 E68.13215
G1 X156.67 Y150.51 E68.29700
G1 X148.09 Y150.51 E68.65367
G1 X148.09 Y151.72 E68.70373
G0 F12000 X146.01 Y148.18
G1 F2700 X158.99 Y148.18 E69.24350
G1 X158.99 Y156.82 E69.60308
G1 X146.01 Y156.82 E70.14285
G1 X146.01 Y148.18 E70.50243
G0 F12000 X145.61 Y147.78
;TYPE:WALL-OUTER
G1 F2700 X159.39 Y147.78 E71.07551
G1 X159.39 Y157.22 E71.46835
G1 X145.61 Y157.22 E72.04138
G1 X145.61 Y147.78 E72.43422
G0 F12000 X145.91 Y147.99
G0 X148.49 Y150.61
G0 X148.49 Y150.91
G1 F2700 X148.49 Y151.72 E72.46786
G1 X148.47 Y153.48 E72.54074
G1 X148.50 Y154.08 E72.56584
G1 X156.28 Y154.08 E72.88925
G1 X156.27 Y150.91 E73.02084
G1 X148.49 Y150.91 E73.34425
G0 F12000 X148.39 Y150.37
;TYPE:FILL
G1 F2700 X146.34 Y148.31 E73.46528
G0 F12000 X146.15 Y148.69
G1 F2700 X147.95 Y150.50 E73.57135
G0 F12000 X147.95 Y151.06
G1 F2700 X146.15 Y149.26 E73.67718
G0 F12000 X146.15 Y149.82
G1 F2700 X147.94 Y151.62 E73.78284
G0 F12000 X147.94 Y152.18
G1 F2700 X146.15 Y150.39 E73.88829
G0 F12000 X146.15 Y150.96
G1 F2700 X147.94 Y152.75 E73.99357
G0 F12000 X147.94 Y153.31
G1 F2700 X146.15 Y151.52 E74.09864
G0 F12000 X146.15 Y152.09
G1 F2700 X147.95 Y153.89 E74.20470
G0 F12000 X147.98 Y154.49
G1 F2700 X146.15 Y152.65 E74.31242
G0 F12000 X146.15 Y153.22
G1 F2700 X149.61 Y156.68 E74.51615
G0 F12000 X149.05 Y156.68
G1 F2700 X146.15 Y153.78 E74.68660
G0 F12000 X146.15 Y154.35
G1 F2700 X148.48 Y156.68 E74.82380
G0 F12000 X147.91 Y156.68
G1 F2700 X146.15 Y154.91 E74.92775
G0 F12000 X146.15 Y155.48
G1 F2700 X147.35 Y156.68 E74.99842
G0 F12000 X146.78 Y156.68
G1 F2700 X146.15 Y156.05 E75.03585
G0 F12000 X146.15 Y156.61
G1 F2700 X146.22 Y156.68 E75.04002
G0 F12000 X148.11 Y154.62
G1 F2700 X150.18 Y156.68 E75.16144
G0 F12000 X150.74 Y156.68
G1 F2700 X148.68 Y154.62 E75.28282
G0 F12000 X149.24 Y154.62
G1 F2700 X151.31 Y156.68 E75.40423
G0 F12000 X151.88 Y156.68
G1 F2700 X149.81 Y154.62 E75.52565
G0 F12000 X150.38 Y154.62
G1 F2700 X152.44 Y156.68 E75.64703
G0 F12000 X153.01 Y156.68
G1 F2700 X150.94 Y154.62 E75.76851
G0 F12000 X151.51 Y154.62
G1 F2700 X153.57 Y156.68 E75.88995
G0 F12000 X154.14 Y156.68
G1 F2700 X152.07 Y154.62 E76.01139
G0 F12000 X152.64 Y154.62
G1 F2700 X154.70 Y156.68 E76.13287
G0 F12000 X155.27 Y156.68
G1 F2700 X153.20 Y154.62 E76.25434
G0 F12000 X153.77 Y154.62
G1 F2700 X155.84 Y156.68 E76.37578
G0 F12000 X156.40 Y156.68
G1 F2700 X154.34 Y154.62 E76.49725
G0 F12000 X154.90 Y154.62
G1 F2700 X156.97 Y156.68 E76.61873
G0 F12000 X157.53 Y156.68
G1 F2700 X155.47 Y154.62 E76.74017
G0 F12000 X156.03 Y154.62
G1 F2700 X158.10 Y156.68 E76.86161
G0 F12000 X158.66 Y156.68
G1 F2700 X156.60 Y154.62 E76.98309
G0 F12000 X156.82 Y154.28
G1 F2700 X158.85 Y156.31 E77.10244
G0 F12000 X158.85 Y155.74
G1 F2700 X156.82 Y153.71 E77.22192
G0 F12000 X156.82 Y153.14
G1 F2700 X158.85 Y155.17 E77.34145
G0 F12000 X158.85 Y154.61
G1 F2700 X156.81 Y152.57 E77.46113
G0 F12000 X156.81 Y152.00
G1 F2700 X158.85 Y154.04 E77.58090
G0 F12000 X158.85 Y153.48
G1 F2700 X156.81 Y151.44 E77.70078
G0 F12000 X156.81 Y150.87
G1 F2700 X158.85 Y152.91 E77.82076
G0 F12000 X158.85 Y152.35
G1 F2700 X154.82 Y148.31 E78.05773
G0 F12000 X155.39 Y148.31
G1 F2700 X158.85 Y151.78 E78.26146
G0 F12000 X158.85 Y151.21
G1 F2700 X155.95 Y148.31 E78.43191
G0 F12000 X156.52 Y148.31
G1 F2700 X158.85 Y150.65 E78.56911
G0 F12000 X158.85 Y150.08
G1 F2700 X157.08 Y148.31 E78.67307
G0 F12000 X157.65 Y148.31
G1 F2700 X158.85 Y149.52 E78.74374
G0 F12000 X158.85 Y148.95
G1 F2700 X158.22 Y148.31 E78.78116
G0 F12000 X158.78 Y148.31
G1 F2700 X158.85 Y148.39 E78.78534
G0 F12000 X156.31 Y150.37
G1 F2700 X154.25 Y148.31 E78.90634
G0 F12000 X153.69 Y148.31
G1 F2700 X155.75 Y150.37 E79.02734
G0 F12000 X155.18 Y150.37
G1 F2700 X153.12 Y148.31 E79.14834
G0 F12000 X152.56 Y148.31
G1 F2700 X154.62 Y150.37 E79.26932
G0 F12000 X154.05 Y150.37
G1 F2700 X151.99 Y148.31 E79.39038
G0 F12000 X151.43 Y148.31
G1 F2700 X153.48 Y150.37 E79.51141
G0 F12000 X152.92 Y150.37
G1 F2700 X150.86 Y148.31 E79.63244
G0 F12000 X150.29 Y148.31
G1 F2700 X152.35 Y150.37 E79.75350
G0 F12000 X151.79 Y150.37
G1 F2700 X149.73 Y148.31 E79.87454
G0 F12000 X149.16 Y148.31
G1 F2700 X151.22 Y150.37 E79.99557
G0 F12000 X150.66 Y150.37
G1 F2700 X148.60 Y148.31 E80.11663
G0 F12000 X148.03 Y148.31
G1 F2700 X150.09 Y150.37 E80.23766
G0 F12000 X149.52 Y150.37
G1 F2700 X147.47 Y148.31 E80.35869
G0 F12000 X146.90 Y148.31
G1 F2700 X148.96 Y150.37 E80.47975
;LAYER:1
G0 F12000 X147.84 Y150.51 Z0.45
;TYPE:WALL-INNER
G1 F3780 X147.84 Y152.53 E80.54694
G1 X147.83 Y153.64 E80.58366
G1 X147.87 Y154.48 E80.61166
G1 X156.93 Y154.48 E80.91280
G1 X156.92 Y150.51 E81.04468
G1 X147.84 Y150.51 E81.34655
G0 F12000 X146.15 Y148.28
G1 F3780 X158.85 Y148.28 E81.76882
G1 X158.85 Y156.72 E82.04983
G1 X146.15 Y156.72 E82.47207
G1 X146.15 Y148.28 E82.75309
G0 F12000 X145.75 Y147.88
;TYPE:WALL-OUTER
G1 F3780 X159.25 Y147.88 E83.20196
G1 X159.25 Y157.12 E83.50959
G1 X145.75 Y157.12 E83.95847
G1 X145.75 Y147.88 E84.26609
G0 F12000 X145.96 Y148.18
G0 X148.24 Y150.61
G0 X148.24 Y150.91
G1 F3780 X148.24 Y152.54 E84.32014
G1 X148.23 Y153.63 E84.35646
G1 X148.25 Y154.08 E84.37138
G1 X156.52 Y154.08 E84.64650
G1 X156.52 Y150.91 E84.75177
G1 X148.24 Y150.91 E85.02707
G0 F12000 X148.03 Y150.37
;TYPE:FILL
G1 F3780 X149.98 Y148.41 E85.11921
G0 F12000 X150.55 Y148.41
G1 F3780 X148.59 Y150.37 E85.21136
G0 F12000 X149.16 Y150.37
G1 F3780 X151.12 Y148.41 E85.30348
G0 F12000 X151.68 Y148.41
G1 F3780 X149.72 Y150.37 E85.39562
G0 F12000 X150.29 Y150.37
G1 F3780 X152.25 Y148.41 E85.48777
G0 F12000 X152.81 Y148.41
G1 F3780 X150.85 Y150.37 E85.57987
G0 F12000 X151.42 Y150.37
G1 F3780 X153.38 Y148.41 E85.67197
G0 F12000 X153.94 Y148.41
G1 F3780 X151.99 Y150.37 E85.76406
G0 F12000 X152.55 Y150.37
G1 F3780 X154.51 Y148.41 E85.85616
G0 F12000 X155.07 Y148.41
G1 F3780 X153.12 Y150.37 E85.94826
G0 F12000 X153.68 Y150.37
G1 F3780 X155.64 Y148.41 E86.04036
G0 F12000 X156.21 Y148.41
G1 F3780 X154.25 Y150.37 E86.13246
G0 F12000 X154.81 Y150.37
G1 F3780 X156.77 Y148.41 E86.22456
G0 F12000 X157.34 Y148.41
G1 F3780 X155.38 Y150.37 E86.31665
G0 F12000 X155.94 Y150.37
G1 F3780 X157.90 Y148.41 E86.40875
G0 F12000 X158.47 Y148.41
G1 F3780 X156.51 Y150.37 E86.50083
G0 F12000 X157.06 Y150.39
G1 F3780 X158.71 Y148.74 E86.57832
G0 F12000 X158.71 Y149.31
G1 F3780 X157.06 Y150.96 E86.65577
G0 F12000 X157.06 Y151.52
G1 F3780 X158.71 Y149.87 E86.73319
G0 F12000 X158.71 Y150.44
G1 F3780 X157.06 Y152.09 E86.81057
G0 F12000 X157.06 Y152.65
G1 F3780 X158.71 Y151.01 E86.88792
G0 F12000 X158.71 Y151.57
G1 F3780 X157.06 Y153.22 E86.96525
G0 F12000 X157.06 Y153.78
G1 F3780 X158.71 Y152.14 E87.04253
G0 F12000 X158.71 Y152.70
G1 F3780 X157.06 Y154.34 E87.11979
G0 F12000 X156.79 Y154.62
G1 F3780 X154.82 Y156.59 E87.21231
G0 F12000 X154.26 Y156.58
G1 F3780 X156.23 Y154.62 E87.30481
G0 F12000 X155.66 Y154.62
G1 F3780 X153.69 Y156.58 E87.39730
G0 F12000 X153.13 Y156.58
G1 F3780 X155.09 Y154.62 E87.48978
G0 F12000 X154.53 Y154.62
G1 F3780 X152.56 Y156.58 E87.58225
G0 F12000 X152.00 Y156.58
G1 F3780 X153.96 Y154.62 E87.67475
G0 F12000 X153.40 Y154.62
G1 F3780 X151.43 Y156.58 E87.76723
G0 F12000 X150.87 Y156.58
G1 F3780 X152.83 Y154.62 E87.85970
G0 F12000 X152.27 Y154.62
G1 F3780 X150.30 Y156.58 E87.95215
G0 F12000 X149.73 Y156.58
G1 F3780 X151.70 Y154.62 E88.04460
G0 F12000 X151.13 Y154.62
G1 F3780 X149.17 Y156.58 E88.13703
G0 F12000 X148.60 Y156.58
G1 F3780 X150.57 Y154.62 E88.22948
G0 F12000 X150.00 Y154.62
G1 F3780 X148.04 Y156.58 E88.32193
G0 F12000 X147.47 Y156.58
G1 F3780 X149.44 Y154.62 E88.41436
G0 F12000 X148.87 Y154.62
G1 F3780 X146.91 Y156.58 E88.50681
G0 F12000 X146.34 Y156.58
G1 F3780 X148.31 Y154.62 E88.59926
G0 F12000 X147.74 Y154.62
G1 F3780 X146.29 Y156.07 E88.66740
G0 F12000 X146.29 Y155.50
G1 F3780 X147.71 Y154.08 E88.73417
G0 F12000 X147.69 Y153.54
G1 F3780 X146.29 Y154.94 E88.79999
G0 F12000 X146.29 Y154.37
G1 F3780 X147.69 Y152.97 E88.86592
G0 F12000 X147.69 Y152.40
G1 F3780 X146.29 Y153.80 E88.93196
G0 F12000 X146.29 Y153.24
G1 F3780 X147.70 Y151.83 E88.99809
G0 F12000 X147.70 Y151.26
G1 F3780 X146.29 Y152.67 E89.06432
G0 F12000 X146.29 Y152.11
G1 F3780 X147.70 Y150.70 E89.13064
G0 F12000 X146.29 Y150.97
G1 F3780 X148.85 Y148.41 E89.25112
G0 F12000 X149.42 Y148.41
G1 F3780 X146.29 Y151.54 E89.39821
G0 F12000 X146.29 Y150.41
G1 F3780 X148.29 Y148.41 E89.49209
G0 F12000 X147.72 Y148.41
G1 F3780 X146.29 Y149.84 E89.55936
G0 F12000 X146.29 Y149.28
G1 F3780 X147.16 Y148.41 E89.60000
G0 F12000 X146.59 Y148.41
G1 F3780 X146.29 Y148.71 E89.61406
G0 F12000 X156.86 Y150.57
G0 X156.87 Y154.42
G0 X155.39 Y156.59
G1 F3780 X158.71 Y153.27 E89.77006
G0 F12000 X158.71 Y153.83
G1 F3780 X155.96 Y156.59 E89.89946
G0 F12000 X156.52 Y156.59
G1 F3780 X158.71 Y154.40 E90.00223
G0 F12000 X158.71 Y154.97
G1 F3780 X157.09 Y156.59 E90.07841
G0 F12000 X157.65 Y156.59
G1 F3780 X158.71 Y155.53 E90.12799
G0 F12000 X158.71 Y156.10
G1 F3780 X158.22 Y156.59 E90.15094
;LAYER:2
G0 F12000 X158.70 Y156.62 Z0.65
;TYPE:WALL-INNER
G1 F4920 X146.30 Y156.62 E90.56363
G1 X146.30 Y148.38 E90.83800
G1 X158.70 Y148.38 E91.25069
G1 X158.70 Y156.62 E91.52505
G0 F12000 X157.17 Y154.48
G1 F4920 X157.16 Y150.51 E91.65693
G1 X147.59 Y150.51 E91.97533
G1 X147.59 Y153.35 E92.06959
G1 X147.59 Y153.79 E92.08435
G1 X147.62 Y154.48 E92.10723
G1 X157.17 Y154.48 E92.42477
G0 F12000 X156.77 Y154.08
;TYPE:WALL-OUTER
G1 F4920 X156.77 Y150.91 E92.53004
G1 X147.99 Y150.91 E92.82186
G1 X147.99 Y153.35 E92.90298
G1 X147.99 Y153.78 E92.91735
G1 X148.00 Y154.08 E92.92714
G1 X156.77 Y154.08 E93.21870
G0 F12000 X156.77 Y154.38
G0 X158.80 Y156.81
G0 X159.10 Y157.03
G1 F4920 X145.90 Y157.03 E93.65800
G1 X145.90 Y147.97 E93.95901
G1 X159.10 Y147.98 E94.39831
G1 X159.10 Y157.03 E94.69928
G0 F12000 X158.46 Y156.48
;TYPE:FILL
G1 F4920 X156.60 Y154.62 E94.78705
G0 F12000 X156.03 Y154.62
G1 F4920 X157.90 Y156.48 E94.87479
G0 F12000 X157.33 Y156.48
G1 F4920 X155.47 Y154.62 E94.96254
G0 F12000 X154.90 Y154.62
G1 F4920 X156.77 Y156.48 E95.05029
G0 F12000 X156.20 Y156.48
G1 F4920 X154.34 Y154.62 E95.13806
G0 F12000 X153.77 Y154.62
G1 F4920 X155.63 Y156.48 E95.22581
G0 F12000 X155.07 Y156.48
G1 F4920 X153.20 Y154.62 E95.31356
G0 F12000 X152.64 Y154.62
G1 F4920 X154.50 Y156.48 E95.40133
G0 F12000 X153.94 Y156.48
G1 F4920 X152.07 Y154.62 E95.48907
G0 F12000 X151.51 Y154.62
G1 F4920 X153.37 Y156.48 E95.57682
G0 F12000 X152.81 Y156.48
G1 F4920 X150.94 Y154.62 E95.66459
G0 F12000 X150.38 Y154.62
G1 F4920 X152.24 Y156.48 E95.75229
G0 F12000 X151.68 Y156.48
G1 F4920 X149.81 Y154.62 E95.84002
G0 F12000 X149.24 Y154.62
G1 F4920 X151.11 Y156.48 E95.92774
G0 F12000 X150.54 Y156.48
G1 F4920 X148.68 Y154.62 E96.01544
G0 F12000 X148.11 Y154.62
G1 F4920 X149.98 Y156.48 E96.10316
G0 F12000 X149.41 Y156.48
G1 F4920 X147.55 Y154.62 E96.19089
G0 F12000 X147.49 Y154.56
G1 F4920 X146.44 Y153.51 E96.24032
G0 F12000 X146.44 Y154.07
G1 F4920 X148.85 Y156.48 E96.35373
G0 F12000 X148.28 Y156.48
G1 F4920 X146.44 Y154.64 E96.44054
G0 F12000 X146.44 Y155.20
G1 F4920 X147.72 Y156.48 E96.50074
G0 F12000 X147.15 Y156.48
G1 F4920 X146.44 Y155.77 E96.53433
G0 F12000 X146.44 Y156.33
G1 F4920 X146.58 Y156.48 E96.54131
G0 F12000 X147.46 Y153.96
G1 F4920 X146.44 Y152.94 E96.58931
G0 F12000 X146.44 Y152.38
G1 F4920 X147.45 Y153.39 E96.63692
G0 F12000 X147.45 Y152.82
G1 F4920 X146.44 Y151.81 E96.68456
G0 F12000 X146.44 Y151.24
G1 F4920 X147.45 Y152.26 E96.73226
G0 F12000 X147.45 Y151.69
G1 F4920 X146.44 Y150.68 E96.77998
G0 F12000 X146.44 Y150.11
G1 F4920 X147.45 Y151.13 E96.82772
G0 F12000 X147.45 Y150.56
G1 F4920 X146.44 Y149.55 E96.87551
G0 F12000 X146.44 Y148.98
G1 F4920 X147.83 Y150.37 E96.94099
G0 F12000 X148.39 Y150.37
G1 F4920 X146.53 Y148.51 E97.02838
G0 F12000 X147.10 Y148.51
G1 F4920 X148.96 Y150.37 E97.11580
G0 F12000 X149.52 Y150.37
G1 F4920 X147.67 Y148.51 E97.20319
G0 F12000 X148.23 Y148.51
G1 F4920 X150.09 Y150.37 E97.29059
G0 F12000 X150.66 Y150.37
G1 F4920 X148.80 Y148.51 E97.37801
G0 F12000 X149.36 Y148.51
G1 F4920 X151.22 Y150.37 E97.46540
G0 F12000 X151.79 Y150.37
G1 F4920 X149.93 Y148.51 E97.55280
G0 F12000 X150.49 Y148.51
G1 F4920 X152.35 Y150.37 E97.64021
G0 F12000 X152.92 Y150.37
G1 F4920 X151.06 Y148.51 E97.72761
G0 F12000 X151.63 Y148.51
G1 F4920 X153.48 Y150.37 E97.81500
G0 F12000 X154.05 Y150.37
G1 F4920 X152.19 Y148.51 E97.90240
G0 F12000 X152.76 Y148.51
G1 F4920 X154.62 Y150.37 E97.98977
G0 F12000 X155.18 Y150.37
G1 F4920 X153.32 Y148.51 E98.07714
G0 F12000 X153.89 Y148.51
G1 F4920 X155.75 Y150.37 E98.16453
G0 F12000 X156.31 Y150.37
G1 F4920 X154.46 Y148.51 E98.25193
G0 F12000 X155.02 Y148.51
G1 F4920 X156.88 Y150.37 E98.33930
G0 F12000 X157.30 Y150.80
G1 F4920 X158.56 Y152.06 E98.39857
G0 F12000 X158.56 Y151.49
G1 F4920 X155.59 Y148.51 E98.53860
G0 F12000 X156.15 Y148.51
G1 F4920 X158.56 Y150.93 E98.65200
G0 F12000 X158.56 Y150.36
G1 F4920 X156.72 Y148.51 E98.73881
G0 F12000 X157.28 Y148.51
G1 F4920 X158.56 Y149.79 E98.79902
G0 F12000 X158.56 Y149.23
G1 F4920 X157.85 Y148.51 E98.83260
G0 F12000 X158.41 Y148.51
G1 F4920 X158.56 Y148.66 E98.83959
G0 F12000 X157.30 Y151.36
G1 F4920 X158.56 Y152.62 E98.89883
G0 F12000 X158.56 Y153.19
G1 F4920 X157.31 Y151.93 E98.95800
G0 F12000 X157.31 Y152.50
G1 F4920 X158.56 Y153.75 E99.01717
G0 F12000 X158.56 Y154.32
G1 F4920 X157.31 Y153.06 E99.07632
G0 F12000 X157.31 Y153.63
G1 F4920 X158.56 Y154.89 E99.13540
G0 F12000 X158.56 Y155.45
G1 F4920 X157.31 Y154.20 E99.19448
G0 F12000 X157.16 Y154.62
G1 F4920 X158.56 Y156.02 E99.26031
;LAYER:3
G0 F12000 X158.56 Y156.53 Z0.85
;TYPE:WALL-INNER
G1 F5520 X146.44 Y156.52 E99.66342
G1 X146.44 Y148.47 E99.93113
G1 X158.56 Y148.48 E100.33424
G1 X158.56 Y156.53 E100.60195
G0 F12000 X157.38 Y154.48
G1 F5520 X157.38 Y151.33 E100.70679
G1 X157.38 Y150.51 E100.73383
G1 X147.38 Y150.51 E101.06633
G1 X147.37 Y153.66 E101.17114
G1 X147.38 Y154.48 E101.19821
G1 X157.38 Y154.48 E101.53104
G0 F12000 X156.98 Y154.08
;TYPE:WALL-OUTER
G1 F5520 X156.98 Y151.33 E101.62254
G1 X156.98 Y150.91 E101.63631
G1 X147.78 Y150.91 E101.94231
G1 X147.77 Y153.66 E102.03381
G1 X147.77 Y154.08 E102.04758
G1 X156.98 Y154.08 E102.35387
G0 F12000 X156.98 Y154.38
G0 X158.66 Y156.72
G0 X158.96 Y156.93
G1 F5520 X146.04 Y156.93 E102.78359
G1 X146.04 Y148.07 E103.07794
G1 X158.96 Y148.08 E103.50766
G1 X158.96 Y156.93 E103.80198
G0 F12000 X158.42 Y155.82
;TYPE:FILL
G1 F5520 X157.85 Y156.38 E103.82858
G0 F12000 X157.29 Y156.38
G1 F5520 X158.42 Y155.25 E103.88180
G0 F12000 X158.42 Y154.69
G1 F5520 X156.72 Y156.38 E103.96162
G0 F12000 X156.16 Y156.38
G1 F5520 X158.42 Y154.12 E104.06805
G0 F12000 X158.42 Y153.56
G1 F5520 X157.52 Y154.45 E104.11021
G0 F12000 X157.36 Y154.62
G1 F5520 X155.59 Y156.38 E104.19333
G0 F12000 X155.02 Y156.38
G1 F5520 X156.79 Y154.62 E104.27644
G0 F12000 X156.23 Y154.62
G1 F5520 X154.46 Y156.38 E104.35953
G0 F12000 X153.89 Y156.38
G1 F5520 X155.66 Y154.62 E104.44260
G0 F12000 X155.09 Y154.62
G1 F5520 X153.33 Y156.38 E104.52567
G0 F12000 X152.76 Y156.38
G1 F5520 X154.53 Y154.62 E104.60873
G0 F12000 X153.96 Y154.62
G1 F5520 X152.20 Y156.38 E104.69183
G0 F12000 X151.63 Y156.38
G1 F5520 X153.40 Y154.62 E104.77489
G0 F12000 X152.83 Y154.62
G1 F5520 X151.06 Y156.38 E104.85796
G0 F12000 X150.50 Y156.38
G1 F5520 X152.27 Y154.62 E104.94100
G0 F12000 X151.70 Y154.62
G1 F5520 X149.93 Y156.38 E105.02405
G0 F12000 X149.37 Y156.38
G1 F5520 X151.13 Y154.62 E105.10707
G0 F12000 X150.57 Y154.62
G1 F5520 X148.80 Y156.38 E105.19011
G0 F12000 X148.24 Y156.38
G1 F5520 X150.00 Y154.62 E105.27316
G0 F12000 X149.44 Y154.62
G1 F5520 X147.67 Y156.38 E105.35618
G0 F12000 X147.11 Y156.38
G1 F5520 X148.87 Y154.62 E105.43922
G0 F12000 X148.31 Y154.62
G1 F5520 X146.58 Y156.34 E105.52040
G0 F12000 X146.58 Y155.78
G1 F5520 X147.74 Y154.62 E105.57497
G0 F12000 X147.24 Y154.56
G1 F5520 X146.58 Y155.21 E105.60587
G0 F12000 X146.58 Y154.65
G1 F5520 X147.24 Y153.99 E105.63682
G0 F12000 X147.24 Y153.42
G1 F5520 X146.58 Y154.08 E105.66777
G0 F12000 X146.58 Y153.51
G1 F5520 X147.24 Y152.86 E105.69877
G0 F12000 X147.24 Y152.29
G1 F5520 X146.58 Y152.95 E105.72981
G0 F12000 X146.58 Y152.38
G1 F5520 X147.24 Y151.72 E105.76090
G0 F12000 X147.24 Y151.16
G1 F5520 X146.58 Y151.82 E105.79204
G0 F12000 X146.58 Y151.25
G1 F5520 X147.24 Y150.59 E105.82318
G0 F12000 X147.46 Y150.37
G1 F5520 X149.22 Y148.61 E105.90597
G0 F12000 X149.78 Y148.61
G1 F5520 X148.03 Y150.37 E105.98875
G0 F12000 X148.59 Y150.37
G1 F5520 X150.35 Y148.61 E106.07154
G0 F12000 X150.91 Y148.61
G1 F5520 X149.16 Y150.37 E106.15430
G0 F12000 X149.72 Y150.37
G1 F5520 X151.48 Y148.61 E106.23706
G0 F12000 X152.05 Y148.61
G1 F5520 X150.29 Y150.37 E106.31984
G0 F12000 X150.85 Y150.37
G1 F5520 X152.61 Y148.61 E106.40261
G0 F12000 X153.18 Y148.61
G1 F5520 X151.42 Y150.37 E106.48537
G0 F12000 X151.98 Y150.37
G1 F5520 X153.74 Y148.61 E106.56815
G0 F12000 X154.31 Y148.61
G1 F5520 X152.55 Y150.37 E106.65091
G0 F12000 X153.12 Y150.37
G1 F5520 X154.87 Y148.62 E106.73363
G0 F12000 X155.44 Y148.62
G1 F5520 X153.68 Y150.37 E106.81637
G0 F12000 X154.25 Y150.37
G1 F5520 X156.01 Y148.62 E106.89910
G0 F12000 X156.57 Y148.62
G1 F5520 X154.81 Y150.37 E106.98182
G0 F12000 X155.38 Y150.37
G1 F5520 X157.14 Y148.62 E107.06456
G0 F12000 X157.70 Y148.62
G1 F5520 X155.94 Y150.37 E107.14729
G0 F12000 X156.51 Y150.37
G1 F5520 X158.27 Y148.62 E107.23001
G0 F12000 X158.42 Y149.03
G1 F5520 X157.07 Y150.37 E107.29318
G0 F12000 X157.52 Y150.50
G1 F5520 X158.42 Y149.60 E107.33549
G0 F12000 X158.42 Y150.16
G1 F5520 X157.52 Y151.06 E107.37780
G0 F12000 X157.52 Y151.63
G1 F5520 X158.42 Y150.73 E107.42006
G0 F12000 X158.42 Y151.29
G1 F5520 X157.52 Y152.19 E107.46232
G0 F12000 X157.52 Y152.76
G1 F5520 X158.42 Y151.86 E107.50456
G0 F12000 X158.42 Y152.43
G1 F5520 X157.52 Y153.32 E107.54676
G0 F12000 X157.52 Y153.89
G1 F5520 X158.42 Y152.99 E107.58890
G0 F12000 X157.32 Y150.57
G0 X148.65 Y148.61
G1 F5520 X146.58 Y150.69 E107.68641
G0 F12000 X146.58 Y150.12
G1 F5520 X148.09 Y148.61 E107.75729
G0 F12000 X147.52 Y148.61
G1 F5520 X146.58 Y149.56 E107.80158
G0 F12000 X146.58 Y148.99
G1 F5520 X146.96 Y148.61 E107.81926
;LAYER:4
G0 F12000 X146.58 Y148.57 Z1.05
;TYPE:WALL-INNER
G1 F5160 X158.42 Y148.58 E108.21280
G1 X158.42 Y156.43 E108.47386
G1 X146.58 Y156.42 E108.86739
G1 X146.58 Y148.57 E109.12845
G0 F12000 X147.21 Y150.51
G1 F5160 X147.21 Y153.07 E109.21350
G1 X147.21 Y154.48 E109.26033
G1 X157.55 Y154.48 E109.60414
G1 X157.55 Y151.92 E109.68918
G1 X157.55 Y150.51 E109.73601
G1 X147.21 Y150.51 E110.07982
G0 F12000 X147.61 Y150.91
;TYPE:WALL-OUTER
G1 F5160 X147.61 Y154.08 E110.18509
G1 X157.15 Y154.08 E110.50233
G1 X157.15 Y150.91 E110.60759
G1 X147.61 Y150.91 E110.92483
G0 F12000 X147.61 Y150.61
G0 X146.39 Y148.47
G0 X146.18 Y148.18
G1 F5160 X158.82 Y148.18 E111.34497
G1 X158.82 Y156.82 E111.63264
G1 X146.18 Y156.82 E112.05278
G1 X146.18 Y148.18 E112.34048
G0 F12000 X146.73 Y148.71
;TYPE:FILL
G1 F5160 X148.39 Y150.37 E112.41847
G0 F12000 X147.83 Y150.37
G1 F5160 X146.72 Y149.27 E112.47037
G0 F12000 X146.72 Y149.84
G1 F5160 X147.16 Y150.56 E112.49562
G1 X146.72 Y150.68 E112.51189
G1 X146.90 Y151.42 E112.52817
G1 X146.90 Y151.99 E112.54442
G1 X146.90 Y152.55 E112.56066
G1 X146.90 Y153.12 E112.57694
G1 X146.90 Y153.69 E112.59323
G1 X147.07 Y154.14 E112.60946
G0 F12000 X146.72 Y154.36
G1 F5160 X148.65 Y156.28 E112.69991
G0 F12000 X148.08 Y156.28
G1 F5160 X146.72 Y154.93 E112.76374
G0 F12000 X146.72 Y155.49
G1 F5160 X147.51 Y156.28 E112.80097
G0 F12000 X146.95 Y156.28
G1 F5160 X146.72 Y156.06 E112.81160
G0 F12000 X147.55 Y154.62
G1 F5160 X149.21 Y156.28 E112.88992
G0 F12000 X149.78 Y156.28
G1 F5160 X148.11 Y154.62 E112.96821
G0 F12000 X148.68 Y154.62
G1 F5160 X150.34 Y156.28 E113.04650
G0 F12000 X150.91 Y156.28
G1 F5160 X149.24 Y154.62 E113.12487
G0 F12000 X149.81 Y154.62
G1 F5160 X151.47 Y156.28 E113.20321
G0 F12000 X152.04 Y156.28
G1 F5160 X150.38 Y154.62 E113.28155
G0 F12000 X150.94 Y154.62
G1 F5160 X152.61 Y156.28 E113.35991
G0 F12000 X153.17 Y156.28
G1 F5160 X151.51 Y154.62 E113.43825
G0 F12000 X152.07 Y154.62
G1 F5160 X153.74 Y156.28 E113.51659
G0 F12000 X154.30 Y156.28
G1 F5160 X152.64 Y154.62 E113.59495
G0 F12000 X153.20 Y154.62
G1 F5160 X154.87 Y156.28 E113.67332
G0 F12000 X155.44 Y156.28
G1 F5160 X153.77 Y154.62 E113.75168
G0 F12000 X154.34 Y154.62
G1 F5160 X156.00 Y156.28 E113.83005
G0 F12000 X156.57 Y156.28
G1 F5160 X154.90 Y154.62 E113.90841
G0 F12000 X155.47 Y154.62
G1 F5160 X157.13 Y156.28 E113.98677
G0 F12000 X157.70 Y156.28
G1 F5160 X156.03 Y154.62 E114.06511
G0 F12000 X156.60 Y154.62
G1 F5160 X158.26 Y156.28 E114.14348
G0 F12000 X158.28 Y155.73
G1 F5160 X157.16 Y154.62 E114.19573
G0 F12000 X157.69 Y154.57
G1 F5160 X158.28 Y155.16 E114.22346
G0 F12000 X158.28 Y154.60
G1 F5160 X157.69 Y154.01 E114.25121
G0 F12000 X157.69 Y153.44
G1 F5160 X158.28 Y154.03 E114.27897
G0 F12000 X158.28 Y153.47
G1 F5160 X157.69 Y152.88 E114.30669
G0 F12000 X157.69 Y152.31
G1 F5160 X158.28 Y152.90 E114.33445
G0 F12000 X158.28 Y152.34
G1 F5160 X157.69 Y151.75 E114.36220
G0 F12000 X157.69 Y151.18
G1 F5160 X158.28 Y151.77 E114.38993
G0 F12000 X158.28 Y151.20
G1 F5160 X157.69 Y150.61 E114.41768
G0 F12000 X157.44 Y150.37
G1 F5160 X155.79 Y148.72 E114.49562
G0 F12000 X156.35 Y148.72
G1 F5160 X158.28 Y150.64 E114.58602
G0 F12000 X158.28 Y150.07
G1 F5160 X156.92 Y148.72 E114.64980
G0 F12000 X157.48 Y148.72
G1 F5160 X158.28 Y149.51 E114.68701
G0 F12000 X158.28 Y148.94
G1 F5160 X158.05 Y148.72 E114.69759
G0 F12000 X156.88 Y150.37
G1 F5160 X155.22 Y148.72 E114.77556
G0 F12000 X154.66 Y148.72
G1 F5160 X156.31 Y150.37 E114.85355
G0 F12000 X155.75 Y150.37
G1 F5160 X154.09 Y148.72 E114.93153
G0 F12000 X153.52 Y148.72
G1 F5160 X155.18 Y150.37 E115.00950
G0 F12000 X154.62 Y150.37
G1 F5160 X152.96 Y148.72 E115.08746
G0 F12000 X152.39 Y148.72
G1 F5160 X154.05 Y150.37 E115.16545
G0 F12000 X153.48 Y150.37
G1 F5160 X151.83 Y148.72 E115.24343
G0 F12000 X151.26 Y148.72
G1 F5160 X152.92 Y150.37 E115.32142
G0 F12000 X152.35 Y150.37
G1 F5160 X150.69 Y148.72 E115.39936
G0 F12000 X150.13 Y148.72
G1 F5160 X151.79 Y150.37 E115.47730
G0 F12000 X151.22 Y150.37
G1 F5160 X149.56 Y148.71 E115.55531
G0 F12000 X149.00 Y148.71
G1 F5160 X150.66 Y150.37 E115.63330
G0 F12000 X150.09 Y150.37
G1 F5160 X148.43 Y148.71 E115.71129
G0 F12000 X147.87 Y148.71
G1 F5160 X149.52 Y150.37 E115.78930
G0 F12000 X148.96 Y150.37
G1 F5160 X147.30 Y148.71 E115.86729
;LAYER:5
G0 F12000 X146.73 Y148.68 Z1.25
;TYPE:WALL-INNER
G1 F3960 X158.27 Y148.68 E116.25124
G1 X158.27 Y156.32 E116.50565
G1 X146.73 Y156.32 E116.88960
G1 X146.73 Y148.68 E117.14404
G0 F12000 X147.04 Y150.51
G1 F3960 X147.04 Y154.48 E117.27592
G1 X157.71 Y154.48 E117.63067
G1 X157.71 Y150.51 E117.76255
G1 X147.04 Y150.51 E118.11730
G0 F12000 X147.44 Y150.91
;TYPE:WALL-OUTER
G1 F3960 X147.44 Y154.08 E118.22257
G1 X157.31 Y154.08 E118.55071
G1 X157.31 Y150.91 E118.65598
G1 X147.44 Y150.91 E118.98413
G0 F12000 X147.44 Y150.61
G0 X146.54 Y148.57
G0 X146.33 Y148.28
G1 F3960 X158.67 Y148.28 E119.39469
G1 X158.67 Y156.72 E119.67570
G1 X146.33 Y156.72 E120.08627
G1 X146.33 Y148.28 E120.36732
G0 F12000 X146.87 Y149.27
;TYPE:FILL
G1 F3960 X147.32 Y148.81 E120.38867
G0 F12000 X147.89 Y148.81
G1 F3960 X146.87 Y149.83 E120.43660
G0 F12000 X146.87 Y150.09
G1 F3960 X148.14 Y148.81 E120.49643
G0 F12000 X148.45 Y148.81
G1 F3960 X148.31 Y149.23 E120.51617
G1 X149.09 Y149.02 E120.53589
G1 X149.66 Y149.02 E120.55558
G1 X150.22 Y149.02 E120.57530
G1 X150.79 Y149.02 E120.59498
G1 X151.35 Y149.02 E120.61475
G1 X151.92 Y149.02 E120.63448
G1 X152.48 Y149.02 E120.65424
G1 X153.05 Y149.02 E120.67401
G1 X153.54 Y148.81 E120.69183
G0 F12000 X153.53 Y148.81
G1 F3960 X155.09 Y150.37 E120.76509
G0 F12000 X156.01 Y150.37
G1 F3960 X157.57 Y148.81 E120.83838
G0 F12000 X157.50 Y148.81
G1 F3960 X157.08 Y149.24 E120.85818
G0 F12000 X157.49 Y149.39
G1 F3960 X158.07 Y148.81 E120.88532
G0 F12000 X158.13 Y149.32
G1 F3960 X157.49 Y149.96 E120.91538
G0 F12000 X157.64 Y150.37
G1 F3960 X158.13 Y150.17 E120.93838
G1 X157.99 Y150.87 E120.95155
G1 X157.99 Y151.44 E120.96465
G1 X157.99 Y152.00 E120.97778
G1 X157.99 Y152.57 E120.99092
G1 X157.85 Y153.06 E121.00402
G1 X158.13 Y153.35 E121.01729
G1 X157.99 Y153.70 E121.03045
G1 X157.85 Y154.12 E121.04531
G0 F12000 X158.13 Y154.41
G1 F3960 X157.49 Y155.05 E121.07536
G0 F12000 X157.49 Y155.62
G1 F3960 X158.13 Y154.97 E121.10544
G0 F12000 X158.13 Y155.54
G1 F3960 X157.49 Y156.19 E121.13571
G0 F12000 X157.34 Y155.76
G1 F3960 X156.85 Y155.97 E121.15553
G1 X156.28 Y155.97 E121.17526
G1 X155.72 Y155.97 E121.19503
G1 X155.15 Y155.97 E121.21479
G1 X154.59 Y155.97 E121.23452
G1 X154.02 Y155.97 E121.25429
G1 X153.45 Y155.97 E121.27406
G1 X152.89 Y155.97 E121.29379
G1 X152.32 Y155.97 E121.31356
G1 X151.83 Y156.19 E121.33139
G0 F12000 X151.47 Y156.18
G1 F3960 X149.91 Y154.62 E121.40503
G0 F12000 X149.99 Y155.76
G1 F3960 X149.49 Y155.97 E121.42485
G1 X148.93 Y155.97 E121.44458
G1 X148.36 Y155.97 E121.46434
G1 X147.80 Y155.97 E121.48411
G1 X147.31 Y156.19 E121.50191
G0 F12000 X146.87 Y156.06
G1 F3960 X147.51 Y155.42 E121.53202
G0 F12000 X147.51 Y154.85
G1 F3960 X146.87 Y155.49 E121.56212
G0 F12000 X146.87 Y154.92
G1 F3960 X147.18 Y154.62 E121.57654
G0 F12000 X150.13 Y156.19
G1 F3960 X150.63 Y155.97 E121.59634
G1 X151.19 Y155.97 E121.61610
G1 X151.69 Y155.76 E121.63393
G0 F12000 X151.76 Y154.62
G1 F3960 X150.20 Y156.19 E121.70763
G0 F12000 X147.10 Y154.42
G0 X146.89 Y150.37
G1 F3960 X147.51 Y149.76 E121.73647
G0 F12000 X153.69 Y149.24
G1 F3960 X154.18 Y149.03 E121.75625
G1 X154.75 Y149.03 E121.77603
G1 X155.31 Y149.03 E121.79580
G1 X155.88 Y149.03 E121.81556
G1 X156.44 Y149.03 E121.83534
G1 X156.94 Y148.81 E121.85319
G0 F12000 X157.65 Y150.57
G0 X158.13 Y156.11
G1 F3960 X158.05 Y156.19 E121.85684
;LAYER:6
G0 F12000 X158.13 Y156.22 Z1.45
;TYPE:WALL-INNER
G1 F3780 X146.87 Y156.22 E122.23122
G1 X146.87 Y148.78 E122.47900
G1 X158.13 Y148.78 E122.85338
G1 X158.13 Y156.22 E123.10113
G0 F12000 X157.87 Y154.48
G1 F3780 X157.88 Y153.11 E123.14667
G1 X157.88 Y150.51 E123.23301
G1 X146.88 Y150.51 E123.59867
G1 X146.88 Y151.88 E123.64421
G1 X146.88 Y154.48 E123.73055
G1 X157.87 Y154.48 E124.09621
G0 F12000 X157.47 Y154.08
;TYPE:WALL-OUTER
G1 F3780 X157.47 Y150.91 E124.20148
G1 X147.28 Y150.91 E124.54057
G1 X147.28 Y154.08 E124.64583
G1 X157.47 Y154.08 E124.98492
G0 F12000 X157.77 Y154.08
G0 X158.23 Y156.41
G0 X158.53 Y156.62
G1 F3780 X146.47 Y156.62 E125.38591
G1 X146.47 Y148.38 E125.66030
G1 X158.53 Y148.38 E126.06129
G1 X158.53 Y156.62 E126.33565
G0 F12000 X157.99 Y156.01
;TYPE:FILL
G1 F3780 X157.35 Y155.37 E126.36580
G0 F12000 X157.08 Y155.66
G1 F3780 X157.22 Y156.08 E126.38553
G1 X156.44 Y155.87 E126.40522
G1 X155.87 Y155.87 E126.42494
G1 X155.31 Y155.87 E126.44466
G1 X154.74 Y155.87 E126.46435
G1 X154.18 Y155.87 E126.48406
G1 X153.61 Y155.87 E126.50378
G1 X153.05 Y155.87 E126.52347
G1 X152.48 Y155.87 E126.54318
G1 X151.91 Y155.87 E126.56286
G1 X151.42 Y155.66 E126.58067
G0 F12000 X151.37 Y156.08
G1 F3780 X149.91 Y154.62 E126.64958
G0 F12000 X149.72 Y155.66
G1 F3780 X150.14 Y156.08 E126.66931
G0 F12000 X150.30 Y156.08
G1 F3780 X151.76 Y154.62 E126.73829
G0 F12000 X150.86 Y155.66
G1 F3780 X150.99 Y156.08 E126.75800
G1 X150.29 Y155.66 E126.78519
G0 F12000 X149.58 Y156.08
G1 F3780 X149.09 Y155.87 E126.80488
G1 X148.52 Y155.87 E126.82457
G1 X148.03 Y155.66 E126.84238
G0 F12000 X147.88 Y156.08
G1 F3780 X147.01 Y155.21 E126.88328
G0 F12000 X147.01 Y155.78
G1 F3780 X147.31 Y156.08 E126.89758
G0 F12000 X147.65 Y155.29
G1 F3780 X147.01 Y154.65 E126.92773
G0 F12000 X147.55 Y154.62
G1 F3780 X147.65 Y154.72 E126.93271
G0 F12000 X146.94 Y154.42
G0 X146.94 Y150.57
G0 X147.26 Y150.37
G1 F3780 X147.01 Y150.12 E126.94450
G0 F12000 X147.01 Y149.94
G1 F3780 X148.04 Y148.91 E126.99294
G0 F12000 X148.07 Y148.91
G1 F3780 X148.56 Y149.12 E127.01269
G1 X149.12 Y149.12 E127.03246
G1 X149.69 Y149.12 E127.05223
G1 X150.25 Y149.12 E127.07196
G1 X150.82 Y149.12 E127.09171
G1 X151.39 Y149.12 E127.11140
G1 X151.95 Y149.12 E127.13112
G1 X152.52 Y149.12 E127.15083
G1 X153.08 Y149.12 E127.17052
G1 X153.58 Y149.34 E127.18834
G0 F12000 X153.63 Y148.91
G1 F3780 X155.09 Y150.37 E127.25692
G0 F12000 X156.01 Y150.37
G1 F3780 X157.47 Y148.91 E127.32555
G0 F12000 X157.68 Y148.91
G1 F3780 X157.99 Y149.22 E127.33978
G0 F12000 X157.99 Y149.78
G1 F3780 X157.12 Y148.91 E127.38063
G0 F12000 X156.97 Y149.34
G1 F3780 X156.48 Y149.12 E127.40037
G1 X155.91 Y149.12 E127.42009
G1 X155.35 Y149.12 E127.43981
G1 X154.78 Y149.12 E127.45949
G1 X154.22 Y149.12 E127.47921
G1 X153.72 Y148.91 E127.49703
G0 F12000 X157.35 Y149.71
G1 F3780 X157.99 Y150.35 E127.52709
G0 F12000 X157.44 Y150.37
G1 F3780 X157.35 Y150.28 E127.53170
G0 F12000 X157.82 Y150.57
G0 X157.73 Y154.62
G1 F3780 X157.99 Y154.88 E127.54379
G0 F12000 X157.99 Y155.44
G1 F3780 X157.35 Y154.80 E127.57394
G0 F12000 X146.94 Y154.42
G0 X146.94 Y150.57
G0 X147.65 Y150.20
G1 F3780 X147.01 Y149.56 E127.60407
G0 F12000 X147.01 Y148.99
G1 F3780 X147.65 Y149.63 E127.63422
G0 F12000 X147.92 Y149.34
G1 F3780 X147.50 Y148.91 E127.65402
;LAYER:7
G0 F12000 X147.02 Y148.88 Z1.65
;TYPE:WALL-INNER
G1 F3660 X157.98 Y148.88 E128.01882
G1 X157.98 Y150.51 E128.07330
G1 X147.02 Y150.51 E128.43809
G1 X147.02 Y148.88 E128.49261
G0 F12000 X157.98 Y150.57
G0 X157.98 Y154.42
G0 X147.02 Y154.48
G1 F3660 X157.98 Y154.48 E128.85740
G1 X157.98 Y156.12 E128.91215
G1 X147.02 Y156.12 E129.27695
G1 X147.02 Y154.48 E129.33169
G0 F12000 X147.12 Y154.08
;TYPE:WALL-OUTER
G1 F3660 X157.64 Y154.08 E129.68166
G1 X157.64 Y153.71 E129.69410
G1 X157.64 Y150.91 E129.78693
G1 X147.12 Y150.91 E130.13689
G1 X147.12 Y151.29 E130.14933
G1 X147.12 Y154.08 E130.24216
G0 F12000 X147.12 Y154.38
G0 X146.83 Y156.22
G0 X146.62 Y156.53
G1 F3660 X146.62 Y148.47 E130.50990
G1 X158.38 Y148.48 E130.90131
G1 X158.38 Y156.53 E131.16902
G1 X146.62 Y156.53 E131.56042
G0 F12000 X147.16 Y155.77
;TYPE:FILL
G1 F3660 X147.79 Y155.13 E131.59053
G0 F12000 X147.93 Y155.56
G1 F3660 X147.79 Y155.98 E131.61028
G1 X148.56 Y155.77 E131.63000
G1 X149.13 Y155.77 E131.64972
G1 X149.69 Y155.77 E131.66944
G1 X150.26 Y155.77 E131.68912
G1 X150.83 Y155.77 E131.70884
G1 X151.32 Y155.56 E131.72670
G0 F12000 X151.27 Y155.98
G1 F3660 X149.91 Y154.62 E131.79095
G0 F12000 X150.40 Y155.98
G1 F3660 X151.76 Y154.62 E131.85520
G0 F12000 X151.88 Y155.56
G1 F3660 X151.75 Y155.98 E131.87490
G1 X152.52 Y155.77 E131.89462
G1 X153.09 Y155.77 E131.91434
G1 X153.65 Y155.77 E131.93403
G1 X154.22 Y155.77 E131.95375
G1 X154.79 Y155.77 E131.97347
G1 X155.35 Y155.77 E131.99315
G1 X155.92 Y155.77 E132.01287
G1 X156.48 Y155.77 E132.03259
G1 X156.98 Y155.56 E132.05041
G0 F12000 X157.20 Y155.34
G1 F3660 X157.84 Y154.70 E132.08056
G0 F12000 X157.36 Y154.62
G1 F3660 X157.20 Y154.77 E132.08781
G0 F12000 X157.84 Y155.26
G1 F3660 X157.12 Y155.98 E132.12174
G0 F12000 X157.69 Y155.98
G1 F3660 X157.84 Y155.83 E132.12906
G0 F12000 X157.94 Y154.14
G0 X157.84 Y154.14
G1 F3660 X158.01 Y153.68 E132.14536
G1 X158.01 Y153.12 E132.16165
G1 X158.01 Y152.55 E132.17788
G1 X158.01 Y151.98 E132.19407
G1 X158.01 Y151.42 E132.21026
G1 X158.18 Y150.96 E132.22645
G0 F12000 X157.64 Y150.37
G1 F3660 X157.84 Y150.17 E132.23595
G0 F12000 X157.84 Y149.61
G1 F3660 X157.20 Y150.25 E132.26610
G0 F12000 X157.20 Y149.68
G1 F3660 X157.84 Y149.04 E132.29621
G0 F12000 X157.37 Y149.01
G1 F3660 X156.01 Y150.37 E132.36015
G0 F12000 X155.09 Y150.37
G1 F3660 X153.73 Y149.01 E132.42401
G0 F12000 X153.91 Y149.01
G1 F3660 X153.41 Y149.22 E132.44379
G1 X152.85 Y149.22 E132.46357
G1 X152.28 Y149.22 E132.48335
G1 X151.72 Y149.22 E132.50317
G1 X151.15 Y149.22 E132.52293
G1 X150.59 Y149.22 E132.54271
G1 X150.02 Y149.22 E132.56252
G1 X149.46 Y149.22 E132.58229
G1 X148.89 Y149.22 E132.60207
G1 X148.32 Y149.22 E132.62188
G1 X147.83 Y149.44 E132.63975
G0 F12000 X147.80 Y149.47
G1 F3660 X147.16 Y150.11 E132.66988
G0 F12000 X147.16 Y149.80
G1 F3660 X147.94 Y149.01 E132.70680
G0 F12000 X147.69 Y149.01
G1 F3660 X147.16 Y149.55 E132.73182
G0 F12000 X147.80 Y150.04
G1 F3660 X147.46 Y150.37 E132.74765
G0 F12000 X157.98 Y150.57
G0 X157.98 Y154.42
G0 X147.74 Y154.62
G1 F3660 X147.16 Y155.20 E132.77514
G1 F2400 E131.57514
G0 F12000 X154.05 Y149.44
G1 F2400 E132.77514
G1 F3660 X154.55 Y149.22 E132.79493
G1 X155.11 Y149.22 E132.81471
G1 X155.68 Y149.22 E132.83452
G1 X156.24 Y149.22 E132.85434
G1 X156.81 Y149.22 E132.87412
G1 X157.30 Y149.01 E132.89198
;LAYER:8
G0 F12000 X157.84 Y148.98 Z1.85
;TYPE:WALL-INNER
G1 F3120 X157.84 Y150.51 E132.94314
G1 X147.16 Y150.51 E133.29835
G1 X147.16 Y148.97 E133.34954
G1 X157.84 Y148.98 E133.70476
G1 F2400 E132.50476
G0 F12000 X157.84 Y154.48
G1 F2400 E133.70476
G1 F3120 X157.84 Y156.03 E133.75618
G1 X147.16 Y156.03 E134.11140
G1 X147.16 Y154.48 E134.16282
G1 X157.84 Y154.48 E134.51804
G0 F12000 X157.76 Y154.08
;TYPE:WALL-OUTER
G1 F3120 X157.76 Y150.91 E134.62331
G1 X146.99 Y150.91 E134.98162
G1 X146.99 Y154.08 E135.08689
G1 X157.76 Y154.08 E135.44516
G0 F12000 X157.76 Y154.38
G0 X157.94 Y156.22
G0 X158.24 Y156.43
G1 F3120 X146.76 Y156.43 E135.82699
G1 X146.76 Y148.57 E136.08808
G1 X158.24 Y148.58 E136.46991
G1 X158.24 Y156.43 E136.73097
G0 F12000 X157.70 Y155.72
;TYPE:FILL
G1 F3120 X157.06 Y155.08 E136.76112
G0 F12000 X156.88 Y155.46
G1 F3120 X157.01 Y155.88 E136.78084
G1 X156.24 Y155.67 E136.80054
G1 X155.67 Y155.67 E136.82026
G1 X155.11 Y155.67 E136.83998
G1 X154.54 Y155.67 E136.85970
G1 X153.98 Y155.67 E136.87938
G1 X153.41 Y155.67 E136.89910
G1 X152.84 Y155.67 E136.91882
G1 X152.28 Y155.67 E136.93851
G1 X151.71 Y155.67 E136.95823
G1 X151.22 Y155.46 E136.97605
G0 F12000 X151.17 Y155.88
G1 F3120 X149.91 Y154.62 E137.03557
G0 F12000 X150.09 Y155.46
G1 F3120 X150.51 Y155.88 E137.05533
G0 F12000 X150.50 Y155.88
G1 F3120 X151.76 Y154.62 E137.11493
G0 F12000 X150.66 Y155.46
G1 F3120 X151.08 Y155.88 E137.13468
G0 F12000 X149.94 Y155.88
G1 F3120 X149.45 Y155.67 E137.15442
G1 X148.89 Y155.67 E137.17410
G1 X148.39 Y155.46 E137.19193
G0 F12000 X148.25 Y155.88
G1 F3120 X147.30 Y154.94 E137.23652
G0 F12000 X147.55 Y154.62
G1 F3120 X147.94 Y155.01 E137.25500
G0 F12000 X147.30 Y155.50
G1 F3120 X147.68 Y155.88 E137.27302
G1 F2400 E136.07302
G0 F12000 X147.83 Y150.37
G1 F2400 E137.27302
G1 F3120 X147.30 Y149.75 E137.29781
G1 X147.77 Y149.11 E137.32316
G1 X148.12 Y149.53 E137.34139
G0 F12000 X147.94 Y149.92
G1 F3120 X147.30 Y149.28 E137.37150
G0 F12000 X148.27 Y149.12
G1 F3120 X148.76 Y149.32 E137.39124
G1 X149.32 Y149.32 E137.41096
G1 X149.89 Y149.32 E137.43064
G1 X150.46 Y149.32 E137.45036
G1 X151.02 Y149.32 E137.47008
G1 X151.59 Y149.32 E137.48976
G1 X152.15 Y149.32 E137.50948
G1 X152.72 Y149.32 E137.52920
G1 X153.28 Y149.32 E137.54888
G1 X153.78 Y149.53 E137.56670
G0 F12000 X153.83 Y149.12
G1 F3120 X155.09 Y150.37 E137.62582
G0 F12000 X154.91 Y149.53
G1 F3120 X154.42 Y149.32 E137.64552
G1 X153.92 Y149.12 E137.66330
G0 F12000 X155.06 Y149.12
G1 F3120 X155.55 Y149.32 E137.68302
G1 X156.11 Y149.32 E137.70271
G1 X156.61 Y149.53 E137.72053
G0 F12000 X156.75 Y149.12
G1 F3120 X157.70 Y150.06 E137.76505
G0 F12000 X157.44 Y150.37
G1 F3120 X157.06 Y149.99 E137.78321
G0 F12000 X157.70 Y149.50
G1 F3120 X157.32 Y149.12 E137.80113
G0 F12000 X157.27 Y149.12
G1 F3120 X156.01 Y150.37 E137.86032
G1 F2400 E136.66032
G0 F12000 X157.16 Y154.62
G1 F2400 E137.86032
G1 F3120 X157.70 Y155.15 E137.88551
;LAYER:9
G0 F12000 X157.70 Y154.48 Z2.05
;TYPE:WALL-INNER
G1 F2940 X157.70 Y155.93 E137.93361
G1 X147.30 Y155.93 E138.27924
G1 X147.30 Y154.48 E138.32734
G1 X157.70 Y154.48 E138.67298
G1 F2400 E137.47298
G0 F12000 X157.70 Y150.51
G1 F2400 E138.67298
G1 F2940 X147.30 Y150.51 E139.01862
G1 X147.30 Y149.07 E139.06648
G1 X157.70 Y149.08 E139.41212
G1 X157.70 Y150.51 E139.45995
G0 F12000 X157.87 Y150.91
;TYPE:WALL-OUTER
G1 F2940 X146.90 Y150.91 E139.82471
G1 X146.90 Y148.68 E139.89918
G1 X158.10 Y148.68 E140.27143
G1 X158.10 Y156.32 E140.52583
G1 X146.90 Y156.32 E140.89808
G1 X146.90 Y154.08 E140.97278
G1 X157.87 Y154.08 E141.33755
G1 X157.87 Y150.91 E141.44282
G0 F12000 X157.07 Y150.37
;TYPE:FILL
G1 F2940 X157.56 Y149.89 E141.46539
G0 F12000 X157.56 Y149.33
G1 F2940 X156.91 Y149.97 E141.49554
G0 F12000 X156.68 Y149.63
G1 F2940 X157.10 Y149.22 E141.51532
G0 F12000 X157.17 Y149.22
G1 F2940 X156.01 Y150.37 E141.56984
G0 F12000 X156.12 Y149.63
G1 F2940 X156.25 Y149.22 E141.58957
G1 X155.48 Y149.43 E141.60928
G1 X154.91 Y149.43 E141.62900
G1 X154.35 Y149.43 E141.64869
G1 X153.85 Y149.63 E141.66651
G0 F12000 X153.93 Y149.22
G1 F2940 X155.09 Y150.37 E141.72096
G0 F12000 X155.09 Y150.61
G0 X153.71 Y148.97
G0 X153.71 Y149.22
G1 F2940 X153.22 Y149.43 E141.74073
G1 X152.65 Y149.43 E141.76041
G1 X152.09 Y149.42 E141.78015
G1 X151.52 Y149.42 E141.79996
G1 X150.95 Y149.42 E141.81977
G1 X150.39 Y149.42 E141.83955
G1 X149.82 Y149.42 E141.85937
G1 X149.26 Y149.42 E141.87918
G1 X148.69 Y149.42 E141.89895
G1 X148.20 Y149.63 E141.91678
G0 F12000 X148.08 Y149.75
G1 F2940 X147.46 Y150.37 E141.94616
G0 F12000 X147.44 Y149.82
G1 F2940 X148.05 Y149.21 E141.97480
G0 F12000 X147.74 Y149.21
G1 F2940 X147.44 Y149.51 E141.98872
G0 F12000 X148.08 Y150.31
G1 F2940 X148.03 Y150.37 E141.99145
G1 F2400 E140.79145
G0 F12000 X147.74 Y154.62
G1 F2400 E141.99145
G1 F2940 X147.44 Y154.91 E142.00538
G0 F12000 X147.44 Y155.48
G1 F2940 X148.08 Y154.84 E142.03548
G0 F12000 X148.13 Y155.36
G1 F2940 X147.99 Y155.78 E142.05522
G1 X148.76 Y155.57 E142.07491
G1 X149.33 Y155.57 E142.09463
G1 X149.90 Y155.57 E142.11435
G1 X150.46 Y155.57 E142.13404
G1 X150.95 Y155.36 E142.15189
G0 F12000 X151.07 Y155.78
G1 F2940 X149.91 Y154.62 E142.20671
G0 F12000 X150.60 Y155.78
G1 F2940 X151.76 Y154.62 E142.26158
G0 F12000 X151.52 Y155.36
G1 F2940 X151.38 Y155.78 E142.28132
G1 X152.16 Y155.57 E142.30102
G1 X152.72 Y155.57 E142.32074
G1 X153.29 Y155.57 E142.34046
G1 X153.85 Y155.57 E142.36014
G1 X154.42 Y155.57 E142.37986
G1 X154.99 Y155.57 E142.39958
G1 X155.55 Y155.57 E142.41930
G1 X156.12 Y155.57 E142.43898
G1 X156.76 Y155.21 E142.45873
G1 X157.36 Y154.62 E142.48667
G0 F12000 X157.56 Y154.99
G1 F2940 X156.76 Y155.78 E142.52425
G0 F12000 X157.32 Y155.78
G1 F2940 X157.56 Y155.55 E142.53521
;LAYER:10
G0 F12000 X157.55 Y155.82 Z2.25
;TYPE:WALL-INNER
G1 F2700 X147.45 Y155.82 E142.87127
G1 X147.45 Y154.48 E142.91604
G1 X157.55 Y154.48 E143.25210
G1 X157.55 Y155.82 E143.29687
G1 F2400 E142.09687
G0 F12000 X157.55 Y150.51
G1 F2400 E143.29687
G1 F2700 X147.45 Y150.51 E143.63293
G1 X147.45 Y149.18 E143.67746
G1 X157.55 Y149.18 E144.01352
G1 X157.55 Y150.51 E144.05802
G0 F12000 X157.95 Y150.91
;TYPE:WALL-OUTER
G1 F2700 X147.05 Y150.91 E144.42069
G1 X147.05 Y148.78 E144.49184
G1 X157.95 Y148.78 E144.85450
G1 X157.95 Y150.91 E144.92565
G1 F2400 E143.72565
G0 F12000 X157.95 Y154.08
G1 F2400 E144.92565
G1 F2700 X157.95 Y156.22 E144.99702
G1 X147.05 Y156.22 E145.35969
G1 X147.05 Y154.08 E145.43107
G1 X157.95 Y154.08 E145.79374
G0 F12000 X157.16 Y154.62
;TYPE:FILL
G1 F2700 X157.41 Y154.87 E145.80533
G0 F12000 X157.41 Y155.43
G1 F2700 X156.77 Y154.79 E145.83553
G0 F12000 X156.68 Y155.26
G1 F2700 X156.81 Y155.68 E145.85526
G1 X156.04 Y155.47 E145.87497
G1 X155.47 Y155.47 E145.89466
G1 X154.91 Y155.47 E145.91438
G1 X154.34 Y155.47 E145.93410
G1 X153.78 Y155.47 E145.95378
G1 X153.21 Y155.47 E145.97350
G1 X152.65 Y155.47 E145.99322
G1 X152.08 Y155.47 E146.01291
G1 X151.51 Y155.47 E146.03263
G1 X151.02 Y155.26 E146.05045
G0 F12000 X150.97 Y155.68
G1 F2700 X149.91 Y154.62 E146.10057
G0 F12000 X149.89 Y155.26
G1 F2700 X150.31 Y155.68 E146.12032
G0 F12000 X150.70 Y155.69
G1 F2700 X151.76 Y154.62 E146.17051
G0 F12000 X150.88 Y155.68
G1 F2700 X150.46 Y155.26 E146.19027
G0 F12000 X149.74 Y155.68
G1 F2700 X149.25 Y155.47 E146.21000
G1 X148.76 Y155.26 E146.22780
G0 F12000 X148.61 Y155.68
G1 F2700 X147.59 Y154.66 E146.27601
G0 F12000 X148.11 Y154.62
G1 F2700 X148.23 Y154.73 E146.28147
G0 F12000 X147.59 Y155.22
G1 F2700 X148.05 Y155.68 E146.30308
G1 F2400 E145.10308
G0 F12000 X147.83 Y150.37
G1 F2400 E146.30308
G1 F2700 X147.59 Y150.13 E146.31432
G0 F12000 X147.59 Y149.57
G1 F2700 X148.23 Y150.21 E146.34445
G0 F12000 X148.32 Y149.74
G1 F2700 X148.18 Y149.31 E146.36415
G1 X148.96 Y149.53 E146.38387
G1 X149.53 Y149.53 E146.40359
G1 X150.09 Y149.53 E146.42331
G1 X150.66 Y149.53 E146.44299
G1 X151.22 Y149.53 E146.46271
G1 X151.79 Y149.53 E146.48243
G1 X152.35 Y149.53 E146.50212
G1 X152.92 Y149.53 E146.52184
G1 X153.49 Y149.53 E146.54151
G1 X153.98 Y149.74 E146.55933
G0 F12000 X154.03 Y149.32
G1 F2700 X155.09 Y150.37 E146.60905
G0 F12000 X155.11 Y149.74
G1 F2700 X154.62 Y149.53 E146.62875
G1 X154.12 Y149.32 E146.64652
G0 F12000 X155.25 Y149.32
G1 F2700 X155.75 Y149.53 E146.66625
G1 X156.24 Y149.74 E146.68404
G0 F12000 X156.39 Y149.32
G1 F2700 X157.41 Y150.34 E146.73221
G0 F12000 X156.88 Y150.37
G1 F2700 X156.77 Y150.26 E146.73733
G0 F12000 X156.01 Y150.37
G1 F2700 X157.07 Y149.31 E146.78712
G0 F12000 X156.95 Y149.32
G1 F2700 X157.41 Y149.77 E146.80869
;LAYER:11
G0 F12000 X157.41 Y149.28 Z2.45
;TYPE:WALL-INNER
G1 F2580 X157.41 Y150.51 E146.84987
G1 X147.59 Y150.51 E147.17635
G1 X147.59 Y149.28 E147.21752
G1 X157.41 Y149.28 E147.54397
G1 F2400 E146.34397
G0 F12000 X157.41 Y154.48
G1 F2400 E147.54397
G1 F2580 X157.41 Y155.72 E147.58541
G1 X147.59 Y155.72 E147.91189
G1 X147.59 Y154.48 E147.95334
G1 X157.41 Y154.48 E148.27975
G0 F12000 X157.81 Y154.08
;TYPE:WALL-OUTER
G1 F2580 X157.81 Y156.12 E148.34780
G1 X147.19 Y156.12 E148.70089
G1 X147.19 Y154.08 E148.76894
G1 X157.81 Y154.08 E149.12200
G1 F2400 E147.92200
G0 F12000 X157.81 Y150.91
G1 F2400 E149.12200
G1 F2580 X147.19 Y150.91 E149.47509
G1 X147.19 Y148.88 E149.54287
G1 X157.81 Y148.88 E149.89593
G1 X157.81 Y150.91 E149.96375
G0 F12000 X157.27 Y150.18
;TYPE:FILL
G1 F2580 X157.07 Y150.37 E149.97273
G0 F12000 X156.63 Y150.26
G1 F2580 X157.27 Y149.62 E150.00283
G0 F12000 X156.97 Y149.41
G1 F2580 X156.01 Y150.37 E150.04792
G0 F12000 X155.92 Y149.84
G1 F2580 X156.41 Y149.62 E150.06767
G1 X156.90 Y149.41 E150.08549
G0 F12000 X155.77 Y149.41
G1 F2580 X155.28 Y149.62 E150.10523
G1 X154.71 Y149.62 E150.12495
G1 X154.22 Y149.84 E150.14277
G0 F12000 X154.13 Y149.41
G1 F2580 X155.09 Y150.37 E150.18781
G0 F12000 X154.07 Y149.41
G1 F2580 X153.58 Y149.62 E150.20755
G1 X153.01 Y149.62 E150.22727
G1 X152.45 Y149.62 E150.24699
G1 X151.88 Y149.62 E150.26667
G1 X151.32 Y149.62 E150.28639
G1 X150.75 Y149.62 E150.30611
G1 X150.19 Y149.62 E150.32580
G1 X149.62 Y149.62 E150.34551
G1 X149.06 Y149.62 E150.36523
G1 X148.47 Y149.93 E150.38495
G1 X148.03 Y150.37 E150.40577
G0 F12000 X147.73 Y150.10
G1 F2580 X148.42 Y149.41 E150.43801
G0 F12000 X147.85 Y149.41
G1 F2580 X147.73 Y149.53 E150.44361
G1 F2400 E149.24361
G0 F12000 X148.31 Y154.62
G1 F2400 E150.44361
G1 F2580 X147.73 Y155.19 E150.47058
G0 F12000 X147.91 Y155.58
G1 F2580 X148.42 Y155.35 E150.49247
G1 X148.96 Y155.37 E150.51223
G1 X149.53 Y155.37 E150.53200
G1 X150.09 Y155.37 E150.55176
G1 X150.66 Y155.37 E150.57149
G1 X151.23 Y155.37 E150.59126
G1 X151.79 Y155.37 E150.61103
G1 X152.36 Y155.37 E150.63079
G1 X152.92 Y155.37 E150.65053
G1 X153.49 Y155.37 E150.67029
G1 X154.06 Y155.37 E150.69006
G1 X154.62 Y155.37 E150.70979
G1 X155.19 Y155.37 E150.72956
G1 X155.75 Y155.37 E150.74932
G1 X156.25 Y155.16 E150.76715
G0 F12000 X156.39 Y155.58
G1 F2580 X157.27 Y154.71 E150.80833
G0 F12000 X156.79 Y154.62
G1 F2580 X156.63 Y154.78 E150.81609
G0 F12000 X157.27 Y155.27
G1 F2580 X156.96 Y155.58 E150.83067
G0 F12000 X151.76 Y154.62
G1 F2580 X150.80 Y155.58 E150.87611
G0 F12000 X150.87 Y155.58
G1 F2580 X149.91 Y154.62 E150.92150
;LAYER:12
G0 F12000 X147.74 Y154.48 Z2.65
;TYPE:WALL-INNER
G1 F2400 X157.26 Y154.48 E151.23833
G1 X157.26 Y155.62 E151.27642
G1 X147.74 Y155.62 E151.59329
G1 X147.74 Y154.48 E151.63140
G0 F12000 X147.34 Y154.08
;TYPE:WALL-OUTER
G1 F2400 X157.66 Y154.08 E151.97485
G1 X157.66 Y156.02 E152.03954
G1 X147.34 Y156.03 E152.38301
G1 X147.34 Y154.08 E152.44774
G0 F12000 X148.11 Y154.62
;TYPE:FILL
G1 F2400 X148.54 Y155.04 E152.46673
G1 X149.05 Y155.27 E152.48646
G1 X149.62 Y155.27 E152.50618
G1 X150.18 Y155.27 E152.52586
G1 X150.68 Y155.48 E152.54368
G0 F12000 X150.77 Y155.48
G1 F2400 X149.91 Y154.62 E152.58439
G0 F12000 X150.82 Y155.06
G1 F2400 X151.24 Y155.48 E152.60415
G0 F12000 X150.90 Y155.48
G1 F2400 X151.76 Y154.62 E152.64488
G0 F12000 X151.95 Y155.06
G1 F2400 X152.44 Y155.27 E152.66463
G1 X153.01 Y155.27 E152.68435
G1 X153.58 Y155.27 E152.70407
G1 X154.14 Y155.27 E152.72376
G1 X154.71 Y155.27 E152.74348
G1 X155.27 Y155.27 E152.76320
G1 X155.84 Y155.27 E152.78288
G1 X156.41 Y155.27 E152.80260
G1 X157.01 Y155.31 E152.82233
G1 X156.60 Y154.62 E152.84918
G0 F12000 X151.81 Y155.48
G1 F2400 X151.39 Y155.06 E152.86894
G0 F12000 X148.41 Y155.48
G1 F2400 X147.88 Y154.95 E152.89424
G1 F2400 E151.69424
G0 F12000 X147.74 Y150.51
;TYPE:WALL-INNER
G1 F2400 E152.89424
G1 X147.74 Y149.38 E152.93209
G1 X157.26 Y149.38 E153.24896
G1 X157.26 Y150.51 E153.28681
G1 X147.74 Y150.51 E153.60368
G0 F12000 X147.34 Y150.91
;TYPE:WALL-OUTER
G1 F2400 X147.34 Y148.98 E153.66814
G1 X157.66 Y148.97 E154.01162
G1 X157.66 Y150.91 E154.07611
G1 X147.34 Y150.91 E154.41959
G0 F12000 X148.39 Y150.37
;TYPE:FILL
G1 F2400 X147.99 Y149.69 E154.44388
G1 X148.59 Y149.72 E154.46358
G1 X149.16 Y149.72 E154.48326
G1 X149.72 Y149.72 E154.50298
G1 X150.29 Y149.72 E154.52270
G1 X150.86 Y149.72 E154.54239
G1 X151.42 Y149.72 E154.56211
G1 X151.99 Y149.72 E154.58183
G1 X152.55 Y149.72 E154.60154
G1 X153.12 Y149.72 E154.62123
G1 X153.69 Y149.72 E154.64090
G1 X154.18 Y149.94 E154.65872
G0 F12000 X154.23 Y149.52
G1 F2400 X155.09 Y150.37 E154.69904
G0 F12000 X155.31 Y149.94
G1 F2400 X154.82 Y149.72 E154.71873
G1 X154.32 Y149.52 E154.73651
G0 F12000 X155.46 Y149.52
G1 F2400 X155.95 Y149.72 E154.75620
G1 X156.46 Y149.96 E154.77594
G1 X157.00 Y150.21 E154.79459
G1 X156.59 Y149.52 E154.82155
G0 F12000 X156.87 Y149.51
G1 F2400 X156.01 Y150.37 E154.86193
;LAYER:13
G0 F12000 X157.12 Y150.51 Z2.85
;TYPE:WALL-INNER
G1 F2340 X147.88 Y150.51 E155.16922
G1 X147.88 Y149.48 E155.20375
G1 X157.12 Y149.48 E155.51104
G1 X157.12 Y150.51 E155.54556
G0 F12000 X157.52 Y150.91
;TYPE:WALL-OUTER
G1 F2340 X147.48 Y150.91 E155.87946
G1 X147.48 Y149.08 E155.94059
G1 X157.52 Y149.07 E156.27449
G1 X157.52 Y150.91 E156.33566
G0 F12000 X156.51 Y150.37
;TYPE:FILL
G1 F2340 X156.98 Y149.91 E156.35772
G0 F12000 X156.77 Y149.62
G1 F2340 X156.01 Y150.37 E156.39339
G0 F12000 X156.28 Y150.04
G1 F2340 X156.42 Y149.62 E156.41318
G1 X155.64 Y149.82 E156.43299
G1 X155.15 Y150.04 E156.45079
G0 F12000 X155.09 Y150.37
G1 F2340 X154.33 Y149.62 E156.48640
G0 F12000 X154.44 Y149.62
G1 F2340 X153.95 Y149.82 E156.50622
G1 X153.38 Y149.82 E156.52595
G1 X152.81 Y149.82 E156.54571
G1 X152.25 Y149.82 E156.56548
G1 X151.68 Y149.82 E156.58521
G1 X151.12 Y149.82 E156.60498
G1 X150.55 Y149.82 E156.62475
G1 X149.99 Y149.82 E156.64448
G1 X149.42 Y149.82 E156.66424
G1 X148.79 Y150.17 E156.68400
G1 X148.59 Y150.37 E156.69355
G0 F12000 X148.03 Y150.37
G1 F2340 X148.78 Y149.62 E156.72920
G0 F12000 X148.22 Y149.62
G1 F2340 X148.02 Y149.81 E156.73845
G0 F12000 X154.59 Y150.04
G1 F2340 X155.01 Y149.62 E156.75825
G1 F2400 E155.55825
G0 F12000 X157.12 Y154.48
;TYPE:WALL-INNER
G1 F2400 E156.75825
G1 F2340 X157.12 Y155.52 E156.79300
G1 X147.88 Y155.53 E157.10029
G1 X147.88 Y154.48 E157.13508
G1 X157.12 Y154.48 E157.44234
G0 F12000 X157.52 Y154.08
;TYPE:WALL-OUTER
G1 F2340 X157.52 Y155.92 E157.50371
G1 X147.48 Y155.93 E157.83761
G1 X147.48 Y154.08 E157.89900
G1 X157.52 Y154.08 E158.23287
G0 F12000 X156.79 Y154.62
;TYPE:FILL
G1 F2340 X156.03 Y155.38 E158.26888
G0 F12000 X155.88 Y154.96
G1 F2340 X155.39 Y155.17 E158.28861
G1 X154.82 Y155.17 E158.30833
G1 X154.25 Y155.17 E158.32805
G1 X153.69 Y155.17 E158.34774
G1 X153.12 Y155.17 E158.36746
G1 X152.56 Y155.17 E158.38718
G1 X151.99 Y155.17 E158.40686
G1 X151.43 Y155.17 E158.42658
G1 X150.93 Y155.38 E158.44440
G0 F12000 X151.00 Y155.38
G1 F2340 X151.76 Y154.62 E158.48041
G0 F12000 X150.79 Y154.96
G1 F2340 X150.37 Y155.38 E158.50017
G0 F12000 X150.67 Y155.38
G1 F2340 X149.91 Y154.62 E158.53615
G0 F12000 X149.66 Y154.96
G1 F2340 X149.16 Y155.17 E158.55589
G1 X148.67 Y155.11 E158.57561
G1 X148.06 Y155.14 E158.60158
G1 X148.31 Y154.62 E158.62082
G0 F12000 X149.80 Y155.38
G1 F2340 X150.22 Y154.96 E158.64058
G0 F12000 X156.59 Y155.38
G1 F2340 X156.98 Y155.00 E158.65873
;LAYER:14
G0 F12000 X156.97 Y155.42 Z3.05
;TYPE:WALL-INNER
G1 F2220 X148.02 Y155.43 E158.95644
G1 X148.03 Y154.48 E158.98791
G1 X156.97 Y154.48 E159.28559
G1 X156.97 Y155.42 E159.31702
G0 F12000 X157.38 Y155.82
;TYPE:WALL-OUTER
G1 F2220 X147.62 Y155.82 E159.64134
G1 X147.62 Y154.08 E159.69941
G1 X157.38 Y154.08 E160.02370
G1 X157.38 Y155.82 E160.08174
G0 F12000 X156.70 Y155.28
;TYPE:FILL
G1 F2220 X156.40 Y154.70 E160.10538
G1 X156.83 Y154.85 E160.12084
G0 F12000 X156.13 Y155.28
G1 F2220 X155.64 Y155.07 E160.14058
G1 X155.07 Y155.07 E160.16026
G1 X154.51 Y155.07 E160.17998
G1 X153.94 Y155.07 E160.19970
G1 X153.38 Y155.07 E160.21942
G1 X152.81 Y155.07 E160.23910
G1 X152.25 Y155.07 E160.25882
G1 X151.75 Y154.86 E160.27665
G0 F12000 X151.76 Y154.62
G1 F2220 X151.10 Y155.28 E160.30797
G0 F12000 X151.04 Y155.28
G1 F2220 X150.62 Y154.86 E160.32773
G0 F12000 X150.57 Y155.28
G1 F2220 X149.91 Y154.62 E160.35903
G0 F12000 X150.06 Y154.86
G1 F2220 X150.19 Y155.28 E160.37876
G1 X149.42 Y155.07 E160.39845
G1 X148.86 Y154.80 E160.41815
G1 X148.68 Y154.62 E160.42688
G0 F12000 X148.16 Y154.67
G1 F2220 X148.78 Y155.28 E160.45578
G0 F12000 X151.19 Y154.86
G1 F2220 X151.61 Y155.28 E160.47554
G1 F2400 E159.27554
G0 F12000 X148.02 Y150.51
;TYPE:WALL-INNER
G1 F2400 E160.47554
G1 F2220 X148.03 Y149.58 E160.50674
G1 X156.98 Y149.58 E160.80445
G1 X156.97 Y150.51 E160.83565
G1 X148.02 Y150.51 E161.13336
G0 F12000 X147.62 Y150.91
;TYPE:WALL-OUTER
G1 F2220 X147.62 Y149.18 E161.19116
G1 X157.38 Y149.18 E161.51548
G1 X157.38 Y150.91 E161.57332
G1 X147.62 Y150.91 E161.89764
G0 F12000 X148.39 Y150.37
;TYPE:FILL
G1 F2220 X148.23 Y149.93 E161.90836
G1 X149.04 Y150.18 E161.93204
G1 X149.15 Y149.72 E161.95177
G1 X149.93 Y149.93 E161.97149
G1 X150.49 Y149.93 E161.99121
G1 X151.06 Y149.93 E162.01089
G1 X151.62 Y149.93 E162.03061
G1 X152.19 Y149.93 E162.05033
G1 X152.75 Y149.93 E162.07001
G1 X153.32 Y149.93 E162.08973
G1 X153.88 Y149.93 E162.10945
G1 X154.38 Y150.13 E162.12728
G0 F12000 X154.43 Y149.72
G1 F2220 X155.09 Y150.37 E162.15820
G0 F12000 X154.94 Y150.13
G1 F2220 X154.81 Y149.72 E162.17791
G1 X155.58 Y149.93 E162.19763
G1 X156.13 Y150.19 E162.21735
G1 X156.31 Y150.37 E162.22577
G0 F12000 X156.01 Y150.37
G1 F2220 X156.67 Y149.72 E162.25677
G0 F12000 X156.22 Y149.72
G1 F2220 X156.83 Y150.33 E162.28562
;LAYER:15
G0 F12000 X156.83 Y150.51 Z3.25
;TYPE:WALL-INNER
G1 F2160 X148.17 Y150.51 E162.57376
G1 X148.17 Y149.68 E162.60163
G1 X156.83 Y149.68 E162.88976
G1 X156.83 Y150.51 E162.91763
G0 F12000 X157.23 Y150.91
;TYPE:WALL-OUTER
G1 F2160 X147.77 Y150.91 E163.23237
G1 X147.77 Y149.28 E163.28685
G1 X157.23 Y149.28 E163.60159
G1 X157.23 Y150.91 E163.65611
G0 F12000 X156.51 Y150.37
;TYPE:FILL
G1 F2160 X156.63 Y150.00 E163.66450
G1 X156.03 Y150.32 E163.69070
G1 X156.22 Y149.81 E163.71198
G1 X155.44 Y150.03 E163.73179
G1 X155.02 Y150.30 E163.75153
G1 X154.67 Y149.81 E163.77781
G1 X154.31 Y150.03 E163.79760
G1 X153.75 Y150.03 E163.81737
G1 X153.18 Y150.03 E163.83710
G1 X152.62 Y150.03 E163.85687
G1 X152.05 Y150.03 E163.87663
G1 X151.48 Y150.03 E163.89636
G1 X150.92 Y150.03 E163.91613
G1 X150.35 Y150.03 E163.93590
G1 X149.79 Y150.03 E163.95567
G1 X149.22 Y150.03 E163.97544
G1 X148.45 Y150.23 E164.00165
G1 X148.58 Y149.81 E164.01618
G1 F2400 E162.81618
G0 F12000 X148.17 Y154.48
;TYPE:WALL-INNER
G1 F2400 E164.01618
G1 F2160 X156.83 Y154.48 E164.30428
G1 X156.83 Y155.32 E164.33238
G1 X148.17 Y155.32 E164.62052
G1 X148.17 Y154.48 E164.64865
G0 F12000 X147.77 Y154.08
;TYPE:WALL-OUTER
G1 F2160 X157.23 Y154.08 E164.96336
G1 X157.23 Y155.72 E165.01807
G1 X147.77 Y155.72 E165.33281
G1 X147.77 Y154.08 E165.38756
G0 F12000 X148.31 Y155.18
;TYPE:FILL
G1 F2160 X149.08 Y154.69 E165.41401
G1 X149.15 Y155.18 E165.43373
G1 X149.88 Y154.69 E165.45345
G1 X150.52 Y155.18 E165.48000
G1 X151.06 Y154.97 E165.49972
G1 X151.66 Y154.69 E165.51941
G1 X151.45 Y155.18 E165.54601
G1 X152.19 Y154.97 E165.56568
G1 X152.76 Y154.97 E165.58537
G1 X153.32 Y154.97 E165.60508
G1 X153.89 Y154.97 E165.62480
G1 X154.46 Y154.97 E165.64449
G1 X155.02 Y154.97 E165.66421
G1 X155.59 Y154.97 E165.68393
G1 X156.46 Y154.67 E165.71053
G1 X156.23 Y155.18 E165.72930
G0 F12000 X150.42 Y154.76
G1 F2160 X150.00 Y155.18 E165.74906
;LAYER:16
G0 F12000 X148.31 Y155.22 Z3.45
;TYPE:WALL-INNER
G1 F1980 X148.31 Y154.48 E165.77387
G1 X156.69 Y154.48 E166.05239
G1 X156.69 Y155.22 E166.07717
G1 X148.31 Y155.22 E166.35572
G0 F12000 X147.91 Y155.62
;TYPE:WALL-OUTER
G1 F1980 X147.91 Y154.08 E166.40714
G1 X157.09 Y154.08 E166.71227
G1 X157.09 Y155.62 E166.76366
G1 X147.91 Y155.62 E167.06882
G0 F12000 X148.58 Y155.08
;TYPE:FILL
G1 F1980 X148.56 Y154.79 E167.07473
G1 X149.22 Y154.87 E167.09660
G1 X149.78 Y154.87 E167.11629
G1 X150.32 Y155.08 E167.13599
G1 X150.16 Y154.64 E167.15791
G1 X150.91 Y154.87 E167.17759
G1 X151.35 Y155.08 E167.19734
G1 X151.66 Y154.64 E167.21925
G1 X152.04 Y154.87 E167.23897
G1 X152.61 Y154.87 E167.25869
G1 X153.18 Y154.87 E167.27838
G1 X153.74 Y154.87 E167.29810
G1 X154.31 Y154.87 E167.31782
G1 X154.87 Y154.87 E167.33750
G1 X155.44 Y154.87 E167.35722
G1 X155.98 Y154.85 E167.37692
G1 X156.50 Y155.08 E167.39575
G1 F2400 E166.19575
G0 F12000 X156.69 Y150.51
;TYPE:WALL-INNER
G1 F2400 E167.39575
G1 F1980 X148.31 Y150.51 E167.67431
G1 X148.31 Y149.78 E167.69885
G1 X156.69 Y149.78 E167.97741
G1 X156.69 Y150.51 E168.00195
G0 F12000 X157.09 Y150.91
;TYPE:WALL-OUTER
G1 F1980 X147.91 Y150.91 E168.30712
G1 X147.91 Y149.38 E168.35827
G1 X157.09 Y149.38 E168.66343
G1 X157.09 Y150.91 E168.71462
G0 F12000 X156.31 Y150.37
;TYPE:FILL
G1 F1980 X155.78 Y150.12 E168.73617
G1 X155.22 Y150.12 E168.75589
G1 X154.68 Y149.91 E168.77560
G1 X154.83 Y150.35 E168.79714
G1 X154.09 Y150.12 E168.81682
G1 X153.52 Y150.12 E168.83654
G1 X152.95 Y150.12 E168.85622
G1 X152.39 Y150.12 E168.87594
G1 X151.82 Y150.12 E168.89566
G1 X151.26 Y150.12 E168.91538
G1 X150.69 Y150.12 E168.93510
G1 X150.12 Y150.12 E168.95479
G1 X149.56 Y150.12 E168.97451
G1 X149.01 Y150.14 E168.99422
G1 X148.50 Y149.91 E169.01288
G0 F12000 X156.01 Y150.37
G1 F1980 X156.44 Y149.91 E169.03446
G1 X156.55 Y150.04 E169.03987
;LAYER:17
G0 F12000 X156.54 Y149.88 Z3.65
;TYPE:WALL-INNER
G1 F1860 X156.54 Y150.51 E169.06109
G1 X148.46 Y150.51 E169.33007
G1 X148.46 Y149.88 E169.35129
G1 X156.54 Y149.88 E169.62026
G0 F12000 X156.94 Y149.47
;TYPE:WALL-OUTER
G1 F1860 X156.94 Y150.91 E169.66812
G1 X148.06 Y150.91 E169.96371
G1 X148.06 Y149.48 E170.01153
G1 X156.94 Y149.47 E170.30712
G0 F12000 X156.37 Y150.01
;TYPE:FILL
G1 F1860 X155.98 Y150.37 E170.32391
G1 X156.02 Y150.01 E170.34078
G1 X155.23 Y150.37 E170.35762
G1 X154.67 Y150.01 E170.37436
G1 X154.14 Y150.19 E170.39121
G1 X153.58 Y150.19 E170.40806
G1 X153.01 Y150.19 E170.42488
G1 X152.45 Y150.19 E170.44173
G1 X151.88 Y150.19 E170.45858
G1 X151.31 Y150.19 E170.47540
G1 X150.75 Y150.19 E170.49220
G1 X150.18 Y150.19 E170.50905
G1 X149.62 Y150.19 E170.52587
G1 X149.05 Y150.19 E170.54267
G1 X148.60 Y150.37 E170.55890
G0 F12000 X154.81 Y150.37
G1 F1860 X155.17 Y150.01 E170.57576
G1 F2400 E169.37576
G0 F12000 X156.54 Y154.48
;TYPE:WALL-INNER
G1 F2400 E170.57576
G1 F1860 X156.54 Y155.12 E170.59722
G1 X148.46 Y155.12 E170.86619
G1 X148.46 Y154.48 E170.88768
G1 X156.54 Y154.48 E171.15662
G0 F12000 X156.94 Y154.08
;TYPE:WALL-OUTER
G1 F1860 X156.94 Y155.52 E171.20468
G1 X148.06 Y155.53 E171.50026
G1 X148.06 Y154.08 E171.54836
G1 X156.94 Y154.08 E171.84391
G0 F12000 X156.22 Y154.62
;TYPE:FILL
G1 F1860 X155.76 Y154.80 E171.86110
G1 X155.19 Y154.80 E171.87823
G1 X154.63 Y154.80 E171.89538
G1 X154.06 Y154.80 E171.91256
G1 X153.50 Y154.80 E171.92969
G1 X152.93 Y154.80 E171.94683
G1 X152.37 Y154.80 E171.96401
G1 X151.83 Y154.80 E171.98120
G1 X151.37 Y154.98 E171.99839
G1 X151.42 Y154.62 E172.01557
G1 X150.67 Y154.80 E172.03273
G1 X150.24 Y154.98 E172.04992
G1 X149.95 Y154.62 E172.06708
G1 X149.54 Y154.80 E172.08424
G1 X148.97 Y154.80 E172.10142
G1 X148.60 Y154.89 E172.11423
;LAYER:18
G0 F12000 X148.60 Y155.03 Z3.85
;TYPE:WALL-INNER
G1 F1680 X148.60 Y154.48 E172.13239
G1 X156.40 Y154.48 E172.39175
G1 X156.40 Y155.02 E172.40988
G1 X148.60 Y155.03 E172.66927
G0 F12000 X148.20 Y155.43
;TYPE:WALL-OUTER
G1 F1680 X148.20 Y154.08 E172.71404
G1 X156.80 Y154.08 E173.00001
G1 X156.80 Y155.42 E173.04475
G1 X148.20 Y155.43 E173.33075
G0 F12000 X148.74 Y154.68
;TYPE:FILL
G1 F1680 X149.09 Y154.75 E173.34035
G1 X149.66 Y154.75 E173.35275
G1 X150.12 Y154.88 E173.36521
G1 X150.14 Y154.62 E173.37767
G1 X150.79 Y154.75 E173.39010
G1 X151.35 Y154.88 E173.40256
G1 X151.63 Y154.62 E173.41507
G1 X151.92 Y154.75 E173.42752
G1 X152.49 Y154.75 E173.43994
G1 X153.05 Y154.75 E173.45242
G1 X153.62 Y154.75 E173.46482
G1 X154.19 Y154.75 E173.47724
G1 X154.75 Y154.75 E173.48971
G1 X155.32 Y154.75 E173.50212
G1 X155.88 Y154.75 E173.51454
G1 X156.26 Y154.84 E173.52743
G1 F2400 E172.32743
G0 F12000 X156.40 Y150.51
;TYPE:WALL-INNER
G1 F2400 E173.52743
G1 F1680 X148.60 Y150.51 E173.78683
G1 X148.60 Y149.98 E173.80472
G1 X156.40 Y149.98 E174.06412
G1 X156.40 Y150.51 E174.08201
G0 F12000 X156.80 Y150.91
;TYPE:WALL-OUTER
G1 F1680 X148.20 Y150.91 E174.36802
G1 X148.20 Y149.58 E174.41252
G1 X156.80 Y149.57 E174.69852
G1 X156.80 Y150.91 E174.74306
G0 F12000 X156.26 Y150.32
;TYPE:FILL
G1 F1680 X156.16 Y150.12 E174.75267
G1 X155.88 Y150.37 E174.76444
G1 X155.34 Y150.24 E174.77653
G1 X154.88 Y150.12 E174.78862
G1 X154.85 Y150.37 E174.80074
G1 X154.20 Y150.24 E174.81284
G1 X153.64 Y150.24 E174.82494
G1 X153.07 Y150.24 E174.83703
G1 X152.51 Y150.24 E174.84911
G1 X151.94 Y150.24 E174.86120
G1 X151.38 Y150.24 E174.87330
G1 X150.81 Y150.24 E174.88537
G1 X150.24 Y150.24 E174.89747
G1 X149.68 Y150.24 E174.90956
G1 X149.11 Y150.24 E174.92164
G1 X148.74 Y150.15 E174.93443
;LAYER:19
G0 F12000 X148.75 Y150.08 Z4.05
;TYPE:WALL-INNER
G1 F1440 X156.26 Y150.08 E175.18425
G1 X156.25 Y150.51 E175.19881
G1 X148.74 Y150.51 E175.44863
G1 X148.75 Y150.08 E175.46320
G0 F12000 X148.34 Y149.68
;TYPE:WALL-OUTER
G1 F1440 X156.66 Y149.68 E175.73962
G1 X156.66 Y150.91 E175.78083
G1 X148.34 Y150.91 E176.05726
G1 X148.34 Y149.68 E176.09843
G0 F12000 X148.64 Y149.89
G0 X154.93 Y150.22
;TYPE:FILL
G1 F1440 X155.09 Y150.37 E176.10584
G0 F12000 X156.01 Y150.37
G1 F1440 X156.12 Y150.27 E176.11090
G1 F2400 E174.91090
G0 F12000 X156.25 Y154.48
;TYPE:WALL-INNER
G1 F2400 E176.11090
G1 F1440 X156.25 Y154.92 E176.12570
G1 X148.74 Y154.93 E176.37552
G1 X148.75 Y154.48 E176.39035
G1 X156.25 Y154.48 E176.64013
G0 F12000 X156.66 Y154.08
;TYPE:WALL-OUTER
G1 F1440 X156.66 Y155.32 E176.68154
G1 X148.34 Y155.32 E176.95797
G1 X148.34 Y154.08 E176.99941
G1 X156.66 Y154.08 E177.27580
G0 F12000 X156.35 Y154.29
G0 X151.76 Y154.62
;TYPE:FILL
G1 F1440 X151.60 Y154.78 E177.28361
G0 F12000 X150.07 Y154.78
G1 F1440 X149.91 Y154.62 E177.29135
;LAYER:20
G0 F12000 X148.89 Y154.48 Z4.25
;TYPE:WALL-INNER
G1 F1260 X156.11 Y154.48 E177.53155
G1 X156.11 Y154.82 E177.54303
G1 X148.89 Y154.82 E177.78327
G1 X148.89 Y154.48 E177.79477
G0 F12000 X148.49 Y154.08
;TYPE:WALL-OUTER
G1 F1260 X156.51 Y154.08 E178.06159
G1 X156.51 Y155.22 E178.09967
G1 X148.49 Y155.22 E178.36652
G1 X148.49 Y154.08 E178.40463
G1 F2400 E177.20463
G0 F12000 X148.89 Y150.51
;TYPE:WALL-INNER
G1 F2400 E178.40463
G1 F1260 X148.89 Y150.18 E178.41587
G1 X156.11 Y150.18 E178.65611
G1 X156.11 Y150.51 E178.66735
G1 X148.89 Y150.51 E178.90759
G0 F12000 X148.49 Y150.91
;TYPE:WALL-OUTER
G1 F1260 X148.49 Y149.78 E178.94544
G1 X156.51 Y149.78 E179.21229
G1 X156.51 Y150.91 E179.25017
G1 X148.49 Y150.91 E179.51702
;LAYER:21
G0 F12000 X149.03 Y150.51 Z4.45
;TYPE:WALL-INNER
G1 F1200 X149.03 Y150.28 E179.52493
G1 X155.97 Y150.28 E179.75559
G1 X155.97 Y150.51 E179.76351
G1 X149.03 Y150.51 E179.99417
G0 F12000 X148.63 Y150.91
;TYPE:WALL-OUTER
G1 F1200 X148.63 Y149.88 E180.02869
G1 X156.37 Y149.88 E180.28596
G1 X156.37 Y150.91 E180.32052
G1 X148.63 Y150.91 E180.57778
G1 F2400 E179.37778
G0 F12000 X149.03 Y154.48
;TYPE:WALL-INNER
G1 F2400 E180.57778
G1 F1200 X155.97 Y154.48 E180.80841
G1 X155.97 Y154.72 E180.81656
G1 X149.03 Y154.72 E181.04722
G1 X149.03 Y154.48 E181.05540
G0 F12000 X148.63 Y154.08
;TYPE:WALL-OUTER
G1 F1200 X156.37 Y154.08 E181.31263
G1 X156.37 Y155.12 E181.34739
G1 X148.63 Y155.12 E181.60466
G1 X148.63 Y154.08 E181.63945
;LAYER:22
G0 F12000 X149.18 Y154.48 Z4.65
;TYPE:WALL-INNER
G1 F1200 X155.82 Y154.48 E181.86049
G1 X155.82 Y154.62 E181.86532
G1 X149.18 Y154.62 E182.08636
G1 X149.18 Y154.48 E182.09122
G0 F12000 X148.78 Y154.08
;TYPE:WALL-OUTER
G1 F1200 X156.22 Y154.08 E182.33884
G1 X156.22 Y155.02 E182.37027
G1 X148.78 Y155.03 E182.61796
G1 X148.78 Y154.08 E182.64942
G1 F2400 E181.44942
G0 F12000 X149.18 Y150.51
;TYPE:WALL-INNER
G1 F2400 E182.64942
G1 F1200 X149.18 Y150.38 E182.65401
G1 X155.82 Y150.38 E182.87509
G1 X155.82 Y150.51 E182.87968
G1 X149.18 Y150.51 E183.10076
G0 F12000 X148.78 Y150.91
;TYPE:WALL-OUTER
G1 F1200 X148.78 Y149.98 E183.13196
G1 X156.22 Y149.97 E183.37965
G1 X156.22 Y150.91 E183.41088
G1 X148.78 Y150.91 E183.65857
;LAYER:23
G0 F12000 X149.32 Y150.51 Z4.85
;TYPE:WALL-INNER
G1 F1140 X149.32 Y150.48 E183.65983
G1 X155.68 Y150.48 E183.87134
G1 X155.68 Y150.51 E183.87260
G1 X149.32 Y150.51 E184.08410
G0 F12000 X148.92 Y150.91
;TYPE:WALL-OUTER
G1 F1140 X148.92 Y150.08 E184.11197
G1 X156.08 Y150.07 E184.35008
G1 X156.08 Y150.91 E184.37799
G1 X148.92 Y150.91 E184.61610
G1 F2400 E183.41610
G0 F12000 X149.32 Y154.48
;TYPE:WALL-INNER
G1 F2400 E184.61610
G1 F1140 X155.68 Y154.48 E184.82756
G1 X155.68 Y154.52 E184.82906
G1 X149.32 Y154.53 E185.04053
G1 X149.32 Y154.48 E185.04206
G0 F12000 X148.92 Y154.08
;TYPE:WALL-OUTER
G1 F1140 X156.08 Y154.08 E185.28010
G1 X156.08 Y154.92 E185.30821
G1 X148.92 Y154.93 E185.54632
G1 X148.92 Y154.08 E185.57445
;LAYER:24
G0 F12000 X149.07 Y154.08 Z5.05
;TYPE:WALL-OUTER
G1 F900 X155.94 Y154.08 E185.80292
G1 X155.94 Y154.82 E185.82770
G1 X149.06 Y154.82 E186.05623
G1 X149.07 Y154.08 E186.08104
G0 F12000 X149.41 Y154.22
;TYPE:FILL
G1 F900 X149.92 Y154.68 E186.10287
G1 X149.35 Y154.40 E186.12465
G1 X149.31 Y154.68 E186.13422
G0 F12000 X149.98 Y154.22
G1 F900 X150.49 Y154.45 E186.15606
G1 X151.06 Y154.45 E186.17785
G1 X151.63 Y154.68 E186.19965
G1 X152.20 Y154.22 E186.22152
G1 X152.75 Y154.45 E186.24332
G1 X153.32 Y154.45 E186.26512
G1 X153.88 Y154.45 E186.28691
G1 X154.45 Y154.45 E186.30870
G1 X155.02 Y154.45 E186.33050
G1 X155.66 Y154.53 E186.35235
G1 X155.63 Y154.22 E186.36277
G0 F12000 X155.63 Y154.38
G0 X152.14 Y154.52
G0 X152.14 Y154.68
G1 F900 X151.67 Y154.22 E186.38462
G1 F2400 E185.18462
G0 F12000 X149.06 Y150.91
;TYPE:WALL-OUTER
G1 F2400 E186.38462
G1 F900 X149.06 Y150.18 E186.40917
G1 X155.94 Y150.18 E186.63770
G1 X155.94 Y150.92 E186.66261
G1 X149.06 Y150.91 E186.89114
G0 F12000 X149.36 Y150.77
;TYPE:FILL
G1 F900 X149.33 Y150.47 E186.89844
G1 X149.98 Y150.54 E186.92001
G1 X150.54 Y150.54 E186.94156
G1 X151.11 Y150.54 E186.96321
G1 X151.68 Y150.55 E186.98491
G1 X152.24 Y150.55 E187.00665
G1 X152.81 Y150.55 E187.02844
G1 X153.38 Y150.55 E187.05023
G1 X153.94 Y150.55 E187.07207
G1 X154.51 Y150.55 E187.09395
G1 X155.03 Y150.55 E187.11592
G1 X155.54 Y150.78 E187.13796
G1 X155.41 Y150.31 E187.15995
G1 X155.79 Y150.50 E187.16490
G1 X155.60 Y150.78 E187.17627
;LAYER:25
G0 F12000 X155.79 Y150.92 Z5.25
;TYPE:WALL-OUTER
G1 F840 X149.21 Y150.91 E187.39522
G1 X149.21 Y150.28 E187.41644
G1 X155.79 Y150.28 E187.63539
G1 X155.79 Y150.92 E187.65694
G0 F12000 X155.65 Y150.67
;TYPE:FILL
G1 F840 X155.51 Y150.78 E187.66230
G1 X155.23 Y150.41 E187.67957
G1 X154.87 Y150.60 E187.69683
G1 X154.31 Y150.60 E187.71406
G1 X153.74 Y150.60 E187.73121
G1 X153.18 Y150.60 E187.74826
G1 X152.61 Y150.60 E187.76531
G1 X152.04 Y150.60 E187.78230
G1 X151.48 Y150.60 E187.79926
G1 X150.91 Y150.59 E187.81622
G1 X150.35 Y150.59 E187.83312
G1 X149.78 Y150.59 E187.84998
G1 X149.35 Y150.75 E187.86532
G1 F2400 E186.66532
G0 F12000 X149.21 Y154.08
;TYPE:WALL-OUTER
G1 F2400 E187.86532
G1 F840 X155.79 Y154.08 E188.08421
G1 X155.79 Y154.72 E188.10566
G1 X149.21 Y154.72 E188.32461
G1 X149.21 Y154.08 E188.34610
G0 F12000 X149.50 Y154.22
;TYPE:FILL
G1 F840 X149.95 Y154.58 E188.36327
G1 X150.50 Y154.40 E188.38048
G1 X151.07 Y154.40 E188.39768
G1 X151.63 Y154.40 E188.41490
G1 X152.13 Y154.22 E188.43211
G1 X152.05 Y154.58 E188.44935
G1 X152.76 Y154.40 E188.46649
G1 X153.33 Y154.40 E188.48367
G1 X153.90 Y154.40 E188.50085
G1 X154.46 Y154.40 E188.51800
G1 X155.03 Y154.40 E188.53517
G1 X155.49 Y154.22 E188.55183
G0 F12000 X155.49 Y154.38
G0 X149.84 Y154.38
G0 X149.84 Y154.22
G1 F840 X149.47 Y154.58 E188.56909
;LAYER:26
G0 F12000 X149.35 Y154.62 Z5.45
;TYPE:WALL-OUTER
G1 F720 X149.35 Y154.08 E188.58725
G1 X155.65 Y154.08 E188.79656
G1 X155.65 Y154.62 E188.81468
G1 X149.35 Y154.62 E189.02405
G0 F12000 X149.68 Y154.48
;TYPE:FILL
G1 F720 X149.50 Y154.26 E189.03265
G1 X149.87 Y154.35 E189.04510
G1 X150.39 Y154.35 E189.05757
G1 X150.96 Y154.35 E189.06997
G1 X151.52 Y154.35 E189.08240
G1 X151.92 Y154.48 E189.09487
G1 X152.20 Y154.22 E189.10737
G1 X152.65 Y154.35 E189.11978
G1 X153.22 Y154.35 E189.13218
G1 X153.78 Y154.35 E189.14461
G1 X154.35 Y154.35 E189.15698
G1 X154.92 Y154.35 E189.16939
G1 X155.33 Y154.48 E189.18390
G1 F2400 E187.98390
G0 F12000 X155.65 Y150.92
;TYPE:WALL-OUTER
G1 F2400 E189.18390
G1 F720 X149.35 Y150.91 E189.39327
G1 X149.35 Y150.38 E189.41117
G1 X155.65 Y150.38 E189.62054
G1 X155.65 Y150.92 E189.63877
G0 F12000 X155.50 Y150.78
;TYPE:FILL
G1 F720 X155.28 Y150.51 E189.65126
G1 X155.26 Y150.74 E189.65984
G1 X154.61 Y150.65 E189.67230
G1 X154.04 Y150.65 E189.68473
G1 X153.47 Y150.65 E189.69715
G1 X152.91 Y150.65 E189.70948
G1 X152.34 Y150.65 E189.72182
G1 X151.78 Y150.65 E189.73412
G1 X151.21 Y150.65 E189.74636
G1 X150.65 Y150.64 E189.75852
G1 X150.08 Y150.64 E189.77069
G1 X149.67 Y150.51 E189.78505
;LAYER:27
G0 F12000 X149.50 Y150.48 Z5.65
;TYPE:WALL-OUTER
G1 F540 X155.50 Y150.47 E189.98484
G1 X155.50 Y150.92 E189.99971
G1 X149.50 Y150.91 E190.19950
G1 X149.50 Y150.48 E190.21407
G1 F2400 E189.01407
G0 F12000 X149.50 Y154.08
G1 F2400 E190.21407
G1 F540 X155.50 Y154.08 E190.41380
G1 X155.50 Y154.52 E190.42860
G1 X149.50 Y154.53 E190.62839
G1 X149.50 Y154.08 E190.64323
G1 F2400 E189.44323
G0 F12000 X152.00 Y154.38
;TYPE:FILL
G1 F2400 E190.64323
G1 F540 X152.16 Y154.22 E190.65108
;LAYER:28
G0 F12000 X149.64 Y154.08 Z5.85
;TYPE:WALL-OUTER
G1 F540 X155.36 Y154.08 E190.84126
G1 X155.36 Y154.42 E190.85274
G1 X149.64 Y154.43 E191.04292
G1 X149.64 Y154.08 E191.05443
G1 F2400 E189.85443
G0 F12000 X149.64 Y150.91
G1 F2400 E191.05443
G1 F540 X149.64 Y150.58 E191.06567
G1 X155.36 Y150.57 E191.25588
G1 X155.36 Y150.92 E191.26739
G1 X149.64 Y150.91 E191.45761
;LAYER:29
G0 F12000 X149.78 Y150.91 Z6.05
;TYPE:WALL-OUTER
G1 F540 X149.78 Y150.68 E191.46552
G1 X155.22 Y150.68 E191.64616
G1 X155.22 Y150.92 E191.65424
G1 X149.78 Y150.91 E191.83488
G1 F2400 E190.63488
G0 F12000 X149.78 Y154.08
G1 F2400 E191.83488
G1 F540 X155.22 Y154.08 E192.01548
G1 X155.22 Y154.32 E192.02363
G1 X149.78 Y154.32 E192.20423
G1 X149.78 Y154.08 E192.21241
;LAYER:30
G0 F12000 X149.93 Y154.08 Z6.25
;TYPE:WALL-OUTER
G1 F540 X155.07 Y154.08 E192.38337
G1 X155.07 Y154.22 E192.38819
G1 X149.93 Y154.22 E192.55918
G1 X149.93 Y154.08 E192.56404
G1 F2400 E191.36404
G0 F12000 X149.93 Y150.91
G1 F2400 E192.56404
G1 F540 X149.93 Y150.78 E192.56863
G1 X155.07 Y150.78 E192.73969
G1 X155.07 Y150.92 E192.74441
G1 X149.93 Y150.91 E192.91547
;LAYER:31
G0 F12000 X150.07 Y150.91 Z6.45
;TYPE:WALL-OUTER
G1 F540 X150.07 Y150.88 E192.91673
G1 X154.93 Y150.88 E193.07821
G1 X154.93 Y150.92 E193.07960
G1 X150.07 Y150.91 E193.24108
G1 F2400 E192.04108
G0 F12000 X150.07 Y154.08
G1 F2400 E193.24108
G1 F540 X154.93 Y154.08 E193.40246
G1 X154.93 Y154.12 E193.40396
G1 X150.07 Y154.12 E193.56537
G1 X150.07 Y154.08 E193.56690
;LAYER:32
;LAYER:33
;LAYER:34
;LAYER:35
M107
G1 F2400 E192.36690
G0 F12000 X150.07 Y154.08 Z12.24
;-- END GCODE --
M104 S0     ;extruder heater off
M140 S0     ;heated bed heater off (if you have it)
G91         ;relative positioning
G1 E-1 F300   ;retract the filament a bit before lifting the nozzle, to release some of the pressure
G1 Z+0.5 E-5 X-20 Y-20 F12000 ;move Z up a bit and retract filament even more
G28 X0 Y0     ;move X/Y to min endstops, so the head is out of the way
M84           ;steppers off
G90           ;absolute positioning
;CURA_PROFILE_STRING:eNrtWt9z00gSfhWp/SP6EeqwT5JtArj0sECSrS3Y3cLeOsiLaiyN7TkkjWo0iuOk/L/fN6MfkR2HC0uKWzj7IUGt7p7unq+/7hRO2JqrcMnFYqkDt++7zoolSaiXIvqU8aKA7LmjuFYs0kJmIc/YLOHBVJXcKWQi4jCxHrYN5gI+Yp4VQq8Dz3cyeXWV8LAQVxzvh06uRKbDIuc8xmu3ftY8zbliulQ88PdJ/WCPcLBPOGyFMx5vOT52naLMc6l08JvMuJMnTM+lSkMWL3mBFINXSqSNThiXLAn5pVZl9U7qpbMSOQ+1XHEVnLKk4B1BeCGTMuWBN3KkvELGS8GTuFZDVVjKEVMs8FvD3Osfj26LTZq3hIN9wmFXOE/kKvBct+92L6wq8nBHylJZZhrn+12pTbZ59aw/6r5LRRbi4YInsNp6E8l0JrJFhYltC5FuVQ9BbJ23lLmROTOptUy3MOSPHAssN1yJWC/DOUykMuk5cvZvHgE9IvtkreUFVwnLbfQQoPRVnHXqvts5ogJrXZORIzKL1OrZqIms4NrdFVx2BJGUiS1GjXuB2x44c9a0Rlz3xicB9CQi46iPrWctWrA8GMBP9dTUKOHZQi8BG3OEcTYvEVfblpWs7he38xSm7NJK2rDmkALqgGAtXHKGJhVzXaOw6lqN0neauCpPJbElqYtqgNy0gl7nPHiLjIpWxLIFyOBZ21Khta2OvzG8XAOwhWZZZLr/uJVfdcVGPxeKJYYj6khFmoM1Uhk3khlas1tUkIRic5SRqYXIglG/frYqRc4ig0uvkc5YwbdANujIjYmFmg3RykEfXAF420b+7suuZf2SCWXuGc+1oChrXQOaIvBR5EvAXykByIRlZnvS8C5qHLLmHu5WmbWU0tVBGjLnWTgTutingE40nHyB2miho6WpTqWWJyUKiKqiIRZB02IRN0mGl0HP2xGtjSgqlTLEA6jY9v4Jl6l0fxGZCxv3ejSZ/vx+Smevf39zQr3e0XiSiIjHBLqlKbKgn+kdM1HwgiZcCfzyWiWmX9J1zNYb81Nz/DKttjkav2KFiAhdqRF+8ZLempJS1SowSToDbUP/QsWgc7091DZ0CpxC3J1TcP2HmRg0MY2Fl50htaFJhVmIa/RC/X3LZK3NLvFuqKP0pkb7tl7Ft+3pJsv28Drl05riCTccV2FXlF/bph3Rqsp80bGKZKG7VuZ5c/TOc5/RxB+NHtHYXhythF6SXnICvZDMjs58j+rPGONGoewXLCl5cXT2wm3fsBkopNSccokyIiNcy41zq3KX++e1b5ANaUk8iwvwEtz7Lx49GuPK5KqwaGGllr2Eg9QT4/3Mow+gSvoI9+ceup5Or7ucv6FxhVNiWUyVe5zbjHqK5Sojb5SmJs4XNLm+tT/Awy+caZpKMlIk7NNJm/PNZ3zFlbTO7ZSLAdyKyk2Mpxg9dDLYMRvXmjRw05TknAxjExKPPn35McQWTGRVQY5H9NE3FdlTDsVtFWblYsGVVceCdR81W2bzwxR6n0Gn0DO+qGLZUXNwsR1WOPntzQ0n4AKGNHG3KmO6mRmncj6HwtBtFazcHBR3VOixmNNalrTEmST0E5TRuymd4rh2cN4WPhHkSQ+BDly30rHtWKGzaRtG4FGcBchwMgMUhlaj2mafGsjCOcf0oEKm3NylhZkCxQBD5pDzf7j9EY4a0YceCv6xt6/qtubnVOb1kaaWTURtNAB/Bigbt+ibD/Dldrrnwz8/mnCwALRd9BRB2XjMAkCiIFnqJsQVWx+9ez7sIqzQPAf6C1v0Tn/f2eJjdI1EeGaYoH0WG8e2ud/c9H/j8fr9qzW9LhXbOxQwufvuvcYG+a43pDOfKhL9xaT8+NcyWdsXT77B1PhmvD1+5+F2Gs7a+fMGaPozw0Ju7QEIFsemNdAnYDzTNh1dMouLcWc6cC8F3u1qr5sXNPX2efL/kiv364P6ugF2fNMat8eXaZKbPryzCa3SebdTz2+reHcNsc9NrqlHez/jycqsduYUY+mDSxpa/Zop5rn7h5j3oEOsOqt3vf9v0s3R1L1X0nOhCv09pb198aAUULXFvhk5KbiHLTBeMnr7+g0VkeI8A0C944rtoNPv982Qbbn3BLd+9hr/rObrtJ2gt4LbP3KNjfeFNsO7D/kLY/szn/tM9M8Zf7ej/u6kHmYH2HH6mY1gR/NL9oPBffeDw8Q+TOwfa2L7/48T+7CmHNaUnTVl8L9cU4yNf1htDqvNw682w8Nq87dabfyHW20OW9I325IG95qdQwT9Ay0M91sNBz9W0ofV8LAa7qyGw+9tNTQ2g8M6eVgnH3adrL8h0/1CRSu8+d/U6gs+W0pW0tFQHDM24v2ouAgcXEJFMyc1LtuFtSKfGdcrdKZNuv5yR8tB9gLsRUPSSp/SagmDttPtMpGWiRZ50tKFKvpH4+kSRTWnmeJivbEotygyTqePsycOaqL/TvGxuWnAJrz/ACe2B0U=
;CURA_PROFILE_STRING:eNrtWt9z00gSfhWp/SP6EeqwT5JtArj0sECSrS3Y3cLeOsiLaiyN7TkkjWo0iuOk/L/fN6MfkR2HC0uKWzj7IUGt7p7unq+/7hRO2JqrcMnFYqkDt++7zoolSaiXIvqU8aKA7LmjuFYs0kJmIc/YLOHBVJXcKWQi4jCxHrYN5gI+Yp4VQq8Dz3cyeXWV8LAQVxzvh06uRKbDIuc8xmu3ftY8zbliulQ88PdJ/WCPcLBPOGyFMx5vOT52naLMc6l08JvMuJMnTM+lSkMWL3mBFINXSqSNThiXLAn5pVZl9U7qpbMSOQ+1XHEVnLKk4B1BeCGTMuWBN3KkvELGS8GTuFZDVVjKEVMs8FvD3Osfj26LTZq3hIN9wmFXOE/kKvBct+92L6wq8nBHylJZZhrn+12pTbZ59aw/6r5LRRbi4YInsNp6E8l0JrJFhYltC5FuVQ9BbJ23lLmROTOptUy3MOSPHAssN1yJWC/DOUykMuk5cvZvHgE9IvtkreUFVwnLbfQQoPRVnHXqvts5ogJrXZORIzKL1OrZqIms4NrdFVx2BJGUiS1GjXuB2x44c9a0Rlz3xicB9CQi46iPrWctWrA8GMBP9dTUKOHZQi8BG3OEcTYvEVfblpWs7he38xSm7NJK2rDmkALqgGAtXHKGJhVzXaOw6lqN0neauCpPJbElqYtqgNy0gl7nPHiLjIpWxLIFyOBZ21Khta2OvzG8XAOwhWZZZLr/uJVfdcVGPxeKJYYj6khFmoM1Uhk3khlas1tUkIRic5SRqYXIglG/frYqRc4ig0uvkc5YwbdANujIjYmFmg3RykEfXAF420b+7suuZf2SCWXuGc+1oChrXQOaIvBR5EvAXykByIRlZnvS8C5qHLLmHu5WmbWU0tVBGjLnWTgTutingE40nHyB2miho6WpTqWWJyUKiKqiIRZB02IRN0mGl0HP2xGtjSgqlTLEA6jY9v4Jl6l0fxGZCxv3ejSZ/vx+Smevf39zQr3e0XiSiIjHBLqlKbKgn+kdM1HwgiZcCfzyWiWmX9J1zNYb81Nz/DKttjkav2KFiAhdqRF+8ZLempJS1SowSToDbUP/QsWgc7091DZ0CpxC3J1TcP2HmRg0MY2Fl50htaFJhVmIa/RC/X3LZK3NLvFuqKP0pkb7tl7Ft+3pJsv28Drl05riCTccV2FXlF/bph3Rqsp80bGKZKG7VuZ5c/TOc5/RxB+NHtHYXhythF6SXnICvZDMjs58j+rPGONGoewXLCl5cXT2wm3fsBkopNSccokyIiNcy41zq3KX++e1b5ANaUk8iwvwEtz7Lx49GuPK5KqwaGGllr2Eg9QT4/3Mow+gSvoI9+ceup5Or7ucv6FxhVNiWUyVe5zbjHqK5Sojb5SmJs4XNLm+tT/Awy+caZpKMlIk7NNJm/PNZ3zFlbTO7ZSLAdyKyk2Mpxg9dDLYMRvXmjRw05TknAxjExKPPn35McQWTGRVQY5H9NE3FdlTDsVtFWblYsGVVceCdR81W2bzwxR6n0Gn0DO+qGLZUXNwsR1WOPntzQ0n4AKGNHG3KmO6mRmncj6HwtBtFazcHBR3VOixmNNalrTEmST0E5TRuymd4rh2cN4WPhHkSQ+BDly30rHtWKGzaRtG4FGcBchwMgMUhlaj2mafGsjCOcf0oEKm3NylhZkCxQBD5pDzf7j9EY4a0YceCv6xt6/qtubnVOb1kaaWTURtNAB/Bigbt+ibD/Dldrrnwz8/mnCwALRd9BRB2XjMAkCiIFnqJsQVWx+9ez7sIqzQPAf6C1v0Tn/f2eJjdI1EeGaYoH0WG8e2ud/c9H/j8fr9qzW9LhXbOxQwufvuvcYG+a43pDOfKhL9xaT8+NcyWdsXT77B1PhmvD1+5+F2Gs7a+fMGaPozw0Ju7QEIFsemNdAnYDzTNh1dMouLcWc6cC8F3u1qr5sXNPX2efL/kiv364P6ugF2fNMat8eXaZKbPryzCa3SebdTz2+reHcNsc9NrqlHez/jycqsduYUY+mDSxpa/Zop5rn7h5j3oEOsOqt3vf9v0s3R1L1X0nOhCv09pb198aAUULXFvhk5KbiHLTBeMnr7+g0VkeI8A0C944rtoNPv982Qbbn3BLd+9hr/rObrtJ2gt4LbP3KNjfeFNsO7D/kLY/szn/tM9M8Zf7ej/u6kHmYH2HH6mY1gR/NL9oPBffeDw8Q+TOwfa2L7/48T+7CmHNaUnTVl8L9cU4yNf1htDqvNw682w8Nq87dabfyHW20OW9I325IG95qdQwT9Ay0M91sNBz9W0ofV8LAa7qyGw+9tNTQ2g8M6eVgnH3adrL8h0/1CRSu8+d/U6gs+W0pW0tFQHDM24v2ouAgcXEJFMyc1LtuFtSKfGdcrdKZNuv5yR8tB9gLsRUPSSp/SagmDttPtMpGWiRZ50tKFKvpH4+kSRTWnmeJivbEotygyTqePsycOaqL/TvGxuWnAJrz/ACe2B0U=

