;-- START GCODE --
;Sliced for Type A Machines Series 1
;Sliced at: Thu 16-04-2015 00:58:57
;Basic settings: Layer height: 0.2 Walls: 0.8 Fill: 12
;Print Speed: 120 Support: 0
;Retraction Speed: 40 Retraction Distance: 1.2
;Print time: #P_TIME#
;Filament used: #F_AMNT#m #F_WGHT#g
;Filament cost: #F_COST#
M106 S255	 ;start with the fan on
G21        ;metric values
G90        ;absolute positioning
M106 S255    ;start with the fan on
G28     ;move to endstops
G29		;allows for auto-levelling
G1 X150 Y5  Z15.0 F12000 ;center and move the platform down 15mm
M109 S220 ;Heat To temp
G92 E0                  ;zero the extruded length
G1 F200 E30              ;extrude 30mm of feed stock
G92 E0                  ;zero the extruded length again
G1 X175 Y25  Z0 F12000 ;remove bugger
G1 X220 F12000 ;remove bugger
G1 X150 Y150  Z15 F12000 ;recenter and begin
G1 F12000

;Layer count: 38
;LAYER:0
M106 S255
G0 F12000 X137.58 Y139.77 Z0.25
;TYPE:SKIRT
G1 F2700 X167.36 Y139.78 E1.23811
G1 X167.39 Y147.85 E1.57375
G1 X167.39 Y157.28 E1.96568
G1 X167.44 Y165.23 E2.29616
G1 X145.52 Y165.22 E3.20758
G1 X137.61 Y165.34 E3.53672
G1 X137.61 Y147.89 E4.26208
G1 X137.58 Y139.77 E4.59967
G0 F12000 X137.99 Y140.17
G1 F2700 X166.97 Y140.18 E5.80452
G1 X166.99 Y147.85 E6.12357
G1 X166.99 Y157.28 E6.51546
G1 X167.04 Y164.83 E6.82932
G1 X145.52 Y164.82 E7.72422
G1 X138.01 Y164.94 E8.03649
G1 X138.01 Y147.89 E8.74497
G1 X137.99 Y140.17 E9.06593
G0 F12000 X138.39 Y140.57
G1 F2700 X166.57 Y140.58 E10.23756
G1 X166.59 Y147.85 E10.54002
G1 X166.59 Y157.28 E10.93191
G1 X166.64 Y164.43 E11.22910
G1 X145.51 Y164.42 E12.10750
G1 X138.41 Y164.53 E12.40288
G1 X138.41 Y147.89 E13.09448
G1 X138.39 Y140.57 E13.39877
G0 F12000 X138.79 Y140.97
G1 F2700 X166.17 Y140.98 E14.53714
G1 X166.19 Y147.85 E14.82301
G1 X166.19 Y157.28 E15.21486
G1 X166.24 Y164.03 E15.49542
G1 X145.50 Y164.02 E16.35731
G1 X138.81 Y164.12 E16.63581
G1 X138.81 Y147.89 E17.31053
G1 X138.79 Y140.97 E17.59819
G0 F12000 X139.19 Y141.38
G1 F2700 X165.77 Y141.38 E18.70326
G1 X165.79 Y147.85 E18.97255
G1 X165.79 Y157.28 E19.36435
G1 X165.83 Y163.62 E19.62828
G1 X145.50 Y163.62 E20.47371
G1 X139.21 Y163.72 E20.73533
G1 X139.21 Y147.89 E21.39317
G1 X139.19 Y141.38 E21.66420
G0 F12000 X139.59 Y141.78
G1 F2700 X165.37 Y141.78 E22.73605
G1 X165.39 Y147.85 E22.98870
G1 X165.39 Y157.28 E23.38051
G1 X165.43 Y163.22 E23.62780
G1 X145.49 Y163.22 E24.45673
G1 X139.61 Y163.31 E24.70147
G1 X139.61 Y147.89 E25.34243
G1 X139.59 Y141.78 E25.59683
G0 F12000 X139.99 Y142.18
G1 F2700 X164.97 Y142.18 E26.63542
G1 X164.99 Y147.85 E26.87149
G1 X164.99 Y157.28 E27.26325
G1 X165.03 Y162.82 E27.49391
G1 X145.49 Y162.82 E28.30633
G1 X140.01 Y162.91 E28.53419
G1 X140.01 Y147.89 E29.15827
G1 X139.99 Y142.18 E29.39604
G0 F12000 X140.39 Y142.57
G1 F2700 X164.57 Y142.58 E30.40141
G1 X164.59 Y147.85 E30.62089
G1 X164.59 Y157.28 E31.01261
G1 X164.63 Y162.43 E31.22665
G1 X145.48 Y162.42 E32.02256
G1 X140.41 Y162.50 E32.23358
G1 X140.41 Y147.89 E32.84078
G1 X140.39 Y142.57 E33.06192
G0 F12000 X140.79 Y142.97
G1 F2700 X164.18 Y142.98 E34.03399
G1 X164.19 Y147.85 E34.23684
G1 X164.19 Y157.28 E34.62852
G1 X164.22 Y162.03 E34.82596
G1 X145.54 Y162.02 E35.60255
G1 X140.81 Y162.09 E35.79947
G1 X140.81 Y147.90 E36.38975
G1 X140.79 Y142.97 E36.59430
G0 F12000 X141.19 Y143.38
G1 F2700 X163.78 Y143.38 E37.53311
G1 X163.79 Y147.86 E37.71937
G1 X163.79 Y157.28 E38.11101
G1 X163.82 Y161.62 E38.29182
G1 X145.54 Y161.62 E39.05190
G1 X141.21 Y161.69 E39.23194
G1 X141.21 Y147.90 E39.80534
G1 X141.19 Y143.38 E39.99326
G0 F12000 X141.60 Y143.78
G1 F2700 X163.38 Y143.78 E40.89885
G1 X163.39 Y147.86 E41.06852
G1 X163.39 Y157.28 E41.46012
G1 X163.42 Y161.22 E41.62430
G1 X145.53 Y161.22 E42.36792
G1 X141.61 Y161.28 E42.53108
G1 X141.61 Y147.90 E43.08760
G1 X141.60 Y143.78 E43.25889
G0 F12000 X142.00 Y144.18
G1 F2700 X162.98 Y144.18 E44.13122
G1 X162.99 Y147.86 E44.28426
G1 X162.99 Y157.28 E44.67586
G1 X163.01 Y160.82 E44.82341
G1 X145.53 Y160.82 E45.55052
G1 X142.01 Y160.88 E45.69680
G1 X142.01 Y147.90 E46.23644
G1 X142.00 Y144.18 E46.39110
G0 F12000 X142.40 Y144.57
G1 F2700 X162.58 Y144.58 E47.23017
G1 X162.59 Y147.86 E47.36662
G1 X162.59 Y157.28 E47.75818
G1 X162.61 Y160.43 E47.88910
G1 X145.52 Y160.42 E48.59970
G1 X142.41 Y160.47 E48.72910
G1 X142.41 Y147.90 E49.25186
G1 X142.40 Y144.57 E49.38990
G0 F12000 X142.80 Y144.97
G1 F2700 X162.18 Y144.98 E50.19571
G1 X162.19 Y147.86 E50.31557
G1 X162.19 Y157.28 E50.70708
G1 X162.21 Y160.03 E50.82137
G1 X145.51 Y160.02 E51.51551
G1 X142.81 Y160.06 E51.62803
G1 X142.81 Y147.90 E52.13396
G1 X142.80 Y144.97 E52.25536
G0 F12000 X143.20 Y145.38
G1 F2700 X161.78 Y145.38 E53.02790
G1 X161.79 Y147.86 E53.13114
G1 X161.79 Y157.28 E53.52265
G1 X161.81 Y159.62 E53.62031
G1 X145.51 Y159.62 E54.29795
G1 X143.21 Y159.66 E54.39358
G1 X143.21 Y147.90 E54.88263
G1 X143.20 Y145.38 E54.98740
G0 F12000 X143.60 Y145.78
G1 F2700 X161.38 Y145.78 E55.72673
G1 X161.39 Y147.86 E55.81337
G1 X161.39 Y157.28 E56.20484
G1 X161.40 Y159.22 E56.28588
G1 X145.50 Y159.22 E56.94700
G1 X143.61 Y159.25 E57.02576
G1 X143.61 Y147.90 E57.49793
G1 X143.60 Y145.78 E57.58607
G0 F12000 X144.00 Y146.18
G1 F2700 X160.99 Y146.18 E58.29210
G1 X160.99 Y147.86 E58.36215
G1 X160.99 Y157.28 E58.75358
G1 X161.00 Y158.82 E58.81798
G1 X145.50 Y158.82 E59.46256
G1 X144.01 Y158.85 E59.52447
G1 X144.01 Y147.90 E59.97976
G1 X144.00 Y146.18 E60.05127
G0 F12000 X144.41 Y146.57
G1 F2700 X160.59 Y146.58 E60.72408
G1 X160.59 Y147.86 E60.77751
G1 X160.59 Y157.28 E61.16894
G1 X160.60 Y158.43 E61.21671
G1 X145.49 Y158.42 E61.84483
G1 X144.41 Y158.44 E61.88986
G1 X144.41 Y147.90 E62.32827
G1 X144.41 Y146.57 E62.38315
G0 F12000 X144.81 Y146.97
G1 F2700 X160.19 Y146.98 E63.02270
G1 X160.19 Y147.86 E63.05954
G1 X160.19 Y157.28 E63.45092
G1 X160.20 Y158.03 E63.48206
G1 X145.49 Y158.02 E64.09368
G1 X144.81 Y158.03 E64.12183
G1 X144.81 Y147.90 E64.54336
G1 X144.81 Y146.97 E64.58161
G0 F12000 X145.21 Y147.38
G1 F2700 X159.79 Y147.38 E65.18786
G1 X159.79 Y157.62 E65.61396
G1 X145.48 Y157.62 E66.20907
G1 X145.21 Y157.63 E66.22033
G1 X145.21 Y147.38 E66.64660
G0 F12000 X146.01 Y148.18
;TYPE:WALL-INNER
G1 F2700 X158.99 Y148.18 E67.18637
G1 X158.99 Y156.82 E67.54596
G1 X146.01 Y156.82 E68.08573
G1 X146.01 Y148.18 E68.44531
G0 F12000 X148.25 Y150.70
G1 F2700 X148.25 Y153.07 E68.54385
G1 X148.25 Y154.29 E68.59490
G1 X156.51 Y154.29 E68.93827
G1 X156.51 Y151.85 E69.03984
G1 X156.51 Y150.70 E69.08786
G1 X148.25 Y150.70 E69.43127
G0 F12000 X148.65 Y151.10
;TYPE:WALL-OUTER
G1 F2700 X148.65 Y153.90 E69.54760
G1 X156.11 Y153.90 E69.85766
G1 X156.11 Y151.10 E69.97399
G1 X148.65 Y151.10 E70.28410
G0 F12000 X148.65 Y150.80
G0 X145.91 Y147.99
G0 X145.61 Y147.78
G1 F2700 X159.39 Y147.78 E70.85713
G1 X159.39 Y157.22 E71.24997
G1 X145.61 Y157.22 E71.82305
G1 X145.61 Y147.78 E72.21589
G0 F12000 X146.34 Y148.31
;TYPE:FILL
G1 F2700 X148.58 Y150.56 E72.34768
G0 F12000 X148.11 Y150.66
G1 F2700 X146.15 Y148.69 E72.46310
G0 F12000 X146.15 Y149.26
G1 F2700 X148.11 Y151.22 E72.57851
G0 F12000 X148.11 Y151.79
G1 F2700 X146.15 Y149.82 E72.69393
G0 F12000 X146.15 Y150.39
G1 F2700 X148.11 Y152.35 E72.80932
G0 F12000 X148.11 Y152.92
G1 F2700 X146.15 Y150.96 E72.92468
G0 F12000 X146.15 Y151.52
G1 F2700 X148.11 Y153.48 E73.04004
G0 F12000 X148.11 Y154.05
G1 F2700 X146.15 Y152.09 E73.15539
G0 F12000 X146.15 Y152.65
G1 F2700 X150.18 Y156.68 E73.39237
G0 F12000 X150.74 Y156.68
G1 F2700 X148.50 Y154.43 E73.52457
G0 F12000 X149.06 Y154.43
G1 F2700 X151.31 Y156.68 E73.65681
G0 F12000 X151.88 Y156.68
G1 F2700 X149.63 Y154.43 E73.78904
G0 F12000 X150.19 Y154.43
G1 F2700 X152.44 Y156.68 E73.92124
G0 F12000 X153.01 Y156.68
G1 F2700 X150.76 Y154.43 E74.05353
G0 F12000 X151.32 Y154.43
G1 F2700 X153.57 Y156.68 E74.18580
G0 F12000 X154.14 Y156.68
G1 F2700 X151.89 Y154.43 E74.31806
G0 F12000 X152.46 Y154.43
G1 F2700 X154.70 Y156.68 E74.45032
G0 F12000 X155.27 Y156.68
G1 F2700 X153.02 Y154.43 E74.58261
G0 F12000 X153.59 Y154.43
G1 F2700 X155.84 Y156.68 E74.71487
G0 F12000 X156.40 Y156.68
G1 F2700 X154.15 Y154.43 E74.84714
G0 F12000 X154.72 Y154.43
G1 F2700 X156.97 Y156.68 E74.97943
G0 F12000 X157.53 Y156.68
G1 F2700 X155.28 Y154.43 E75.11169
G0 F12000 X155.85 Y154.43
G1 F2700 X158.10 Y156.68 E75.24395
G0 F12000 X158.66 Y156.68
G1 F2700 X156.41 Y154.43 E75.37624
G0 F12000 X156.65 Y154.10
G1 F2700 X158.85 Y156.31 E75.50574
G0 F12000 X158.85 Y155.74
G1 F2700 X156.65 Y153.54 E75.63524
G0 F12000 X156.65 Y152.97
G1 F2700 X158.85 Y155.17 E75.76471
G0 F12000 X158.85 Y154.61
G1 F2700 X156.65 Y152.41 E75.89418
G0 F12000 X156.65 Y151.84
G1 F2700 X158.85 Y154.04 E76.02359
G0 F12000 X158.85 Y153.48
G1 F2700 X156.65 Y151.28 E76.15300
G0 F12000 X156.65 Y150.71
G1 F2700 X158.85 Y152.91 E76.28244
G0 F12000 X158.85 Y152.35
G1 F2700 X154.82 Y148.31 E76.51942
G0 F12000 X155.39 Y148.31
G1 F2700 X158.85 Y151.78 E76.72315
G0 F12000 X158.85 Y151.21
G1 F2700 X155.95 Y148.31 E76.89360
G0 F12000 X156.52 Y148.31
G1 F2700 X158.85 Y150.65 E77.03080
G0 F12000 X158.85 Y150.08
G1 F2700 X157.08 Y148.31 E77.13475
G0 F12000 X157.65 Y148.31
G1 F2700 X158.85 Y149.52 E77.20542
G0 F12000 X158.85 Y148.95
G1 F2700 X158.22 Y148.31 E77.24284
G0 F12000 X158.78 Y148.31
G1 F2700 X158.85 Y148.39 E77.24702
G0 F12000 X156.50 Y150.56
G1 F2700 X154.25 Y148.31 E77.37878
G0 F12000 X153.69 Y148.31
G1 F2700 X155.93 Y150.56 E77.51054
G0 F12000 X155.82 Y150.56
G1 F2700 X155.95 Y150.44 E77.51766
G0 F12000 X155.36 Y150.56
G1 F2700 X153.12 Y148.31 E77.64942
G0 F12000 X152.56 Y148.31
G1 F2700 X154.80 Y150.56 E77.78118
G0 F12000 X155.15 Y150.44
G1 F2700 X155.27 Y150.56 E77.78824
G0 F12000 X154.23 Y150.56
G1 F2700 X151.99 Y148.31 E77.92006
G0 F12000 X151.43 Y148.31
G1 F2700 X153.67 Y150.56 E78.05185
G0 F12000 X153.10 Y150.56
G1 F2700 X150.86 Y148.31 E78.18367
G0 F12000 X150.29 Y148.31
G1 F2700 X152.54 Y150.56 E78.31549
G0 F12000 X151.97 Y150.56
G1 F2700 X149.73 Y148.31 E78.44728
G0 F12000 X149.16 Y148.31
G1 F2700 X151.40 Y150.56 E78.57908
G0 F12000 X150.84 Y150.56
G1 F2700 X148.60 Y148.31 E78.71090
G0 F12000 X148.03 Y148.31
G1 F2700 X150.27 Y150.56 E78.84269
G0 F12000 X149.71 Y150.56
G1 F2700 X147.47 Y148.31 E78.97448
G0 F12000 X146.90 Y148.31
G1 F2700 X149.14 Y150.56 E79.10630
G0 F12000 X148.31 Y150.76
G0 X146.15 Y153.22
G1 F2700 X149.61 Y156.68 E79.31003
G0 F12000 X149.05 Y156.68
G1 F2700 X146.15 Y153.78 E79.48048
G0 F12000 X146.15 Y154.35
G1 F2700 X148.48 Y156.68 E79.61768
G0 F12000 X147.91 Y156.68
G1 F2700 X146.15 Y154.91 E79.72163
G0 F12000 X146.15 Y155.48
G1 F2700 X147.35 Y156.68 E79.79230
G0 F12000 X146.78 Y156.68
G1 F2700 X146.15 Y156.05 E79.82973
G0 F12000 X146.15 Y156.61
G1 F2700 X146.22 Y156.68 E79.83390
;LAYER:1
G0 F12000 X146.15 Y156.72 Z0.45
;TYPE:WALL-INNER
G1 F3780 X146.15 Y148.28 E80.11492
G1 X158.85 Y148.28 E80.53716
G1 X158.85 Y156.72 E80.81817
G1 X146.15 Y156.72 E81.24044
G0 F12000 X147.99 Y154.29
G1 F3780 X156.77 Y154.29 E81.53240
G1 X156.77 Y150.70 E81.65207
G1 X147.99 Y150.70 E81.94403
G1 X147.99 Y152.91 E82.01746
G1 X147.99 Y154.29 E82.06370
G0 F12000 X148.39 Y153.90
;TYPE:WALL-OUTER
G1 F3780 X156.37 Y153.90 E82.32901
G1 X156.37 Y151.10 E82.42207
G1 X148.39 Y151.10 E82.68742
G1 X148.39 Y153.90 E82.78049
G0 F12000 X148.09 Y153.90
G0 X145.96 Y156.82
G0 X145.75 Y157.12
G1 F3780 X145.75 Y147.88 E83.08811
G1 X159.25 Y147.88 E83.53695
G1 X159.25 Y157.12 E83.84458
G1 X145.75 Y157.12 E84.29346
G0 F12000 X146.34 Y156.58
;TYPE:FILL
G1 F3780 X148.49 Y154.43 E84.39456
G0 F12000 X149.06 Y154.43
G1 F3780 X146.91 Y156.58 E84.49564
G0 F12000 X147.47 Y156.58
G1 F3780 X149.62 Y154.43 E84.59673
G0 F12000 X150.19 Y154.43
G1 F3780 X148.04 Y156.58 E84.69783
G0 F12000 X148.60 Y156.58
G1 F3780 X150.75 Y154.43 E84.79894
G0 F12000 X151.32 Y154.43
G1 F3780 X149.17 Y156.58 E84.90002
G0 F12000 X149.73 Y156.58
G1 F3780 X151.88 Y154.43 E85.00113
G0 F12000 X152.45 Y154.43
G1 F3780 X150.30 Y156.58 E85.10223
G0 F12000 X150.87 Y156.58
G1 F3780 X153.01 Y154.43 E85.20331
G0 F12000 X153.58 Y154.43
G1 F3780 X151.43 Y156.58 E85.30442
G0 F12000 X152.00 Y156.58
G1 F3780 X154.15 Y154.43 E85.40553
G0 F12000 X154.71 Y154.43
G1 F3780 X152.56 Y156.58 E85.50666
G0 F12000 X153.13 Y156.58
G1 F3780 X155.28 Y154.43 E85.60779
G0 F12000 X155.84 Y154.43
G1 F3780 X153.69 Y156.58 E85.70894
G0 F12000 X154.26 Y156.58
G1 F3780 X156.41 Y154.43 E85.81007
G0 F12000 X156.91 Y153.94
G1 F3780 X158.71 Y152.14 E85.89464
G0 F12000 X158.71 Y152.70
G1 F3780 X154.82 Y156.58 E86.07719
G0 F12000 X155.39 Y156.58
G1 F3780 X158.71 Y153.27 E86.23316
G0 F12000 X158.71 Y153.83
G1 F3780 X155.96 Y156.58 E86.36252
G0 F12000 X156.52 Y156.58
G1 F3780 X158.71 Y154.40 E86.46524
G0 F12000 X158.71 Y154.97
G1 F3780 X157.09 Y156.58 E86.54137
G0 F12000 X157.65 Y156.58
G1 F3780 X158.71 Y155.53 E86.59090
G0 F12000 X158.71 Y156.10
G1 F3780 X158.22 Y156.58 E86.61381
G0 F12000 X156.91 Y153.37
G1 F3780 X158.71 Y151.57 E86.69838
G0 F12000 X158.71 Y151.01
G1 F3780 X156.91 Y152.81 E86.78298
G0 F12000 X156.91 Y152.24
G1 F3780 X158.71 Y150.44 E86.86750
G0 F12000 X158.71 Y149.88
G1 F3780 X156.91 Y151.67 E86.95203
G0 F12000 X156.91 Y151.11
G1 F3780 X158.71 Y149.31 E87.03658
G0 F12000 X158.71 Y148.74
G1 F3780 X156.89 Y150.56 E87.12186
G0 F12000 X156.33 Y150.56
G1 F3780 X158.47 Y148.41 E87.22259
G0 F12000 X157.90 Y148.41
G1 F3780 X155.76 Y150.56 E87.32334
G0 F12000 X155.19 Y150.56
G1 F3780 X157.34 Y148.41 E87.42409
G0 F12000 X156.77 Y148.41
G1 F3780 X154.63 Y150.56 E87.52482
G0 F12000 X154.06 Y150.56
G1 F3780 X156.21 Y148.41 E87.62558
G0 F12000 X155.64 Y148.41
G1 F3780 X153.50 Y150.56 E87.72633
G0 F12000 X152.93 Y150.56
G1 F3780 X155.07 Y148.41 E87.82706
G0 F12000 X154.51 Y148.41
G1 F3780 X152.37 Y150.56 E87.92781
G0 F12000 X151.80 Y150.56
G1 F3780 X153.94 Y148.41 E88.02856
G0 F12000 X153.38 Y148.41
G1 F3780 X151.24 Y150.56 E88.12932
G0 F12000 X150.67 Y150.56
G1 F3780 X152.81 Y148.41 E88.23007
G0 F12000 X152.25 Y148.41
G1 F3780 X150.10 Y150.56 E88.33087
G0 F12000 X149.54 Y150.56
G1 F3780 X151.68 Y148.41 E88.43167
G0 F12000 X151.12 Y148.41
G1 F3780 X148.97 Y150.56 E88.53245
G0 F12000 X148.41 Y150.56
G1 F3780 X150.55 Y148.41 E88.63325
G0 F12000 X149.98 Y148.41
G1 F3780 X146.29 Y152.11 E88.80696
G0 F12000 X146.29 Y152.67
G1 F3780 X147.85 Y151.11 E88.88026
G0 F12000 X147.85 Y151.68
G1 F3780 X146.29 Y153.24 E88.95357
G0 F12000 X146.29 Y153.80
G1 F3780 X147.85 Y152.25 E89.02690
G0 F12000 X147.85 Y152.81
G1 F3780 X146.29 Y154.37 E89.10016
G0 F12000 X146.29 Y154.94
G1 F3780 X147.85 Y153.38 E89.17344
G0 F12000 X147.85 Y153.94
G1 F3780 X146.29 Y155.50 E89.24673
G0 F12000 X146.29 Y156.07
G1 F3780 X147.92 Y154.43 E89.32351
G0 F12000 X146.29 Y151.54
G1 F3780 X149.42 Y148.41 E89.47060
G0 F12000 X148.85 Y148.41
G1 F3780 X146.29 Y150.97 E89.59108
G0 F12000 X146.29 Y150.41
G1 F3780 X148.29 Y148.41 E89.68497
G0 F12000 X147.72 Y148.41
G1 F3780 X146.29 Y149.84 E89.75223
G0 F12000 X146.29 Y149.28
G1 F3780 X147.16 Y148.41 E89.79287
G0 F12000 X146.59 Y148.41
G1 F3780 X146.29 Y148.71 E89.80694
;LAYER:2
G0 F12000 X146.30 Y148.95 Z0.65
;TYPE:WALL-INNER
G1 F4920 X146.30 Y148.39 E89.82560
G1 X146.30 Y148.38 E89.82599
G1 X158.70 Y148.38 E90.23869
G1 X158.70 Y156.62 E90.51305
G1 X146.30 Y156.62 E90.92571
G1 X146.30 Y148.95 E91.18101
G0 F12000 X147.76 Y150.70
G1 F4920 X147.76 Y152.60 E91.24417
G1 X147.76 Y154.29 E91.30068
G1 X157.00 Y154.29 E91.60814
G1 X157.00 Y150.70 E91.72781
G1 X147.76 Y150.70 E92.03527
G0 F12000 X148.16 Y151.10
;TYPE:WALL-OUTER
G1 F4920 X148.16 Y153.90 E92.12833
G1 X156.60 Y153.90 E92.40914
G1 X156.60 Y151.10 E92.50221
G1 X148.16 Y151.10 E92.78305
G0 F12000 X148.16 Y150.80
G0 X146.11 Y148.28
G0 X145.90 Y147.97
G1 F4920 X159.10 Y147.98 E93.22232
G1 X159.10 Y157.03 E93.52329
G1 X145.90 Y157.03 E93.96259
G1 X145.90 Y147.97 E94.26360
G0 F12000 X146.53 Y148.51
;TYPE:FILL
G1 F4920 X148.58 Y150.56 E94.35960
G0 F12000 X148.01 Y150.56
G1 F4920 X146.44 Y148.98 E94.43368
G0 F12000 X146.44 Y149.55
G1 F4920 X147.62 Y150.73 E94.48930
G0 F12000 X147.62 Y151.29
G1 F4920 X146.44 Y150.11 E94.54490
G0 F12000 X146.44 Y150.68
G1 F4920 X147.62 Y151.86 E94.60050
G0 F12000 X147.62 Y152.43
G1 F4920 X146.44 Y151.24 E94.65612
G0 F12000 X146.44 Y151.81
G1 F4920 X147.62 Y152.99 E94.71172
G0 F12000 X147.62 Y153.56
G1 F4920 X146.44 Y152.38 E94.76731
G0 F12000 X146.44 Y152.94
G1 F4920 X147.62 Y154.12 E94.82294
G0 F12000 X147.93 Y154.43
G1 F4920 X149.98 Y156.48 E94.91931
G0 F12000 X150.54 Y156.48
G1 F4920 X148.50 Y154.43 E95.01567
G0 F12000 X149.06 Y154.43
G1 F4920 X151.11 Y156.48 E95.11205
G0 F12000 X151.68 Y156.48
G1 F4920 X149.63 Y154.43 E95.20843
G0 F12000 X150.19 Y154.43
G1 F4920 X152.24 Y156.48 E95.30478
G0 F12000 X152.81 Y156.48
G1 F4920 X150.76 Y154.43 E95.40121
G0 F12000 X151.32 Y154.43
G1 F4920 X153.37 Y156.48 E95.49761
G0 F12000 X153.94 Y156.48
G1 F4920 X151.89 Y154.43 E95.59401
G0 F12000 X152.46 Y154.43
G1 F4920 X154.50 Y156.48 E95.69041
G0 F12000 X155.07 Y156.48
G1 F4920 X153.02 Y154.43 E95.78682
G0 F12000 X153.59 Y154.43
G1 F4920 X155.63 Y156.48 E95.88322
G0 F12000 X156.20 Y156.48
G1 F4920 X154.15 Y154.43 E95.97962
G0 F12000 X154.72 Y154.43
G1 F4920 X156.77 Y156.48 E96.07602
G0 F12000 X157.33 Y156.48
G1 F4920 X155.28 Y154.43 E96.17242
G0 F12000 X155.85 Y154.43
G1 F4920 X157.90 Y156.48 E96.26883
G0 F12000 X158.46 Y156.48
G1 F4920 X156.41 Y154.43 E96.36525
G0 F12000 X156.98 Y154.43
G1 F4920 X158.56 Y156.02 E96.43971
G0 F12000 X158.56 Y155.45
G1 F4920 X157.14 Y154.03 E96.50662
G0 F12000 X157.14 Y153.46
G1 F4920 X158.56 Y154.89 E96.57356
G0 F12000 X158.56 Y154.32
G1 F4920 X157.14 Y152.90 E96.64049
G0 F12000 X157.14 Y152.33
G1 F4920 X158.56 Y153.75 E96.70738
G0 F12000 X158.56 Y153.19
G1 F4920 X157.14 Y151.77 E96.77426
G0 F12000 X157.14 Y151.20
G1 F4920 X158.56 Y152.62 E96.84115
G0 F12000 X158.56 Y152.06
G1 F4920 X157.14 Y150.63 E96.90806
G0 F12000 X157.06 Y150.56
G1 F4920 X155.02 Y148.51 E97.00404
G0 F12000 X155.59 Y148.51
G1 F4920 X158.56 Y151.49 E97.14407
G0 F12000 X158.56 Y150.93
G1 F4920 X156.15 Y148.51 E97.25747
G0 F12000 X156.72 Y148.51
G1 F4920 X158.56 Y150.36 E97.34428
G0 F12000 X158.56 Y149.79
G1 F4920 X157.28 Y148.51 E97.40449
G0 F12000 X157.85 Y148.51
G1 F4920 X158.56 Y149.23 E97.43807
G0 F12000 X158.56 Y148.66
G1 F4920 X158.41 Y148.51 E97.44506
G0 F12000 X156.50 Y150.56
G1 F4920 X154.46 Y148.51 E97.54106
G0 F12000 X153.89 Y148.51
G1 F4920 X155.93 Y150.56 E97.63706
G0 F12000 X155.36 Y150.56
G1 F4920 X153.32 Y148.51 E97.73304
G0 F12000 X152.76 Y148.51
G1 F4920 X154.80 Y150.56 E97.82904
G0 F12000 X154.23 Y150.56
G1 F4920 X152.19 Y148.51 E97.92504
G0 F12000 X151.63 Y148.51
G1 F4920 X153.67 Y150.56 E98.02105
G0 F12000 X153.10 Y150.56
G1 F4920 X151.06 Y148.51 E98.11707
G0 F12000 X150.49 Y148.51
G1 F4920 X152.54 Y150.56 E98.21310
G0 F12000 X151.97 Y150.56
G1 F4920 X149.93 Y148.51 E98.30910
G0 F12000 X149.36 Y148.51
G1 F4920 X151.40 Y150.56 E98.40510
G0 F12000 X150.84 Y150.56
G1 F4920 X148.80 Y148.51 E98.50113
G0 F12000 X148.23 Y148.51
G1 F4920 X150.27 Y150.56 E98.59713
G0 F12000 X149.71 Y150.56
G1 F4920 X147.67 Y148.51 E98.69313
G0 F12000 X147.10 Y148.51
G1 F4920 X149.14 Y150.56 E98.78916
G0 F12000 X147.82 Y150.76
G0 X146.44 Y153.51
G1 F4920 X149.41 Y156.48 E98.92919
G0 F12000 X148.85 Y156.48
G1 F4920 X146.44 Y154.07 E99.04260
G0 F12000 X146.44 Y154.64
G1 F4920 X148.28 Y156.48 E99.12940
G0 F12000 X147.72 Y156.48
G1 F4920 X146.44 Y155.20 E99.18961
G0 F12000 X146.44 Y155.77
G1 F4920 X147.15 Y156.48 E99.22319
G0 F12000 X146.58 Y156.48
G1 F4920 X146.44 Y156.33 E99.23018
;LAYER:3
G0 F12000 X146.44 Y156.52 Z0.85
;TYPE:WALL-INNER
G1 F5700 X146.44 Y148.47 E99.49789
G1 X158.56 Y148.48 E99.90097
G1 X158.56 Y156.53 E100.16868
G1 X146.44 Y156.52 E100.57179
G0 F12000 X147.55 Y154.29
G1 F5700 X157.21 Y154.29 E100.89325
G1 X157.21 Y150.70 E101.01292
G1 X147.55 Y150.70 E101.33435
G1 X147.55 Y154.29 E101.45402
G0 F12000 X147.95 Y153.90
;TYPE:WALL-OUTER
G1 F5700 X156.81 Y153.90 E101.74887
G1 X156.81 Y151.10 E101.84193
G1 X147.95 Y151.10 E102.13675
G1 X147.95 Y153.90 E102.22981
G0 F12000 X147.65 Y153.89
G0 X146.25 Y156.62
G0 X146.04 Y156.93
G1 F5700 X146.04 Y148.07 E102.52416
G1 X158.96 Y148.08 E102.95385
G1 X158.96 Y156.93 E103.24817
G1 X146.04 Y156.93 E103.67789
G0 F12000 X146.58 Y156.34
;TYPE:FILL
G1 F5700 X148.49 Y154.43 E103.76773
G0 F12000 X149.06 Y154.43
G1 F5700 X147.11 Y156.38 E103.85941
G0 F12000 X147.67 Y156.38
G1 F5700 X149.62 Y154.43 E103.95108
G0 F12000 X150.19 Y154.43
G1 F5700 X148.24 Y156.38 E104.04278
G0 F12000 X148.80 Y156.38
G1 F5700 X150.75 Y154.43 E104.13448
G0 F12000 X151.32 Y154.43
G1 F5700 X149.37 Y156.38 E104.22615
G0 F12000 X149.93 Y156.38
G1 F5700 X151.88 Y154.43 E104.31785
G0 F12000 X152.45 Y154.43
G1 F5700 X150.50 Y156.38 E104.40955
G0 F12000 X151.06 Y156.38
G1 F5700 X153.01 Y154.43 E104.50127
G0 F12000 X153.58 Y154.43
G1 F5700 X151.63 Y156.38 E104.59299
G0 F12000 X152.20 Y156.38
G1 F5700 X154.15 Y154.43 E104.68474
G0 F12000 X154.71 Y154.43
G1 F5700 X152.76 Y156.38 E104.77646
G0 F12000 X153.33 Y156.38
G1 F5700 X155.28 Y154.43 E104.86818
G0 F12000 X155.84 Y154.43
G1 F5700 X153.89 Y156.38 E104.95991
G0 F12000 X154.46 Y156.38
G1 F5700 X156.41 Y154.43 E105.05163
G0 F12000 X156.97 Y154.43
G1 F5700 X155.02 Y156.38 E105.14340
G0 F12000 X155.59 Y156.38
G1 F5700 X158.42 Y153.56 E105.27642
G0 F12000 X158.42 Y154.12
G1 F5700 X156.16 Y156.38 E105.38281
G0 F12000 X156.72 Y156.38
G1 F5700 X158.42 Y154.69 E105.46264
G0 F12000 X158.42 Y155.25
G1 F5700 X157.29 Y156.38 E105.51583
G0 F12000 X157.85 Y156.38
G1 F5700 X158.42 Y155.82 E105.54241
G0 F12000 X157.35 Y154.06
G1 F5700 X158.42 Y152.99 E105.59260
G0 F12000 X158.42 Y152.43
G1 F5700 X157.35 Y153.49 E105.64279
G0 F12000 X157.35 Y152.93
G1 F5700 X158.42 Y151.86 E105.69298
G0 F12000 X158.42 Y151.29
G1 F5700 X157.35 Y152.36 E105.74316
G0 F12000 X157.35 Y151.80
G1 F5700 X158.42 Y150.73 E105.79335
G0 F12000 X158.42 Y150.16
G1 F5700 X157.35 Y151.23 E105.84354
G0 F12000 X157.35 Y150.66
G1 F5700 X158.42 Y149.60 E105.89373
G0 F12000 X158.42 Y149.03
G1 F5700 X156.89 Y150.56 E105.96551
G0 F12000 X156.33 Y150.56
G1 F5700 X158.27 Y148.62 E106.05683
G0 F12000 X157.70 Y148.62
G1 F5700 X155.76 Y150.56 E106.14818
G0 F12000 X155.19 Y150.56
G1 F5700 X157.14 Y148.62 E106.23952
G0 F12000 X156.57 Y148.62
G1 F5700 X154.63 Y150.56 E106.33084
G0 F12000 X154.06 Y150.56
G1 F5700 X156.01 Y148.62 E106.42219
G0 F12000 X155.44 Y148.62
G1 F5700 X153.50 Y150.56 E106.51354
G0 F12000 X152.93 Y150.56
G1 F5700 X154.87 Y148.62 E106.60486
G0 F12000 X154.31 Y148.61
G1 F5700 X152.37 Y150.56 E106.69623
G0 F12000 X151.80 Y150.56
G1 F5700 X153.74 Y148.61 E106.78762
G0 F12000 X153.18 Y148.61
G1 F5700 X151.24 Y150.56 E106.87901
G0 F12000 X150.67 Y150.56
G1 F5700 X152.61 Y148.61 E106.97038
G0 F12000 X152.05 Y148.61
G1 F5700 X150.10 Y150.56 E107.06177
G0 F12000 X149.54 Y150.56
G1 F5700 X151.48 Y148.61 E107.15317
G0 F12000 X150.91 Y148.61
G1 F5700 X148.97 Y150.56 E107.24454
G0 F12000 X148.41 Y150.56
G1 F5700 X150.35 Y148.61 E107.33593
G0 F12000 X149.78 Y148.61
G1 F5700 X147.84 Y150.56 E107.42735
G0 F12000 X147.41 Y150.99
G1 F5700 X146.58 Y151.82 E107.46624
G0 F12000 X146.58 Y152.38
G1 F5700 X147.41 Y151.56 E107.50514
G0 F12000 X147.41 Y152.12
G1 F5700 X146.58 Y152.95 E107.54407
G0 F12000 X146.58 Y153.51
G1 F5700 X147.41 Y152.69 E107.58294
G0 F12000 X147.41 Y153.25
G1 F5700 X146.58 Y154.08 E107.62184
G0 F12000 X146.58 Y154.65
G1 F5700 X147.41 Y153.82 E107.66074
G0 F12000 X147.41 Y154.39
G1 F5700 X146.58 Y155.21 E107.69962
G0 F12000 X146.58 Y155.78
G1 F5700 X147.92 Y154.43 E107.76284
G0 F12000 X147.61 Y154.24
G0 X146.58 Y151.25
G1 F5700 X149.22 Y148.61 E107.88694
G0 F12000 X148.65 Y148.61
G1 F5700 X146.58 Y150.69 E107.98445
G0 F12000 X146.58 Y150.12
G1 F5700 X148.09 Y148.61 E108.05534
G0 F12000 X147.52 Y148.61
G1 F5700 X146.58 Y149.56 E108.09962
G0 F12000 X146.58 Y148.99
G1 F5700 X146.96 Y148.61 E108.11731
;LAYER:4
G0 F12000 X146.58 Y148.57 Z1.05
;TYPE:WALL-INNER
G1 F5520 X158.41 Y148.58 E108.51081
G1 X158.42 Y156.43 E108.77187
G1 X146.58 Y156.42 E109.16540
G1 X146.58 Y148.57 E109.42646
G0 F12000 X147.35 Y150.70
G1 F5520 X147.35 Y154.29 E109.54613
G1 X157.40 Y154.29 E109.88039
G1 X157.40 Y150.70 E110.00006
G1 X147.35 Y150.70 E110.33426
G0 F12000 X147.75 Y151.10
;TYPE:WALL-OUTER
G1 F5520 X147.75 Y153.90 E110.42732
G1 X157.00 Y153.90 E110.73498
G1 X157.00 Y151.10 E110.82804
G1 X147.75 Y151.10 E111.13563
G0 F12000 X147.75 Y150.80
G0 X146.39 Y148.47
G0 X146.18 Y148.18
G1 F5520 X158.81 Y148.18 E111.55574
G1 X158.82 Y156.82 E111.84341
G1 X146.18 Y156.82 E112.26355
G1 X146.18 Y148.18 E112.55125
G0 F12000 X146.73 Y148.71
;TYPE:FILL
G1 F5520 X148.58 Y150.56 E112.63789
G0 F12000 X148.01 Y150.56
G1 F5520 X146.72 Y149.27 E112.69843
G0 F12000 X146.72 Y149.84
G1 F5520 X147.44 Y150.56 E112.73236
G0 F12000 X147.21 Y150.89
G1 F5520 X146.72 Y150.68 E112.75542
G1 X146.97 Y151.49 E112.77846
G1 X146.97 Y152.06 E112.80152
G1 X146.97 Y152.62 E112.82458
G1 X146.97 Y153.19 E112.84764
G1 X146.97 Y153.76 E112.87071
G1 X147.21 Y154.28 E112.89008
G0 F12000 X147.36 Y154.43
G1 F5520 X149.21 Y156.28 E112.97705
G0 F12000 X149.78 Y156.28
G1 F5520 X147.93 Y154.43 E113.06400
G0 F12000 X148.50 Y154.43
G1 F5520 X150.34 Y156.28 E113.15095
G0 F12000 X150.91 Y156.28
G1 F5520 X149.06 Y154.43 E113.23796
G0 F12000 X149.63 Y154.43
G1 F5520 X151.47 Y156.28 E113.32496
G0 F12000 X152.04 Y156.28
G1 F5520 X150.19 Y154.43 E113.41195
G0 F12000 X150.76 Y154.43
G1 F5520 X152.61 Y156.28 E113.49897
G0 F12000 X153.17 Y156.28
G1 F5520 X151.32 Y154.43 E113.58597
G0 F12000 X151.89 Y154.43
G1 F5520 X153.74 Y156.28 E113.67296
G0 F12000 X154.30 Y156.28
G1 F5520 X152.46 Y154.43 E113.75996
G0 F12000 X153.02 Y154.43
G1 F5520 X154.87 Y156.28 E113.84698
G0 F12000 X155.44 Y156.28
G1 F5520 X153.59 Y154.43 E113.93399
G0 F12000 X154.15 Y154.43
G1 F5520 X156.00 Y156.28 E114.02099
G0 F12000 X156.57 Y156.28
G1 F5520 X154.72 Y154.43 E114.10801
G0 F12000 X155.28 Y154.43
G1 F5520 X157.13 Y156.28 E114.19503
G0 F12000 X157.70 Y156.28
G1 F5520 X155.85 Y154.43 E114.28202
G0 F12000 X156.41 Y154.43
G1 F5520 X158.26 Y156.28 E114.36904
G0 F12000 X158.28 Y155.73
G1 F5520 X156.98 Y154.43 E114.42995
G0 F12000 X157.54 Y154.43
G1 F5520 X158.28 Y155.16 E114.46441
G0 F12000 X158.28 Y154.60
G1 F5520 X157.54 Y153.87 E114.49888
G0 F12000 X157.54 Y153.30
G1 F5520 X158.28 Y154.03 E114.53334
G0 F12000 X158.28 Y153.47
G1 F5520 X157.54 Y152.73 E114.56779
G0 F12000 X157.54 Y152.17
G1 F5520 X158.28 Y152.90 E114.60232
G0 F12000 X158.28 Y152.34
G1 F5520 X157.54 Y151.60 E114.63682
G0 F12000 X157.54 Y151.04
G1 F5520 X158.28 Y151.77 E114.67132
G0 F12000 X158.28 Y151.20
G1 F5520 X155.79 Y148.72 E114.78840
G0 F12000 X155.22 Y148.72
G1 F5520 X157.06 Y150.56 E114.87497
G0 F12000 X156.50 Y150.56
G1 F5520 X154.66 Y148.72 E114.96156
G0 F12000 X154.09 Y148.72
G1 F5520 X155.93 Y150.56 E115.04816
G0 F12000 X155.36 Y150.56
G1 F5520 X153.52 Y148.72 E115.13475
G0 F12000 X152.96 Y148.72
G1 F5520 X154.80 Y150.56 E115.22137
G0 F12000 X154.23 Y150.56
G1 F5520 X152.39 Y148.72 E115.30797
G0 F12000 X151.83 Y148.72
G1 F5520 X153.67 Y150.56 E115.39456
G0 F12000 X153.10 Y150.56
G1 F5520 X151.26 Y148.72 E115.48118
G0 F12000 X150.69 Y148.72
G1 F5520 X152.54 Y150.56 E115.56777
G0 F12000 X151.97 Y150.56
G1 F5520 X150.13 Y148.71 E115.65442
G0 F12000 X149.56 Y148.71
G1 F5520 X151.40 Y150.56 E115.74106
G0 F12000 X150.84 Y150.56
G1 F5520 X149.00 Y148.71 E115.82770
G0 F12000 X148.43 Y148.71
G1 F5520 X150.27 Y150.56 E115.91434
G0 F12000 X149.71 Y150.56
G1 F5520 X147.87 Y148.71 E116.00098
G0 F12000 X147.30 Y148.71
G1 F5520 X149.14 Y150.56 E116.08763
G0 F12000 X147.41 Y150.76
G0 X146.72 Y154.36
G1 F5520 X148.65 Y156.28 E116.17808
G0 F12000 X148.08 Y156.28
G1 F5520 X146.72 Y154.93 E116.24191
G0 F12000 X146.72 Y155.49
G1 F5520 X147.51 Y156.28 E116.27914
G0 F12000 X146.95 Y156.28
G1 F5520 X146.72 Y156.06 E116.28977
G0 F12000 X147.41 Y150.76
G0 X156.35 Y148.72
G1 F5520 X158.28 Y150.64 E116.38022
G0 F12000 X158.28 Y150.07
G1 F5520 X156.92 Y148.72 E116.44405
G0 F12000 X157.48 Y148.72
G1 F5520 X158.28 Y149.51 E116.48130
G0 F12000 X158.28 Y148.94
G1 F5520 X158.05 Y148.72 E116.49193
;LAYER:5
G0 F12000 X158.27 Y148.68 Z1.25
;TYPE:WALL-INNER
G1 F4200 X158.27 Y156.32 E116.74634
G1 X146.73 Y156.32 E117.13029
G1 X146.73 Y148.68 E117.38470
G1 X158.27 Y148.68 E117.76862
G0 F12000 X157.58 Y150.70
G1 F4200 X147.18 Y150.70 E118.11456
G1 X147.18 Y153.48 E118.20722
G1 X147.18 Y154.29 E118.23423
G1 X157.58 Y154.29 E118.58024
G1 X157.58 Y150.70 E118.69991
G0 F12000 X157.18 Y151.10
;TYPE:WALL-OUTER
G1 F4200 X147.58 Y151.10 E119.01924
G1 X147.58 Y153.49 E119.09866
G1 X147.58 Y153.90 E119.11230
G1 X157.18 Y153.90 E119.43163
G1 X157.18 Y151.10 E119.52469
G0 F12000 X157.48 Y151.10
G0 X158.46 Y148.57
G0 X158.67 Y148.28
G1 F4200 X158.67 Y156.72 E119.80571
G1 X146.33 Y156.72 E120.21627
G1 X146.33 Y148.28 E120.49732
G1 X158.67 Y148.28 E120.90785
G0 F12000 X158.07 Y148.81
;TYPE:FILL
G1 F4200 X157.49 Y149.39 E120.93504
G0 F12000 X157.08 Y149.24
G1 F4200 X157.50 Y148.81 E120.95479
G0 F12000 X157.57 Y148.81
G1 F4200 X155.82 Y150.56 E121.03668
G0 F12000 X155.27 Y150.56
G1 F4200 X153.53 Y148.81 E121.11857
G0 F12000 X153.54 Y148.81
G1 F4200 X153.05 Y149.02 E121.13836
G1 X152.48 Y149.02 E121.15812
G1 X151.92 Y149.02 E121.17781
G1 X151.35 Y149.02 E121.19753
G1 X150.79 Y149.02 E121.21721
G1 X150.22 Y149.02 E121.23693
G1 X149.66 Y149.02 E121.25665
G1 X149.09 Y149.02 E121.27634
G1 X148.53 Y149.02 E121.29606
G1 X148.03 Y149.23 E121.31388
G0 F12000 X148.14 Y148.81
G1 F4200 X146.87 Y150.09 E121.37371
G0 F12000 X146.87 Y149.83
G1 F4200 X147.89 Y148.81 E121.42164
G0 F12000 X147.32 Y148.81
G1 F4200 X146.87 Y149.27 E121.44299
G0 F12000 X147.51 Y149.76
G1 F4200 X146.87 Y150.40 E121.47305
G0 F12000 X147.04 Y150.79
G1 F4200 X146.95 Y151.16 E121.48108
G1 X146.87 Y151.56 E121.48905
G1 X147.04 Y151.84 E121.49708
G1 X146.95 Y152.29 E121.50500
G1 X146.95 Y152.86 E121.51291
G1 X146.95 Y153.43 E121.52077
G1 X146.95 Y153.99 E121.52858
G1 X147.11 Y154.40 E121.53644
G1 X146.87 Y154.92 E121.55580
G0 F12000 X146.87 Y155.49
G1 F4200 X147.51 Y154.85 E121.58585
G0 F12000 X147.51 Y155.42
G1 F4200 X146.87 Y156.06 E121.61591
G0 F12000 X147.31 Y156.18
G1 F4200 X147.80 Y155.97 E121.63565
G1 X148.36 Y155.97 E121.65537
G1 X148.93 Y155.97 E121.67505
G1 X149.50 Y155.97 E121.69477
G1 X150.06 Y155.97 E121.71449
G1 X150.63 Y155.97 E121.73421
G1 X151.19 Y155.97 E121.75390
G1 X151.76 Y155.97 E121.77362
G1 X152.32 Y155.97 E121.79333
G1 X152.89 Y155.97 E121.81302
G1 X153.45 Y155.97 E121.83275
G1 X154.02 Y155.97 E121.85252
G1 X154.59 Y155.97 E121.87228
G1 X155.15 Y155.97 E121.89202
G1 X155.72 Y155.97 E121.91178
G1 X156.28 Y155.97 E121.93155
G1 X156.85 Y155.97 E121.95128
G1 X157.34 Y155.76 E121.96913
G0 F12000 X157.49 Y155.62
G1 F4200 X158.13 Y154.98 E121.99919
G0 F12000 X158.13 Y155.54
G1 F4200 X157.49 Y156.19 E122.02943
G0 F12000 X158.05 Y156.19
G1 F4200 X158.13 Y156.11 E122.03308
G0 F12000 X157.49 Y155.05
G1 F4200 X158.13 Y154.41 E122.06314
G0 F12000 X157.72 Y154.26
G1 F4200 X158.13 Y153.63 E122.08242
G1 X157.72 Y153.06 E122.10177
G1 X157.92 Y152.63 E122.12112
G1 X157.92 Y152.07 E122.14038
G1 X157.92 Y151.50 E122.15967
G1 X157.92 Y150.94 E122.17897
G1 X158.13 Y150.45 E122.19656
G0 F12000 X158.13 Y149.88
G1 F4200 X157.49 Y150.53 E122.22666
G0 F12000 X157.49 Y149.96
G1 F4200 X158.13 Y149.32 E122.25676
G0 F12000 X156.94 Y148.81
G1 F4200 X156.44 Y149.03 E122.27650
G1 X155.88 Y149.03 E122.29622
G1 X155.31 Y149.03 E122.31591
G1 X154.75 Y149.03 E122.33563
G1 X154.18 Y149.02 E122.35535
G1 X153.69 Y149.24 E122.37318
G0 F12000 X157.52 Y150.76
G0 X157.52 Y154.24
G0 X151.95 Y154.43
G1 F4200 X150.20 Y156.18 E122.45552
G0 F12000 X151.47 Y156.18
G1 F4200 X149.72 Y154.43 E122.53779
G0 F12000 X157.52 Y154.24
G0 X157.52 Y150.76
G0 X147.28 Y150.56
G1 F4200 X147.51 Y150.32 E122.54865
G0 F12000 X157.52 Y150.76
G0 X157.72 Y153.69
G1 F4200 X158.13 Y153.28 E122.56799
;LAYER:6
G0 F12000 X157.74 Y154.29 Z1.45
;TYPE:WALL-INNER
G1 F3720 X157.74 Y151.65 E122.65589
G1 X157.74 Y150.70 E122.68766
G1 X147.02 Y150.70 E123.04424
G1 X147.02 Y154.29 E123.16391
G1 X157.74 Y154.29 E123.52046
G0 F12000 X158.13 Y156.22
G1 F3720 X146.88 Y156.22 E123.89443
G1 X146.87 Y156.22 E123.89483
G1 X146.87 Y148.78 E124.14259
G1 X158.13 Y148.78 E124.51693
G1 X158.13 Y156.22 E124.76469
G0 F12000 X158.53 Y156.62
;TYPE:WALL-OUTER
G1 F3720 X146.47 Y156.62 E125.16567
G1 X146.47 Y148.38 E125.44007
G1 X158.53 Y148.38 E125.84102
G1 X158.53 Y156.62 E126.11538
G0 F12000 X158.32 Y156.32
G0 X157.34 Y154.19
G0 X157.34 Y153.90
G1 F3720 X157.34 Y151.10 E126.20844
G1 X147.42 Y151.10 E126.53835
G1 X147.42 Y153.90 E126.63141
G1 X157.34 Y153.90 E126.96135
G0 F12000 X157.55 Y154.43
;TYPE:FILL
G1 F3720 X157.99 Y154.88 E126.98212
G0 F12000 X157.99 Y155.44
G1 F3720 X157.35 Y154.80 E127.01224
G0 F12000 X157.35 Y155.37
G1 F3720 X157.99 Y156.01 E127.04240
G0 F12000 X157.50 Y156.08
G1 F3720 X157.00 Y155.87 E127.06213
G1 X156.44 Y155.87 E127.08182
G1 X155.87 Y155.87 E127.10154
G1 X155.31 Y155.87 E127.12126
G1 X154.74 Y155.87 E127.14094
G1 X154.18 Y155.87 E127.16066
G1 X153.61 Y155.87 E127.18038
G1 X153.04 Y155.87 E127.20005
G1 X152.48 Y155.87 E127.21973
G1 X151.91 Y155.87 E127.23941
G1 X151.42 Y155.66 E127.25722
G0 F12000 X151.37 Y156.08
G1 F3720 X149.72 Y154.43 E127.33478
G0 F12000 X149.72 Y155.66
G1 F3720 X150.14 Y156.08 E127.35449
G0 F12000 X150.30 Y156.08
G1 F3720 X151.95 Y154.43 E127.43208
G0 F12000 X150.86 Y155.66
G1 F3720 X150.99 Y156.08 E127.45179
G1 X150.29 Y155.66 E127.47898
G0 F12000 X149.58 Y156.08
G1 F3720 X149.09 Y155.87 E127.49864
G1 X148.52 Y155.87 E127.51831
G1 X148.03 Y155.66 E127.53609
G0 F12000 X147.88 Y156.08
G1 F3720 X147.01 Y155.21 E127.57694
G0 F12000 X147.01 Y154.65
G1 F3720 X147.65 Y155.29 E127.60700
G0 F12000 X147.65 Y154.72
G1 F3720 X147.36 Y154.43 E127.62055
G0 F12000 X147.01 Y155.78
G1 F3720 X147.31 Y156.08 E127.63480
G0 F12000 X147.08 Y154.24
G0 X147.08 Y150.76
G0 X147.44 Y150.56
G1 F3720 X147.01 Y150.12 E127.65519
G0 F12000 X147.01 Y149.94
G1 F3720 X148.04 Y148.91 E127.70359
G0 F12000 X148.07 Y148.91
G1 F3720 X148.56 Y149.12 E127.72334
G1 X149.12 Y149.12 E127.74306
G1 X149.69 Y149.12 E127.76278
G1 X150.25 Y149.12 E127.78246
G1 X150.82 Y149.12 E127.80218
G1 X151.39 Y149.12 E127.82185
G1 X151.95 Y149.12 E127.84157
G1 X152.52 Y149.12 E127.86126
G1 X153.08 Y149.12 E127.88098
G1 X153.58 Y149.34 E127.89880
G0 F12000 X153.63 Y148.91
G1 F3720 X155.27 Y150.56 E127.97601
G0 F12000 X155.82 Y150.56
G1 F3720 X157.47 Y148.91 E128.05325
G0 F12000 X157.68 Y148.91
G1 F3720 X157.99 Y149.22 E128.06747
G0 F12000 X157.99 Y149.78
G1 F3720 X157.12 Y148.91 E128.10833
G0 F12000 X156.97 Y149.34
G1 F3720 X156.48 Y149.12 E128.12806
G1 X155.91 Y149.12 E128.14778
G1 X155.35 Y149.12 E128.16750
G1 X154.78 Y149.12 E128.18719
G1 X154.22 Y149.12 E128.20691
G1 X153.72 Y148.91 E128.22473
G0 F12000 X157.35 Y149.71
G1 F3720 X157.99 Y150.35 E128.25483
G0 F12000 X157.63 Y150.56
G1 F3720 X157.35 Y150.28 E128.26810
G0 F12000 X147.92 Y149.33
G1 F3720 X147.50 Y148.91 E128.28785
G0 F12000 X147.01 Y148.99
G1 F3720 X147.65 Y149.63 E128.31796
G0 F12000 X147.65 Y150.20
G1 F3720 X147.01 Y149.56 E128.34806
;LAYER:7
G0 F12000 X147.02 Y148.88 Z1.65
;TYPE:WALL-INNER
G1 F3480 X157.98 Y148.88 E128.71283
G1 X157.98 Y156.12 E128.95393
G1 X147.02 Y156.12 E129.31873
G1 X147.02 Y154.29 E129.37959
G1 X157.89 Y154.29 E129.74113
G1 X157.88 Y152.30 E129.80755
G1 X157.89 Y150.70 E129.86080
G1 X147.02 Y150.70 E130.22237
G1 X147.02 Y148.88 E130.28297
G0 F12000 X146.62 Y148.47
;TYPE:WALL-OUTER
G1 F3480 X158.38 Y148.48 E130.67434
G1 X158.38 Y156.53 E130.94205
G1 X146.62 Y156.53 E131.33346
G1 X146.62 Y148.47 E131.60120
G0 F12000 X146.83 Y148.78
G0 X147.27 Y150.80
G0 X147.27 Y151.10
G1 F3480 X147.27 Y153.90 E131.69426
G1 X157.49 Y153.90 E132.03395
G1 X157.49 Y151.10 E132.12701
G1 X147.27 Y151.10 E132.46666
G0 F12000 X147.07 Y151.32
;TYPE:FILL
G1 F3480 X146.94 Y151.74 E132.47876
G1 X146.94 Y152.30 E132.49084
G1 X146.94 Y152.87 E132.50293
G1 X146.94 Y153.43 E132.51503
G1 X146.81 Y153.84 E132.52935
G0 F12000 X147.36 Y154.43
G1 F3480 X147.16 Y154.64 E132.53890
G0 F12000 X147.16 Y155.20
G1 F3480 X147.80 Y154.56 E132.56903
G0 F12000 X147.79 Y155.13
G1 F3480 X147.16 Y155.77 E132.59913
G0 F12000 X147.50 Y155.98
G1 F3480 X148.00 Y155.77 E132.61892
G1 X148.56 Y155.77 E132.63865
G1 X149.13 Y155.77 E132.65837
G1 X149.69 Y155.77 E132.67809
G1 X150.26 Y155.77 E132.69777
G1 X150.83 Y155.77 E132.71749
G1 X151.32 Y155.56 E132.73534
G0 F12000 X151.27 Y155.98
G1 F3480 X149.72 Y154.43 E132.80825
G0 F12000 X150.40 Y155.98
G1 F3480 X151.95 Y154.43 E132.88116
G0 F12000 X151.88 Y155.56
G1 F3480 X151.75 Y155.98 E132.90086
G1 X152.52 Y155.77 E132.92058
G1 X153.09 Y155.77 E132.94030
G1 X153.65 Y155.77 E132.95999
G1 X154.22 Y155.77 E132.97970
G1 X154.79 Y155.77 E132.99942
G1 X155.35 Y155.77 E133.01911
G1 X155.92 Y155.77 E133.03883
G1 X156.48 Y155.77 E133.05855
G1 X156.98 Y155.56 E133.07637
G0 F12000 X157.20 Y155.34
G1 F3480 X157.84 Y154.70 E133.10647
G0 F12000 X157.54 Y154.43
G1 F3480 X157.20 Y154.77 E133.12235
G0 F12000 X157.84 Y155.26
G1 F3480 X157.12 Y155.98 E133.15629
G0 F12000 X157.69 Y155.98
G1 F3480 X157.84 Y155.83 E133.16360
G0 F12000 X157.83 Y150.76
G0 X157.46 Y150.56
G1 F3480 X157.84 Y150.17 E133.18164
G0 F12000 X157.84 Y149.61
G1 F3480 X157.20 Y150.25 E133.21170
G0 F12000 X157.20 Y149.68
G1 F3480 X157.84 Y149.04 E133.24175
G0 F12000 X157.37 Y149.01
G1 F3480 X155.82 Y150.56 E133.31426
G0 F12000 X155.27 Y150.56
G1 F3480 X153.73 Y149.01 E133.38674
G0 F12000 X153.91 Y149.01
G1 F3480 X153.41 Y149.22 E133.40656
G1 X152.85 Y149.22 E133.42629
G1 X152.28 Y149.22 E133.44606
G1 X151.72 Y149.22 E133.46583
G1 X151.15 Y149.22 E133.48556
G1 X150.59 Y149.22 E133.50534
G1 X150.02 Y149.22 E133.52515
G1 X149.46 Y149.22 E133.54492
G1 X148.89 Y149.22 E133.56469
G1 X148.32 Y149.22 E133.58451
G1 X147.83 Y149.44 E133.60237
G0 F12000 X147.80 Y149.47
G1 F3480 X147.16 Y150.11 E133.63250
G0 F12000 X147.16 Y149.80
G1 F3480 X147.94 Y149.01 E133.66943
G0 F12000 X147.69 Y149.01
G1 F3480 X147.16 Y149.55 E133.69445
G0 F12000 X147.79 Y150.04
G1 F3480 X147.12 Y150.72 E133.71880
G1 X146.81 Y151.02 E133.73296
G0 F12000 X146.92 Y151.02
G0 X146.93 Y150.76
G0 X154.05 Y149.44
G1 F3480 X154.55 Y149.22 E133.75270
G1 X155.11 Y149.22 E133.77238
G1 X155.68 Y149.22 E133.79210
G1 X156.24 Y149.22 E133.81182
G1 X156.81 Y149.22 E133.83151
G1 X157.30 Y149.01 E133.84933
;LAYER:8
G0 F12000 X157.84 Y148.98 Z1.85
;TYPE:WALL-INNER
G1 F3360 X157.84 Y150.70 E133.90657
G1 X147.16 Y150.70 E134.26176
G1 X147.16 Y148.97 E134.31903
G1 X157.84 Y148.98 E134.67421
G0 F12000 X157.84 Y154.29
G1 F3360 X157.84 Y156.03 E134.73175
G1 X147.16 Y156.03 E135.08697
G1 X147.16 Y154.29 E135.14451
G1 X157.84 Y154.29 E135.49973
G0 F12000 X157.62 Y153.90
;TYPE:WALL-OUTER
G1 F3360 X157.62 Y151.10 E135.59279
G1 X147.14 Y151.10 E135.94153
G1 X147.14 Y153.90 E136.03459
G1 X157.62 Y153.90 E136.38335
G0 F12000 X157.62 Y154.19
G0 X158.03 Y156.12
G0 X158.24 Y156.43
G1 F3360 X146.76 Y156.43 E136.76518
G1 X146.76 Y148.57 E137.02627
G1 X158.24 Y148.58 E137.40806
G1 X158.24 Y156.43 E137.66912
G0 F12000 X157.70 Y155.72
;TYPE:FILL
G1 F3360 X157.06 Y155.08 E137.69927
G0 F12000 X156.88 Y155.46
G1 F3360 X157.01 Y155.88 E137.71900
G1 X156.24 Y155.67 E137.73870
G1 X155.67 Y155.67 E137.75842
G1 X155.11 Y155.67 E137.77813
G1 X154.54 Y155.67 E137.79785
G1 X153.98 Y155.67 E137.81754
G1 X153.41 Y155.67 E137.83726
G1 X152.84 Y155.67 E137.85698
G1 X152.28 Y155.67 E137.87666
G1 X151.71 Y155.67 E137.89638
G1 X151.22 Y155.46 E137.91420
G0 F12000 X151.17 Y155.88
G1 F3360 X149.72 Y154.43 E137.98238
G0 F12000 X149.52 Y155.46
G1 F3360 X150.02 Y155.67 E138.00212
G1 X150.51 Y155.88 E138.01995
G0 F12000 X150.50 Y155.88
G1 F3360 X151.95 Y154.43 E138.08820
G0 F12000 X150.66 Y155.46
G1 F3360 X151.08 Y155.88 E138.10795
G0 F12000 X149.38 Y155.88
G1 F3360 X148.89 Y155.67 E138.12769
G1 X148.39 Y155.46 E138.14551
G0 F12000 X148.25 Y155.88
G1 F3360 X147.30 Y154.94 E138.19011
G0 F12000 X147.36 Y154.43
G1 F3360 X147.94 Y155.01 E138.21725
G0 F12000 X147.30 Y155.50
G1 F3360 X147.68 Y155.88 E138.23526
G0 F12000 X157.96 Y154.24
G0 X157.96 Y150.76
G0 X147.44 Y150.56
G1 F3360 X147.30 Y150.41 E138.24208
G0 F12000 X147.30 Y149.84
G1 F3360 X147.94 Y150.49 E138.27228
G0 F12000 X147.94 Y149.92
G1 F3360 X147.30 Y149.28 E138.30248
G0 F12000 X147.30 Y149.65
G1 F3360 X147.77 Y149.11 E138.32783
G1 X148.19 Y149.32 E138.34757
G1 X148.76 Y149.32 E138.36729
G1 X149.32 Y149.32 E138.38701
G1 X149.89 Y149.32 E138.40669
G1 X150.46 Y149.32 E138.42641
G1 X151.02 Y149.32 E138.44613
G1 X151.59 Y149.32 E138.46581
G1 X152.15 Y149.32 E138.48553
G1 X152.72 Y149.32 E138.50525
G1 X153.28 Y149.32 E138.52497
G1 X153.78 Y149.53 E138.54279
G0 F12000 X153.83 Y149.12
G1 F3360 X155.27 Y150.56 E138.61060
G0 F12000 X155.82 Y150.56
G1 F3360 X157.27 Y149.11 E138.67843
G0 F12000 X157.32 Y149.12
G1 F3360 X157.70 Y149.50 E138.69632
G0 F12000 X157.70 Y150.06
G1 F3360 X156.75 Y149.12 E138.74082
G0 F12000 X156.61 Y149.53
G1 F3360 X156.11 Y149.32 E138.76056
G1 X155.55 Y149.32 E138.78028
G1 X154.98 Y149.32 E138.79996
G1 X154.42 Y149.32 E138.81968
G1 X153.92 Y149.12 E138.83751
G0 F12000 X157.06 Y149.99
G1 F3360 X157.63 Y150.56 E138.86427
G0 F12000 X157.95 Y150.88
G1 F3360 X157.93 Y151.14 E138.86852
G1 X157.93 Y151.71 E138.87873
G1 X157.93 Y152.27 E138.88894
G1 X157.93 Y152.84 E138.89918
G1 X157.93 Y153.40 E138.90940
G1 X158.04 Y153.80 E138.92293
G0 F12000 X157.55 Y154.43
G1 F3360 X157.70 Y154.59 E138.93015
G0 F12000 X157.70 Y155.15
G1 F3360 X157.06 Y154.51 E138.96028
;LAYER:9
G0 F12000 X157.70 Y154.29 Z2.05
;TYPE:WALL-INNER
G1 F3120 X157.70 Y155.93 E139.01449
G1 X147.30 Y155.93 E139.36013
G1 X147.30 Y154.29 E139.41434
G1 X157.70 Y154.29 E139.75998
G1 F2400 E138.55998
G0 F12000 X157.69 Y150.70
G1 F2400 E139.75998
G1 F3120 X147.30 Y150.70 E140.10559
G1 X147.30 Y149.07 E140.15954
G1 X157.69 Y149.08 E140.50514
G1 X157.69 Y150.70 E140.55906
G0 F12000 X157.75 Y151.10
;TYPE:WALL-OUTER
G1 F3120 X147.02 Y151.10 E140.91624
G1 X147.01 Y153.90 E141.00930
G1 X157.75 Y153.90 E141.36625
G1 X157.75 Y151.33 E141.45156
G1 X157.75 Y151.10 E141.45931
G0 F12000 X157.75 Y150.80
G0 X157.88 Y148.97
G0 X158.09 Y148.68
G1 F3120 X158.10 Y156.32 E141.71372
G1 X146.90 Y156.32 E142.08597
G1 X146.90 Y148.68 E142.34041
G1 X158.09 Y148.68 E142.71262
G0 F12000 X157.55 Y149.33
;TYPE:FILL
G1 F3120 X156.91 Y149.97 E142.74268
G0 F12000 X156.68 Y149.63
G1 F3120 X157.10 Y149.22 E142.76246
G0 F12000 X157.17 Y149.22
G1 F3120 X155.82 Y150.56 E142.82558
G0 F12000 X155.27 Y150.56
G1 F3120 X153.93 Y149.22 E142.88866
G0 F12000 X153.71 Y149.22
G1 F3120 X153.22 Y149.43 E142.90843
G1 X152.65 Y149.43 E142.92812
G1 X152.09 Y149.42 E142.94785
G1 X151.52 Y149.42 E142.96766
G1 X150.95 Y149.42 E142.98747
G1 X150.39 Y149.42 E143.00725
G1 X149.82 Y149.42 E143.02707
G1 X149.26 Y149.42 E143.04688
G1 X148.69 Y149.42 E143.06665
G1 X148.20 Y149.63 E143.08448
G0 F12000 X148.09 Y149.75
G1 F3120 X147.44 Y150.39 E143.11466
G0 F12000 X147.84 Y150.56
G1 F3120 X148.09 Y150.31 E143.12609
G0 F12000 X147.44 Y149.82
G1 F3120 X148.05 Y149.21 E143.15476
G0 F12000 X147.74 Y149.21
G1 F3120 X147.44 Y149.51 E143.16873
G1 F2400 E141.96873
G0 F12000 X147.92 Y154.43
G1 F2400 E143.16873
G1 F3120 X147.44 Y154.91 E143.19130
G0 F12000 X147.44 Y155.48
G1 F3120 X148.08 Y154.84 E143.22138
G0 F12000 X148.13 Y155.36
G1 F3120 X147.99 Y155.78 E143.24112
G1 X148.76 Y155.57 E143.26082
G1 X149.33 Y155.57 E143.28054
G1 X149.90 Y155.57 E143.30026
G1 X150.46 Y155.57 E143.31994
G1 X150.95 Y155.36 E143.33780
G0 F12000 X151.07 Y155.78
G1 F3120 X149.72 Y154.43 E143.40127
G0 F12000 X150.60 Y155.78
G1 F3120 X151.95 Y154.43 E143.46480
G0 F12000 X152.09 Y155.36
G1 F3120 X151.59 Y155.57 E143.48454
G1 X151.10 Y155.78 E143.50236
G0 F12000 X152.23 Y155.78
G1 F3120 X152.72 Y155.57 E143.52214
G1 X153.29 Y155.57 E143.54186
G1 X153.85 Y155.57 E143.56155
G1 X154.42 Y155.57 E143.58127
G1 X154.99 Y155.57 E143.60098
G1 X155.55 Y155.57 E143.62070
G1 X156.12 Y155.57 E143.64039
G1 X156.61 Y155.36 E143.65824
G0 F12000 X156.91 Y155.06
G1 F3120 X157.54 Y154.43 E143.68769
G0 F12000 X157.55 Y154.99
G1 F3120 X156.76 Y155.78 E143.72522
G0 F12000 X157.32 Y155.78
G1 F3120 X157.55 Y155.55 E143.73614
G0 F12000 X156.91 Y154.49
G1 F3120 X156.97 Y154.43 E143.73893
G1 F2400 E142.53893
G0 F12000 X156.91 Y150.53
G1 F2400 E143.73893
G1 F3120 X157.55 Y149.90 E143.76899
G0 F12000 X157.55 Y150.46
G1 F3120 X157.46 Y150.56 E143.77348
G0 F12000 X157.46 Y150.80
G0 X156.12 Y148.97
G0 X156.12 Y149.63
G1 F3120 X156.25 Y149.22 E143.79321
G1 X155.48 Y149.43 E143.81293
G1 X154.91 Y149.43 E143.83265
G1 X154.35 Y149.43 E143.85233
G1 X153.85 Y149.63 E143.87016
;LAYER:10
G0 F12000 X153.85 Y149.07 Z2.25
G0 X157.65 Y149.18
G0 X157.55 Y149.18
;TYPE:WALL-INNER
G1 F2940 X157.55 Y150.70 E143.92074
G1 X147.45 Y150.70 E144.25677
G1 X147.45 Y149.18 E144.30739
G1 X157.55 Y149.18 E144.64342
G1 F2400 E143.44342
G0 F12000 X157.55 Y154.29
G1 F2400 E144.64342
G1 F2940 X157.55 Y155.82 E144.69431
G1 X147.45 Y155.82 E145.03037
G1 X147.45 Y154.29 E145.08126
G1 X157.55 Y154.29 E145.41732
G0 F12000 X157.86 Y153.90
;TYPE:WALL-OUTER
G1 F2940 X157.86 Y151.10 E145.51038
G1 X147.05 Y151.10 E145.86989
G1 X147.05 Y148.78 E145.94712
G1 X157.95 Y148.78 E146.30975
G1 X157.95 Y156.22 E146.55751
G1 X147.05 Y156.22 E146.92018
G1 X147.05 Y153.90 E146.99767
G1 X157.86 Y153.90 E147.35718
G0 F12000 X156.98 Y154.43
;TYPE:FILL
G1 F2940 X157.41 Y154.87 E147.37748
G0 F12000 X157.41 Y155.43
G1 F2940 X156.77 Y154.79 E147.40763
G0 F12000 X156.68 Y155.26
G1 F2940 X156.81 Y155.68 E147.42735
G1 X156.04 Y155.47 E147.44707
G1 X155.47 Y155.47 E147.46676
G1 X154.91 Y155.47 E147.48648
G1 X154.34 Y155.47 E147.50620
G1 X153.78 Y155.47 E147.52588
G1 X153.21 Y155.47 E147.54560
G1 X152.65 Y155.47 E147.56532
G1 X152.08 Y155.47 E147.58501
G1 X151.51 Y155.47 E147.60472
G1 X151.02 Y155.26 E147.62255
G0 F12000 X150.97 Y155.68
G1 F2940 X149.72 Y154.43 E147.68132
G0 F12000 X149.89 Y155.26
G1 F2940 X150.31 Y155.68 E147.70108
G0 F12000 X150.70 Y155.69
G1 F2940 X151.95 Y154.43 E147.75992
G0 F12000 X150.88 Y155.68
G1 F2940 X150.46 Y155.26 E147.77967
G0 F12000 X149.74 Y155.68
G1 F2940 X149.25 Y155.47 E147.79941
G1 X148.76 Y155.26 E147.81721
G0 F12000 X148.61 Y155.68
G1 F2940 X147.59 Y154.66 E147.86542
G0 F12000 X147.93 Y154.43
G1 F2940 X148.23 Y154.73 E147.87953
G0 F12000 X147.59 Y155.22
G1 F2940 X148.05 Y155.68 E147.90114
G1 F2400 E146.70114
G0 F12000 X148.01 Y150.56
G1 F2400 E147.90114
G1 F2940 X147.59 Y150.13 E147.92102
G0 F12000 X147.59 Y149.57
G1 F2940 X148.23 Y150.21 E147.95119
G0 F12000 X148.32 Y149.74
G1 F2940 X148.18 Y149.31 E147.97089
G1 X148.96 Y149.53 E147.99061
G1 X149.53 Y149.53 E148.01033
G1 X150.09 Y149.53 E148.03005
G1 X150.66 Y149.53 E148.04974
G1 X151.22 Y149.53 E148.06946
G1 X151.79 Y149.53 E148.08918
G1 X152.35 Y149.53 E148.10886
G1 X152.92 Y149.53 E148.12858
G1 X153.49 Y149.53 E148.14830
G1 X153.98 Y149.74 E148.16612
G0 F12000 X154.03 Y149.31
G1 F2940 X155.27 Y150.56 E148.22449
G0 F12000 X155.82 Y150.56
G1 F2940 X157.07 Y149.31 E148.28294
G0 F12000 X156.95 Y149.31
G1 F2940 X157.41 Y149.77 E148.30448
G0 F12000 X157.41 Y150.34
G1 F2940 X156.39 Y149.31 E148.35265
G0 F12000 X156.24 Y149.74
G1 F2940 X155.75 Y149.53 E148.37239
G1 X155.18 Y149.53 E148.39207
G1 X154.62 Y149.53 E148.41179
G1 X154.12 Y149.31 E148.42961
G0 F12000 X154.12 Y149.07
G0 X156.77 Y150.80
G0 X156.77 Y150.26
G1 F2940 X157.06 Y150.56 E148.44339
;LAYER:11
G0 F12000 X157.41 Y150.70 Z2.45
;TYPE:WALL-INNER
G1 F2700 X147.59 Y150.70 E148.76984
G1 X147.59 Y149.28 E148.81714
G1 X157.41 Y149.28 E149.14359
G1 X157.41 Y150.70 E149.19085
G1 F2400 E147.99085
G0 F12000 X157.41 Y154.29
G1 F2400 E149.19085
G1 F2700 X157.41 Y155.72 E149.23841
G1 X147.59 Y155.72 E149.56489
G1 X147.59 Y154.29 E149.61245
G1 X157.41 Y154.29 E149.93890
G0 F12000 X157.81 Y153.90
;TYPE:WALL-OUTER
G1 F2700 X157.81 Y156.12 E150.01307
G1 X147.19 Y156.12 E150.36616
G1 X147.19 Y153.90 E150.44033
G1 X157.81 Y153.90 E150.79342
G1 F2400 E149.59342
G0 F12000 X157.81 Y151.10
G1 F2400 E150.79342
G1 F2700 X147.19 Y151.10 E151.14648
G1 X147.19 Y148.88 E151.22038
G1 X157.81 Y148.88 E151.57344
G1 X157.81 Y151.10 E151.64731
G0 F12000 X157.27 Y150.18
;TYPE:FILL
G1 F2700 X156.89 Y150.56 E151.66490
G0 F12000 X156.63 Y150.26
G1 F2700 X157.27 Y149.62 E151.69501
G0 F12000 X156.97 Y149.41
G1 F2700 X155.82 Y150.56 E151.74872
G0 F12000 X155.27 Y150.56
G1 F2700 X154.13 Y149.41 E151.80239
G0 F12000 X154.07 Y149.41
G1 F2700 X153.58 Y149.62 E151.82221
G1 X153.01 Y149.62 E151.84202
G1 X152.45 Y149.62 E151.86180
G1 X151.88 Y149.62 E151.88157
G1 X151.32 Y149.62 E151.90135
G1 X150.75 Y149.62 E151.92116
G1 X150.19 Y149.62 E151.94093
G1 X149.62 Y149.62 E151.96070
G1 X149.06 Y149.62 E151.98052
G1 X148.47 Y149.93 E152.00028
G1 X147.84 Y150.56 E152.02970
G0 F12000 X147.73 Y150.10
G1 F2700 X148.42 Y149.41 E152.06199
G0 F12000 X147.85 Y149.41
G1 F2700 X147.73 Y149.53 E152.06768
G1 F2400 E150.86768
G0 F12000 X147.92 Y154.43
G1 F2400 E152.06768
G1 F2700 X147.73 Y154.63 E152.07671
G0 F12000 X147.73 Y155.19
G1 F2700 X148.37 Y154.55 E152.10681
G0 F12000 X148.37 Y155.12
G1 F2700 X148.19 Y155.58 E152.12873
G1 X148.96 Y155.37 E152.14843
G1 X149.53 Y155.37 E152.16820
G1 X150.09 Y155.37 E152.18796
G1 X150.66 Y155.37 E152.20769
G1 X151.23 Y155.37 E152.22746
G1 X151.79 Y155.37 E152.24723
G1 X152.36 Y155.37 E152.26699
G1 X152.92 Y155.37 E152.28672
G1 X153.49 Y155.37 E152.30649
G1 X154.06 Y155.37 E152.32626
G1 X154.62 Y155.37 E152.34599
G1 X155.19 Y155.37 E152.36576
G1 X155.75 Y155.37 E152.38552
G1 X156.25 Y155.16 E152.40335
G0 F12000 X156.39 Y155.58
G1 F2700 X157.27 Y154.71 E152.44453
G0 F12000 X156.97 Y154.43
G1 F2700 X156.63 Y154.78 E152.46090
G0 F12000 X157.27 Y155.27
G1 F2700 X156.96 Y155.58 E152.47548
G0 F12000 X151.95 Y154.43
G1 F2700 X150.80 Y155.58 E152.52959
G0 F12000 X150.87 Y155.58
G1 F2700 X149.72 Y154.43 E152.58364
G1 F2400 E151.38364
G0 F12000 X154.22 Y149.84
G1 F2400 E152.58364
G1 F2700 X154.71 Y149.62 E152.60344
G1 X155.28 Y149.62 E152.62325
G1 X155.84 Y149.62 E152.64306
G1 X156.41 Y149.62 E152.66284
G1 X156.90 Y149.41 E152.68070
;LAYER:12
G0 F12000 X157.26 Y149.38 Z2.65
;TYPE:WALL-INNER
G1 F2580 X157.26 Y150.70 E152.72463
G1 X147.74 Y150.70 E153.04150
G1 X147.74 Y149.38 E153.08544
G1 X157.26 Y149.38 E153.40227
G1 F2400 E152.20227
G0 F12000 X157.26 Y154.29
G1 F2400 E153.40227
G1 F2580 X157.26 Y155.62 E153.44651
G1 X147.74 Y155.62 E153.76341
G1 X147.74 Y154.29 E153.80765
G1 X157.26 Y154.29 E154.12448
G0 F12000 X157.66 Y153.90
;TYPE:WALL-OUTER
G1 F2580 X157.66 Y156.03 E154.19533
G1 X147.34 Y156.03 E154.53884
G1 X147.34 Y153.90 E154.60968
G1 X157.66 Y153.90 E154.95313
G1 F2400 E153.75313
G0 F12000 X157.66 Y151.10
G1 F2400 E154.95313
G1 F2580 X147.34 Y151.10 E155.29660
G1 X147.34 Y148.98 E155.36715
G1 X157.66 Y148.98 E155.71059
G1 X157.66 Y151.10 E155.78114
G0 F12000 X157.06 Y150.56
;TYPE:FILL
G1 F2580 X156.48 Y149.98 E155.80844
G0 F12000 X156.44 Y149.94
G1 F2580 X155.95 Y149.72 E155.82818
G1 X155.38 Y149.72 E155.84785
G1 X154.82 Y149.72 E155.86753
G1 X154.32 Y149.52 E155.88531
G0 F12000 X154.23 Y149.52
G1 F2580 X155.27 Y150.56 E155.93425
G0 F12000 X155.82 Y150.56
G1 F2580 X156.87 Y149.51 E155.98324
G0 F12000 X156.59 Y149.52
G1 F2580 X157.12 Y150.05 E156.00835
G0 F12000 X157.36 Y150.05
G0 X154.18 Y149.28
G0 X154.18 Y149.94
G1 F2580 X153.69 Y149.72 E156.02809
G1 X153.12 Y149.72 E156.04777
G1 X152.55 Y149.72 E156.06745
G1 X151.99 Y149.72 E156.08717
G1 X151.42 Y149.72 E156.10689
G1 X150.86 Y149.72 E156.12661
G1 X150.29 Y149.72 E156.14629
G1 X149.72 Y149.72 E156.16601
G1 X149.16 Y149.72 E156.18573
G1 X148.59 Y149.72 E156.20542
G1 X148.10 Y149.51 E156.22324
G0 F12000 X147.88 Y149.86
G1 F2580 X148.52 Y150.50 E156.25339
G0 F12000 X148.01 Y150.56
G1 F2580 X147.88 Y150.42 E156.25972
G1 F2400 E155.05972
G0 F12000 X147.93 Y154.43
G1 F2400 E156.25972
G1 F2580 X148.52 Y155.02 E156.28740
G0 F12000 X148.56 Y155.06
G1 F2580 X149.05 Y155.27 E156.30714
G1 X149.62 Y155.27 E156.32686
G1 X150.18 Y155.27 E156.34654
G1 X150.68 Y155.48 E156.36436
G0 F12000 X150.77 Y155.48
G1 F2580 X149.72 Y154.43 E156.41373
G0 F12000 X150.82 Y155.06
G1 F2580 X151.24 Y155.48 E156.43348
G0 F12000 X150.90 Y155.49
G1 F2580 X151.95 Y154.43 E156.48292
G0 F12000 X151.95 Y155.06
G1 F2580 X152.44 Y155.27 E156.50267
G1 X153.01 Y155.27 E156.52239
G1 X153.58 Y155.27 E156.54211
G1 X154.14 Y155.27 E156.56179
G1 X154.71 Y155.27 E156.58151
G1 X155.27 Y155.27 E156.60123
G1 X155.84 Y155.27 E156.62092
G1 X156.41 Y155.27 E156.64064
G1 X156.90 Y155.48 E156.65846
G0 F12000 X157.12 Y155.14
G1 F2580 X156.48 Y154.50 E156.68856
G0 F12000 X156.98 Y154.43
G1 F2580 X157.12 Y154.58 E156.69527
G0 F12000 X151.81 Y155.48
G1 F2580 X151.39 Y155.06 E156.71502
G0 F12000 X148.41 Y155.48
G1 F2580 X147.88 Y154.95 E156.74033
;LAYER:13
G0 F12000 X147.88 Y155.53 Z2.85
;TYPE:WALL-INNER
G1 F2400 X147.88 Y154.29 E156.78124
G1 X157.12 Y154.29 E157.08853
G1 X157.12 Y155.52 E157.12940
G1 X147.88 Y155.53 E157.43669
G0 F12000 X147.48 Y155.93
;TYPE:WALL-OUTER
G1 F2400 X147.48 Y153.90 E157.50421
G1 X157.52 Y153.90 E157.83811
G1 X157.52 Y155.92 E157.90560
G1 X147.48 Y155.93 E158.23949
G0 F12000 X148.11 Y155.38
;TYPE:FILL
G1 F2400 X148.57 Y154.63 E158.26548
G1 X148.02 Y154.90 E158.28603
G0 F12000 X148.67 Y155.38
G1 F2400 X149.16 Y155.17 E158.30578
G1 X149.73 Y155.17 E158.32549
G1 X150.30 Y155.17 E158.34521
G1 X150.79 Y154.96 E158.36304
G0 F12000 X150.67 Y155.38
G1 F2400 X149.72 Y154.43 E158.40767
G0 F12000 X150.93 Y155.38
G1 F2400 X151.43 Y155.17 E158.42741
G1 X151.99 Y155.17 E158.44713
G1 X152.56 Y155.17 E158.46682
G1 X153.12 Y155.17 E158.48654
G1 X153.69 Y155.17 E158.50626
G1 X154.25 Y155.17 E158.52594
G1 X154.82 Y155.17 E158.54566
G1 X155.39 Y155.17 E158.56538
G1 X155.88 Y154.96 E158.58320
G0 F12000 X156.03 Y155.38
G1 F2400 X156.97 Y154.43 E158.62784
G0 F12000 X156.98 Y155.00
G1 F2400 X156.59 Y155.38 E158.64600
G0 F12000 X156.34 Y154.50
G1 F2400 X156.41 Y154.43 E158.64929
G0 F12000 X151.95 Y154.43
G1 F2400 X151.00 Y155.38 E158.69395
G1 F2400 E157.49395
G0 F12000 X147.88 Y150.70
;TYPE:WALL-INNER
G1 F2400 E158.69395
G1 X147.88 Y149.48 E158.73456
G1 X157.12 Y149.48 E159.04182
G1 X157.12 Y150.70 E159.08243
G1 X147.88 Y150.70 E159.38969
G0 F12000 X147.48 Y151.10
;TYPE:WALL-OUTER
G1 F2400 X147.48 Y149.08 E159.45691
G1 X157.52 Y149.08 E159.79077
G1 X157.52 Y151.10 E159.85799
G1 X147.48 Y151.10 E160.19185
G0 F12000 X148.02 Y150.38
;TYPE:FILL
G1 F2400 X148.78 Y149.62 E160.22770
G0 F12000 X148.93 Y150.04
G1 F2400 X149.42 Y149.82 E160.24749
G1 X149.99 Y149.82 E160.26726
G1 X150.55 Y149.82 E160.28699
G1 X151.12 Y149.82 E160.30676
G1 X151.68 Y149.82 E160.32653
G1 X152.25 Y149.82 E160.34626
G1 X152.81 Y149.82 E160.36602
G1 X153.38 Y149.82 E160.38579
G1 X153.95 Y149.82 E160.40552
G1 X154.44 Y149.62 E160.42338
G0 F12000 X154.33 Y149.62
G1 F2400 X155.27 Y150.56 E160.46761
G0 F12000 X155.15 Y150.04
G1 F2400 X155.64 Y149.82 E160.48738
G1 X156.21 Y149.82 E160.50714
G1 X156.70 Y149.62 E160.52500
G0 F12000 X156.77 Y149.62
G1 F2400 X155.82 Y150.56 E160.56926
G0 F12000 X156.34 Y150.54
G1 F2400 X156.98 Y149.91 E160.59936
G0 F12000 X156.98 Y150.47
G1 F2400 X156.89 Y150.56 E160.60341
G0 F12000 X155.01 Y149.62
G1 F2400 X154.59 Y150.04 E160.62321
G0 F12000 X148.66 Y150.30
G1 F2400 X148.41 Y150.56 E160.63511
G0 F12000 X148.02 Y149.81
G1 F2400 X148.22 Y149.62 E160.64435
;LAYER:14
G0 F12000 X148.03 Y149.58 Z3.05
;TYPE:WALL-INNER
G1 F2280 X156.97 Y149.58 E160.94203
G1 X156.97 Y150.70 E160.97932
G1 X148.03 Y150.70 E161.27699
G1 X148.03 Y149.58 E161.31428
G0 F12000 X147.62 Y149.18
;TYPE:WALL-OUTER
G1 F2280 X157.38 Y149.18 E161.63857
G1 X157.38 Y151.10 E161.70246
G1 X147.62 Y151.10 E162.02674
G1 X147.62 Y149.18 E162.09064
G0 F12000 X148.30 Y149.72
;TYPE:FILL
G1 F2280 X148.69 Y150.39 E162.11433
G1 X148.16 Y150.14 E162.13357
G0 F12000 X148.87 Y149.72
G1 F2280 X149.36 Y149.93 E162.15332
G1 X149.93 Y149.93 E162.17304
G1 X150.49 Y149.93 E162.19276
G1 X151.06 Y149.93 E162.21245
G1 X151.62 Y149.93 E162.23217
G1 X152.19 Y149.93 E162.25189
G1 X152.75 Y149.93 E162.27161
G1 X153.32 Y149.93 E162.29132
G1 X153.88 Y149.93 E162.31101
G1 X154.38 Y150.13 E162.32883
G0 F12000 X154.43 Y149.72
G1 F2280 X155.27 Y150.56 E162.36837
G0 F12000 X155.51 Y150.13
G1 F2280 X155.02 Y149.93 E162.38807
G1 X154.52 Y149.72 E162.40588
G0 F12000 X155.66 Y149.72
G1 F2280 X156.13 Y150.19 E162.42555
G1 X156.50 Y150.56 E162.44258
G0 F12000 X156.83 Y150.33
G1 F2280 X156.22 Y149.72 E162.47139
G0 F12000 X156.67 Y149.72
G1 F2280 X155.82 Y150.56 E162.51095
G1 F2400 E161.31095
G0 F12000 X156.98 Y154.29
;TYPE:WALL-INNER
G1 F2400 E162.51095
G1 F2280 X156.97 Y155.42 E162.54850
G1 X148.02 Y155.43 E162.84621
G1 X148.03 Y154.29 E162.88380
G1 X156.98 Y154.29 E163.18151
G0 F12000 X157.38 Y153.90
;TYPE:WALL-OUTER
G1 F2280 X157.38 Y155.82 E163.24567
G1 X147.62 Y155.82 E163.56999
G1 X147.62 Y153.90 E163.63418
G1 X157.38 Y153.90 E163.95850
G0 F12000 X156.83 Y154.85
;TYPE:FILL
G1 F2280 X156.30 Y154.61 E163.97824
G1 X156.41 Y155.28 E164.00191
G1 X155.64 Y155.07 E164.02163
G1 X155.07 Y155.07 E164.04132
G1 X154.51 Y155.07 E164.06103
G1 X153.94 Y155.07 E164.08075
G1 X153.38 Y155.07 E164.10047
G1 X152.81 Y155.07 E164.12016
G1 X152.25 Y155.07 E164.13988
G1 X151.68 Y155.07 E164.15960
G1 X151.19 Y154.86 E164.17739
G0 F12000 X151.10 Y155.28
G1 F2280 X151.95 Y154.43 E164.21737
G0 F12000 X151.04 Y155.28
G1 F2280 X150.62 Y154.86 E164.23713
G0 F12000 X150.57 Y155.28
G1 F2280 X149.72 Y154.43 E164.27708
G0 F12000 X149.49 Y154.86
G1 F2280 X149.98 Y155.07 E164.29683
G1 X150.47 Y155.28 E164.31466
G0 F12000 X149.34 Y155.28
G1 F2280 X148.86 Y154.80 E164.33436
G1 X148.50 Y154.43 E164.35174
G0 F12000 X148.16 Y154.67
G1 F2280 X148.78 Y155.28 E164.38064
;LAYER:15
G0 F12000 X148.17 Y155.32 Z3.25
;TYPE:WALL-INNER
G1 F2220 X148.17 Y154.29 E164.41490
G1 X156.83 Y154.29 E164.70303
G1 X156.83 Y155.32 E164.73725
G1 X148.17 Y155.32 E165.02539
G0 F12000 X147.77 Y155.72
;TYPE:WALL-OUTER
G1 F2220 X147.77 Y153.90 E165.08625
G1 X157.23 Y153.90 E165.40099
G1 X157.23 Y155.72 E165.46183
G1 X147.77 Y155.72 E165.77657
G0 F12000 X148.31 Y155.18
;TYPE:FILL
G1 F2220 X148.95 Y154.54 E165.80662
G0 F12000 X149.29 Y154.76
G1 F2220 X149.15 Y155.18 E165.82633
G1 X149.86 Y154.76 E165.85356
G0 F12000 X149.72 Y154.43
G1 F2220 X150.47 Y155.18 E165.88880
G0 F12000 X150.57 Y155.18
G1 F2220 X151.06 Y154.97 E165.90854
G1 X151.63 Y154.97 E165.92826
G1 X152.12 Y154.76 E165.94609
G0 F12000 X151.95 Y154.43
G1 F2220 X151.20 Y155.18 E165.98134
G0 F12000 X150.42 Y154.76
G1 F2220 X150.00 Y155.18 E166.00110
G0 F12000 X148.49 Y154.43
G1 F2220 X148.31 Y154.62 E166.00961
G0 F12000 X152.27 Y155.18
G1 F2220 X152.76 Y154.97 E166.02936
G1 X153.32 Y154.97 E166.04908
G1 X153.89 Y154.97 E166.06880
G1 X154.46 Y154.97 E166.08848
G1 X155.02 Y154.97 E166.10820
G1 X155.51 Y154.76 E166.12603
G0 F12000 X155.66 Y155.18
G1 F2220 X156.41 Y154.43 E166.16126
G0 F12000 X156.69 Y154.72
G1 F2220 X156.23 Y155.18 E166.18308
G1 F2400 E164.98308
G0 F12000 X156.83 Y150.70
;TYPE:WALL-INNER
G1 F2400 E166.18308
G1 F2220 X148.17 Y150.70 E166.47118
G1 X148.17 Y149.68 E166.50514
G1 X156.83 Y149.68 E166.79324
G1 X156.83 Y150.70 E166.82720
G0 F12000 X157.23 Y151.10
;TYPE:WALL-OUTER
G1 F2220 X147.77 Y151.10 E167.14190
G1 X147.77 Y149.28 E167.20247
G1 X157.23 Y149.28 E167.51718
G1 X157.23 Y151.10 E167.57775
G0 F12000 X156.33 Y150.56
;TYPE:FILL
G1 F2220 X156.69 Y150.19 E167.59484
G0 F12000 X156.57 Y149.81
G1 F2220 X155.82 Y150.56 E167.62972
G0 F12000 X156.05 Y150.27
G1 F2220 X156.22 Y149.81 E167.65102
G1 X155.52 Y150.24 E167.67830
G0 F12000 X155.27 Y150.56
G1 F2220 X154.53 Y149.82 E167.71313
G0 F12000 X154.81 Y149.81
G1 F2220 X154.31 Y150.03 E167.73295
G1 X153.75 Y150.03 E167.75272
G1 X153.18 Y150.03 E167.77245
G1 X152.62 Y150.03 E167.79221
G1 X152.05 Y150.03 E167.81198
G1 X151.48 Y150.03 E167.83171
G1 X150.92 Y150.03 E167.85148
G1 X150.35 Y150.03 E167.87125
G1 X149.79 Y150.03 E167.89102
G1 X149.29 Y150.24 E167.90886
G0 F12000 X149.15 Y149.81
G1 F2220 X148.41 Y150.56 E167.94371
G0 F12000 X148.31 Y150.09
G1 F2220 X148.58 Y149.81 E167.95660
G0 F12000 X154.95 Y150.24
G1 F2220 X155.37 Y149.81 E167.97638
;LAYER:16
G0 F12000 X156.69 Y149.78 Z3.45
;TYPE:WALL-INNER
G1 F2160 X156.69 Y150.70 E168.00701
G1 X148.31 Y150.70 E168.28553
G1 X148.31 Y149.78 E168.31617
G1 X156.69 Y149.78 E168.59469
G0 F12000 X157.09 Y149.38
;TYPE:WALL-OUTER
G1 F2160 X157.09 Y151.10 E168.65193
G1 X147.91 Y151.10 E168.95706
G1 X147.91 Y149.38 E169.01430
G1 X157.09 Y149.38 E169.31943
G0 F12000 X156.47 Y149.91
;TYPE:FILL
G1 F2160 X155.82 Y150.56 E169.34960
G0 F12000 X155.71 Y150.34
G1 F2160 X155.22 Y150.12 E169.36929
G1 X154.72 Y149.92 E169.38707
G0 F12000 X154.63 Y149.92
G1 F2160 X155.27 Y150.56 E169.41718
G0 F12000 X154.58 Y150.34
G1 F2160 X154.09 Y150.12 E169.43684
G1 X153.52 Y150.12 E169.45651
G1 X152.95 Y150.12 E169.47618
G1 X152.39 Y150.12 E169.49587
G1 X151.82 Y150.12 E169.51559
G1 X151.26 Y150.12 E169.53531
G1 X150.69 Y150.12 E169.55503
G1 X150.12 Y150.12 E169.57471
G1 X149.56 Y150.12 E169.59443
G1 X149.07 Y149.91 E169.61222
G0 F12000 X148.50 Y149.91
G1 F2160 X149.09 Y150.51 E169.64011
G0 F12000 X148.57 Y150.56
G1 F2160 X148.45 Y150.43 E169.64590
G0 F12000 X155.86 Y149.92
G1 F2160 X156.50 Y150.56 E169.67600
G0 F12000 X156.55 Y150.04
G1 F2160 X156.42 Y149.92 E169.68186
G1 F2400 E168.48186
G0 F12000 X156.69 Y154.29
;TYPE:WALL-INNER
G1 F2400 E169.68186
G1 F2160 X156.69 Y155.22 E169.71276
G1 X148.31 Y155.22 E169.99131
G1 X148.31 Y154.29 E170.02224
G1 X156.69 Y154.29 E170.30080
G0 F12000 X157.09 Y153.90
;TYPE:WALL-OUTER
G1 F2160 X157.09 Y155.62 E170.35830
G1 X147.91 Y155.62 E170.66347
G1 X147.91 Y153.90 E170.72101
G1 X157.09 Y153.90 E171.02617
G0 F12000 X156.55 Y154.57
;TYPE:FILL
G1 F2160 X156.41 Y154.43 E171.03242
G0 F12000 X155.91 Y154.49
G1 F2160 X156.50 Y155.08 E171.06027
G0 F12000 X155.93 Y155.08
G1 F2160 X155.44 Y154.87 E171.08001
G1 X154.87 Y154.87 E171.09973
G1 X154.31 Y154.87 E171.11941
G1 X153.74 Y154.87 E171.13913
G1 X153.18 Y154.87 E171.15885
G1 X152.61 Y154.87 E171.17854
G1 X152.12 Y154.66 E171.19636
G0 F12000 X151.95 Y154.43
G1 F2160 X151.30 Y155.08 E171.22696
G0 F12000 X151.41 Y155.08
G1 F2160 X150.91 Y154.87 E171.24670
G1 X150.42 Y154.66 E171.26452
G0 F12000 X150.37 Y155.08
G1 F2160 X149.72 Y154.43 E171.29507
G0 F12000 X149.85 Y154.66
G1 F2160 X149.99 Y155.08 E171.31480
G1 X149.29 Y154.66 E171.34200
G0 F12000 X149.14 Y155.08
G1 F2160 X148.49 Y154.43 E171.37258
G0 F12000 X148.45 Y154.96
G1 F2160 X148.58 Y155.08 E171.37853
G0 F12000 X151.55 Y154.66
G1 F2160 X151.97 Y155.08 E171.39828
;LAYER:17
G0 F12000 X148.46 Y155.12 Z3.65
;TYPE:WALL-INNER
G1 F1980 X148.46 Y154.29 E171.42589
G1 X156.54 Y154.29 E171.69486
G1 X156.54 Y155.12 E171.72244
G1 X148.46 Y155.12 E171.99141
G0 F12000 X148.06 Y155.53
;TYPE:WALL-OUTER
G1 F1980 X148.06 Y153.90 E172.04563
G1 X156.94 Y153.90 E172.34121
G1 X156.94 Y155.52 E172.39539
G1 X148.06 Y155.53 E172.69097
G0 F12000 X148.60 Y154.89
;TYPE:FILL
G1 F1980 X149.27 Y154.50 E172.71253
G1 X149.35 Y154.98 E172.73228
G1 X149.89 Y154.50 E172.75197
G1 X150.24 Y154.98 E172.77777
G1 X150.69 Y154.77 E172.79748
G1 X151.26 Y154.77 E172.81720
G1 X151.85 Y154.50 E172.83690
G1 X151.65 Y154.98 E172.86279
G1 X152.39 Y154.77 E172.88246
G1 X152.96 Y154.77 E172.90217
G1 X153.52 Y154.77 E172.92189
G1 X154.09 Y154.77 E172.94158
G1 X154.66 Y154.77 E172.96130
G1 X155.22 Y154.77 E172.98102
G1 X155.74 Y154.54 E173.00076
G1 X155.85 Y154.71 E173.00454
G1 X156.40 Y154.44 E173.02492
G1 F2400 E171.82492
G0 F12000 X156.54 Y150.70
;TYPE:WALL-INNER
G1 F2400 E173.02492
G1 F1980 X148.46 Y150.70 E173.29386
G1 X148.46 Y149.88 E173.32117
G1 X156.54 Y149.88 E173.59011
G1 X156.54 Y150.70 E173.61742
G0 F12000 X156.94 Y151.10
;TYPE:WALL-OUTER
G1 F1980 X148.06 Y151.10 E173.91297
G1 X148.06 Y149.48 E173.96688
G1 X156.94 Y149.48 E174.26243
G1 X156.94 Y151.10 E174.31634
G0 F12000 X156.40 Y150.48
;TYPE:FILL
G1 F1980 X156.08 Y150.56 E174.31985
G1 X156.33 Y150.01 E174.34530
G1 X155.54 Y150.50 E174.37072
G1 X155.45 Y150.01 E174.39050
G1 X154.74 Y150.22 E174.41024
G1 X155.27 Y150.56 E174.43103
G0 F12000 X154.61 Y150.01
G1 F1980 X154.11 Y150.22 E174.45085
G1 X153.55 Y150.22 E174.47061
G1 X152.98 Y150.22 E174.49039
G1 X152.41 Y150.22 E174.51011
G1 X151.85 Y150.22 E174.52979
G1 X151.28 Y150.22 E174.54951
G1 X150.72 Y150.22 E174.56923
G1 X150.15 Y150.22 E174.58892
G1 X149.59 Y150.22 E174.60864
G1 X148.78 Y150.46 E174.63408
G1 X148.95 Y150.01 E174.64988
;LAYER:18
G0 F12000 X148.60 Y149.98 Z3.85
;TYPE:WALL-INNER
G1 F1860 X156.40 Y149.98 E174.90925
G1 X156.40 Y150.70 E174.93323
G1 X148.60 Y150.70 E175.19256
G1 X148.60 Y149.98 E175.21654
G0 F12000 X148.20 Y149.58
;TYPE:WALL-OUTER
G1 F1860 X156.80 Y149.58 E175.50251
G1 X156.80 Y151.10 E175.55310
G1 X148.20 Y151.10 E175.83903
G1 X148.20 Y149.58 E175.88962
G0 F12000 X148.74 Y150.15
;TYPE:FILL
G1 F1860 X149.20 Y150.34 E175.90851
G1 X149.76 Y150.32 E175.92822
G1 X150.32 Y150.32 E175.94794
G1 X150.89 Y150.32 E175.96765
G1 X151.46 Y150.32 E175.98734
G1 X152.02 Y150.32 E176.00706
G1 X152.59 Y150.32 E176.02678
G1 X153.15 Y150.32 E176.04646
G1 X153.72 Y150.32 E176.06618
G1 X154.28 Y150.32 E176.08590
G1 X154.80 Y150.32 E176.10559
G1 X155.31 Y150.54 E176.12626
G1 X155.21 Y150.12 E176.14598
G1 X155.88 Y150.56 E176.16671
G1 X156.26 Y150.22 E176.18705
G1 X156.06 Y150.12 E176.19464
G1 F2400 E174.99464
G0 F12000 X156.40 Y154.29
;TYPE:WALL-INNER
G1 F2400 E176.19464
G1 F1860 X156.40 Y155.02 E176.21889
G1 X148.60 Y155.03 E176.47828
G1 X148.60 Y154.29 E176.50256
G1 X156.40 Y154.29 E176.76196
G0 F12000 X156.80 Y153.90
;TYPE:WALL-OUTER
G1 F1860 X156.80 Y155.42 E176.81281
G1 X148.20 Y155.43 E177.09882
G1 X148.20 Y153.90 E177.14970
G1 X156.80 Y153.90 E177.43571
G0 F12000 X155.85 Y154.43
;TYPE:FILL
G1 F1860 X156.00 Y154.86 E177.45500
G1 X155.24 Y154.67 E177.47471
G1 X154.67 Y154.67 E177.49443
G1 X154.11 Y154.67 E177.51412
G1 X153.54 Y154.67 E177.53384
G1 X152.98 Y154.67 E177.55356
G1 X152.41 Y154.67 E177.57324
G1 X151.93 Y154.45 E177.59297
G1 X151.63 Y154.88 E177.61416
G1 X151.28 Y154.67 E177.63389
G1 X150.71 Y154.67 E177.65360
G1 X150.19 Y154.67 E177.67329
G1 X149.69 Y154.45 E177.69437
G1 X149.79 Y154.88 E177.71408
G1 X148.90 Y154.56 E177.73511
G1 X148.94 Y154.88 E177.74609
;LAYER:19
G0 F12000 X148.74 Y154.93 Z4.05
;TYPE:WALL-INNER
G1 F1680 X148.75 Y154.29 E177.76704
G1 X156.26 Y154.29 E178.01686
G1 X156.25 Y154.92 E178.03778
G1 X148.74 Y154.93 E178.28760
G0 F12000 X148.34 Y155.32
;TYPE:WALL-OUTER
G1 F1680 X148.34 Y153.90 E178.33516
G1 X156.66 Y153.90 E178.61158
G1 X156.66 Y155.32 E178.65911
G1 X148.34 Y155.32 E178.93554
G0 F12000 X148.88 Y154.60
;TYPE:FILL
G1 F1680 X149.16 Y154.61 E178.94354
G1 X149.67 Y154.43 E178.95994
G1 X149.95 Y154.78 E178.97632
G1 X150.29 Y154.61 E178.99275
G1 X150.86 Y154.61 E179.00915
G1 X151.43 Y154.61 E179.02557
G1 X151.92 Y154.43 E179.04201
G1 X151.85 Y154.78 E179.05846
G1 X152.56 Y154.61 E179.07489
G1 X153.12 Y154.61 E179.09132
G1 X153.69 Y154.61 E179.10774
G1 X154.25 Y154.61 E179.12414
G1 X154.82 Y154.61 E179.14056
G1 X155.39 Y154.61 E179.15699
G1 X155.84 Y154.43 E179.17329
G1 F2400 E177.97329
G0 F12000 X156.25 Y150.70
;TYPE:WALL-INNER
G1 F2400 E179.17329
G1 F1680 X148.75 Y150.70 E179.42304
G1 X148.75 Y150.08 E179.44370
G1 X156.25 Y150.08 E179.69348
G1 X156.25 Y150.70 E179.71414
G0 F12000 X156.66 Y151.10
;TYPE:WALL-OUTER
G1 F1680 X148.35 Y151.10 E179.99049
G1 X148.34 Y149.68 E180.03776
G1 X156.66 Y149.68 E180.31415
G1 X156.66 Y151.10 E180.36141
G0 F12000 X155.82 Y150.56
;TYPE:FILL
G1 F1680 X156.11 Y150.24 E180.37497
G1 X155.65 Y150.38 E180.39097
G1 X155.23 Y150.56 E180.40701
G1 X154.95 Y150.22 E180.42304
G1 X154.52 Y150.38 E180.43905
G1 X153.95 Y150.38 E180.45503
G1 X153.39 Y150.38 E180.47103
G1 X152.82 Y150.38 E180.48703
G1 X152.25 Y150.38 E180.50300
G1 X151.69 Y150.38 E180.51900
G1 X151.12 Y150.38 E180.53501
G1 X150.56 Y150.38 E180.55098
G1 X149.99 Y150.38 E180.56698
G1 X149.43 Y150.38 E180.58298
G1 X148.97 Y150.56 E180.59909
;LAYER:20
G0 F12000 X148.89 Y150.70 Z4.25
;TYPE:WALL-INNER
G1 F1560 X148.89 Y150.18 E180.61642
G1 X156.11 Y150.18 E180.85662
G1 X156.11 Y150.70 E180.87395
G1 X148.89 Y150.70 E181.11412
G0 F12000 X148.49 Y151.10
;TYPE:WALL-OUTER
G1 F1560 X148.49 Y149.78 E181.15806
G1 X156.51 Y149.78 E181.42487
G1 X156.51 Y151.10 E181.46881
G1 X148.49 Y151.10 E181.73559
G0 F12000 X149.14 Y150.56
;TYPE:FILL
G1 F1560 X149.25 Y150.38 E181.74086
G1 X149.87 Y150.44 E181.75208
G1 X150.44 Y150.44 E181.76326
G1 X151.00 Y150.44 E181.77446
G1 X151.57 Y150.44 E181.78566
G1 X152.13 Y150.44 E181.79684
G1 X152.70 Y150.44 E181.80814
G1 X153.26 Y150.44 E181.81943
G1 X153.83 Y150.44 E181.83068
G1 X154.40 Y150.44 E181.84196
G1 X154.91 Y150.44 E181.85326
G1 X155.32 Y150.56 E181.86456
G1 X155.41 Y150.32 E181.87583
G1 X155.88 Y150.56 E181.88711
G1 X155.97 Y150.41 E181.89281
G1 F2400 E180.69281
G0 F12000 X156.11 Y154.29
;TYPE:WALL-INNER
G1 F2400 E181.89281
G1 F1560 X156.11 Y154.82 E181.91040
G1 X148.89 Y154.82 E182.15064
G1 X148.89 Y154.29 E182.16827
G1 X156.11 Y154.29 E182.40851
G0 F12000 X156.51 Y153.90
;TYPE:WALL-OUTER
G1 F1560 X156.51 Y155.22 E182.45271
G1 X148.49 Y155.22 E182.71956
G1 X148.49 Y153.90 E182.76379
G1 X156.51 Y153.90 E183.03064
G0 F12000 X155.85 Y154.43
;TYPE:FILL
G1 F1560 X155.75 Y154.62 E183.03633
G1 X155.12 Y154.56 E183.04801
G1 X154.56 Y154.56 E183.05971
G1 X153.99 Y154.56 E183.07138
G1 X153.43 Y154.56 E183.08305
G1 X152.86 Y154.56 E183.09472
G1 X152.30 Y154.56 E183.10638
G1 X151.92 Y154.43 E183.11809
G1 X151.63 Y154.68 E183.12986
G1 X151.16 Y154.56 E183.14155
G1 X150.60 Y154.56 E183.15325
G1 X150.08 Y154.56 E183.16492
G1 X149.67 Y154.43 E183.17662
G1 X149.59 Y154.68 E183.18836
G1 X149.06 Y154.43 E183.20789
;LAYER:21
G0 F12000 X149.03 Y154.29 Z4.45
;TYPE:WALL-INNER
G1 F1260 X155.97 Y154.29 E183.43855
G1 X155.97 Y154.72 E183.45282
G1 X149.03 Y154.72 E183.68348
G1 X149.03 Y154.29 E183.69778
G0 F12000 X148.63 Y153.90
;TYPE:WALL-OUTER
G1 F1260 X156.37 Y153.90 E183.95505
G1 X156.37 Y155.12 E183.99593
G1 X148.63 Y155.12 E184.25319
G1 X148.63 Y153.90 E184.29410
G0 F12000 X149.72 Y154.43
;TYPE:FILL
G1 F1260 X149.87 Y154.58 E184.30113
G0 F12000 X151.80 Y154.58
G1 F1260 X151.95 Y154.43 E184.30819
G1 F2400 E183.10819
G0 F12000 X149.03 Y150.70
;TYPE:WALL-INNER
G1 F2400 E184.30819
G1 F1260 X149.03 Y150.28 E184.32219
G1 X155.97 Y150.28 E184.55282
G1 X155.97 Y150.70 E184.56682
G1 X149.03 Y150.70 E184.79741
G0 F12000 X148.63 Y151.10
;TYPE:WALL-OUTER
G1 F1260 X148.63 Y149.88 E184.83802
G1 X156.37 Y149.88 E185.09526
G1 X156.37 Y151.10 E185.13587
G1 X148.63 Y151.10 E185.39307
G0 F12000 X148.84 Y150.80
G0 X155.13 Y150.41
;TYPE:FILL
G1 F1260 X155.27 Y150.56 E185.39970
;LAYER:22
G0 F12000 X155.82 Y150.70 Z4.65
;TYPE:WALL-INNER
G1 F1200 X149.18 Y150.70 E185.62071
G1 X149.18 Y150.38 E185.63139
G1 X155.82 Y150.38 E185.85244
G1 X155.82 Y150.70 E185.86311
G0 F12000 X156.22 Y151.10
;TYPE:WALL-OUTER
G1 F1200 X148.78 Y151.10 E186.11074
G1 X148.78 Y149.98 E186.14802
G1 X156.22 Y149.98 E186.39568
G1 X156.22 Y151.10 E186.43296
G1 F2400 E185.23296
G0 F12000 X155.82 Y154.29
;TYPE:WALL-INNER
G1 F2400 E186.43296
G1 F1200 X155.82 Y154.62 E186.44390
G1 X149.18 Y154.62 E186.66498
G1 X149.18 Y154.29 E186.67596
G1 X155.82 Y154.29 E186.89704
G0 F12000 X156.22 Y153.90
;TYPE:WALL-OUTER
G1 F1200 X156.22 Y155.02 E186.93459
G1 X148.78 Y155.03 E187.18228
G1 X148.78 Y153.90 E187.21986
G1 X156.22 Y153.90 E187.46755
;LAYER:23
G0 F12000 X155.68 Y154.29 Z4.85
;TYPE:WALL-INNER
G1 F1140 X155.68 Y154.52 E187.47517
G1 X149.32 Y154.53 E187.68667
G1 X149.32 Y154.29 E187.69432
G1 X155.68 Y154.29 E187.90582
G0 F12000 X156.08 Y153.90
;TYPE:WALL-OUTER
G1 F1140 X156.08 Y154.92 E187.94004
G1 X148.92 Y154.93 E188.17815
G1 X148.92 Y153.90 E188.21241
G1 X156.08 Y153.90 E188.45052
G1 F2400 E187.25052
G0 F12000 X155.68 Y150.70
;TYPE:WALL-INNER
G1 F2400 E188.45052
G1 F1140 X149.32 Y150.70 E188.66192
G1 X149.32 Y150.48 E188.66927
G1 X155.68 Y150.48 E188.88074
G1 X155.68 Y150.70 E188.88809
G0 F12000 X156.08 Y151.10
;TYPE:WALL-OUTER
G1 F1140 X148.92 Y151.10 E189.12610
G1 X148.92 Y150.08 E189.16006
G1 X156.08 Y150.08 E189.39814
G1 X156.08 Y151.10 E189.43209
;LAYER:24
G0 F12000 X155.53 Y150.70 Z5.05
;TYPE:WALL-INNER
G1 F1080 X149.47 Y150.70 E189.63392
G1 X149.47 Y150.58 E189.63794
G1 X155.53 Y150.58 E189.83983
G1 X155.53 Y150.70 E189.84385
G0 F12000 X155.93 Y151.10
;TYPE:WALL-OUTER
G1 F1080 X149.07 Y151.10 E190.07229
G1 X149.06 Y150.18 E190.10292
G1 X155.94 Y150.18 E190.33142
G1 X155.93 Y151.10 E190.36205
G1 F2400 E189.16205
G0 F12000 X155.54 Y154.29
;TYPE:WALL-INNER
G1 F2400 E190.36205
G1 F1080 X155.53 Y154.42 E190.36634
G1 X149.46 Y154.43 E190.56826
G1 X149.47 Y154.29 E190.57258
G1 X155.54 Y154.29 E190.77451
G0 F12000 X155.94 Y153.90
;TYPE:WALL-OUTER
G1 F1080 X155.94 Y154.82 E190.80541
G1 X149.06 Y154.82 E191.03394
G1 X149.06 Y153.90 E191.06487
G1 X155.94 Y153.90 E191.29340
;LAYER:25
G0 F12000 X155.39 Y154.29 Z5.25
;TYPE:WALL-INNER
G1 F960 X155.39 Y154.32 E191.29436
G1 X149.61 Y154.32 E191.48671
G1 X149.61 Y154.29 E191.48771
G1 X155.39 Y154.29 E191.68005
G0 F12000 X155.79 Y153.90
;TYPE:WALL-OUTER
G1 F960 X155.79 Y154.72 E191.70762
G1 X149.21 Y154.72 E191.92657
G1 X149.21 Y153.90 E191.95418
G1 X155.79 Y153.90 E192.17313
G1 F2400 E190.97313
G0 F12000 X155.39 Y150.70
;TYPE:WALL-INNER
G1 F2400 E192.17313
G1 F960 X149.61 Y150.70 E192.36537
G1 X149.61 Y150.68 E192.36604
G1 X155.39 Y150.68 E192.55828
G1 X155.39 Y150.70 E192.55895
G0 F12000 X155.79 Y151.10
;TYPE:WALL-OUTER
G1 F960 X149.21 Y151.10 E192.77780
G1 X149.21 Y150.28 E192.80507
G1 X155.79 Y150.28 E193.02392
G1 X155.79 Y151.10 E193.05120
;LAYER:26
G0 F12000 X155.65 Y151.10 Z5.45
;TYPE:WALL-OUTER
G1 F840 X149.35 Y151.10 E193.26047
G1 X149.35 Y150.38 E193.28442
G1 X155.65 Y150.38 E193.49369
G1 X155.65 Y151.10 E193.51764
G0 F12000 X155.50 Y150.88
;TYPE:FILL
G1 F840 X155.46 Y150.87 E193.52141
G1 X155.28 Y150.52 E193.53434
G1 X155.35 Y150.83 E193.54282
G1 X154.70 Y150.74 E193.56347
G1 X154.13 Y150.74 E193.58413
G1 X153.56 Y150.74 E193.60475
G1 X153.00 Y150.74 E193.62542
G1 X152.43 Y150.74 E193.64608
G1 X151.87 Y150.74 E193.66669
G1 X151.30 Y150.74 E193.68730
G1 X150.74 Y150.74 E193.70788
G1 X150.17 Y150.74 E193.72849
G1 X149.67 Y150.52 E193.74671
G1 F2400 E192.54671
G0 F12000 X149.35 Y153.90
;TYPE:WALL-OUTER
G1 F2400 E193.74671
G1 F840 X155.65 Y153.90 E193.95608
G1 X155.65 Y154.62 E193.98033
G1 X149.35 Y154.62 E194.18970
G1 X149.35 Y153.90 E194.21398
G0 F12000 X149.49 Y154.21
;TYPE:FILL
G1 F840 X149.72 Y154.48 E194.22706
G1 X149.64 Y154.17 E194.23565
G1 X150.30 Y154.26 E194.25672
G1 X150.86 Y154.26 E194.27777
G1 X151.43 Y154.26 E194.29885
G1 X151.92 Y154.48 E194.31995
G1 X152.48 Y154.03 E194.34112
G1 X153.13 Y154.26 E194.36218
G1 X153.69 Y154.26 E194.38327
G1 X154.26 Y154.26 E194.40431
G1 X154.82 Y154.26 E194.42540
G1 X155.42 Y154.29 E194.44650
G1 X155.45 Y154.03 E194.45497
G0 F12000 X155.44 Y154.19
G0 X152.50 Y154.32
G0 X152.50 Y154.48
G1 F840 X152.05 Y154.03 E194.47609
;LAYER:27
G0 F12000 X152.05 Y154.19 Z5.65
G0 X149.80 Y154.10
G0 X149.50 Y153.90
;TYPE:WALL-OUTER
G1 F720 X155.50 Y153.90 E194.67588
G1 X155.50 Y154.52 E194.69680
G1 X149.50 Y154.53 E194.89660
G1 X149.50 Y153.90 E194.91755
G0 F12000 X149.67 Y154.38
;TYPE:FILL
G1 F720 X150.13 Y154.21 E194.93399
G1 X150.69 Y154.21 E194.95042
G1 X151.26 Y154.21 E194.96684
G1 X151.82 Y154.21 E194.98324
G1 X152.32 Y154.03 E194.99971
G1 X152.25 Y154.38 E195.01619
G1 X152.96 Y154.21 E195.03259
G1 X153.52 Y154.21 E195.04898
G1 X154.09 Y154.21 E195.06541
G1 X154.65 Y154.21 E195.08183
G1 X155.11 Y154.03 E195.09814
G1 F2400 E193.89814
G0 F12000 X155.50 Y151.10
;TYPE:WALL-OUTER
G1 F2400 E195.09814
G1 F720 X149.50 Y151.10 E195.29783
G1 X149.50 Y150.48 E195.31845
G1 X155.50 Y150.48 E195.51815
G1 X155.50 Y151.10 E195.53877
G0 F12000 X155.14 Y150.62
;TYPE:FILL
G1 F720 X154.68 Y150.79 E195.55481
G1 X154.12 Y150.79 E195.57083
G1 X153.55 Y150.79 E195.58683
G1 X152.99 Y150.79 E195.60284
G1 X152.42 Y150.79 E195.61884
G1 X151.85 Y150.79 E195.63476
G1 X151.29 Y150.79 E195.65069
G1 X150.72 Y150.79 E195.66664
G1 X150.16 Y150.79 E195.68260
G1 X149.71 Y150.96 E195.69866
;LAYER:28
G0 F12000 X149.64 Y151.10 Z5.85
;TYPE:WALL-OUTER
G1 F600 X149.64 Y150.58 E195.71596
G1 X155.36 Y150.58 E195.90607
G1 X155.36 Y151.10 E195.92337
G1 X149.64 Y151.10 E196.11348
G0 F12000 X149.87 Y150.72
;TYPE:FILL
G1 F600 X150.27 Y150.84 E196.12467
G1 X150.84 Y150.84 E196.13587
G1 X151.40 Y150.84 E196.14705
G1 X151.97 Y150.84 E196.15825
G1 X152.53 Y150.84 E196.16945
G1 X153.10 Y150.84 E196.18070
G1 X153.66 Y150.84 E196.19195
G1 X154.23 Y150.84 E196.20318
G1 X154.80 Y150.84 E196.21443
G1 X155.20 Y150.96 E196.22841
G1 F2400 E195.02841
G0 F12000 X155.36 Y153.90
;TYPE:WALL-OUTER
G1 F2400 E196.22841
G1 F600 X155.36 Y154.42 E196.24601
G1 X149.64 Y154.43 E196.43622
G1 X149.64 Y153.90 E196.45385
G1 X155.36 Y153.90 E196.64406
G0 F12000 X155.13 Y154.28
;TYPE:FILL
G1 F600 X154.72 Y154.16 E196.65573
G1 X154.16 Y154.16 E196.66733
G1 X153.59 Y154.16 E196.67896
G1 X153.03 Y154.16 E196.69063
G1 X152.48 Y154.03 E196.70226
G1 X152.20 Y154.28 E196.71401
G1 X151.90 Y154.16 E196.72563
G1 X151.33 Y154.16 E196.73731
G1 X150.76 Y154.16 E196.74891
G1 X150.20 Y154.16 E196.76054
G1 X149.79 Y154.03 E196.77469
;LAYER:29
G0 F12000 X149.78 Y153.90 Z6.05
;TYPE:WALL-OUTER
G1 F540 X155.22 Y153.90 E196.95532
G1 X155.22 Y154.32 E196.96959
G1 X149.78 Y154.32 E197.15023
G1 X149.78 Y153.90 E197.16453
G1 F2400 E195.96453
G0 F12000 X152.20 Y154.18
;TYPE:FILL
G1 F2400 E197.16453
G1 F540 X152.35 Y154.03 E197.17161
G0 F12000 X149.79 Y151.10
;TYPE:WALL-OUTER
G1 F540 X149.79 Y150.68 E197.18558
G1 X155.21 Y150.68 E197.36611
G1 X155.21 Y151.10 E197.38008
G1 X149.79 Y151.10 E197.56062
;LAYER:30
G0 F12000 X149.93 Y151.10 Z6.25
;TYPE:WALL-OUTER
G1 F540 X149.93 Y150.78 E197.57126
G1 X155.07 Y150.78 E197.74222
G1 X155.07 Y151.10 E197.75286
G1 X149.93 Y151.10 E197.92382
G1 F2400 E196.72382
G0 F12000 X149.93 Y153.90
G1 F2400 E197.92382
G1 F540 X155.07 Y153.90 E198.09488
G1 X155.07 Y154.22 E198.10582
G1 X149.93 Y154.22 E198.27688
G1 X149.93 Y153.90 E198.28785
;LAYER:31
G0 F12000 X150.07 Y153.90 Z6.45
;TYPE:WALL-OUTER
G1 F540 X154.93 Y153.90 E198.44933
G1 X154.93 Y154.12 E198.45695
G1 X150.07 Y154.12 E198.61842
G1 X150.07 Y153.90 E198.62607
G1 F2400 E197.42607
G0 F12000 X150.07 Y151.10
G1 F2400 E198.62607
G1 F540 X150.07 Y150.88 E198.63339
G1 X154.93 Y150.88 E198.79477
G1 X154.93 Y151.10 E198.80209
G1 X150.07 Y151.10 E198.96346
;LAYER:32
G0 F12000 X150.22 Y151.10 Z6.65
;TYPE:WALL-OUTER
G1 F540 X150.22 Y150.98 E198.96746
G1 X154.78 Y150.98 E199.11925
G1 X154.78 Y151.10 E199.12325
G1 X150.22 Y151.10 E199.27505
G1 F2400 E198.07505
G0 F12000 X150.22 Y153.90
G1 F2400 E199.27505
G1 F540 X154.78 Y153.90 E199.42694
G1 X154.78 Y154.02 E199.43124
G1 X150.22 Y154.03 E199.58313
G1 X150.22 Y153.90 E199.58746
;LAYER:33
G0 F12000 X150.36 Y153.90 Z6.85
;TYPE:WALL-OUTER
G1 F540 X154.64 Y153.90 E199.72978
G1 X154.64 Y153.92 E199.73074
G1 X150.36 Y153.93 E199.87306
G1 X150.36 Y153.90 E199.87406
G1 F2400 E198.67406
G0 F12000 X150.36 Y151.10
G1 F2400 E199.87406
G1 F540 X150.36 Y151.08 E199.87473
G1 X154.64 Y151.08 E200.01695
G1 X154.64 Y151.10 E200.01761
G1 X150.36 Y151.10 E200.15983
;LAYER:34
;LAYER:35
;LAYER:36
;LAYER:37
M107
G1 F2400 E198.95983
G0 F12000 X150.36 Y151.10 Z12.61
;-- END GCODE --
M104 S0     ;extruder heater off
M140 S0     ;heated bed heater off (if you have it)
G91         ;relative positioning
G1 E-1 F300   ;retract the filament a bit before lifting the nozzle, to release some of the pressure
G1 Z+0.5 E-5 X-20 Y-20 F12000 ;move Z up a bit and retract filament even more
G28 X0 Y0     ;move X/Y to min endstops, so the head is out of the way
M84           ;steppers off
G90           ;absolute positioning
;CURA_PROFILE_STRING:eNrtWt9z00gSfhWp/SP6EeqwT5JtArj0sECSrS3Y3cLeOsiLaiyN7TkkjWo0iuOk/L/fN6MfkR2HC0uKWzj7IUGt7p7unq+/7hRO2JqrcMnFYqkDt++7zoolSaiXIvqU8aKA7LmjuFYs0kJmIc/YLOHBVJXcKWQi4jCxHrYN5gI+Yp4VQq8Dz3cyeXWV8LAQVxzvh06uRKbDIuc8xmu3ftY8zbliulQ88PdJ/WCPcLBPOGyFMx5vOT52naLMc6l08JvMuJMnTM+lSkMWL3mBFINXSqSNThiXLAn5pVZl9U7qpbMSOQ+1XHEVnLKk4B1BeCGTMuWBN3KkvELGS8GTuFZDVVjKEVMs8FvD3Osfj26LTZq3hIN9wmFXOE/kKvBct+92L6wq8nBHylJZZhrn+12pTbZ59aw/6r5LRRbi4YInsNp6E8l0JrJFhYltC5FuVQ9BbJ23lLmROTOptUy3MOSPHAssN1yJWC/DOUykMuk5cvZvHgE9IvtkreUFVwnLbfQQoPRVnHXqvts5ogJrXZORIzKL1OrZqIms4NrdFVx2BJGUiS1GjXuB2x44c9a0Rlz3xicB9CQi46iPrWctWrA8GMBP9dTUKOHZQi8BG3OEcTYvEVfblpWs7he38xSm7NJK2rDmkALqgGAtXHKGJhVzXaOw6lqN0neauCpPJbElqYtqgNy0gl7nPHiLjIpWxLIFyOBZ21Khta2OvzG8XAOwhWZZZLr/uJVfdcVGPxeKJYYj6khFmoM1Uhk3khlas1tUkIRic5SRqYXIglG/frYqRc4ig0uvkc5YwbdANujIjYmFmg3RykEfXAF420b+7suuZf2SCWXuGc+1oChrXQOaIvBR5EvAXykByIRlZnvS8C5qHLLmHu5WmbWU0tVBGjLnWTgTutingE40nHyB2miho6WpTqWWJyUKiKqiIRZB02IRN0mGl0HP2xGtjSgqlTLEA6jY9v4Jl6l0fxGZCxv3ejSZ/vx+Smevf39zQr3e0XiSiIjHBLqlKbKgn+kdM1HwgiZcCfzyWiWmX9J1zNYb81Nz/DKttjkav2KFiAhdqRF+8ZLempJS1SowSToDbUP/QsWgc7091DZ0CpxC3J1TcP2HmRg0MY2Fl50htaFJhVmIa/RC/X3LZK3NLvFuqKP0pkb7tl7Ft+3pJsv28Drl05riCTccV2FXlF/bph3Rqsp80bGKZKG7VuZ5c/TOc5/RxB+NHtHYXhythF6SXnICvZDMjs58j+rPGONGoewXLCl5cXT2wm3fsBkopNSccokyIiNcy41zq3KX++e1b5ANaUk8iwvwEtz7Lx49GuPK5KqwaGGllr2Eg9QT4/3Mow+gSvoI9+ceup5Or7ucv6FxhVNiWUyVe5zbjHqK5Sojb5SmJs4XNLm+tT/Awy+caZpKMlIk7NNJm/PNZ3zFlbTO7ZSLAdyKyk2Mpxg9dDLYMRvXmjRw05TknAxjExKPPn35McQWTGRVQY5H9NE3FdlTDsVtFWblYsGVVceCdR81W2bzwxR6n0Gn0DO+qGLZUXNwsR1WOPntzQ0n4AKGNHG3KmO6mRmncj6HwtBtFazcHBR3VOixmNNalrTEmST0E5TRuymd4rh2cN4WPhHkSQ+BDly30rHtWKGzaRtG4FGcBchwMgMUhlaj2mafGsjCOcf0oEKm3NylhZkCxQBD5pDzf7j9EY4a0YceCv6xt6/qtubnVOb1kaaWTURtNAB/Bigbt+ibD/Dldrrnwz8/mnCwALRd9BRB2XjMAkCiIFnqJsQVWx+9ez7sIqzQPAf6C1v0Tn/f2eJjdI1EeGaYoH0WG8e2ud/c9H/j8fr9qzW9LhXbOxQwufvuvcYG+a43pDOfKhL9xaT8+NcyWdsXT77B1PhmvD1+5+F2Gs7a+fMGaPozw0Ju7QEIFsemNdAnYDzTNh1dMouLcWc6cC8F3u1qr5sXNPX2efL/kiv364P6ugF2fNMat8eXaZKbPryzCa3SebdTz2+reHcNsc9NrqlHez/jycqsduYUY+mDSxpa/Zop5rn7h5j3oEOsOqt3vf9v0s3R1L1X0nOhCv09pb198aAUULXFvhk5KbiHLTBeMnr7+g0VkeI8A0C944rtoNPv982Qbbn3BLd+9hr/rObrtJ2gt4LbP3KNjfeFNsO7D/kLY/szn/tM9M8Zf7ej/u6kHmYH2HH6mY1gR/NL9oPBffeDw8Q+TOwfa2L7/48T+7CmHNaUnTVl8L9cU4yNf1htDqvNw682w8Nq87dabfyHW20OW9I325IG95qdQwT9Ay0M91sNBz9W0ofV8LAa7qyGw+9tNTQ2g8M6eVgnH3adrL8h0/1CRSu8+d/U6gs+W0pW0tFQHDM24v2ouAgcXEJFMyc1LtuFtSKfGdcrdKZNuv5yR8tB9gLsRUPSSp/SagmDttPtMpGWiRZ50tKFKvpH4+kSRTWnmeJivbEotygyTqePsycOaqL/TvGxuWnAJrz/ACe2B0U=
;CURA_PROFILE_STRING:eNrtWt9z00gSfhWp/SP6EeqwT5JtArj0sECSrS3Y3cLeOsiLaiyN7TkkjWo0iuOk/L/fN6MfkR2HC0uKWzj7IUGt7p7unq+/7hRO2JqrcMnFYqkDt++7zoolSaiXIvqU8aKA7LmjuFYs0kJmIc/YLOHBVJXcKWQi4jCxHrYN5gI+Yp4VQq8Dz3cyeXWV8LAQVxzvh06uRKbDIuc8xmu3ftY8zbliulQ88PdJ/WCPcLBPOGyFMx5vOT52naLMc6l08JvMuJMnTM+lSkMWL3mBFINXSqSNThiXLAn5pVZl9U7qpbMSOQ+1XHEVnLKk4B1BeCGTMuWBN3KkvELGS8GTuFZDVVjKEVMs8FvD3Osfj26LTZq3hIN9wmFXOE/kKvBct+92L6wq8nBHylJZZhrn+12pTbZ59aw/6r5LRRbi4YInsNp6E8l0JrJFhYltC5FuVQ9BbJ23lLmROTOptUy3MOSPHAssN1yJWC/DOUykMuk5cvZvHgE9IvtkreUFVwnLbfQQoPRVnHXqvts5ogJrXZORIzKL1OrZqIms4NrdFVx2BJGUiS1GjXuB2x44c9a0Rlz3xicB9CQi46iPrWctWrA8GMBP9dTUKOHZQi8BG3OEcTYvEVfblpWs7he38xSm7NJK2rDmkALqgGAtXHKGJhVzXaOw6lqN0neauCpPJbElqYtqgNy0gl7nPHiLjIpWxLIFyOBZ21Khta2OvzG8XAOwhWZZZLr/uJVfdcVGPxeKJYYj6khFmoM1Uhk3khlas1tUkIRic5SRqYXIglG/frYqRc4ig0uvkc5YwbdANujIjYmFmg3RykEfXAF420b+7suuZf2SCWXuGc+1oChrXQOaIvBR5EvAXykByIRlZnvS8C5qHLLmHu5WmbWU0tVBGjLnWTgTutingE40nHyB2miho6WpTqWWJyUKiKqiIRZB02IRN0mGl0HP2xGtjSgqlTLEA6jY9v4Jl6l0fxGZCxv3ejSZ/vx+Smevf39zQr3e0XiSiIjHBLqlKbKgn+kdM1HwgiZcCfzyWiWmX9J1zNYb81Nz/DKttjkav2KFiAhdqRF+8ZLempJS1SowSToDbUP/QsWgc7091DZ0CpxC3J1TcP2HmRg0MY2Fl50htaFJhVmIa/RC/X3LZK3NLvFuqKP0pkb7tl7Ft+3pJsv28Drl05riCTccV2FXlF/bph3Rqsp80bGKZKG7VuZ5c/TOc5/RxB+NHtHYXhythF6SXnICvZDMjs58j+rPGONGoewXLCl5cXT2wm3fsBkopNSccokyIiNcy41zq3KX++e1b5ANaUk8iwvwEtz7Lx49GuPK5KqwaGGllr2Eg9QT4/3Mow+gSvoI9+ceup5Or7ucv6FxhVNiWUyVe5zbjHqK5Sojb5SmJs4XNLm+tT/Awy+caZpKMlIk7NNJm/PNZ3zFlbTO7ZSLAdyKyk2Mpxg9dDLYMRvXmjRw05TknAxjExKPPn35McQWTGRVQY5H9NE3FdlTDsVtFWblYsGVVceCdR81W2bzwxR6n0Gn0DO+qGLZUXNwsR1WOPntzQ0n4AKGNHG3KmO6mRmncj6HwtBtFazcHBR3VOixmNNalrTEmST0E5TRuymd4rh2cN4WPhHkSQ+BDly30rHtWKGzaRtG4FGcBchwMgMUhlaj2mafGsjCOcf0oEKm3NylhZkCxQBD5pDzf7j9EY4a0YceCv6xt6/qtubnVOb1kaaWTURtNAB/Bigbt+ibD/Dldrrnwz8/mnCwALRd9BRB2XjMAkCiIFnqJsQVWx+9ez7sIqzQPAf6C1v0Tn/f2eJjdI1EeGaYoH0WG8e2ud/c9H/j8fr9qzW9LhXbOxQwufvuvcYG+a43pDOfKhL9xaT8+NcyWdsXT77B1PhmvD1+5+F2Gs7a+fMGaPozw0Ju7QEIFsemNdAnYDzTNh1dMouLcWc6cC8F3u1qr5sXNPX2efL/kiv364P6ugF2fNMat8eXaZKbPryzCa3SebdTz2+reHcNsc9NrqlHez/jycqsduYUY+mDSxpa/Zop5rn7h5j3oEOsOqt3vf9v0s3R1L1X0nOhCv09pb198aAUULXFvhk5KbiHLTBeMnr7+g0VkeI8A0C944rtoNPv982Qbbn3BLd+9hr/rObrtJ2gt4LbP3KNjfeFNsO7D/kLY/szn/tM9M8Zf7ej/u6kHmYH2HH6mY1gR/NL9oPBffeDw8Q+TOwfa2L7/48T+7CmHNaUnTVl8L9cU4yNf1htDqvNw682w8Nq87dabfyHW20OW9I325IG95qdQwT9Ay0M91sNBz9W0ofV8LAa7qyGw+9tNTQ2g8M6eVgnH3adrL8h0/1CRSu8+d/U6gs+W0pW0tFQHDM24v2ouAgcXEJFMyc1LtuFtSKfGdcrdKZNuv5yR8tB9gLsRUPSSp/SagmDttPtMpGWiRZ50tKFKvpH4+kSRTWnmeJivbEotygyTqePsycOaqL/TvGxuWnAJrz/ACe2B0U=

