;-- START GCODE --
;Sliced for Type A Machines Series 1
;Sliced at: Mon 27-07-2015 20:37:02
;Basic settings: Layer height: 0.25 Walls: 0.8 Fill: 15
;Print Speed: 70 Support: 0
;Retraction Speed: 30 Retraction Distance: 3
;Print time: #P_TIME#
;Filament used: #F_AMNT#m #F_WGHT#g
;Filament cost: #F_COST#
M106 S255	 ;start with the fan on
G21        ;metric values
G90        ;absolute positioning
M106 S255    ;start with the fan on
G28     ;move to endstops
G29		;allows for auto-levelling
G1 X150 Y5  Z15.0 F12000 ;center and move the platform down 15mm
M109 S235 ;Heat To temp
G92 E0                  ;zero the extruded length
G1 F200 E30              ;extrude 30mm of feed stock
G92 E0                  ;zero the extruded length again
G1 X175 Y25  Z0 F12000 ;remove bugger
G1 X220 F12000 ;remove bugger
G1 X150 Y150  Z15 F12000 ;recenter and begin
G1 F12000

;Layer count: 190
;LAYER:-2
;RAFT
G0 F12000 X128.66 Y118.14 Z0.30
;TYPE:SUPPORT
G1 F2700 X133.37 Y116.57 E0.43299
G1 X139.86 Y114.95 E1.01741
G1 X147.62 Y114.95 E1.69536
G1 X149.31 Y115.28 E1.84555
G1 X153.37 Y116.30 E2.21121
G1 X153.70 Y116.62 E2.25121
G1 X154.82 Y116.60 E2.34902
G1 X156.46 Y116.94 E2.49537
G1 X159.91 Y117.64 E2.80243
G1 X164.20 Y113.35 E3.33249
G1 X169.22 Y113.35 E3.77095
G1 X173.04 Y117.17 E4.24231
G1 X173.44 Y117.36 E4.28116
G1 X178.96 Y122.89 E4.96309
G1 X178.96 Y123.09 E4.98056
G1 X179.36 Y123.49 E5.02994
G1 X179.36 Y123.69 E5.04741
G1 X179.76 Y124.09 E5.09679
G1 X179.76 Y124.29 E5.11426
G1 X180.16 Y124.69 E5.16364
G1 X180.16 Y124.89 E5.18111
G1 X180.56 Y125.29 E5.23049
G1 X180.56 Y125.49 E5.24796
G1 X180.96 Y125.89 E5.29735
G1 X180.96 Y126.09 E5.31481
G1 X181.16 Y126.29 E5.33950
G1 X181.16 Y126.49 E5.35696
G1 X181.56 Y126.89 E5.40635
G1 X181.56 Y127.09 E5.42381
G1 X181.96 Y127.49 E5.47320
G1 X181.96 Y127.69 E5.49066
G1 X182.36 Y128.09 E5.54005
G1 X182.36 Y128.29 E5.55751
G1 X182.76 Y128.69 E5.60690
G1 X182.76 Y128.89 E5.62436
G1 X183.16 Y129.29 E5.67375
G1 X183.16 Y129.49 E5.69121
G1 X183.22 Y129.55 E5.69875
G1 X184.56 Y129.55 E5.81565
G1 X184.56 Y135.70 E6.35259
G1 X185.58 Y137.66 E6.54543
G1 X186.37 Y139.16 E6.69360
G1 X187.91 Y147.06 E7.39686
G1 X187.91 Y147.06 E7.39695
G1 X188.45 Y149.82 E7.64221
G1 X187.26 Y160.70 E8.59768
G1 X184.11 Y167.86 E9.28116
G1 X182.85 Y170.72 E9.55312
G1 X175.72 Y178.91 E10.50136
G1 X173.34 Y180.42 E10.74788
G1 X173.65 Y181.73 E10.86531
G1 X170.04 Y183.53 E11.21746
G1 X168.64 Y184.93 E11.39044
G1 X159.05 Y189.73 E12.32636
G1 X157.86 Y190.12 E12.43610
G1 X154.66 Y190.92 E12.72415
G1 X154.06 Y191.12 E12.77931
G1 X149.96 Y192.15 E13.14791
G1 X142.86 Y192.15 E13.76788
G1 X142.86 Y188.21 E14.11179
G1 X142.66 Y188.01 E14.13648
G1 X142.66 Y187.61 E14.17141
G1 X142.46 Y187.41 E14.19610
G1 X142.46 Y187.01 E14.23102
G1 X142.40 Y186.95 E14.23856
G1 X141.26 Y186.95 E14.33800
G1 X141.26 Y184.05 E14.59111
G1 X139.15 Y183.34 E14.78581
G1 X137.12 Y182.66 E14.97255
G1 X135.87 Y181.91 E15.09959
G1 X135.27 Y181.55 E15.16101
G1 X134.43 Y181.55 E15.23400
G1 X133.16 Y181.12 E15.35106
G1 X132.36 Y180.93 E15.42278
G1 X131.77 Y180.72 E15.47775
G1 X129.65 Y180.19 E15.66862
G1 X128.98 Y179.53 E15.75061
G1 X127.78 Y178.93 E15.86763
G1 X127.58 Y178.73 E15.89238
G1 X126.38 Y178.13 E16.00944
G1 X126.18 Y177.93 E16.03420
G1 X124.98 Y177.33 E16.15126
G1 X124.78 Y177.13 E16.17601
G1 X123.58 Y176.53 E16.29307
G1 X121.38 Y174.33 E16.56489
G1 X120.98 Y174.13 E16.60374
G1 X114.10 Y167.25 E17.45372
G1 X118.46 Y162.89 E17.99225
G1 X118.46 Y162.69 E18.00962
G1 X120.12 Y161.02 E18.21496
G1 X119.48 Y159.12 E18.39036
G1 X119.20 Y157.31 E18.54992
G1 X118.59 Y153.40 E18.89612
G1 X118.61 Y152.10 E19.00894
G1 X118.66 Y147.88 E19.37793
G1 X119.42 Y143.66 E19.75198
G1 X119.62 Y142.58 E19.84823
G1 X121.04 Y138.63 E20.21448
G1 X121.44 Y137.50 E20.31873
G1 X121.95 Y136.60 E20.40965
G1 X124.14 Y132.69 E20.80089
G1 X125.07 Y131.54 E20.92958
G1 X125.07 Y131.54 E20.92967
G1 X127.78 Y128.18 E21.30663
G1 X129.06 Y127.04 E21.45619
G1 X129.06 Y126.61 E21.49417
G1 X128.86 Y126.41 E21.51886
G1 X128.86 Y125.61 E21.58871
G1 X128.66 Y125.41 E21.61340
G1 X128.66 Y118.14 E22.24813
G0 F12000 X129.50 Y117.75
G1 F2700 X129.50 Y180.20 E27.70042
G0 F12000 X130.50 Y180.52
G1 F2700 X130.50 Y117.41 E33.20972
G0 F12000 X131.50 Y117.08
G1 F2700 X131.50 Y180.77 E38.76992
G0 F12000 X132.50 Y181.07
G1 F2700 X132.50 Y116.75 E44.38547
G0 F12000 X133.50 Y116.43
G1 F2700 X133.50 Y181.35 E50.05333
G0 F12000 X134.50 Y181.65
G1 F2700 X134.50 Y116.18 E55.76972
G0 F12000 X135.50 Y115.93
G1 F2700 X135.50 Y181.81 E61.52165
G0 F12000 X136.50 Y182.41
G1 F2700 X136.50 Y115.68 E67.34823
G0 F12000 X137.50 Y115.43
G1 F2700 X137.50 Y182.90 E73.23924
G0 F12000 X138.50 Y183.24
G1 F2700 X138.50 Y115.18 E79.18132
G0 F12000 X139.50 Y114.93
G1 F2700 X139.50 Y183.57 E85.17439
G0 F12000 X140.50 Y183.91
G1 F2700 X140.50 Y114.84 E91.20414
G0 F12000 X141.50 Y114.84
G1 F2700 X141.50 Y187.05 E97.50864
G0 F12000 X142.50 Y187.60
G1 F2700 X142.50 Y114.84 E103.86063
G0 F12000 X143.50 Y114.84
G1 F2700 X143.50 Y192.25 E110.61913
G0 F12000 X144.50 Y192.25
G1 F2700 X144.50 Y114.84 E117.37764
G0 F12000 X145.50 Y114.84
G1 F2700 X145.50 Y192.25 E124.13614
G0 F12000 X146.50 Y192.25
G1 F2700 X146.50 Y114.84 E130.89464
G0 F12000 X147.50 Y114.84
G1 F2700 X147.50 Y192.25 E137.65314
G0 F12000 X148.50 Y192.25
G1 F2700 X148.50 Y115.02 E144.39645
G0 F12000 X149.50 Y115.22
G1 F2700 X149.50 Y192.25 E151.12160
G0 F12000 X150.50 Y192.12
G1 F2700 X150.50 Y115.47 E157.81348
G0 F12000 X151.50 Y115.72
G1 F2700 X151.50 Y191.87 E164.46171
G0 F12000 X152.50 Y191.62
G1 F2700 X152.50 Y115.97 E171.06638
G0 F12000 X153.50 Y116.28
G1 F2700 X153.50 Y191.37 E177.62267
G0 F12000 X154.50 Y191.09
G1 F2700 X154.50 Y116.50 E184.13462
G0 F12000 X155.50 Y116.63
G1 F2700 X155.50 Y190.82 E190.61181
G0 F12000 X156.50 Y190.57
G1 F2700 X156.50 Y116.84 E197.04937
G0 F12000 X157.50 Y117.04
G1 F2700 X157.50 Y190.32 E203.44729
G0 F12000 X158.50 Y190.02
G1 F2700 X158.50 Y117.25 E209.80103
G0 F12000 X159.50 Y117.45
G1 F2700 X159.50 Y189.62 E216.10178
G0 F12000 X160.50 Y189.12
G1 F2700 X160.50 Y116.90 E222.40706
G0 F12000 X161.50 Y115.90
G1 F2700 X161.50 Y188.62 E228.75600
G0 F12000 X162.50 Y188.12
G1 F2700 X162.50 Y114.90 E235.14860
G0 F12000 X163.50 Y113.90
G1 F2700 X163.50 Y187.62 E241.58484
G0 F12000 X164.50 Y187.12
G1 F2700 X164.50 Y113.24 E248.03471
G0 F12000 X165.50 Y113.24
G1 F2700 X165.50 Y186.62 E254.44093
G0 F12000 X166.50 Y186.12
G1 F2700 X166.50 Y113.24 E260.80349
G0 F12000 X167.50 Y113.24
G1 F2700 X167.50 Y185.62 E267.12239
G0 F12000 X168.50 Y185.12
G1 F2700 X168.50 Y113.24 E273.39764
G0 F12000 X169.50 Y113.48
G1 F2700 X169.50 Y184.22 E279.57363
G0 F12000 X170.50 Y183.42
G1 F2700 X170.50 Y114.48 E285.59254
G0 F12000 X171.50 Y115.48
G1 F2700 X171.50 Y182.92 E291.48050
G0 F12000 X172.50 Y182.42
G1 F2700 X172.50 Y116.48 E297.23758
G0 F12000 X173.50 Y117.28
G1 F2700 X173.50 Y180.44 E302.75212
G0 F12000 X173.50 Y180.66
G1 F2700 X173.50 Y181.92 E302.86247
G0 F12000 X174.50 Y179.81
G1 F2700 X174.50 Y118.28 E308.23426
G0 F12000 X175.50 Y119.28
G1 F2700 X175.50 Y179.17 E313.46331
G0 F12000 X176.50 Y178.17
G1 F2700 X176.50 Y120.28 E318.51773
G0 F12000 X177.50 Y121.28
G1 F2700 X177.50 Y177.02 E323.38462
G0 F12000 X178.50 Y175.88
G1 F2700 X178.50 Y122.28 E328.06397
G0 F12000 X179.50 Y123.68
G1 F2700 X179.50 Y174.73 E332.52078
G0 F12000 X180.50 Y173.58
G1 F2700 X180.50 Y125.08 E336.75512
G0 F12000 X181.50 Y126.68
G1 F2700 X181.50 Y172.43 E340.74954
G0 F12000 X182.50 Y171.28
G1 F2700 X182.50 Y128.28 E344.50395
G0 F12000 X183.50 Y129.44
G1 F2700 X183.50 Y169.51 E348.00194
G0 F12000 X184.50 Y167.24
G1 F2700 X184.50 Y129.44 E351.30174
G0 F12000 X185.50 Y137.27
G1 F2700 X185.50 Y164.97 E353.72017
G0 F12000 X186.50 Y162.70
G1 F2700 X186.50 Y139.27 E355.76579
G0 F12000 X187.50 Y144.40
G1 F2700 X187.50 Y159.51 E357.08545
G0 F12000 X188.50 Y150.35
G1 F2700 X188.50 Y149.52 E357.15774
G0 F12000 X128.50 Y127.40
G1 F2700 X128.50 Y179.41 E361.69854
G0 F12000 X127.50 Y178.81
G1 F2700 X127.50 Y128.35 E366.10348
G0 F12000 X126.50 Y129.60
G1 F2700 X126.50 Y178.31 E370.35633
G0 F12000 X125.50 Y177.71
G1 F2700 X125.50 Y130.84 E374.44837
G0 F12000 X124.50 Y132.08
G1 F2700 X124.50 Y177.11 E378.37993
G0 F12000 X123.50 Y176.60
G1 F2700 X123.50 Y133.62 E382.13242
G0 F12000 X122.50 Y135.40
G1 F2700 X122.50 Y175.60 E385.64193
G0 F12000 X121.50 Y174.60
G1 F2700 X121.50 Y137.18 E388.90847
G0 F12000 X120.50 Y139.81
G1 F2700 X120.50 Y173.80 E391.87554
G0 F12000 X119.50 Y172.80
G1 F2700 X119.50 Y161.50 E392.86194
G0 F12000 X118.50 Y162.50
G1 F2700 X118.50 Y171.80 E393.67373
G0 F12000 X117.50 Y170.80
G1 F2700 X117.50 Y163.70 E394.29353
G0 F12000 X116.50 Y164.70
G1 F2700 X116.50 Y169.80 E394.73871
G0 F12000 X115.50 Y168.80
G1 F2700 X115.50 Y165.70 E395.00928
G0 F12000 X114.50 Y166.70
G1 F2700 X114.50 Y167.80 E395.10523
G0 F12000 X119.50 Y159.49
G1 F2700 X119.50 Y142.65 E396.57593
G0 F12000 X118.50 Y152.52
G1 F2700 X118.50 Y153.47 E396.65914
M106 S255
;LAYER:-1
;RAFT
G0 F12000 X118.56 Y153.35 Z0.50
;TYPE:SUPPORT
G1 F4200 X155.86 Y190.65 E397.53634
G0 F12000 X155.41 Y190.76
G1 F4200 X118.66 Y154.01 E398.40064
G0 F12000 X118.76 Y154.69
G1 F4200 X154.96 Y190.88 E399.25185
G0 F12000 X154.51 Y191.00
G1 F4200 X118.87 Y155.35 E400.09019
G0 F12000 X118.97 Y156.03
G1 F4200 X154.09 Y191.14 E400.91611
G0 F12000 X153.64 Y191.26
G1 F4200 X119.08 Y156.69 E401.72898
G0 F12000 X119.18 Y157.37
G1 F4200 X153.19 Y191.37 E402.52873
G0 F12000 X152.74 Y191.48
G1 F4200 X119.29 Y158.04 E403.31539
G0 F12000 X119.39 Y158.71
G1 F4200 X152.28 Y191.60 E404.08896
G0 F12000 X151.83 Y191.71
G1 F4200 X119.56 Y159.44 E404.84781
G0 F12000 X119.85 Y160.29
G1 F4200 X151.38 Y191.82 E405.58933
G0 F12000 X150.92 Y191.94
G1 F4200 X120.05 Y161.06 E406.31555
G0 F12000 X119.76 Y161.34
G1 F4200 X150.47 Y192.05 E407.03778
G0 F12000 X150.02 Y192.16
G1 F4200 X119.48 Y161.62 E407.75601
G0 F12000 X119.20 Y161.91
G1 F4200 X149.47 Y192.18 E408.46793
G0 F12000 X148.90 Y192.18
G1 F4200 X141.23 Y184.50 E408.64839
G0 F12000 X141.23 Y185.07
G1 F4200 X148.34 Y192.18 E408.81554
G0 F12000 X147.77 Y192.18
G1 F4200 X141.23 Y185.64 E408.96938
G0 F12000 X141.23 Y186.20
G1 F4200 X142.00 Y186.98 E408.98763
G0 F12000 X141.44 Y186.98
G1 F4200 X141.23 Y186.77 E408.99257
G0 F12000 X142.43 Y187.40
G1 F4200 X147.21 Y192.18 E409.10490
G0 F12000 X146.64 Y192.18
G1 F4200 X142.83 Y188.37 E409.19450
G0 F12000 X142.83 Y188.93
G1 F4200 X146.07 Y192.18 E409.27081
G0 F12000 X145.51 Y192.18
G1 F4200 X142.83 Y189.50 E409.33381
G0 F12000 X142.83 Y190.06
G1 F4200 X144.94 Y192.18 E409.38351
G0 F12000 X144.38 Y192.18
G1 F4200 X142.83 Y190.63 E409.41990
G0 F12000 X142.83 Y191.20
G1 F4200 X143.81 Y192.18 E409.44299
G0 F12000 X143.25 Y192.18
G1 F4200 X142.83 Y191.76 E409.45277
G0 F12000 X140.57 Y183.85
G1 F4200 X118.91 Y162.19 E409.96220
G0 F12000 X118.63 Y162.47
G1 F4200 X139.73 Y183.57 E410.45831
G0 F12000 X138.88 Y183.28
G1 F4200 X118.43 Y162.84 E410.93921
G0 F12000 X118.17 Y163.14
G1 F4200 X138.03 Y183.00 E411.40633
G0 F12000 X137.18 Y182.72
G1 F4200 X117.88 Y163.42 E411.86017
G0 F12000 X117.60 Y163.70
G1 F4200 X135.80 Y181.90 E412.28823
G0 F12000 X134.91 Y181.58
G1 F4200 X117.32 Y163.99 E412.70196
G0 F12000 X117.03 Y164.27
G1 F4200 X134.30 Y181.53 E413.10803
G0 F12000 X133.45 Y181.25
G1 F4200 X116.75 Y164.55 E413.50078
G0 F12000 X116.47 Y164.83
G1 F4200 X132.66 Y181.03 E413.88166
G0 F12000 X131.85 Y180.78
G1 F4200 X116.19 Y165.12 E414.25010
G0 F12000 X115.90 Y165.40
G1 F4200 X131.09 Y180.58 E414.60721
G0 F12000 X130.33 Y180.40
G1 F4200 X115.62 Y165.68 E414.95326
G0 F12000 X115.34 Y165.97
G1 F4200 X128.89 Y179.52 E415.27198
G0 F12000 X127.56 Y178.75
G1 F4200 X115.05 Y166.25 E415.56607
G0 F12000 X114.77 Y166.53
G1 F4200 X126.43 Y178.19 E415.84020
G0 F12000 X125.09 Y177.42
G1 F4200 X114.49 Y166.81 E416.08963
G0 F12000 X114.20 Y167.10
G1 F4200 X123.76 Y176.66 E416.31445
G0 F12000 X118.57 Y152.79
G1 F4200 X156.31 Y190.54 E417.20213
G0 F12000 X156.77 Y190.43
G1 F4200 X118.58 Y152.24 E418.10030
G0 F12000 X118.58 Y151.68
G1 F4200 X157.22 Y190.31 E419.00895
G0 F12000 X157.67 Y190.20
G1 F4200 X118.59 Y151.12 E419.92809
G0 F12000 X118.60 Y150.56
G1 F4200 X158.11 Y190.07 E420.85733
G0 F12000 X158.53 Y189.93
G1 F4200 X118.61 Y150.00 E421.79637
G0 F12000 X118.61 Y149.44
G1 F4200 X158.96 Y189.79 E422.74522
G0 F12000 X159.35 Y189.61
G1 F4200 X118.62 Y148.88 E423.70304
G0 F12000 X118.63 Y148.32
G1 F4200 X159.72 Y189.42 E424.66956
G0 F12000 X160.10 Y189.23
G1 F4200 X118.65 Y147.78 E425.64445
G0 F12000 X118.73 Y147.30
G1 F4200 X160.48 Y189.04 E426.62615
G0 F12000 X160.85 Y188.86
G1 F4200 X118.82 Y146.82 E427.61469
G0 F12000 X118.91 Y146.34
G1 F4200 X161.23 Y188.67 E428.61007
G0 F12000 X161.61 Y188.48
G1 F4200 X118.99 Y145.86 E429.61231
G0 F12000 X119.08 Y145.39
G1 F4200 X161.99 Y188.29 E430.62135
G0 F12000 X162.36 Y188.10
G1 F4200 X119.17 Y144.91 E431.63725
G0 F12000 X119.25 Y144.43
G1 F4200 X162.74 Y187.91 E432.65997
G0 F12000 X163.12 Y187.72
G1 F4200 X119.34 Y143.95 E433.68951
G0 F12000 X119.43 Y143.47
G1 F4200 X163.49 Y187.54 E434.72590
G0 F12000 X163.87 Y187.35
G1 F4200 X119.51 Y142.99 E435.76911
G0 F12000 X119.61 Y142.52
G1 F4200 X164.25 Y187.16 E436.81900
G0 F12000 X164.62 Y186.97
G1 F4200 X119.76 Y142.10 E437.87423
G0 F12000 X119.91 Y141.69
G1 F4200 X165.00 Y186.78 E438.93484
G0 F12000 X165.38 Y186.59
G1 F4200 X120.06 Y141.27 E440.00079
G0 F12000 X120.21 Y140.85
G1 F4200 X165.76 Y186.40 E441.07208
G0 F12000 X166.13 Y186.22
G1 F4200 X120.36 Y140.44 E442.14873
G0 F12000 X120.50 Y140.02
G1 F4200 X166.51 Y186.03 E443.23074
G0 F12000 X166.89 Y185.84
G1 F4200 X120.65 Y139.60 E444.31810
G0 F12000 X120.80 Y139.19
G1 F4200 X167.27 Y185.65 E445.41082
G0 F12000 X167.64 Y185.46
G1 F4200 X120.95 Y138.77 E446.50889
G0 F12000 X121.10 Y138.36
G1 F4200 X168.02 Y185.27 E447.61231
G0 F12000 X168.40 Y185.09
G1 F4200 X121.25 Y137.94 E448.72111
G0 F12000 X121.40 Y137.52
G1 F4200 X168.74 Y184.87 E449.83454
G0 F12000 X169.03 Y184.58
G1 F4200 X121.60 Y137.16 E450.94995
G0 F12000 X121.80 Y136.79
G1 F4200 X169.31 Y184.30 E452.06724
G0 F12000 X169.59 Y184.02
G1 F4200 X122.01 Y136.43 E453.18639
G0 F12000 X122.21 Y136.07
G1 F4200 X169.88 Y183.74 E454.30744
G0 F12000 X170.19 Y183.49
G1 F4200 X122.41 Y135.71 E455.43114
G0 F12000 X122.62 Y135.34
G1 F4200 X170.57 Y183.30 E456.55892
G0 F12000 X170.95 Y183.11
G1 F4200 X122.82 Y134.98 E457.69079
G0 F12000 X123.02 Y134.62
G1 F4200 X171.32 Y182.92 E458.82676
G0 F12000 X171.70 Y182.73
G1 F4200 X123.23 Y134.26 E459.96681
G0 F12000 X123.43 Y133.89
G1 F4200 X172.08 Y182.54 E461.11096
G0 F12000 X172.46 Y182.35
G1 F4200 X123.63 Y133.53 E462.25921
G0 F12000 X123.83 Y133.17
G1 F4200 X172.83 Y182.17 E463.41155
G0 F12000 X173.21 Y181.98
G1 F4200 X124.04 Y132.81 E464.56798
G0 F12000 X124.27 Y132.47
G1 F4200 X173.59 Y181.79 E465.72776
G0 F12000 X173.55 Y181.19
G1 F4200 X124.53 Y132.16 E466.88070
G0 F12000 X124.78 Y131.85
G1 F4200 X173.37 Y180.44 E468.02358
G0 F12000 X173.71 Y180.22
G1 F4200 X125.03 Y131.54 E469.16842
G0 F12000 X125.28 Y131.22
G1 F4200 X174.06 Y180.00 E470.31547
G0 F12000 X174.40 Y179.78
G1 F4200 X125.54 Y130.91 E471.46472
G0 F12000 X125.79 Y130.60
G1 F4200 X174.75 Y179.56 E472.61620
G0 F12000 X175.09 Y179.34
G1 F4200 X126.04 Y130.28 E473.76987
G0 F12000 X126.29 Y129.97
G1 F4200 X175.44 Y179.12 E474.92574
G0 F12000 X175.78 Y178.89
G1 F4200 X126.55 Y129.66 E476.08357
G0 F12000 X126.80 Y129.34
G1 F4200 X176.04 Y178.59 E477.24166
G0 F12000 X176.30 Y178.28
G1 F4200 X127.05 Y129.03 E478.40001
G0 F12000 X127.30 Y128.72
G1 F4200 X176.57 Y177.98 E479.55860
G0 F12000 X176.83 Y177.68
G1 F4200 X127.56 Y128.40 E480.71745
G0 F12000 X127.82 Y128.10
G1 F4200 X177.09 Y177.38 E481.87632
G0 F12000 X177.36 Y177.07
G1 F4200 X128.12 Y127.83 E483.03433
G0 F12000 X128.42 Y127.57
G1 F4200 X177.62 Y176.77 E484.19145
G0 F12000 X177.88 Y176.47
G1 F4200 X128.72 Y127.31 E485.34771
G0 F12000 X129.02 Y127.04
G1 F4200 X178.15 Y176.17 E486.50308
G0 F12000 X178.41 Y175.86
G1 F4200 X128.83 Y126.28 E487.66912
G0 F12000 X128.83 Y125.72
G1 F4200 X178.67 Y175.56 E488.84138
G0 F12000 X178.94 Y175.26
G1 F4200 X128.63 Y124.95 E490.02452
G0 F12000 X128.63 Y124.39
G1 F4200 X179.20 Y174.96 E491.21386
G0 F12000 X179.46 Y174.65
G1 F4200 X128.63 Y123.82 E492.40939
G0 F12000 X128.63 Y123.25
G1 F4200 X179.73 Y174.35 E493.61111
G0 F12000 X179.99 Y174.05
G1 F4200 X128.63 Y122.69 E494.81903
G0 F12000 X128.63 Y122.12
G1 F4200 X180.25 Y173.75 E496.03314
G0 F12000 X180.51 Y173.44
G1 F4200 X128.63 Y121.56 E497.25342
G0 F12000 X128.63 Y120.99
G1 F4200 X180.78 Y173.14 E498.47990
G0 F12000 X181.04 Y172.84
G1 F4200 X128.63 Y120.43 E499.71259
G0 F12000 X128.63 Y119.86
G1 F4200 X181.31 Y172.54 E500.95148
G0 F12000 X181.57 Y172.24
G1 F4200 X128.63 Y119.30 E502.19655
G0 F12000 X128.63 Y118.73
G1 F4200 X181.83 Y171.93 E503.44782
G0 F12000 X182.10 Y171.63
G1 F4200 X128.63 Y118.16 E504.70529
G0 F12000 X129.02 Y117.99
G1 F4200 X182.36 Y171.33 E505.95979
G0 F12000 X182.62 Y171.03
G1 F4200 X129.44 Y117.85 E507.21049
G0 F12000 X129.87 Y117.70
G1 F4200 X182.88 Y170.72 E508.45735
G0 F12000 X183.06 Y170.33
G1 F4200 X130.29 Y117.56 E509.69831
G0 F12000 X130.72 Y117.42
G1 F4200 X183.23 Y169.94 E510.93334
G0 F12000 X183.40 Y169.54
G1 F4200 X131.14 Y117.28 E512.16247
G0 F12000 X131.56 Y117.14
G1 F4200 X183.57 Y169.15 E513.38566
G0 F12000 X183.75 Y168.76
G1 F4200 X131.99 Y117.00 E514.60298
G0 F12000 X132.41 Y116.86
G1 F4200 X183.92 Y168.36 E515.81438
G0 F12000 X184.09 Y167.97
G1 F4200 X132.84 Y116.72 E517.01984
G0 F12000 X133.26 Y116.57
G1 F4200 X184.27 Y167.58 E518.21942
G0 F12000 X184.44 Y167.19
G1 F4200 X133.71 Y116.45 E519.41255
G0 F12000 X134.16 Y116.34
G1 F4200 X184.61 Y166.79 E520.59910
G0 F12000 X184.78 Y166.40
G1 F4200 X134.61 Y116.23 E521.77907
G0 F12000 X135.06 Y116.11
G1 F4200 X184.96 Y166.01 E522.95248
G0 F12000 X185.13 Y165.62
G1 F4200 X135.52 Y116.00 E524.11930
G0 F12000 X135.97 Y115.89
G1 F4200 X185.30 Y165.22 E525.27955
G0 F12000 X185.48 Y164.83
G1 F4200 X136.42 Y115.78 E526.43322
G0 F12000 X136.88 Y115.66
G1 F4200 X185.65 Y164.44 E527.58031
G0 F12000 X185.82 Y164.04
G1 F4200 X137.33 Y115.55 E528.72084
G0 F12000 X137.78 Y115.44
G1 F4200 X186.00 Y163.65 E529.85477
G0 F12000 X186.17 Y163.26
G1 F4200 X138.23 Y115.32 E530.98214
G0 F12000 X138.69 Y115.21
G1 F4200 X186.34 Y162.87 E532.10294
G0 F12000 X186.51 Y162.47
G1 F4200 X139.14 Y115.10 E533.21715
G0 F12000 X139.59 Y114.98
G1 F4200 X186.69 Y162.08 E534.32479
G0 F12000 X186.86 Y161.69
G1 F4200 X140.09 Y114.92 E535.42472
G0 F12000 X140.66 Y114.92
G1 F4200 X187.03 Y161.29 E536.51544
G0 F12000 X187.21 Y160.90
G1 F4200 X141.22 Y114.92 E537.59691
G0 F12000 X141.79 Y114.92
G1 F4200 X187.32 Y160.45 E538.66775
G0 F12000 X187.38 Y159.94
G1 F4200 X142.35 Y114.92 E539.72660
G0 F12000 X142.92 Y114.92
G1 F4200 X187.43 Y159.43 E540.77347
G0 F12000 X187.49 Y158.92
G1 F4200 X143.49 Y114.92 E541.80833
G0 F12000 X144.05 Y114.92
G1 F4200 X187.54 Y158.41 E542.83119
G0 F12000 X187.60 Y157.90
G1 F4200 X144.62 Y114.92 E543.84206
G0 F12000 X145.18 Y114.92
G1 F4200 X187.65 Y157.39 E544.84094
G0 F12000 X187.71 Y156.88
G1 F4200 X145.75 Y114.92 E545.82782
G0 F12000 X146.31 Y114.92
G1 F4200 X187.77 Y156.37 E546.80273
G0 F12000 X187.82 Y155.86
G1 F4200 X146.88 Y114.92 E547.76563
G0 F12000 X147.44 Y114.92
G1 F4200 X187.88 Y155.35 E548.71653
G0 F12000 X187.93 Y154.84
G1 F4200 X148.11 Y115.01 E549.65317
G0 F12000 X148.81 Y115.16
G1 F4200 X187.99 Y154.33 E550.57452
G0 F12000 X188.04 Y153.82
G1 F4200 X149.53 Y115.31 E551.48022
G0 F12000 X150.29 Y115.50
G1 F4200 X188.10 Y153.31 E552.36947
G0 F12000 X188.16 Y152.80
G1 F4200 X151.04 Y115.69 E553.24233
G0 F12000 X151.80 Y115.88
G1 F4200 X188.21 Y152.29 E554.09875
G0 F12000 X188.27 Y151.78
G1 F4200 X152.55 Y116.06 E554.93874
G0 F12000 X153.31 Y116.25
G1 F4200 X188.32 Y151.27 E555.76229
G0 F12000 X188.38 Y150.76
G1 F4200 X154.20 Y116.58 E556.56605
G0 F12000 X154.76 Y116.57
G1 F4200 X188.43 Y150.25 E557.35810
G0 F12000 X188.46 Y149.71
G1 F4200 X155.45 Y116.70 E558.13446
G0 F12000 X156.16 Y116.84
G1 F4200 X188.32 Y149.01 E558.89087
G0 F12000 X188.19 Y148.30
G1 F4200 X156.87 Y116.99 E559.62733
G0 F12000 X157.58 Y117.14
G1 F4200 X188.05 Y147.60 E560.34382
G0 F12000 X187.91 Y146.90
G1 F4200 X158.29 Y117.28 E561.04037
G0 F12000 X159.00 Y117.43
G1 F4200 X187.77 Y146.20 E561.71698
G0 F12000 X187.64 Y145.49
G1 F4200 X159.72 Y117.57 E562.37364
G0 F12000 X160.11 Y117.40
G1 F4200 X187.50 Y144.79 E563.01788
G0 F12000 X187.36 Y144.09
G1 F4200 X160.39 Y117.11 E563.65227
G0 F12000 X160.67 Y116.83
G1 F4200 X187.23 Y143.38 E564.27678
G0 F12000 X187.09 Y142.68
G1 F4200 X160.96 Y116.55 E564.89141
G0 F12000 X161.24 Y116.27
G1 F4200 X186.95 Y141.98 E565.49614
G0 F12000 X186.81 Y141.28
G1 F4200 X161.52 Y115.98 E566.09103
G0 F12000 X161.80 Y115.70
G1 F4200 X186.68 Y140.57 E566.67604
G0 F12000 X186.54 Y139.87
G1 F4200 X162.09 Y115.42 E567.25118
G0 F12000 X162.37 Y115.13
G1 F4200 X186.40 Y139.17 E567.81644
G0 F12000 X185.80 Y138.00
G1 F4200 X162.65 Y114.85 E568.36077
G0 F12000 X162.94 Y114.57
G1 F4200 X185.18 Y136.81 E568.88383
G0 F12000 X184.59 Y135.66
G1 F4200 X163.22 Y114.29 E569.38646
G0 F12000 X163.50 Y114.00
G1 F4200 X184.59 Y135.09 E569.88244
G0 F12000 X184.59 Y134.53
G1 F4200 X163.78 Y113.72 E570.37177
G0 F12000 X164.07 Y113.44
G1 F4200 X184.59 Y133.96 E570.85443
G0 F12000 X184.59 Y133.39
G1 F4200 X164.51 Y113.32 E571.32660
G0 F12000 X165.08 Y113.32
G1 F4200 X184.59 Y132.83 E571.78547
G0 F12000 X184.59 Y132.26
G1 F4200 X165.64 Y113.32 E572.23103
G0 F12000 X166.21 Y113.32
G1 F4200 X184.59 Y131.70 E572.66329
G0 F12000 X184.59 Y131.13
G1 F4200 X166.78 Y113.32 E573.08225
G0 F12000 X167.34 Y113.32
G1 F4200 X182.79 Y128.77 E573.44556
G0 F12000 X183.54 Y129.52
G1 F4200 X184.59 Y130.57 E573.47023
G0 F12000 X184.59 Y130.00
G1 F4200 X184.11 Y129.52 E573.48159
G0 F12000 X181.59 Y127.00
G1 F4200 X167.91 Y113.32 E573.80338
G0 F12000 X168.47 Y113.32
G1 F4200 X180.59 Y125.44 E574.08835
G0 F12000 X179.39 Y123.67
G1 F4200 X169.04 Y113.32 E574.33179
;LAYER:-1
;RAFT
G0 F12000 X169.54 Y113.58 Z0.70
;TYPE:SUPPORT
G1 F2700 X163.88 Y113.58 E574.51995
G0 F12000 X163.52 Y113.94
G1 F2700 X169.90 Y113.94 E574.73205
G0 F12000 X170.26 Y114.30
G1 F2700 X163.16 Y114.30 E574.96809
G0 F12000 X162.80 Y114.66
G1 F2700 X170.62 Y114.66 E575.22809
G0 F12000 X170.98 Y115.02
G1 F2700 X162.44 Y115.02 E575.51203
G0 F12000 X162.08 Y115.38
G1 F2700 X171.34 Y115.38 E575.81992
G0 F12000 X171.70 Y115.74
G1 F2700 X161.72 Y115.74 E576.15175
G0 F12000 X161.36 Y116.10
G1 F2700 X172.06 Y116.10 E576.50754
G0 F12000 X172.42 Y116.46
G1 F2700 X161.00 Y116.46 E576.88727
G0 F12000 X160.64 Y116.82
G1 F2700 X172.78 Y116.82 E577.29095
G0 F12000 X173.21 Y117.18
G1 F2700 X160.28 Y117.18 E577.72080
G0 F12000 X159.92 Y117.54
G1 F2700 X173.70 Y117.54 E578.17903
G0 F12000 X174.06 Y117.90
G1 F2700 X129.19 Y117.90 E579.67154
G0 F12000 X128.60 Y118.26
G1 F2700 X174.42 Y118.26 E581.19549
G0 F12000 X174.78 Y118.62
G1 F2700 X128.60 Y118.62 E582.73141
G0 F12000 X128.60 Y118.98
G1 F2700 X175.14 Y118.98 E584.27933
G0 F12000 X175.50 Y119.34
G1 F2700 X128.60 Y119.34 E585.83923
G0 F12000 X128.60 Y119.70
G1 F2700 X175.86 Y119.70 E587.41111
G0 F12000 X176.22 Y120.06
G1 F2700 X128.60 Y120.06 E588.99496
G0 F12000 X128.60 Y120.42
G1 F2700 X176.58 Y120.42 E590.59078
G0 F12000 X176.94 Y120.78
G1 F2700 X128.60 Y120.78 E592.19857
G0 F12000 X128.60 Y121.14
G1 F2700 X177.30 Y121.14 E593.81834
G0 F12000 X177.66 Y121.50
G1 F2700 X128.60 Y121.50 E595.45008
G0 F12000 X128.60 Y121.86
G1 F2700 X178.02 Y121.86 E597.09380
G0 F12000 X178.38 Y122.22
G1 F2700 X128.60 Y122.22 E598.74949
G0 F12000 X128.60 Y122.58
G1 F2700 X178.74 Y122.58 E600.41715
G0 F12000 X179.02 Y122.94
G1 F2700 X128.60 Y122.94 E602.09416
G0 F12000 X128.60 Y123.30
G1 F2700 X179.26 Y123.30 E603.77912
G0 F12000 X179.42 Y123.66
G1 F2700 X128.60 Y123.66 E605.46943
G0 F12000 X128.60 Y124.02
G1 F2700 X179.78 Y124.02 E607.17169
G0 F12000 X179.94 Y124.38
G1 F2700 X128.60 Y124.38 E608.87926
G0 F12000 X128.60 Y124.74
G1 F2700 X180.22 Y124.74 E610.59618
G0 F12000 X180.46 Y125.10
G1 F2700 X128.60 Y125.10 E612.32105
G0 F12000 X128.63 Y125.46
G1 F2700 X180.62 Y125.46 E614.05038
G0 F12000 X180.98 Y125.82
G1 F2700 X128.80 Y125.82 E615.78590
G0 F12000 X128.80 Y126.18
G1 F2700 X181.14 Y126.18 E617.52673
G0 F12000 X181.30 Y126.54
G1 F2700 X128.91 Y126.54 E619.26933
G0 F12000 X129.00 Y126.90
G1 F2700 X181.62 Y126.90 E621.01951
G0 F12000 X181.82 Y127.26
G1 F2700 X128.72 Y127.26 E622.78549
G0 F12000 X128.32 Y127.62
G1 F2700 X182.02 Y127.62 E624.57169
G0 F12000 X182.34 Y127.98
G1 F2700 X127.91 Y127.98 E626.38204
G0 F12000 X127.57 Y128.34
G1 F2700 X182.50 Y128.34 E628.20905
G0 F12000 X182.82 Y128.70
G1 F2700 X127.28 Y128.70 E630.05639
G0 F12000 X126.99 Y129.06
G1 F2700 X183.02 Y129.06 E631.91995
G0 F12000 X183.22 Y129.42
G1 F2700 X126.70 Y129.42 E633.79985
G0 F12000 X126.41 Y129.78
G1 F2700 X184.62 Y129.78 E635.73596
G0 F12000 X184.62 Y130.14
G1 F2700 X126.12 Y130.14 E637.68171
G0 F12000 X125.83 Y130.50
G1 F2700 X184.62 Y130.50 E639.63710
G0 F12000 X184.62 Y130.86
G1 F2700 X125.54 Y130.86 E641.60215
G0 F12000 X125.25 Y131.22
G1 F2700 X184.62 Y131.22 E643.57683
G0 F12000 X184.62 Y131.58
G1 F2700 X124.96 Y131.58 E645.56117
G0 F12000 X124.67 Y131.94
G1 F2700 X184.62 Y131.94 E647.55518
G0 F12000 X184.62 Y132.30
G1 F2700 X124.38 Y132.30 E649.55887
G0 F12000 X124.09 Y132.66
G1 F2700 X184.62 Y132.66 E651.57217
G0 F12000 X184.62 Y133.02
G1 F2700 X123.89 Y133.02 E653.59219
G0 F12000 X123.68 Y133.38
G1 F2700 X184.62 Y133.38 E655.61893
G0 F12000 X184.62 Y133.74
G1 F2700 X123.48 Y133.74 E657.65239
G0 F12000 X123.28 Y134.10
G1 F2700 X184.62 Y134.10 E659.69257
G0 F12000 X184.62 Y134.46
G1 F2700 X123.08 Y134.46 E661.73946
G0 F12000 X122.88 Y134.82
G1 F2700 X184.62 Y134.82 E663.79308
G0 F12000 X184.62 Y135.18
G1 F2700 X122.67 Y135.18 E665.85337
G0 F12000 X122.47 Y135.54
G1 F2700 X184.62 Y135.54 E667.92039
G0 F12000 X184.73 Y135.90
G1 F2700 X122.27 Y135.90 E669.99792
G0 F12000 X122.07 Y136.26
G1 F2700 X184.92 Y136.26 E672.08845
G0 F12000 X185.11 Y136.62
G1 F2700 X121.87 Y136.62 E674.19196
G0 F12000 X121.67 Y136.98
G1 F2700 X185.30 Y136.98 E676.30846
G0 F12000 X185.49 Y137.34
G1 F2700 X121.46 Y137.34 E678.43794
G0 F12000 X121.31 Y137.70
G1 F2700 X185.68 Y137.70 E680.57893
G0 F12000 X185.87 Y138.06
G1 F2700 X121.18 Y138.06 E682.73046
G0 F12000 X121.05 Y138.42
G1 F2700 X186.05 Y138.42 E684.89257
G0 F12000 X186.24 Y138.78
G1 F2700 X120.92 Y138.78 E687.06526
G0 F12000 X120.79 Y139.14
G1 F2700 X186.43 Y139.14 E689.24849
G0 F12000 X186.50 Y139.50
G1 F2700 X120.66 Y139.50 E691.43833
G0 F12000 X120.53 Y139.86
G1 F2700 X186.57 Y139.86 E693.63480
G0 F12000 X186.64 Y140.22
G1 F2700 X120.40 Y140.22 E695.83792
G0 F12000 X120.27 Y140.58
G1 F2700 X186.71 Y140.58 E698.04769
G0 F12000 X186.78 Y140.94
G1 F2700 X120.14 Y140.94 E700.26408
G0 F12000 X120.01 Y141.30
G1 F2700 X186.85 Y141.30 E702.48708
G0 F12000 X186.92 Y141.66
G1 F2700 X119.89 Y141.66 E704.71674
G0 F12000 X119.75 Y142.02
G1 F2700 X186.99 Y142.02 E706.95306
G0 F12000 X187.06 Y142.38
G1 F2700 X119.63 Y142.38 E709.19599
G0 F12000 X119.53 Y142.74
G1 F2700 X187.13 Y142.74 E711.44447
G0 F12000 X187.20 Y143.10
G1 F2700 X119.46 Y143.10 E713.69745
G0 F12000 X119.40 Y143.46
G1 F2700 X187.27 Y143.46 E715.95494
G0 F12000 X187.34 Y143.82
G1 F2700 X119.33 Y143.82 E718.21693
G0 F12000 X119.27 Y144.18
G1 F2700 X187.41 Y144.18 E720.48341
G0 F12000 X187.48 Y144.54
G1 F2700 X119.20 Y144.54 E722.75438
G0 F12000 X119.14 Y144.90
G1 F2700 X187.55 Y144.90 E725.02987
G0 F12000 X187.62 Y145.26
G1 F2700 X119.07 Y145.26 E727.30986
G0 F12000 X119.01 Y145.62
G1 F2700 X187.69 Y145.62 E729.59433
G0 F12000 X187.76 Y145.98
G1 F2700 X118.94 Y145.98 E731.88329
G0 F12000 X118.88 Y146.34
G1 F2700 X187.84 Y146.34 E734.17678
G0 F12000 X187.91 Y146.70
G1 F2700 X118.81 Y146.70 E736.47475
G0 F12000 X118.75 Y147.06
G1 F2700 X187.97 Y147.06 E738.77722
G0 F12000 X188.04 Y147.42
G1 F2700 X118.68 Y147.42 E741.08414
G0 F12000 X118.62 Y147.78
G1 F2700 X188.12 Y147.78 E743.39559
G0 F12000 X188.19 Y148.14
G1 F2700 X118.60 Y148.14 E745.71003
G0 F12000 X118.59 Y148.50
G1 F2700 X188.26 Y148.50 E748.02696
G0 F12000 X188.33 Y148.86
G1 F2700 X118.59 Y148.86 E750.34639
G0 F12000 X118.59 Y149.22
G1 F2700 X188.40 Y149.22 E752.66831
G0 F12000 X188.47 Y149.58
G1 F2700 X118.58 Y149.58 E754.99273
G0 F12000 X118.58 Y149.94
G1 F2700 X188.50 Y149.94 E757.31835
G0 F12000 X188.46 Y150.30
G1 F2700 X118.57 Y150.30 E759.64283
G0 F12000 X118.57 Y150.66
G1 F2700 X188.42 Y150.66 E761.96615
G0 F12000 X188.38 Y151.02
G1 F2700 X118.56 Y151.02 E764.28831
G0 F12000 X118.56 Y151.38
G1 F2700 X188.34 Y151.38 E766.60930
G0 F12000 X188.30 Y151.74
G1 F2700 X118.55 Y151.74 E768.92916
G0 F12000 X118.55 Y152.10
G1 F2700 X188.26 Y152.10 E771.24782
G0 F12000 X188.22 Y152.46
G1 F2700 X118.55 Y152.46 E773.56536
G0 F12000 X118.54 Y152.82
G1 F2700 X188.19 Y152.82 E775.88173
G0 F12000 X188.15 Y153.18
G1 F2700 X118.54 Y153.18 E778.19693
G0 F12000 X118.55 Y153.54
G1 F2700 X188.11 Y153.54 E780.51024
G0 F12000 X188.07 Y153.90
G1 F2700 X118.61 Y153.90 E782.82039
G0 F12000 X118.67 Y154.26
G1 F2700 X188.03 Y154.26 E785.12734
G0 F12000 X187.99 Y154.62
G1 F2700 X118.72 Y154.62 E787.43114
G0 F12000 X118.78 Y154.98
G1 F2700 X187.95 Y154.98 E789.73178
G0 F12000 X187.91 Y155.34
G1 F2700 X118.83 Y155.34 E792.02926
G0 F12000 X118.89 Y155.70
G1 F2700 X187.87 Y155.70 E794.32354
G0 F12000 X187.83 Y156.06
G1 F2700 X118.95 Y156.06 E796.61466
G0 F12000 X119.00 Y156.42
G1 F2700 X187.79 Y156.42 E798.90263
G0 F12000 X187.75 Y156.78
G1 F2700 X119.06 Y156.78 E801.18740
G0 F12000 X119.11 Y157.14
G1 F2700 X187.71 Y157.14 E803.46901
G0 F12000 X187.67 Y157.50
G1 F2700 X119.17 Y157.50 E805.74746
G0 F12000 X119.23 Y157.86
G1 F2700 X187.63 Y157.86 E808.02272
G0 F12000 X187.59 Y158.22
G1 F2700 X119.28 Y158.22 E810.29482
G0 F12000 X119.34 Y158.58
G1 F2700 X187.56 Y158.58 E812.56376
G0 F12000 X187.52 Y158.94
G1 F2700 X119.39 Y158.94 E814.82951
G0 F12000 X119.48 Y159.30
G1 F2700 X187.48 Y159.30 E817.09110
G0 F12000 X187.44 Y159.66
G1 F2700 X119.60 Y159.66 E819.34737
G0 F12000 X119.72 Y160.02
G1 F2700 X187.40 Y160.02 E821.59831
G0 F12000 X187.36 Y160.38
G1 F2700 X119.84 Y160.38 E823.84394
G0 F12000 X119.96 Y160.74
G1 F2700 X187.31 Y160.74 E826.08401
G0 F12000 X187.15 Y161.10
G1 F2700 X119.96 Y161.10 E828.31879
G0 F12000 X119.60 Y161.46
G1 F2700 X187.00 Y161.46 E830.56029
G0 F12000 X186.84 Y161.82
G1 F2700 X119.24 Y161.82 E832.80848
G0 F12000 X118.88 Y162.18
G1 F2700 X186.68 Y162.18 E835.06338
G0 F12000 X186.52 Y162.54
G1 F2700 X118.52 Y162.54 E837.32497
G0 F12000 X118.36 Y162.90
G1 F2700 X186.36 Y162.90 E839.58663
G0 F12000 X186.20 Y163.26
G1 F2700 X118.00 Y163.26 E841.85500
G0 F12000 X117.64 Y163.62
G1 F2700 X186.04 Y163.62 E844.13006
G0 F12000 X185.88 Y163.98
G1 F2700 X117.28 Y163.98 E846.41184
G0 F12000 X116.92 Y164.34
G1 F2700 X185.73 Y164.34 E848.70030
G0 F12000 X185.57 Y164.70
G1 F2700 X116.56 Y164.70 E850.99548
G0 F12000 X116.20 Y165.06
G1 F2700 X185.41 Y165.06 E853.29735
G0 F12000 X185.25 Y165.42
G1 F2700 X115.84 Y165.42 E855.60590
G0 F12000 X115.48 Y165.78
G1 F2700 X185.09 Y165.78 E857.92117
G0 F12000 X184.93 Y166.14
G1 F2700 X115.12 Y166.14 E860.24313
G0 F12000 X114.76 Y166.50
G1 F2700 X184.78 Y166.50 E862.57181
G0 F12000 X184.62 Y166.86
G1 F2700 X114.40 Y166.86 E864.90717
G0 F12000 X114.04 Y167.22
G1 F2700 X184.46 Y167.22 E867.24925
G0 F12000 X184.30 Y167.58
G1 F2700 X114.34 Y167.58 E869.57593
G0 F12000 X114.70 Y167.94
G1 F2700 X184.14 Y167.94 E871.88534
G0 F12000 X183.98 Y168.30
G1 F2700 X115.06 Y168.30 E874.17753
G0 F12000 X115.42 Y168.66
G1 F2700 X183.82 Y168.66 E876.45246
G0 F12000 X183.66 Y169.02
G1 F2700 X115.78 Y169.02 E878.71016
G0 F12000 X116.14 Y169.38
G1 F2700 X183.51 Y169.38 E880.95059
G0 F12000 X183.35 Y169.74
G1 F2700 X116.50 Y169.74 E883.17380
G0 F12000 X116.86 Y170.10
G1 F2700 X183.19 Y170.10 E885.37974
G0 F12000 X183.03 Y170.46
G1 F2700 X117.22 Y170.46 E887.56843
G0 F12000 X117.58 Y170.82
G1 F2700 X182.84 Y170.82 E889.73885
G0 F12000 X182.53 Y171.18
G1 F2700 X117.94 Y171.18 E891.88686
G0 F12000 X118.31 Y171.54
G1 F2700 X182.21 Y171.54 E894.01248
G0 F12000 X181.90 Y171.90
G1 F2700 X118.67 Y171.90 E896.11568
G0 F12000 X119.03 Y172.26
G1 F2700 X181.59 Y172.26 E898.19650
G0 F12000 X181.27 Y172.62
G1 F2700 X119.39 Y172.62 E900.25494
G0 F12000 X119.75 Y172.98
G1 F2700 X180.96 Y172.98 E902.29096
G0 F12000 X180.65 Y173.34
G1 F2700 X120.11 Y173.34 E904.30460
G0 F12000 X120.47 Y173.70
G1 F2700 X180.33 Y173.70 E906.29581
G0 F12000 X180.02 Y174.06
G1 F2700 X120.83 Y174.06 E908.26465
G0 F12000 X121.39 Y174.42
G1 F2700 X179.71 Y174.42 E910.20441
G0 F12000 X179.39 Y174.78
G1 F2700 X121.75 Y174.78 E912.12179
G0 F12000 X122.11 Y175.14
G1 F2700 X179.08 Y175.14 E914.01679
G0 F12000 X178.77 Y175.50
G1 F2700 X122.47 Y175.50 E915.88937
G0 F12000 X122.83 Y175.86
G1 F2700 X178.45 Y175.86 E917.73956
G0 F12000 X178.14 Y176.22
G1 F2700 X123.19 Y176.22 E919.56734
G0 F12000 X123.55 Y176.58
G1 F2700 X177.83 Y176.58 E921.37273
G0 F12000 X177.51 Y176.94
G1 F2700 X124.26 Y176.94 E923.14383
G0 F12000 X124.86 Y177.30
G1 F2700 X177.20 Y177.30 E924.88447
G0 F12000 X176.88 Y177.66
G1 F2700 X125.50 Y177.66 E926.59344
G0 F12000 X126.18 Y178.02
G1 F2700 X176.57 Y178.02 E928.26935
G0 F12000 X176.26 Y178.38
G1 F2700 X126.74 Y178.38 E929.91623
G0 F12000 X127.46 Y178.74
G1 F2700 X175.94 Y178.74 E931.52878
G0 F12000 X175.53 Y179.10
G1 F2700 X127.98 Y179.10 E933.11007
G0 F12000 X128.70 Y179.46
G1 F2700 X174.96 Y179.46 E934.64855
G0 F12000 X174.39 Y179.82
G1 F2700 X129.19 Y179.82 E936.15217
G0 F12000 X129.54 Y180.18
G1 F2700 X173.82 Y180.18 E937.62493
G0 F12000 X173.43 Y180.54
G1 F2700 X130.78 Y180.54 E939.04344
G0 F12000 X132.10 Y180.90
G1 F2700 X173.51 Y180.90 E940.42084
G0 F12000 X173.60 Y181.26
G1 F2700 X133.38 Y181.26 E941.75850
G0 F12000 X135.27 Y181.62
G1 F2700 X173.68 Y181.62 E943.03602
G0 F12000 X173.28 Y181.98
G1 F2700 X135.87 Y181.98 E944.28022
G0 F12000 X136.46 Y182.34
G1 F2700 X172.56 Y182.34 E945.48068
G0 F12000 X171.84 Y182.70
G1 F2700 X137.06 Y182.70 E946.63740
G0 F12000 X138.11 Y183.06
G1 F2700 X171.12 Y183.06 E947.73518
G0 F12000 X170.40 Y183.42
G1 F2700 X139.19 Y183.42 E948.77316
G0 F12000 X140.26 Y183.78
G1 F2700 X169.87 Y183.78 E949.75793
G0 F12000 X169.51 Y184.14
G1 F2700 X141.20 Y184.14 E950.69962
G0 F12000 X141.20 Y184.50
G1 F2700 X169.15 Y184.50 E951.62934
G0 F12000 X168.79 Y184.86
G1 F2700 X141.20 Y184.86 E952.54709
G0 F12000 X141.20 Y185.22
G1 F2700 X168.19 Y185.22 E953.44495
G0 F12000 X167.47 Y185.58
G1 F2700 X141.20 Y185.58 E954.31886
G0 F12000 X141.20 Y185.94
G1 F2700 X166.75 Y185.94 E955.16882
G0 F12000 X166.03 Y186.30
G1 F2700 X141.20 Y186.30 E955.99484
G0 F12000 X141.20 Y186.66
G1 F2700 X165.31 Y186.66 E956.79690
G0 F12000 X164.59 Y187.02
G1 F2700 X142.39 Y187.02 E957.53555
G0 F12000 X142.40 Y187.38
G1 F2700 X163.88 Y187.38 E958.24981
G0 F12000 X163.16 Y187.74
G1 F2700 X142.60 Y187.74 E958.93347
G0 F12000 X142.67 Y188.10
G1 F2700 X162.44 Y188.10 E959.59099
G0 F12000 X161.72 Y188.46
G1 F2700 X142.80 Y188.46 E960.22010
G0 F12000 X142.80 Y188.82
G1 F2700 X161.00 Y188.82 E960.82527
G0 F12000 X160.28 Y189.18
G1 F2700 X142.80 Y189.18 E961.40649
G0 F12000 X142.80 Y189.54
G1 F2700 X159.56 Y189.54 E961.96377
G0 F12000 X158.72 Y189.90
G1 F2700 X142.80 Y189.90 E962.49323
G0 F12000 X142.80 Y190.26
G1 F2700 X157.56 Y190.26 E962.98432
G0 F12000 X156.12 Y190.62
G1 F2700 X142.80 Y190.62 E963.42741
G0 F12000 X142.80 Y190.98
G1 F2700 X154.68 Y190.98 E963.82251
G0 F12000 X153.44 Y191.34
G1 F2700 X142.80 Y191.34 E964.17656
G0 F12000 X142.80 Y191.70
G1 F2700 X152.00 Y191.70 E964.48262
G0 F12000 X150.56 Y192.06
G1 F2700 X142.80 Y192.06 E964.74072
G0 F12000 X130.26 Y117.54
G1 F2700 X159.72 Y117.54 E965.72027
G0 F12000 X157.96 Y117.18
G1 F2700 X131.34 Y117.18 E966.60532
G0 F12000 X132.43 Y116.82
G1 F2700 X156.19 Y116.82 E967.39585
G0 F12000 X153.62 Y116.46
G1 F2700 X133.56 Y116.46 E968.06311
G0 F12000 X135.00 Y116.10
G1 F2700 X152.82 Y116.10 E968.65594
G0 F12000 X151.38 Y115.74
G1 F2700 X136.44 Y115.74 E969.15301
G0 F12000 X137.88 Y115.38
G1 F2700 X149.94 Y115.38 E969.55429
G0 F12000 X148.30 Y115.02
G1 F2700 X139.32 Y115.02 E969.85287
;LAYER:-1
;RAFT
G0 F12000 X139.14 Y115.06 Z0.90
;TYPE:SUPPORT
G1 F2700 X139.14 Y183.40 E972.12584
G0 F12000 X139.50 Y183.52
G1 F2700 X139.50 Y114.97 E974.40578
G0 F12000 X139.86 Y114.89
G1 F2700 X139.86 Y183.64 E976.69262
G0 F12000 X140.22 Y183.76
G1 F2700 X140.22 Y114.89 E978.98344
G0 F12000 X140.58 Y114.89
G1 F2700 X140.58 Y183.88 E981.27826
G0 F12000 X140.94 Y184.00
G1 F2700 X140.94 Y114.89 E983.57710
G0 F12000 X141.30 Y114.89
G1 F2700 X141.30 Y187.01 E985.97582
G0 F12000 X141.66 Y187.01
G1 F2700 X141.66 Y114.89 E988.37454
G0 F12000 X142.02 Y114.89
G1 F2700 X142.02 Y187.01 E990.77326
G0 F12000 X142.38 Y187.01
G1 F2700 X142.38 Y114.89 E993.17215
G0 F12000 X142.74 Y114.89
G1 F2700 X142.74 Y188.17 E995.60962
G0 F12000 X143.10 Y192.21
G1 F2700 X143.10 Y114.89 E998.18129
G0 F12000 X143.46 Y114.89
G1 F2700 X143.46 Y192.21 E1000.75297
G0 F12000 X143.82 Y192.21
G1 F2700 X143.82 Y114.89 E1003.32464
G0 F12000 X144.18 Y114.89
G1 F2700 X144.18 Y192.21 E1005.89631
G0 F12000 X144.54 Y192.21
G1 F2700 X144.54 Y114.89 E1008.46799
G0 F12000 X144.90 Y114.89
G1 F2700 X144.90 Y192.21 E1011.03966
G0 F12000 X145.26 Y192.21
G1 F2700 X145.26 Y114.89 E1013.61133
G0 F12000 X145.62 Y114.89
G1 F2700 X145.62 Y192.21 E1016.18301
G0 F12000 X145.98 Y192.21
G1 F2700 X145.98 Y114.89 E1018.75468
G0 F12000 X146.34 Y114.89
G1 F2700 X146.34 Y192.21 E1021.32636
G0 F12000 X146.70 Y192.21
G1 F2700 X146.70 Y114.89 E1023.89803
G0 F12000 X147.06 Y114.89
G1 F2700 X147.06 Y192.21 E1026.46970
G0 F12000 X147.42 Y192.21
G1 F2700 X147.42 Y114.89 E1029.04138
G0 F12000 X147.78 Y114.92
G1 F2700 X147.78 Y192.21 E1031.61205
G0 F12000 X148.14 Y192.21
G1 F2700 X148.14 Y114.99 E1034.18033
G0 F12000 X148.50 Y115.06
G1 F2700 X148.50 Y192.21 E1036.74622
G0 F12000 X148.86 Y192.21
G1 F2700 X148.86 Y115.13 E1039.30971
G0 F12000 X149.22 Y115.20
G1 F2700 X149.22 Y192.21 E1041.87081
G0 F12000 X149.58 Y192.21
G1 F2700 X149.58 Y115.29 E1044.42908
G0 F12000 X149.94 Y115.38
G1 F2700 X149.94 Y192.21 E1046.98435
G0 F12000 X150.30 Y192.12
G1 F2700 X150.30 Y115.47 E1049.53391
G0 F12000 X150.66 Y115.56
G1 F2700 X150.66 Y192.03 E1052.07748
G0 F12000 X151.02 Y191.94
G1 F2700 X151.02 Y115.65 E1054.61506
G0 F12000 X151.38 Y115.74
G1 F2700 X151.38 Y191.85 E1057.14666
G0 F12000 X151.74 Y191.76
G1 F2700 X151.74 Y115.83 E1059.67226
G0 F12000 X152.10 Y115.92
G1 F2700 X152.10 Y191.68 E1062.19189
G0 F12000 X152.46 Y191.59
G1 F2700 X152.46 Y116.01 E1064.70552
G0 F12000 X152.82 Y116.10
G1 F2700 X152.82 Y191.50 E1067.21320
G0 F12000 X153.18 Y191.41
G1 F2700 X153.18 Y116.19 E1069.71490
G0 F12000 X153.54 Y116.38
G1 F2700 X153.54 Y191.32 E1072.20724
G0 F12000 X153.90 Y191.23
G1 F2700 X153.90 Y116.56 E1074.69068
G0 F12000 X154.26 Y116.55
G1 F2700 X154.26 Y191.12 E1077.17085
G0 F12000 X154.62 Y191.00
G1 F2700 X154.62 Y116.54 E1079.64724
G0 F12000 X154.98 Y116.57
G1 F2700 X154.98 Y190.90 E1082.11950
G0 F12000 X155.34 Y190.81
G1 F2700 X155.34 Y116.65 E1084.58637
G0 F12000 X155.70 Y116.72
G1 F2700 X155.70 Y190.72 E1087.04778
G0 F12000 X156.06 Y190.63
G1 F2700 X156.06 Y116.79 E1089.50378
G0 F12000 X156.42 Y116.87
G1 F2700 X156.42 Y190.54 E1091.95432
G0 F12000 X156.78 Y190.46
G1 F2700 X156.78 Y116.94 E1094.39944
G0 F12000 X157.14 Y117.01
G1 F2700 X157.14 Y190.37 E1096.83914
G0 F12000 X157.50 Y190.28
G1 F2700 X157.50 Y117.09 E1099.27338
G0 F12000 X157.86 Y117.16
G1 F2700 X157.86 Y190.19 E1101.70220
G0 F12000 X158.22 Y190.07
G1 F2700 X158.22 Y117.23 E1104.12460
G0 F12000 X158.58 Y117.31
G1 F2700 X158.58 Y189.95 E1106.54055
G0 F12000 X158.94 Y189.83
G1 F2700 X158.94 Y117.38 E1108.95005
G0 F12000 X159.30 Y117.46
G1 F2700 X159.30 Y189.67 E1111.35180
G0 F12000 X159.66 Y189.49
G1 F2700 X159.66 Y117.53 E1113.74513
G0 F12000 X160.02 Y117.44
G1 F2700 X160.02 Y189.31 E1116.13540
G0 F12000 X160.38 Y189.13
G1 F2700 X160.38 Y117.08 E1118.53166
G0 F12000 X160.74 Y116.72
G1 F2700 X160.74 Y188.95 E1120.93391
G0 F12000 X161.10 Y188.77
G1 F2700 X161.10 Y116.36 E1123.34214
G0 F12000 X161.46 Y116.00
G1 F2700 X161.46 Y188.59 E1125.75636
G0 F12000 X161.82 Y188.41
G1 F2700 X161.82 Y115.64 E1128.17657
G0 F12000 X162.18 Y115.28
G1 F2700 X162.18 Y188.23 E1130.60276
G0 F12000 X162.54 Y188.05
G1 F2700 X162.54 Y114.92 E1133.03494
G0 F12000 X162.90 Y114.56
G1 F2700 X162.90 Y187.87 E1135.47311
G0 F12000 X163.26 Y187.69
G1 F2700 X163.26 Y114.20 E1137.91726
G0 F12000 X163.62 Y113.84
G1 F2700 X163.62 Y187.51 E1140.36741
G0 F12000 X163.98 Y187.33
G1 F2700 X163.98 Y113.48 E1142.82353
G0 F12000 X164.34 Y113.29
G1 F2700 X164.34 Y187.15 E1145.28013
G0 F12000 X164.70 Y186.97
G1 F2700 X164.70 Y113.29 E1147.73073
G0 F12000 X165.06 Y113.29
G1 F2700 X165.06 Y186.79 E1150.17535
G0 F12000 X165.42 Y186.61
G1 F2700 X165.42 Y113.29 E1152.61399
G0 F12000 X165.78 Y113.29
G1 F2700 X165.78 Y186.43 E1155.04663
G0 F12000 X166.14 Y186.25
G1 F2700 X166.14 Y113.29 E1157.47329
G0 F12000 X166.50 Y113.29
G1 F2700 X166.50 Y186.07 E1159.89397
G0 F12000 X166.86 Y185.89
G1 F2700 X166.86 Y113.29 E1162.30865
G0 F12000 X167.22 Y113.29
G1 F2700 X167.22 Y185.71 E1164.71735
G0 F12000 X167.58 Y185.53
G1 F2700 X167.58 Y113.29 E1167.12006
G0 F12000 X167.94 Y113.29
G1 F2700 X167.94 Y185.35 E1169.51679
G0 F12000 X168.30 Y185.17
G1 F2700 X168.30 Y113.29 E1171.90753
G0 F12000 X168.66 Y113.29
G1 F2700 X168.66 Y184.99 E1174.29228
G0 F12000 X169.02 Y184.63
G1 F2700 X169.02 Y113.29 E1176.66526
G0 F12000 X169.38 Y113.42
G1 F2700 X169.38 Y184.27 E1179.02180
G0 F12000 X169.74 Y183.91
G1 F2700 X169.74 Y113.78 E1181.35440
G0 F12000 X170.10 Y114.14
G1 F2700 X170.10 Y183.57 E1183.66352
G0 F12000 X170.46 Y183.39
G1 F2700 X170.46 Y114.50 E1185.95468
G0 F12000 X170.82 Y114.86
G1 F2700 X170.82 Y183.21 E1188.22788
G0 F12000 X171.18 Y183.03
G1 F2700 X171.18 Y115.22 E1190.48311
G0 F12000 X171.54 Y115.58
G1 F2700 X171.54 Y182.85 E1192.72039
G0 F12000 X171.90 Y182.67
G1 F2700 X171.90 Y115.94 E1194.93970
G0 F12000 X172.26 Y116.30
G1 F2700 X172.26 Y182.49 E1197.14106
G0 F12000 X172.62 Y182.31
G1 F2700 X172.62 Y116.66 E1199.32445
G0 F12000 X172.98 Y117.02
G1 F2700 X172.98 Y182.13 E1201.48989
G0 F12000 X173.34 Y181.95
G1 F2700 X173.34 Y117.25 E1203.64179
G0 F12000 X173.70 Y117.54
G1 F2700 X173.70 Y180.26 E1205.72780
G0 F12000 X174.06 Y180.03
G1 F2700 X174.06 Y117.90 E1207.79425
G0 F12000 X174.42 Y118.26
G1 F2700 X174.42 Y179.80 E1209.84111
G0 F12000 X174.78 Y179.57
G1 F2700 X174.78 Y118.62 E1211.86841
G0 F12000 X175.14 Y118.98
G1 F2700 X175.14 Y179.35 E1213.87616
G0 F12000 X175.50 Y179.12
G1 F2700 X175.50 Y119.34 E1215.86432
G0 F12000 X175.86 Y119.70
G1 F2700 X175.86 Y178.84 E1217.83122
G0 F12000 X176.22 Y178.42
G1 F2700 X176.22 Y120.06 E1219.77239
G0 F12000 X176.58 Y120.42
G1 F2700 X176.58 Y178.01 E1221.68784
G0 F12000 X176.94 Y177.60
G1 F2700 X176.94 Y120.78 E1223.57755
G0 F12000 X177.30 Y121.14
G1 F2700 X177.30 Y177.18 E1225.44154
G0 F12000 X177.66 Y176.77
G1 F2700 X177.66 Y121.50 E1227.27980
G0 F12000 X178.02 Y121.86
G1 F2700 X178.02 Y176.36 E1229.09234
G0 F12000 X178.38 Y175.94
G1 F2700 X178.38 Y122.22 E1230.87914
G0 F12000 X178.74 Y122.58
G1 F2700 X178.74 Y175.53 E1232.64023
G0 F12000 X179.10 Y175.12
G1 F2700 X179.10 Y123.14 E1234.36893
G0 F12000 X179.46 Y123.70
G1 F2700 X179.46 Y174.70 E1236.06523
G0 F12000 X179.82 Y174.29
G1 F2700 X179.82 Y124.06 E1237.73585
G0 F12000 X180.18 Y124.62
G1 F2700 X180.18 Y173.88 E1239.37405
G0 F12000 X180.54 Y173.46
G1 F2700 X180.54 Y125.18 E1240.97988
G0 F12000 X180.90 Y125.74
G1 F2700 X180.90 Y173.05 E1242.55332
G0 F12000 X181.26 Y172.64
G1 F2700 X181.26 Y126.50 E1244.08774
G0 F12000 X181.62 Y126.86
G1 F2700 X181.62 Y172.22 E1245.59645
G0 F12000 X181.98 Y171.81
G1 F2700 X181.98 Y127.42 E1247.07277
G0 F12000 X182.34 Y127.98
G1 F2700 X182.34 Y171.40 E1248.51669
G0 F12000 X182.70 Y170.98
G1 F2700 X182.70 Y128.54 E1249.92825
G0 F12000 X183.06 Y129.10
G1 F2700 X183.06 Y170.39 E1251.30160
G0 F12000 X183.42 Y169.58
G1 F2700 X183.42 Y129.49 E1252.63496
G0 F12000 X183.78 Y129.49
G1 F2700 X183.78 Y168.76 E1253.94115
G0 F12000 X184.14 Y167.94
G1 F2700 X184.14 Y129.49 E1255.22017
G0 F12000 X184.50 Y129.49
G1 F2700 X184.50 Y167.12 E1256.47199
G0 F12000 X184.86 Y166.31
G1 F2700 X184.86 Y136.14 E1257.47531
G0 F12000 X185.22 Y136.83
G1 F2700 X185.22 Y165.49 E1258.42861
G0 F12000 X185.58 Y164.67
G1 F2700 X185.58 Y137.52 E1259.33182
G0 F12000 X185.94 Y138.20
G1 F2700 X185.94 Y163.85 E1260.18498
G0 F12000 X186.30 Y163.04
G1 F2700 X186.30 Y138.89 E1260.98811
G0 F12000 X186.66 Y140.32
G1 F2700 X186.66 Y162.22 E1261.71648
G0 F12000 X187.02 Y161.40
G1 F2700 X187.02 Y142.17 E1262.35627
G0 F12000 X187.38 Y144.01
G1 F2700 X187.38 Y160.19 E1262.89445
G0 F12000 X187.74 Y156.90
G1 F2700 X187.74 Y145.86 E1263.26164
G0 F12000 X188.10 Y147.71
G1 F2700 X188.10 Y153.60 E1263.45768
G0 F12000 X188.46 Y150.30
G1 F2700 X188.46 Y149.55 E1263.48282
G0 F12000 X138.78 Y183.28
G1 F2700 X138.78 Y115.15 E1265.74877
G0 F12000 X138.42 Y115.24
G1 F2700 X138.42 Y183.16 E1268.00773
G0 F12000 X138.06 Y183.04
G1 F2700 X138.06 Y115.33 E1270.25971
G0 F12000 X137.70 Y115.42
G1 F2700 X137.70 Y182.92 E1272.50470
G0 F12000 X137.34 Y182.80
G1 F2700 X137.34 Y115.51 E1274.74271
G0 F12000 X136.98 Y115.60
G1 F2700 X136.98 Y182.65 E1276.97270
G0 F12000 X136.62 Y182.43
G1 F2700 X136.62 Y115.69 E1279.19248
G0 F12000 X136.26 Y115.78
G1 F2700 X136.26 Y182.22 E1281.40202
G0 F12000 X135.90 Y182.00
G1 F2700 X135.90 Y115.87 E1283.60131
G0 F12000 X135.54 Y115.96
G1 F2700 X135.54 Y181.78 E1285.79036
G0 F12000 X135.18 Y181.61
G1 F2700 X135.18 Y116.05 E1287.97066
G0 F12000 X134.82 Y116.14
G1 F2700 X134.82 Y181.61 E1290.14797
G0 F12000 X134.46 Y181.61
G1 F2700 X134.46 Y116.23 E1292.32229
G0 F12000 X134.10 Y116.32
G1 F2700 X134.10 Y181.50 E1294.49002
G0 F12000 X133.74 Y181.38
G1 F2700 X133.74 Y116.41 E1296.65076
G0 F12000 X133.38 Y116.50
G1 F2700 X133.38 Y181.26 E1298.80452
G0 F12000 X133.02 Y181.15
G1 F2700 X133.02 Y116.62 E1300.95073
G0 F12000 X132.66 Y116.74
G1 F2700 X132.66 Y181.06 E1303.08996
G0 F12000 X132.30 Y180.97
G1 F2700 X132.30 Y116.86 E1305.22210
G0 F12000 X131.94 Y116.98
G1 F2700 X131.94 Y180.84 E1307.34622
G0 F12000 X131.58 Y180.74
G1 F2700 X131.58 Y117.10 E1309.46283
G0 F12000 X131.22 Y117.22
G1 F2700 X131.22 Y180.65 E1311.57245
G0 F12000 X130.86 Y180.56
G1 F2700 X130.86 Y117.34 E1313.67509
G0 F12000 X130.50 Y117.46
G1 F2700 X130.50 Y180.47 E1315.77075
G0 F12000 X130.14 Y180.38
G1 F2700 X130.14 Y117.58 E1317.85942
G0 F12000 X129.78 Y117.70
G1 F2700 X129.78 Y180.29 E1319.94110
G0 F12000 X129.42 Y180.05
G1 F2700 X129.42 Y117.82 E1322.01091
G0 F12000 X129.06 Y117.94
G1 F2700 X129.06 Y179.69 E1324.06476
G0 F12000 X128.70 Y179.46
G1 F2700 X128.70 Y127.28 E1325.80011
G0 F12000 X128.34 Y127.60
G1 F2700 X128.34 Y179.28 E1327.51889
G0 F12000 X127.98 Y179.10
G1 F2700 X127.98 Y127.92 E1329.22111
G0 F12000 X127.62 Y128.28
G1 F2700 X127.62 Y178.85 E1330.90331
G0 F12000 X127.26 Y178.64
G1 F2700 X127.26 Y128.72 E1332.56346
G0 F12000 X126.90 Y129.17
G1 F2700 X126.90 Y178.46 E1334.20272
G0 F12000 X126.54 Y178.28
G1 F2700 X126.54 Y129.62 E1335.82112
G0 F12000 X126.18 Y130.06
G1 F2700 X126.18 Y178.01 E1337.41591
G0 F12000 X125.82 Y177.82
G1 F2700 X125.82 Y130.51 E1338.98932
G0 F12000 X125.46 Y130.96
G1 F2700 X125.46 Y177.64 E1340.54183
G0 F12000 X125.10 Y177.46
G1 F2700 X125.10 Y131.41 E1342.07349
G0 F12000 X124.74 Y131.85
G1 F2700 X124.74 Y177.18 E1343.58108
G0 F12000 X124.38 Y177.00
G1 F2700 X124.38 Y132.29 E1345.06787
G0 F12000 X124.02 Y132.78
G1 F2700 X124.02 Y176.82 E1346.53251
G0 F12000 X123.66 Y176.64
G1 F2700 X123.66 Y133.42 E1347.96982
G0 F12000 X123.30 Y134.06
G1 F2700 X123.30 Y176.33 E1349.37569
G0 F12000 X122.94 Y175.97
G1 F2700 X122.94 Y134.71 E1350.74824
G0 F12000 X122.58 Y135.35
G1 F2700 X122.58 Y175.61 E1352.08746
G0 F12000 X122.22 Y175.25
G1 F2700 X122.22 Y135.99 E1353.39335
G0 F12000 X121.86 Y136.63
G1 F2700 X121.86 Y174.89 E1354.66591
G0 F12000 X121.50 Y174.53
G1 F2700 X121.50 Y137.27 E1355.90515
G0 F12000 X121.14 Y138.16
G1 F2700 X121.14 Y174.28 E1357.10628
G0 F12000 X120.78 Y174.01
G1 F2700 X120.78 Y139.17 E1358.26529
G0 F12000 X120.42 Y140.17
G1 F2700 X120.42 Y173.65 E1359.37901
G0 F12000 X120.06 Y173.29
G1 F2700 X120.06 Y141.17 E1360.44739
G0 F12000 X119.70 Y142.17
G1 F2700 X119.70 Y159.95 E1361.03862
G0 F12000 X119.70 Y161.36
G1 F2700 X119.70 Y172.93 E1361.42348
G0 F12000 X119.34 Y172.57
G1 F2700 X119.34 Y161.72 E1361.78438
G0 F12000 X118.98 Y162.08
G1 F2700 X118.98 Y172.21 E1362.12134
G0 F12000 X118.62 Y171.85
G1 F2700 X118.62 Y162.44 E1362.43435
G0 F12000 X118.26 Y163.00
G1 F2700 X118.26 Y171.49 E1362.71676
G0 F12000 X117.90 Y171.13
G1 F2700 X117.90 Y163.36 E1362.97523
G0 F12000 X117.54 Y163.72
G1 F2700 X117.54 Y170.77 E1363.20975
G0 F12000 X117.18 Y170.41
G1 F2700 X117.18 Y164.08 E1363.42032
G0 F12000 X116.82 Y164.44
G1 F2700 X116.82 Y170.05 E1363.60694
G0 F12000 X116.46 Y169.69
G1 F2700 X116.46 Y164.80 E1363.76961
G0 F12000 X116.10 Y165.16
G1 F2700 X116.10 Y169.33 E1363.90834
G0 F12000 X115.74 Y168.97
G1 F2700 X115.74 Y165.52 E1364.02312
G0 F12000 X115.38 Y165.88
G1 F2700 X115.38 Y168.61 E1364.11396
G0 F12000 X115.02 Y168.25
G1 F2700 X115.02 Y166.24 E1364.18084
G0 F12000 X114.66 Y166.60
G1 F2700 X114.66 Y167.89 E1364.22378
G0 F12000 X114.30 Y167.53
G1 F2700 X114.30 Y166.96 E1364.24277
G0 F12000 X119.34 Y158.58
G1 F2700 X119.34 Y143.79 E1364.73472
G0 F12000 X118.98 Y145.78
G1 F2700 X118.98 Y156.26 E1365.08339
G0 F12000 X118.62 Y153.95
G1 F2700 X118.62 Y147.78 E1365.28877
G0 F12000 X128.70 Y125.53
G1 F2700 X128.70 Y118.06 E1365.53726
;LAYER:0
G1 F1800 E1362.53726
G0 F12000 X135.79 Y128.56 Z1.42
;TYPE:WALL-INNER
G1 F1800 E1365.53726
G1 F2700 X140.51 Y125.66 E1365.81355
G1 X140.81 Y125.47 E1365.83106
G1 X146.50 Y123.22 E1366.13638
G1 X147.06 Y123.00 E1366.16630
G1 X150.68 Y122.29 E1366.35076
G1 X151.73 Y122.27 E1366.40310
G1 X154.31 Y122.21 E1366.53165
G1 X162.02 Y123.79 E1366.92444
G1 X169.28 Y127.20 E1367.32465
G1 X169.68 Y127.39 E1367.34666
G1 X176.55 Y133.17 E1367.79439
G1 X178.34 Y135.90 E1367.95738
G1 X181.03 Y141.03 E1368.24668
G1 X182.79 Y150.06 E1368.70553
G1 X181.79 Y159.23 E1369.16584
G1 X178.07 Y167.68 E1369.62632
G1 X172.03 Y174.61 E1370.08504
G1 X167.13 Y177.72 E1370.37462
G1 X164.58 Y179.00 E1370.51724
G1 X164.22 Y179.18 E1370.53725
G1 X163.52 Y179.31 E1370.57283
G1 X155.38 Y180.76 E1370.98486
G1 X146.95 Y180.04 E1371.40739
G1 X139.48 Y177.55 E1371.80004
G1 X136.38 Y175.67 E1371.98103
G1 X133.60 Y173.25 E1372.16509
G1 X129.42 Y167.98 E1372.50046
G1 X126.62 Y162.80 E1372.79429
G1 X124.95 Y157.79 E1373.05779
G1 X124.20 Y153.00 E1373.29984
G1 X124.26 Y148.41 E1373.52861
G1 X125.05 Y144.03 E1373.75056
G1 X126.56 Y139.83 E1373.97315
G1 X128.79 Y135.84 E1374.20165
G1 X131.84 Y132.06 E1374.44388
G1 X135.61 Y128.73 E1374.69461
G1 X135.79 Y128.56 E1374.70709
G0 F12000 X138.99 Y130.59
G1 F2700 X134.37 Y134.68 E1375.01503
G1 X130.87 Y139.76 E1375.32300
G1 X128.68 Y145.53 E1375.63093
G1 X127.93 Y151.66 E1375.93890
G1 X128.68 Y157.79 E1376.24681
G1 X130.87 Y163.56 E1376.55475
G1 X134.37 Y168.64 E1376.86272
G1 X138.99 Y172.73 E1377.17062
G1 X144.46 Y175.60 E1377.47856
G1 X150.45 Y177.08 E1377.78650
G1 X156.62 Y177.08 E1378.09442
G1 X162.62 Y175.60 E1378.40236
G1 X168.08 Y172.73 E1378.71029
G1 X172.70 Y168.64 E1379.01820
G1 X176.21 Y163.56 E1379.32617
G1 X178.40 Y157.79 E1379.63410
G1 X179.14 Y151.66 E1379.94202
G1 X178.40 Y145.53 E1380.25000
G1 X176.21 Y139.76 E1380.55793
G1 X172.70 Y134.68 E1380.86590
G1 X168.08 Y130.59 E1381.17383
G1 X162.62 Y127.72 E1381.48177
G1 X156.62 Y126.25 E1381.78971
G1 X150.45 Y126.25 E1382.09763
G1 X144.46 Y127.72 E1382.40557
G1 X138.99 Y130.59 E1382.71351
G0 F12000 X139.22 Y130.92
;TYPE:WALL-OUTER
G1 F2700 X134.67 Y134.95 E1383.01664
G1 X131.22 Y139.95 E1383.31974
G1 X129.07 Y145.63 E1383.62287
G1 X128.34 Y151.66 E1383.92596
G1 X129.07 Y157.69 E1384.22900
G1 X131.22 Y163.37 E1384.53213
G1 X134.67 Y168.37 E1384.83523
G1 X139.22 Y172.40 E1385.13833
G1 X144.60 Y175.22 E1385.44140
G1 X150.50 Y176.68 E1385.74451
G1 X156.57 Y176.68 E1386.04755
G1 X162.47 Y175.22 E1386.35066
G1 X167.85 Y172.40 E1386.65373
G1 X172.40 Y168.37 E1386.95683
G1 X175.85 Y163.37 E1387.25992
G1 X178.01 Y157.69 E1387.56306
G1 X178.74 Y151.66 E1387.86610
G1 X178.01 Y145.63 E1388.16920
G1 X175.85 Y139.95 E1388.47233
G1 X172.40 Y134.95 E1388.77543
G1 X167.85 Y130.92 E1389.07856
G1 X162.47 Y128.10 E1389.38163
G1 X156.57 Y126.64 E1389.68474
G1 X150.50 Y126.64 E1389.98778
G1 X144.60 Y128.10 E1390.29089
G1 X139.22 Y130.92 E1390.59396
G0 F12000 X139.02 Y130.70
G0 X135.74 Y128.48
G0 X135.56 Y128.24
G1 F2700 X140.63 Y125.11 E1390.89099
G1 X146.95 Y122.61 E1391.23002
G1 X150.64 Y121.89 E1391.41768
G1 X154.34 Y121.81 E1391.60266
G1 X162.15 Y123.41 E1391.99998
G1 X169.90 Y127.05 E1392.42735
G1 X176.85 Y132.90 E1392.88054
G1 X178.69 Y135.69 E1393.04755
G1 X181.41 Y140.90 E1393.34062
G1 X183.20 Y150.04 E1393.80521
G1 X182.18 Y159.34 E1394.27185
G1 X178.41 Y167.90 E1394.73843
G1 X172.30 Y174.92 E1395.20301
G1 X167.34 Y178.06 E1395.49590
G1 X164.34 Y179.57 E1395.66317
G1 X155.40 Y181.16 E1396.11631
G1 X146.87 Y180.44 E1396.54354
G1 X139.31 Y177.92 E1396.94097
G1 X136.14 Y176.00 E1397.12593
G1 X133.30 Y173.53 E1397.31362
G1 X129.08 Y168.20 E1397.65248
G1 X126.26 Y162.96 E1397.94970
G1 X124.56 Y157.88 E1398.21669
G1 X123.80 Y153.02 E1398.46223
G1 X123.86 Y148.38 E1398.69399
G1 X124.66 Y143.92 E1398.91979
G1 X126.19 Y139.67 E1399.14534
G1 X128.46 Y135.62 E1399.37702
G1 X131.55 Y131.78 E1399.62276
G1 X135.56 Y128.24 E1399.88972
G0 F12000 X135.81 Y128.74
;TYPE:FILL
G1 F2700 X138.19 Y131.12 E1400.05750
G0 F12000 X137.89 Y131.38
G1 F2700 X135.51 Y129.00 E1400.22531
G0 F12000 X135.21 Y129.27
G1 F2700 X137.59 Y131.65 E1400.39317
G0 F12000 X137.29 Y131.91
G1 F2700 X134.91 Y129.53 E1400.56102
G0 F12000 X134.61 Y129.80
G1 F2700 X136.99 Y132.18 E1400.72887
G0 F12000 X136.69 Y132.44
G1 F2700 X134.31 Y130.06 E1400.89675
G0 F12000 X134.01 Y130.33
G1 F2700 X136.39 Y132.71 E1401.06468
G0 F12000 X136.09 Y132.98
G1 F2700 X133.71 Y130.60 E1401.23267
G0 F12000 X133.41 Y130.86
G1 F2700 X135.79 Y133.24 E1401.40059
G0 F12000 X135.49 Y133.51
G1 F2700 X133.11 Y131.13 E1401.56858
G0 F12000 X132.81 Y131.39
G1 F2700 X135.19 Y133.77 E1401.73661
G0 F12000 X134.89 Y134.04
G1 F2700 X132.51 Y131.66 E1401.90464
G0 F12000 X132.21 Y131.92
G1 F2700 X134.59 Y134.31 E1402.07270
G0 F12000 X134.29 Y134.57
G1 F2700 X131.91 Y132.19 E1402.24038
G0 F12000 X131.66 Y132.51
G1 F2700 X134.05 Y134.90 E1402.40925
G0 F12000 X133.82 Y135.24
G1 F2700 X131.41 Y132.82 E1402.57971
G0 F12000 X131.15 Y133.13
G1 F2700 X133.59 Y135.57 E1402.75159
G0 F12000 X133.36 Y135.91
G1 F2700 X130.90 Y133.45 E1402.92501
G0 F12000 X130.65 Y133.76
G1 F2700 X133.13 Y136.24 E1403.09992
G0 F12000 X132.90 Y136.57
G1 F2700 X130.40 Y134.07 E1403.27638
G0 F12000 X130.14 Y134.39
G1 F2700 X132.67 Y136.91 E1403.45432
G0 F12000 X132.44 Y137.24
G1 F2700 X129.89 Y134.70 E1403.63378
G0 F12000 X129.64 Y135.01
G1 F2700 X132.20 Y137.58 E1403.81475
G0 F12000 X131.97 Y137.91
G1 F2700 X129.39 Y135.33 E1403.99724
G0 F12000 X129.13 Y135.64
G1 F2700 X131.74 Y138.25 E1404.18121
G0 F12000 X131.51 Y138.58
G1 F2700 X128.89 Y135.96 E1404.36635
G0 F12000 X128.68 Y136.32
G1 F2700 X131.28 Y138.92 E1404.54955
G0 F12000 X131.05 Y139.25
G1 F2700 X128.48 Y136.68 E1404.73077
G0 F12000 X128.28 Y137.04
G1 F2700 X130.82 Y139.59 E1404.91005
G0 F12000 X130.64 Y139.97
G1 F2700 X128.07 Y137.41 E1405.09089
G0 F12000 X127.87 Y137.77
G1 F2700 X130.48 Y140.38 E1405.27511
G0 F12000 X130.33 Y140.79
G1 F2700 X127.67 Y138.13 E1405.46268
G0 F12000 X127.46 Y138.50
G1 F2700 X130.17 Y141.20 E1405.65367
G0 F12000 X130.01 Y141.61
G1 F2700 X127.26 Y138.86 E1405.84798
G0 F12000 X127.06 Y139.22
G1 F2700 X129.86 Y142.02 E1406.04561
G0 F12000 X129.70 Y142.43
G1 F2700 X126.85 Y139.58 E1406.24662
G0 F12000 X126.66 Y139.95
G1 F2700 X129.55 Y142.84 E1406.45042
G0 F12000 X129.39 Y143.25
G1 F2700 X126.51 Y140.37 E1406.65379
G0 F12000 X126.36 Y140.78
G1 F2700 X129.24 Y143.66 E1406.85678
G0 F12000 X129.08 Y144.07
G1 F2700 X126.21 Y141.20 E1407.05928
G0 F12000 X126.06 Y141.62
G1 F2700 X128.93 Y144.48 E1407.26142
G0 F12000 X128.77 Y144.89
G1 F2700 X125.91 Y142.03 E1407.46306
G0 F12000 X125.76 Y142.45
G1 F2700 X128.61 Y145.30 E1407.66429
G0 F12000 X128.51 Y145.76
G1 F2700 X125.61 Y142.87 E1407.86855
G0 F12000 X125.46 Y143.28
G1 F2700 X128.45 Y146.27 E1408.07901
G0 F12000 X128.39 Y146.77
G1 F2700 X125.31 Y143.70 E1408.29579
G0 F12000 X125.17 Y144.12
G1 F2700 X128.32 Y147.28 E1408.51826
G0 F12000 X128.26 Y147.78
G1 F2700 X125.08 Y144.60 E1408.74255
G0 F12000 X125.00 Y145.08
G1 F2700 X128.20 Y148.28 E1408.96861
G0 F12000 X128.14 Y148.79
G1 F2700 X124.91 Y145.56 E1409.19643
G0 F12000 X124.83 Y146.04
G1 F2700 X128.08 Y149.29 E1409.42609
G0 F12000 X128.02 Y149.80
G1 F2700 X124.74 Y146.52 E1409.65748
G0 F12000 X124.65 Y147.00
G1 F2700 X127.96 Y150.30 E1409.89066
G0 F12000 X127.90 Y150.81
G1 F2700 X124.57 Y147.48 E1410.12568
G0 F12000 X124.48 Y147.96
G1 F2700 X127.84 Y151.31 E1410.36247
G0 F12000 X127.82 Y151.86
G1 F2700 X124.39 Y148.44 E1410.60394
G0 F12000 X124.39 Y149.00
G1 F2700 X127.90 Y152.50 E1410.85145
G0 F12000 X127.97 Y153.15
G1 F2700 X124.38 Y149.56 E1411.10489
G0 F12000 X124.38 Y150.11
G1 F2700 X128.05 Y153.79 E1411.36432
G0 F12000 X128.13 Y154.43
G1 F2700 X124.37 Y150.67 E1411.62971
G0 F12000 X124.36 Y151.23
G1 F2700 X128.21 Y155.08 E1411.90110
G0 F12000 X128.28 Y155.72
G1 F2700 X124.35 Y151.79 E1412.17853
G0 F12000 X124.35 Y152.35
G1 F2700 X128.36 Y156.36 E1412.46188
G0 F12000 X128.44 Y157.01
G1 F2700 X124.34 Y152.91 E1412.75123
G0 F12000 X124.43 Y153.56
G1 F2700 X128.52 Y157.65 E1413.03980
G0 F12000 X128.79 Y158.49
G1 F2700 X124.53 Y154.23 E1413.34033
G0 F12000 X124.64 Y154.90
G1 F2700 X129.14 Y159.40 E1413.65786
G0 F12000 X129.49 Y160.31
G1 F2700 X124.74 Y155.57 E1413.99254
G0 F12000 X124.85 Y156.24
G1 F2700 X129.83 Y161.23 E1414.34430
G0 F12000 X130.18 Y162.14
G1 F2700 X124.95 Y156.91 E1414.71309
G0 F12000 X125.05 Y157.58
G1 F2700 X130.52 Y163.05 E1415.09910
G0 F12000 X131.21 Y164.30
G1 F2700 X125.29 Y158.38 E1415.51640
G0 F12000 X125.58 Y159.24
G1 F2700 X132.47 Y166.12 E1416.00249
G0 F12000 X133.73 Y167.95
G1 F2700 X125.86 Y160.09 E1416.55734
G0 F12000 X126.15 Y160.94
G1 F2700 X144.18 Y178.97 E1417.82970
G0 F12000 X145.03 Y179.25
G1 F2700 X136.39 Y170.61 E1418.43965
G0 F12000 X133.17 Y172.48
G1 F2700 X134.78 Y174.09 E1418.55331
G0 F12000 X137.34 Y176.09
G1 F2700 X131.00 Y169.75 E1419.00085
G0 F12000 X129.32 Y167.51
G1 F2700 X138.78 Y176.96 E1419.66781
G0 F12000 X139.94 Y177.55
G1 F2700 X128.66 Y166.28 E1420.46339
G0 F12000 X128.00 Y165.05
G1 F2700 X140.78 Y177.84 E1421.36555
G0 F12000 X141.63 Y178.12
G1 F2700 X127.34 Y163.82 E1422.37431
G0 F12000 X126.72 Y162.64
G1 F2700 X142.48 Y178.41 E1423.48655
G0 F12000 X143.33 Y178.69
G1 F2700 X126.43 Y161.79 E1424.67883
G0 F12000 X139.50 Y173.16
G1 F2700 X145.88 Y179.54 E1425.12918
G0 F12000 X146.73 Y179.82
G1 F2700 X140.69 Y173.78 E1425.55548
G0 F12000 X141.88 Y174.41
G1 F2700 X147.41 Y179.94 E1425.94614
G0 F12000 X148.03 Y179.99
G1 F2700 X143.07 Y175.03 E1426.29638
G0 F12000 X144.26 Y175.66
G1 F2700 X148.65 Y180.05 E1426.60616
G0 F12000 X149.27 Y180.10
G1 F2700 X145.06 Y175.90 E1426.90270
G0 F12000 X145.82 Y176.08
G1 F2700 X149.89 Y180.15 E1427.18990
G0 F12000 X150.50 Y180.20
G1 F2700 X146.57 Y176.26 E1427.46774
G0 F12000 X147.32 Y176.45
G1 F2700 X151.12 Y180.25 E1427.73621
G0 F12000 X151.74 Y180.31
G1 F2700 X148.07 Y176.63 E1427.99529
G0 F12000 X148.82 Y176.82
G1 F2700 X152.36 Y180.36 E1428.24498
G0 F12000 X152.98 Y180.41
G1 F2700 X149.57 Y177.00 E1428.48529
G0 F12000 X150.32 Y177.19
G1 F2700 X153.59 Y180.46 E1428.71629
G0 F12000 X154.21 Y180.51
G1 F2700 X150.91 Y177.22 E1428.94898
G0 F12000 X151.48 Y177.22
G1 F2700 X154.83 Y180.57 E1429.18538
G0 F12000 X155.43 Y180.60
G1 F2700 X152.04 Y177.22 E1429.42435
G0 F12000 X152.61 Y177.22
G1 F2700 X155.91 Y180.52 E1429.65732
G0 F12000 X156.39 Y180.43
G1 F2700 X153.18 Y177.22 E1429.88423
G0 F12000 X153.74 Y177.22
G1 F2700 X156.87 Y180.35 E1430.10514
G0 F12000 X157.35 Y180.26
G1 F2700 X154.31 Y177.22 E1430.31998
G0 F12000 X154.87 Y177.22
G1 F2700 X157.83 Y180.18 E1430.52879
G0 F12000 X158.31 Y180.09
G1 F2700 X155.44 Y177.22 E1430.73153
G0 F12000 X156.00 Y177.22
G1 F2700 X158.79 Y180.01 E1430.92827
G0 F12000 X159.27 Y179.92
G1 F2700 X156.57 Y177.22 E1431.11902
G0 F12000 X157.04 Y177.12
G1 F2700 X159.75 Y179.84 E1431.31058
G0 F12000 X160.23 Y179.75
G1 F2700 X157.49 Y177.01 E1431.50401
G0 F12000 X157.95 Y176.90
G1 F2700 X160.71 Y179.66 E1431.69930
G0 F12000 X161.19 Y179.58
G1 F2700 X158.40 Y176.78 E1431.89640
G0 F12000 X158.85 Y176.67
G1 F2700 X161.67 Y179.49 E1432.09537
G0 F12000 X162.15 Y179.41
G1 F2700 X159.31 Y176.56 E1432.29620
G0 F12000 X159.76 Y176.45
G1 F2700 X162.63 Y179.32 E1432.49891
G0 F12000 X163.11 Y179.24
G1 F2700 X160.22 Y176.34 E1432.70345
G0 F12000 X160.67 Y176.22
G1 F2700 X163.59 Y179.15 E1432.90989
G0 F12000 X164.07 Y179.07
G1 F2700 X161.12 Y176.11 E1433.11817
G0 F12000 X161.58 Y176.00
G1 F2700 X164.47 Y178.90 E1433.32250
G0 F12000 X164.85 Y178.71
G1 F2700 X162.03 Y175.89 E1433.52133
G0 F12000 X162.48 Y175.78
G1 F2700 X165.23 Y178.52 E1433.71475
G0 F12000 X165.60 Y178.33
G1 F2700 X162.89 Y175.62 E1433.90617
G0 F12000 X163.26 Y175.42
G1 F2700 X165.98 Y178.14 E1434.09812
G0 F12000 X166.36 Y177.95
G1 F2700 X163.63 Y175.23 E1434.29045
G0 F12000 X164.00 Y175.03
G1 F2700 X166.73 Y177.76 E1434.48314
G0 F12000 X167.11 Y177.57
G1 F2700 X164.37 Y174.84 E1434.67604
G0 F12000 X164.74 Y174.64
G1 F2700 X167.45 Y177.35 E1434.86717
G0 F12000 X167.80 Y177.13
G1 F2700 X165.11 Y174.45 E1435.05654
G0 F12000 X165.49 Y174.25
G1 F2700 X168.15 Y176.91 E1435.24422
G0 F12000 X168.49 Y176.69
G1 F2700 X165.86 Y174.06 E1435.43006
G0 F12000 X166.23 Y173.86
G1 F2700 X168.84 Y176.47 E1435.61421
G0 F12000 X169.18 Y176.25
G1 F2700 X166.60 Y173.67 E1435.79660
G0 F12000 X166.97 Y173.47
G1 F2700 X169.53 Y176.03 E1435.97722
G0 F12000 X169.88 Y175.81
G1 F2700 X167.34 Y173.28 E1436.15608
G0 F12000 X167.71 Y173.09
G1 F2700 X170.22 Y175.59 E1436.33317
G0 F12000 X170.57 Y175.38
G1 F2700 X168.08 Y172.89 E1436.50850
G0 F12000 X168.40 Y172.64
G1 F2700 X170.91 Y175.16 E1436.68605
G0 F12000 X171.26 Y174.94
G1 F2700 X168.70 Y172.37 E1436.86682
G0 F12000 X169.00 Y172.11
G1 F2700 X171.61 Y174.72 E1437.05089
G0 F12000 X171.95 Y174.50
G1 F2700 X169.30 Y171.84 E1437.23815
G0 F12000 X169.60 Y171.58
G1 F2700 X172.21 Y174.19 E1437.42279
G0 F12000 X172.48 Y173.89
G1 F2700 X169.90 Y171.31 E1437.60475
G0 F12000 X170.20 Y171.04
G1 F2700 X172.74 Y173.59 E1437.78421
G0 F12000 X173.00 Y173.29
G1 F2700 X170.50 Y170.78 E1437.96109
G0 F12000 X170.80 Y170.51
G1 F2700 X173.27 Y172.98 E1438.13537
G0 F12000 X173.53 Y172.68
G1 F2700 X171.10 Y170.25 E1438.30710
G0 F12000 X171.40 Y169.98
G1 F2700 X173.79 Y172.38 E1438.47618
G0 F12000 X174.06 Y172.08
G1 F2700 X171.70 Y169.72 E1438.64270
G0 F12000 X172.00 Y169.45
G1 F2700 X174.32 Y171.77 E1438.80663
G0 F12000 X174.58 Y171.47
G1 F2700 X172.30 Y169.19 E1438.96796
G0 F12000 X172.60 Y168.92
G1 F2700 X174.85 Y171.17 E1439.12678
G0 F12000 X175.11 Y170.87
G1 F2700 X172.88 Y168.63 E1439.28447
G0 F12000 X173.11 Y168.30
G1 F2700 X175.37 Y170.56 E1439.44442
G0 F12000 X175.64 Y170.26
G1 F2700 X173.34 Y167.96 E1439.60662
G0 F12000 X173.57 Y167.63
G1 F2700 X175.90 Y169.96 E1439.77112
G0 F12000 X176.16 Y169.66
G1 F2700 X173.80 Y167.29 E1439.93785
G0 F12000 X174.03 Y166.96
G1 F2700 X176.43 Y169.35 E1440.10690
G0 F12000 X176.69 Y169.05
G1 F2700 X174.26 Y166.62 E1440.27820
G0 F12000 X174.49 Y166.29
G1 F2700 X176.95 Y168.75 E1440.45177
G0 F12000 X177.22 Y168.45
G1 F2700 X174.72 Y165.96 E1440.62767
G0 F12000 X174.96 Y165.62
G1 F2700 X177.48 Y168.15 E1440.80575
G0 F12000 X177.74 Y167.84
G1 F2700 X175.19 Y165.29 E1440.98616
G0 F12000 X175.42 Y164.95
G1 F2700 X177.99 Y167.52 E1441.16756
G0 F12000 X178.16 Y167.13
G1 F2700 X175.65 Y164.62 E1441.34472
G0 F12000 X175.88 Y164.28
G1 F2700 X178.33 Y166.74 E1441.51786
G0 F12000 X178.51 Y166.34
G1 F2700 X176.11 Y163.95 E1441.68691
G0 F12000 X176.34 Y163.61
G1 F2700 X178.68 Y165.95 E1441.85201
G0 F12000 X178.85 Y165.56
G1 F2700 X176.49 Y163.20 E1442.01842
G0 F12000 X176.65 Y162.79
G1 F2700 X179.02 Y165.16 E1442.18599
G0 F12000 X179.20 Y164.77
G1 F2700 X176.80 Y162.38 E1442.35479
G0 F12000 X176.96 Y161.97
G1 F2700 X179.37 Y164.38 E1442.52490
G0 F12000 X179.54 Y163.99
G1 F2700 X177.12 Y161.56 E1442.69617
G0 F12000 X177.27 Y161.15
G1 F2700 X179.72 Y163.59 E1442.86868
G0 F12000 X179.89 Y163.20
G1 F2700 X177.43 Y160.74 E1443.04246
G0 F12000 X177.58 Y160.33
G1 F2700 X180.06 Y162.81 E1443.21744
G0 F12000 X180.24 Y162.42
G1 F2700 X177.74 Y159.92 E1443.39361
G0 F12000 X177.89 Y159.51
G1 F2700 X180.41 Y162.02 E1443.57103
G0 F12000 X180.58 Y161.63
G1 F2700 X178.05 Y159.10 E1443.74967
G0 F12000 X178.21 Y158.69
G1 F2700 X180.75 Y161.24 E1443.92955
G0 F12000 X180.93 Y160.84
G1 F2700 X178.36 Y158.28 E1444.11067
G0 F12000 X178.52 Y157.87
G1 F2700 X181.10 Y160.45 E1444.29302
G0 F12000 X181.27 Y160.06
G1 F2700 X178.59 Y157.37 E1444.48250
G0 F12000 X178.65 Y156.87
G1 F2700 X181.45 Y159.67 E1444.67991
G0 F12000 X181.62 Y159.28
G1 F2700 X178.71 Y156.37 E1444.88523
G0 F12000 X178.77 Y155.86
G1 F2700 X181.70 Y158.79 E1445.09181
G0 F12000 X181.75 Y158.28
G1 F2700 X178.83 Y155.36 E1445.29797
G0 F12000 X178.89 Y154.85
G1 F2700 X181.81 Y157.77 E1445.50375
G0 F12000 X181.87 Y157.26
G1 F2700 X178.95 Y154.35 E1445.70914
G0 F12000 X179.01 Y153.84
G1 F2700 X181.92 Y156.75 E1445.91417
G0 F12000 X181.98 Y156.24
G1 F2700 X179.08 Y153.34 E1446.11885
G0 F12000 X179.14 Y152.83
G1 F2700 X182.03 Y155.73 E1446.32311
G0 F12000 X182.09 Y155.22
G1 F2700 X179.20 Y152.33 E1446.52701
G0 F12000 X179.26 Y151.82
G1 F2700 X182.14 Y154.71 E1446.73050
G0 F12000 X182.20 Y154.20
G1 F2700 X179.23 Y151.22 E1446.94029
G0 F12000 X179.15 Y150.58
G1 F2700 X182.25 Y153.69 E1447.15951
G0 F12000 X182.31 Y153.18
G1 F2700 X179.07 Y149.94 E1447.38818
G0 F12000 X178.99 Y149.29
G1 F2700 X182.37 Y152.67 E1447.62627
G0 F12000 X182.42 Y152.16
G1 F2700 X178.91 Y148.65 E1447.87378
G0 F12000 X178.84 Y148.01
G1 F2700 X182.48 Y151.65 E1448.13074
G0 F12000 X182.53 Y151.14
G1 F2700 X178.76 Y147.36 E1448.39709
G0 F12000 X178.68 Y146.72
G1 F2700 X182.59 Y150.63 E1448.67289
G0 F12000 X182.65 Y150.12
G1 F2700 X178.60 Y146.07 E1448.95814
G0 F12000 X178.50 Y145.40
G1 F2700 X182.53 Y149.44 E1449.24262
G0 F12000 X182.39 Y148.73
G1 F2700 X178.15 Y144.49 E1449.54178
G0 F12000 X177.80 Y143.58
G1 F2700 X182.25 Y148.03 E1449.85575
G0 F12000 X182.12 Y147.33
G1 F2700 X177.46 Y142.67 E1450.18439
G0 F12000 X177.11 Y141.76
G1 F2700 X181.98 Y146.62 E1450.52779
G0 F12000 X181.84 Y145.92
G1 F2700 X176.77 Y140.84 E1450.88600
G0 F12000 X176.42 Y139.93
G1 F2700 X181.71 Y145.22 E1451.25888
G0 F12000 X181.57 Y144.52
G1 F2700 X175.40 Y138.34 E1451.69435
G0 F12000 X174.14 Y136.52
G1 F2700 X181.43 Y143.81 E1452.20909
G0 F12000 X181.29 Y143.11
G1 F2700 X172.88 Y134.69 E1452.80309
G0 F12000 X172.53 Y134.35
G1 F2700 X162.22 Y124.04 E1453.53073
G0 F12000 X161.43 Y123.81
G1 F2700 X168.02 Y130.40 E1453.99559
G0 F12000 X166.83 Y129.77
G1 F2700 X160.72 Y123.67 E1454.42657
G0 F12000 X160.01 Y123.52
G1 F2700 X165.64 Y129.15 E1454.82380
G0 F12000 X164.45 Y128.53
G1 F2700 X159.29 Y123.37 E1455.18723
G0 F12000 X158.58 Y123.23
G1 F2700 X163.26 Y127.90 E1455.51683
G0 F12000 X162.29 Y127.50
G1 F2700 X157.87 Y123.08 E1455.82823
G0 F12000 X157.16 Y122.94
G1 F2700 X161.53 Y127.31 E1456.13677
G0 F12000 X160.78 Y127.13
G1 F2700 X156.45 Y122.79 E1456.44241
G0 F12000 X155.74 Y122.65
G1 F2700 X160.03 Y126.94 E1456.74531
G0 F12000 X159.28 Y126.75
G1 F2700 X155.03 Y122.50 E1457.04531
G0 F12000 X154.32 Y122.36
G1 F2700 X158.53 Y126.57 E1457.34249
G0 F12000 X157.78 Y126.39
G1 F2700 X153.76 Y122.36 E1457.62626
G0 F12000 X153.21 Y122.38
G1 F2700 X157.03 Y126.20 E1457.89610
G0 F12000 X156.37 Y126.10
G1 F2700 X152.65 Y122.39 E1458.15835
G0 F12000 X152.10 Y122.40
G1 F2700 X155.80 Y126.10 E1458.41983
G0 F12000 X155.24 Y126.10
G1 F2700 X151.54 Y122.41 E1458.68046
G0 F12000 X150.99 Y122.42
G1 F2700 X154.67 Y126.10 E1458.94025
G0 F12000 X154.11 Y126.10
G1 F2700 X150.47 Y122.47 E1459.19658
G0 F12000 X150.00 Y122.56
G1 F2700 X153.54 Y126.10 E1459.44634
G0 F12000 X152.97 Y126.10
G1 F2700 X149.53 Y122.66 E1459.68955
G0 F12000 X149.05 Y122.75
G1 F2700 X152.41 Y126.10 E1459.92623
G0 F12000 X151.84 Y126.10
G1 F2700 X148.58 Y122.84 E1460.15638
G0 F12000 X148.11 Y122.94
G1 F2700 X151.28 Y126.10 E1460.37997
G0 F12000 X150.71 Y126.10
G1 F2700 X147.64 Y123.03 E1460.59700
G0 F12000 X147.16 Y123.12
G1 F2700 X150.20 Y126.16 E1460.81141
G0 F12000 X149.75 Y126.27
G1 F2700 X146.75 Y123.27 E1461.02315
G0 F12000 X146.34 Y123.43
G1 F2700 X149.29 Y126.38 E1461.23143
G0 F12000 X148.84 Y126.50
G1 F2700 X145.94 Y123.59 E1461.43629
G0 F12000 X145.53 Y123.75
G1 F2700 X148.39 Y126.61 E1461.63772
G0 F12000 X147.93 Y126.72
G1 F2700 X145.13 Y123.91 E1461.83577
G0 F12000 X144.72 Y124.07
G1 F2700 X147.48 Y126.83 E1462.03040
G0 F12000 X147.03 Y126.94
G1 F2700 X144.32 Y124.23 E1462.22157
G0 F12000 X143.91 Y124.39
G1 F2700 X146.57 Y127.06 E1462.40935
G0 F12000 X146.12 Y127.17
G1 F2700 X143.50 Y124.56 E1462.59371
G0 F12000 X143.10 Y124.72
G1 F2700 X145.66 Y127.28 E1462.77462
G0 F12000 X145.21 Y127.39
G1 F2700 X142.69 Y124.88 E1462.95214
G0 F12000 X142.29 Y125.04
G1 F2700 X144.76 Y127.50 E1463.12627
G0 F12000 X144.32 Y127.63
G1 F2700 X141.88 Y125.20 E1463.29828
G0 F12000 X141.48 Y125.36
G1 F2700 X143.95 Y127.83 E1463.47269
G0 F12000 X143.58 Y128.02
G1 F2700 X141.07 Y125.52 E1463.64954
G0 F12000 X140.69 Y125.70
G1 F2700 X143.21 Y128.22 E1463.82688
G0 F12000 X142.84 Y128.41
G1 F2700 X140.34 Y125.92 E1464.00278
G0 F12000 X140.00 Y126.14
G1 F2700 X142.47 Y128.61 E1464.17712
G0 F12000 X142.10 Y128.80
G1 F2700 X139.65 Y126.35 E1464.35001
G0 F12000 X139.30 Y126.57
G1 F2700 X141.72 Y129.00 E1464.52139
G0 F12000 X141.35 Y129.19
G1 F2700 X138.95 Y126.78 E1464.69129
G0 F12000 X138.60 Y127.00
G1 F2700 X140.98 Y129.39 E1464.85967
G0 F12000 X140.61 Y129.58
G1 F2700 X138.25 Y127.22 E1465.02661
G0 F12000 X137.90 Y127.43
G1 F2700 X140.24 Y129.78 E1465.19202
G0 F12000 X139.87 Y129.97
G1 F2700 X137.55 Y127.65 E1465.35592
G0 F12000 X137.20 Y127.86
G1 F2700 X139.50 Y130.17 E1465.51841
G0 F12000 X139.13 Y130.36
G1 F2700 X136.85 Y128.08 E1465.67935
G0 F12000 X136.50 Y128.29
G1 F2700 X138.79 Y130.58 E1465.84089
G0 F12000 X138.49 Y130.85
G1 F2700 X136.15 Y128.51 E1466.00591
G0 F12000 X163.29 Y124.54
G1 F2700 X181.16 Y142.41 E1467.26674
G0 F12000 X181.02 Y141.71
G1 F2700 X164.35 Y125.04 E1468.44262
G0 F12000 X165.42 Y125.54
G1 F2700 X180.83 Y140.95 E1469.52966
G0 F12000 X180.21 Y139.76
G1 F2700 X166.49 Y126.04 E1470.49761
G0 F12000 X167.56 Y126.55
G1 F2700 X179.59 Y138.57 E1471.34643
G0 F12000 X178.97 Y137.39
G1 F2700 X168.62 Y127.05 E1472.07625
G0 F12000 X169.90 Y127.75
G1 F2700 X178.35 Y136.20 E1472.67238
G0 F12000 X177.35 Y134.64
G1 F2700 X173.47 Y130.76 E1472.94620
G1 F1800 E1469.94620
G0 F12000 X145.30 Y122.36
;TYPE:SUPPORT
G1 F1800 E1472.94620
G1 F2700 X145.30 Y119.89 E1473.06963
G0 F12000 X145.30 Y120.05
G0 X142.63 Y120.05
G0 X142.63 Y119.89
G1 F2700 X142.63 Y123.42 E1473.24574
G0 F12000 X142.57 Y123.27
G0 X139.88 Y124.40
G0 X139.97 Y124.54
G1 F2700 X139.97 Y120.01 E1473.47140
G0 F12000 X140.00 Y120.17
G0 X137.34 Y120.83
G0 X137.30 Y120.68
G1 F2700 X137.30 Y126.18 E1473.74589
G0 F12000 X137.22 Y126.04
G0 X134.71 Y126.68
G0 X134.63 Y126.81
G1 F2700 X134.63 Y121.35 E1474.01834
G1 F1800 E1471.01834
G0 F12000 X139.97 Y131.48
G1 F1800 E1474.01834
G1 F2700 X139.97 Y171.84 E1476.03206
G0 F12000 X140.04 Y171.70
G0 X142.71 Y173.10
G0 X142.63 Y173.24
G1 F2700 X142.63 Y130.08 E1478.18547
G0 F12000 X142.71 Y130.22
G0 X145.33 Y128.95
G0 X145.30 Y128.79
G1 F2700 X145.30 Y174.53 E1480.46750
G0 F12000 X145.34 Y174.38
G0 X148.00 Y175.03
G0 X147.96 Y175.19
G1 F2700 X147.96 Y128.13 E1482.81498
G0 F12000 X148.00 Y128.29
G0 X150.63 Y127.64
G0 X150.63 Y127.48
G1 F2700 X150.63 Y175.84 E1485.22737
G0 F12000 X150.63 Y175.68
G0 X153.29 Y175.68
G0 X153.29 Y175.84
G1 F2700 X153.29 Y127.48 E1487.63976
G0 F12000 X153.29 Y127.64
G0 X155.96 Y127.64
G0 X155.96 Y127.48
G1 F2700 X155.96 Y175.84 E1490.05216
G0 F12000 X155.96 Y175.68
G0 X158.59 Y175.15
G0 X158.63 Y175.31
G1 F2700 X158.63 Y128.02 E1492.41161
G0 F12000 X158.59 Y128.17
G0 X161.25 Y128.83
G0 X161.29 Y128.67
G1 F2700 X161.29 Y174.65 E1494.70551
G0 F12000 X161.26 Y174.50
G0 X163.88 Y173.36
G0 X163.96 Y173.50
G1 F2700 X163.96 Y129.83 E1496.88427
G0 F12000 X163.88 Y129.97
G0 X166.55 Y131.37
G0 X166.62 Y131.23
G1 F2700 X166.62 Y172.10 E1498.92333
G0 F12000 X166.55 Y171.96
G0 X169.19 Y169.89
G0 X169.29 Y170.01
G1 F2700 X169.29 Y133.32 E1500.75365
G0 F12000 X169.19 Y133.44
G0 X171.83 Y135.88
G0 X171.96 Y135.79
G1 F2700 X171.96 Y167.54 E1502.33757
G0 F12000 X171.83 Y167.45
G0 X174.49 Y163.58
G0 X174.62 Y163.68
G1 F2700 X174.62 Y139.65 E1503.53613
G0 F12000 X174.49 Y139.74
G0 X177.13 Y146.71
G0 X177.29 Y146.69
G1 F2700 X177.29 Y156.63 E1504.03194
G0 F12000 X177.13 Y156.61
G0 X137.41 Y169.46
G0 X137.30 Y169.58
G1 F2700 X137.30 Y133.75 E1505.81951
G0 F12000 X137.40 Y133.87
G0 X134.76 Y136.58
G0 X134.63 Y136.49
G1 F2700 X134.63 Y166.84 E1507.33347
G0 F12000 X134.76 Y166.75
G0 X132.12 Y162.91
G0 X131.97 Y162.97
G1 F2700 X131.97 Y140.36 E1508.46159
G0 F12000 X132.11 Y140.42
G0 X129.46 Y150.71
G0 X129.30 Y150.69
G1 F2700 X129.30 Y152.64 E1508.55873
G1 F1800 E1505.55873
G0 F12000 X163.96 Y123.33
G1 F1800 E1508.55873
G1 F2700 X163.96 Y120.57 E1508.69612
G0 F12000 X164.07 Y120.69
G0 X166.74 Y118.02
G0 X166.62 Y117.91
G1 F2700 X166.62 Y124.58 E1509.02904
G0 F12000 X166.69 Y124.44
G0 X169.36 Y125.69
G0 X169.29 Y125.83
G1 F2700 X169.29 Y120.41 E1509.29990
G0 F12000 X169.18 Y120.52
G0 X171.84 Y122.98
G0 X171.96 Y122.87
G1 F2700 X171.96 Y127.68 E1509.53992
G0 F12000 X172.06 Y127.56
G0 X174.51 Y126.05
G0 X174.62 Y125.94
G1 F2700 X174.62 Y129.65 E1509.72526
G1 F1800 E1506.72526
G0 F12000 X126.64 Y165.43
G1 F1800 E1509.72526
G1 F2700 X126.64 Y172.53 E1510.07968
G0 F12000 X126.71 Y172.39
G0 X129.41 Y173.95
G0 X129.30 Y174.06
G1 F2700 X129.30 Y169.83 E1510.29081
G0 F12000 X129.18 Y169.93
G0 X124.04 Y169.96
G0 X123.97 Y170.10
G1 F2700 X123.97 Y164.16 E1510.58701
G0 F12000 X124.08 Y164.28
G0 X123.64 Y165.03
G0 X121.41 Y167.14
G0 X121.30 Y167.03
G1 F2700 X121.30 Y167.47 E1510.60867
G1 F1800 E1507.60867
G0 F12000 X147.96 Y181.38
G1 F1800 E1510.60867
G1 F2700 X147.96 Y187.21 E1510.89967
G0 F12000 X147.96 Y187.05
G0 X150.59 Y186.73
G0 X150.63 Y186.89
G1 F2700 X150.63 Y181.60 E1511.16359
G0 F12000 X150.62 Y181.76
G0 X153.28 Y181.98
G0 X153.29 Y181.82
G1 F2700 X153.29 Y186.17 E1511.38052
G0 F12000 X153.26 Y186.02
G0 X155.92 Y185.35
G0 X155.96 Y185.51
G1 F2700 X155.96 Y181.91 E1511.55982
G0 F12000 X155.99 Y182.07
G0 X158.66 Y181.60
G0 X158.63 Y181.44
G1 F2700 X158.63 Y184.41 E1511.70830
;LAYER:1
G1 F1800 E1508.70830
G0 F12000 X155.64 Y181.22 Z1.45
;TYPE:WALL-INNER
G1 F1800 E1511.70830
G1 F3000 X147.08 Y180.50 E1512.06524
G1 X139.51 Y177.98 E1512.39690
G1 X139.03 Y177.69 E1512.42024
G1 X135.17 Y175.35 E1512.60789
G1 X133.45 Y173.85 E1512.70298
G1 X129.17 Y168.46 E1512.98897
G1 X127.31 Y164.99 E1513.15257
G1 X126.31 Y163.15 E1513.23977
G1 X126.10 Y162.50 E1513.26808
G1 X124.59 Y158.02 E1513.46443
G1 X124.40 Y156.77 E1513.51711
G1 X124.31 Y156.15 E1513.54311
G1 X123.83 Y153.11 E1513.67098
G1 X123.84 Y152.34 E1513.70325
G1 X123.85 Y151.79 E1513.72591
G1 X123.89 Y148.42 E1513.86611
G1 X124.53 Y144.85 E1514.01716
G1 X124.63 Y144.33 E1514.03892
G1 X124.70 Y143.94 E1514.05565
G1 X125.90 Y140.59 E1514.20350
G1 X126.08 Y140.10 E1514.22490
G1 X126.24 Y139.64 E1514.24524
G1 X126.50 Y139.17 E1514.26769
G1 X126.78 Y138.68 E1514.29124
G1 X128.53 Y135.55 E1514.44028
G1 X129.13 Y134.81 E1514.47986
G1 X129.55 Y134.30 E1514.50732
G1 X131.65 Y131.68 E1514.64675
G1 X135.19 Y128.56 E1514.84314
G1 X135.70 Y128.10 E1514.87154
G1 X140.03 Y125.43 E1515.08317
G1 X140.83 Y124.94 E1515.12212
G1 X142.08 Y124.44 E1515.17790
G1 X147.23 Y122.41 E1515.40812
G1 X149.48 Y121.97 E1515.50359
G1 X154.55 Y121.86 E1515.71421
G1 X162.37 Y123.46 E1516.04611
G1 X170.14 Y127.11 E1516.40299
G1 X177.10 Y132.97 E1516.78116
G1 X177.62 Y133.77 E1516.82105
G1 X181.15 Y140.50 E1517.13707
G1 X181.41 Y141.00 E1517.16019
G1 X183.18 Y150.09 E1517.54540
G1 X182.17 Y159.33 E1517.93193
G1 X178.42 Y167.84 E1518.31856
G1 X172.34 Y174.83 E1518.70384
G1 X165.45 Y179.20 E1519.04269
G1 X164.65 Y179.60 E1519.07993
G1 X164.60 Y179.63 E1519.08259
G1 X155.64 Y181.22 E1519.46095
G0 F12000 X156.62 Y177.08
G1 F3000 X162.62 Y175.60 E1519.71757
G1 X168.08 Y172.73 E1519.97418
G1 X172.70 Y168.64 E1520.23077
G1 X176.21 Y163.56 E1520.48741
G1 X178.40 Y157.79 E1520.74402
G1 X179.14 Y151.66 E1521.00062
G1 X178.40 Y145.53 E1521.25727
G1 X176.21 Y139.76 E1521.51388
G1 X172.70 Y134.68 E1521.77052
G1 X168.08 Y130.59 E1522.02713
G1 X162.62 Y127.72 E1522.28375
G1 X156.62 Y126.25 E1522.54036
G1 X150.45 Y126.25 E1522.79697
G1 X144.46 Y127.72 E1523.05358
G1 X138.99 Y130.59 E1523.31020
G1 X134.37 Y134.68 E1523.56681
G1 X130.87 Y139.76 E1523.82345
G1 X128.68 Y145.53 E1524.08006
G1 X127.93 Y151.66 E1524.33670
G1 X128.68 Y157.79 E1524.59330
G1 X130.87 Y163.56 E1524.84991
G1 X134.37 Y168.64 E1525.10655
G1 X138.99 Y172.73 E1525.36314
G1 X144.46 Y175.60 E1525.61975
G1 X150.45 Y177.08 E1525.87637
G1 X156.62 Y177.08 E1526.13297
G0 F12000 X156.57 Y176.68
;TYPE:WALL-OUTER
G1 F3000 X162.47 Y175.22 E1526.38556
G1 X167.85 Y172.40 E1526.63812
G1 X172.40 Y168.37 E1526.89070
G1 X175.85 Y163.37 E1527.14328
G1 X178.01 Y157.69 E1527.39589
G1 X178.74 Y151.66 E1527.64843
G1 X178.01 Y145.63 E1527.90101
G1 X175.85 Y139.95 E1528.15362
G1 X172.40 Y134.95 E1528.40621
G1 X167.85 Y130.92 E1528.65881
G1 X162.47 Y128.10 E1528.91137
G1 X156.57 Y126.64 E1529.16397
G1 X150.50 Y126.64 E1529.41649
G1 X144.60 Y128.10 E1529.66909
G1 X139.22 Y130.92 E1529.92165
G1 X134.67 Y134.95 E1530.17426
G1 X131.22 Y139.95 E1530.42684
G1 X129.07 Y145.63 E1530.67945
G1 X128.34 Y151.66 E1530.93202
G1 X129.07 Y157.69 E1531.18456
G1 X131.22 Y163.37 E1531.43717
G1 X134.67 Y168.37 E1531.68975
G1 X139.22 Y172.40 E1531.94233
G1 X144.60 Y175.22 E1532.19489
G1 X150.50 Y176.68 E1532.44748
G1 X156.57 Y176.68 E1532.70001
G0 F12000 X156.57 Y176.98
G0 X155.65 Y181.33
G0 X155.65 Y181.63
G1 F3000 X147.00 Y180.90 E1533.06096
G1 X139.34 Y178.34 E1533.39670
G1 X134.94 Y175.68 E1533.61075
G1 X133.16 Y174.12 E1533.70899
G1 X128.84 Y168.68 E1533.99797
G1 X125.94 Y163.31 E1534.25151
G1 X124.21 Y158.12 E1534.47899
G1 X123.43 Y153.14 E1534.68849
G1 X123.49 Y148.39 E1534.88615
G1 X124.31 Y143.83 E1535.07871
G1 X125.88 Y139.48 E1535.27102
G1 X128.20 Y135.33 E1535.46877
G1 X131.36 Y131.40 E1535.67823
G1 X135.46 Y127.78 E1535.90570
G1 X140.65 Y124.58 E1536.15918
G1 X147.12 Y122.02 E1536.44828
G1 X149.44 Y121.57 E1536.54649
G1 X154.58 Y121.46 E1536.76056
G1 X162.50 Y123.08 E1537.09624
G1 X170.35 Y126.77 E1537.45731
G1 X177.40 Y132.70 E1537.84016
G1 X177.97 Y133.57 E1537.88341
G1 X181.79 Y140.86 E1538.22564
G1 X183.58 Y150.07 E1538.61567
G1 X182.56 Y159.44 E1539.00747
G1 X178.76 Y168.06 E1539.39919
G1 X172.60 Y175.14 E1539.78927
G1 X165.65 Y179.55 E1540.13134
G1 X164.83 Y179.96 E1540.16951
G1 X164.72 Y180.01 E1540.17471
G1 X155.65 Y181.63 E1540.55764
G0 F12000 X155.81 Y181.05
;TYPE:FILL
G1 F3000 X160.63 Y176.23 E1540.84086
G0 F12000 X161.38 Y176.05
G1 F3000 X156.50 Y180.93 E1541.12773
G0 F12000 X157.19 Y180.81
G1 F3000 X162.13 Y175.86 E1541.41824
G0 F12000 X163.01 Y175.55
G1 F3000 X157.88 Y180.68 E1541.71996
G0 F12000 X158.57 Y180.56
G1 F3000 X164.20 Y174.93 E1542.05124
G0 F12000 X165.39 Y174.30
G1 F3000 X159.25 Y180.44 E1542.41207
G0 F12000 X159.94 Y180.32
G1 F3000 X166.58 Y173.68 E1542.80242
G0 F12000 X167.77 Y173.05
G1 F3000 X160.63 Y180.19 E1543.22234
G0 F12000 X161.32 Y180.07
G1 F3000 X171.50 Y169.88 E1543.82121
G0 F12000 X173.14 Y168.25
G1 F3000 X181.98 Y159.41 E1544.34121
G0 F12000 X182.09 Y158.73
G1 F3000 X174.40 Y166.42 E1544.79350
G0 F12000 X175.66 Y164.60
G1 F3000 X182.16 Y158.10 E1545.17561
G0 F12000 X182.23 Y157.46
G1 F3000 X176.49 Y163.20 E1545.51295
G0 F12000 X176.84 Y162.29
G1 F3000 X182.30 Y156.83 E1545.83404
G0 F12000 X182.37 Y156.19
G1 F3000 X177.19 Y161.38 E1546.13881
G0 F12000 X177.53 Y160.46
G1 F3000 X182.44 Y155.56 E1546.42738
G0 F12000 X182.51 Y154.92
G1 F3000 X177.88 Y159.55 E1546.69967
G0 F12000 X178.22 Y158.64
G1 F3000 X182.58 Y154.29 E1546.95572
G0 F12000 X182.65 Y153.65
G1 F3000 X178.54 Y157.76 E1547.19720
G0 F12000 X178.62 Y157.11
G1 F3000 X182.72 Y153.02 E1547.43815
G0 F12000 X182.79 Y152.38
G1 F3000 X178.70 Y156.47 E1547.67859
G0 F12000 X178.78 Y155.83
G1 F3000 X182.86 Y151.75 E1547.91854
G0 F12000 X182.93 Y151.11
G1 F3000 X178.85 Y155.18 E1548.15796
G0 F12000 X178.93 Y154.54
G1 F3000 X183.00 Y150.47 E1548.39691
G0 F12000 X183.00 Y149.91
G1 F3000 X179.01 Y153.90 E1548.63153
G0 F12000 X179.09 Y153.25
G1 F3000 X182.91 Y149.43 E1548.85616
G0 F12000 X182.81 Y148.96
G1 F3000 X179.16 Y152.61 E1549.07077
G0 F12000 X179.24 Y151.97
G1 F3000 X182.72 Y148.49 E1549.27532
G0 F12000 X182.63 Y148.01
G1 F3000 X179.25 Y151.40 E1549.47420
G0 F12000 X179.19 Y150.89
G1 F3000 X182.54 Y147.54 E1549.67126
G0 F12000 X182.44 Y147.07
G1 F3000 X179.12 Y150.39 E1549.86646
G0 F12000 X179.06 Y149.88
G1 F3000 X182.35 Y146.59 E1550.05984
G0 F12000 X182.26 Y146.12
G1 F3000 X179.00 Y149.38 E1550.25140
G0 F12000 X178.94 Y148.87
G1 F3000 X182.17 Y145.65 E1550.44107
G0 F12000 X182.08 Y145.17
G1 F3000 X178.88 Y148.37 E1550.62893
G0 F12000 X178.82 Y147.86
G1 F3000 X181.98 Y144.70 E1550.81493
G0 F12000 X181.89 Y144.23
G1 F3000 X178.76 Y147.36 E1550.99911
G0 F12000 X178.70 Y146.85
G1 F3000 X181.80 Y143.75 E1551.18149
G0 F12000 X181.71 Y143.28
G1 F3000 X178.64 Y146.35 E1551.36200
G0 F12000 X178.57 Y145.84
G1 F3000 X181.61 Y142.81 E1551.54071
G0 F12000 X181.52 Y142.33
G1 F3000 X178.49 Y145.37 E1551.71927
G0 F12000 X178.33 Y144.96
G1 F3000 X181.43 Y141.86 E1551.90154
G0 F12000 X181.34 Y141.39
G1 F3000 X178.17 Y144.55 E1552.08757
G0 F12000 X178.02 Y144.14
G1 F3000 X181.22 Y140.94 E1552.27566
G0 F12000 X181.02 Y140.57
G1 F3000 X177.86 Y143.73 E1552.46149
G0 F12000 X177.71 Y143.32
G1 F3000 X180.83 Y140.20 E1552.64499
G0 F12000 X180.63 Y139.83
G1 F3000 X177.55 Y142.91 E1552.82623
G0 F12000 X177.40 Y142.50
G1 F3000 X180.44 Y139.46 E1553.00520
G0 F12000 X180.25 Y139.08
G1 F3000 X177.24 Y142.09 E1553.18192
G0 F12000 X177.08 Y141.68
G1 F3000 X180.05 Y138.71 E1553.35630
G0 F12000 X179.86 Y138.34
G1 F3000 X176.93 Y141.27 E1553.52846
G0 F12000 X176.77 Y140.86
G1 F3000 X179.66 Y137.97 E1553.69835
G0 F12000 X179.47 Y137.60
G1 F3000 X176.62 Y140.45 E1553.86598
G0 F12000 X176.46 Y140.04
G1 F3000 X179.27 Y137.23 E1554.03131
G0 F12000 X179.08 Y136.85
G1 F3000 X176.29 Y139.64 E1554.19512
G0 F12000 X176.06 Y139.31
G1 F3000 X178.88 Y136.48 E1554.36110
G0 F12000 X178.69 Y136.11
G1 F3000 X175.83 Y138.97 E1554.52920
G0 F12000 X175.60 Y138.64
G1 F3000 X178.50 Y135.74 E1554.69953
G0 F12000 X178.30 Y135.37
G1 F3000 X175.37 Y138.30 E1554.87201
G0 F12000 X175.14 Y137.97
G1 F3000 X178.11 Y135.00 E1555.04664
G0 F12000 X177.91 Y134.63
G1 F3000 X174.91 Y137.63 E1555.22347
G0 F12000 X174.68 Y137.30
G1 F3000 X177.72 Y134.25 E1555.40238
G0 F12000 X177.53 Y133.88
G1 F3000 X174.44 Y136.96 E1555.58347
G0 F12000 X174.21 Y136.63
G1 F3000 X177.30 Y133.54 E1555.76518
G0 F12000 X177.08 Y133.20
G1 F3000 X173.98 Y136.29 E1555.94730
G0 F12000 X173.75 Y135.96
G1 F3000 X176.81 Y132.91 E1556.12687
G0 F12000 X176.50 Y132.65
G1 F3000 X173.52 Y135.62 E1556.30190
G0 F12000 X173.29 Y135.29
G1 F3000 X176.19 Y132.39 E1556.47253
G0 F12000 X175.88 Y132.13
G1 F3000 X173.06 Y134.96 E1556.63869
G0 F12000 X172.83 Y134.62
G1 F3000 X175.58 Y131.87 E1556.80032
G0 F12000 X175.27 Y131.61
G1 F3000 X172.53 Y134.35 E1556.96122
G0 F12000 X172.23 Y134.09
G1 F3000 X174.96 Y131.35 E1557.12170
G0 F12000 X174.66 Y131.10
G1 F3000 X171.93 Y133.82 E1557.28180
G0 F12000 X171.63 Y133.55
G1 F3000 X174.35 Y130.84 E1557.44146
G0 F12000 X174.04 Y130.58
G1 F3000 X171.33 Y133.29 E1557.60065
G0 F12000 X171.03 Y133.02
G1 F3000 X173.73 Y130.32 E1557.75940
G0 F12000 X173.43 Y130.06
G1 F3000 X170.73 Y132.75 E1557.91771
G0 F12000 X170.43 Y132.49
G1 F3000 X173.12 Y129.80 E1558.07561
G0 F12000 X172.81 Y129.54
G1 F3000 X170.13 Y132.22 E1558.23312
G0 F12000 X169.83 Y131.96
G1 F3000 X172.50 Y129.29 E1558.39017
G0 F12000 X172.20 Y129.03
G1 F3000 X169.53 Y131.69 E1558.54680
G0 F12000 X169.23 Y131.43
G1 F3000 X171.89 Y128.77 E1558.70308
G0 F12000 X171.58 Y128.51
G1 F3000 X168.93 Y131.16 E1558.85889
G0 F12000 X168.63 Y130.90
G1 F3000 X171.28 Y128.25 E1559.01426
G0 F12000 X170.97 Y127.99
G1 F3000 X168.34 Y130.63 E1559.16916
G0 F12000 X168.00 Y130.39
G1 F3000 X170.66 Y127.74 E1559.32541
G0 F12000 X170.36 Y127.48
G1 F3000 X167.63 Y130.20 E1559.48542
G0 F12000 X167.26 Y130.00
G1 F3000 X170.04 Y127.22 E1559.64902
G0 F12000 X169.66 Y127.04
G1 F3000 X166.89 Y129.81 E1559.81183
G0 F12000 X166.52 Y129.61
G1 F3000 X169.28 Y126.86 E1559.97375
G0 F12000 X168.89 Y126.68
G1 F3000 X166.15 Y129.42 E1560.13492
G0 F12000 X165.78 Y129.22
G1 F3000 X168.51 Y126.50 E1560.29525
G0 F12000 X168.12 Y126.32
G1 F3000 X165.41 Y129.03 E1560.45477
G0 F12000 X165.04 Y128.84
G1 F3000 X167.74 Y126.14 E1560.61352
G0 F12000 X167.35 Y125.95
G1 F3000 X164.67 Y128.64 E1560.77144
G0 F12000 X164.29 Y128.45
G1 F3000 X166.97 Y125.77 E1560.92855
G0 F12000 X166.58 Y125.59
G1 F3000 X163.92 Y128.25 E1561.08488
G0 F12000 X163.55 Y128.06
G1 F3000 X166.20 Y125.41 E1561.24034
G0 F12000 X165.81 Y125.23
G1 F3000 X163.18 Y127.86 E1561.39501
G0 F12000 X162.81 Y127.67
G1 F3000 X165.43 Y125.05 E1561.54887
G0 F12000 X165.04 Y124.87
G1 F3000 X162.39 Y127.52 E1561.70486
G0 F12000 X161.94 Y127.41
G1 F3000 X164.66 Y124.69 E1561.86493
G0 F12000 X164.27 Y124.51
G1 F3000 X161.48 Y127.30 E1562.02906
G0 F12000 X161.03 Y127.19
G1 F3000 X163.89 Y124.33 E1562.19722
G0 F12000 X163.50 Y124.15
G1 F3000 X160.57 Y127.08 E1562.36946
G0 F12000 X160.12 Y126.96
G1 F3000 X163.12 Y123.97 E1562.54573
G0 F12000 X162.73 Y123.78
G1 F3000 X159.67 Y126.85 E1562.72609
G0 F12000 X159.21 Y126.74
G1 F3000 X162.35 Y123.60 E1562.91048
G0 F12000 X161.89 Y123.50
G1 F3000 X158.76 Y126.63 E1563.09427
G0 F12000 X158.31 Y126.52
G1 F3000 X161.42 Y123.41 E1563.27713
G0 F12000 X160.95 Y123.31
G1 F3000 X157.85 Y126.40 E1563.45899
G0 F12000 X157.40 Y126.29
G1 F3000 X160.48 Y123.21 E1563.63996
G0 F12000 X160.01 Y123.12
G1 F3000 X156.94 Y126.18 E1563.81996
G0 F12000 X156.46 Y126.10
G1 F3000 X159.54 Y123.02 E1564.00117
G0 F12000 X159.07 Y122.93
G1 F3000 X155.89 Y126.10 E1564.18803
G0 F12000 X155.32 Y126.10
G1 F3000 X158.60 Y122.83 E1564.38053
G0 F12000 X158.13 Y122.73
G1 F3000 X154.76 Y126.10 E1564.57861
G0 F12000 X154.19 Y126.10
G1 F3000 X157.66 Y122.64 E1564.78234
G0 F12000 X157.19 Y122.54
G1 F3000 X153.63 Y126.10 E1564.99174
G0 F12000 X153.06 Y126.10
G1 F3000 X156.72 Y122.45 E1565.20676
G0 F12000 X156.25 Y122.35
G1 F3000 X152.50 Y126.10 E1565.42742
G0 F12000 X151.93 Y126.10
G1 F3000 X155.78 Y122.25 E1565.65373
G0 F12000 X155.31 Y122.16
G1 F3000 X151.36 Y126.10 E1565.88568
G0 F12000 X150.80 Y126.10
G1 F3000 X154.84 Y122.06 E1566.12322
G0 F12000 X154.33 Y122.00
G1 F3000 X150.17 Y126.17 E1566.36810
G0 F12000 X149.41 Y126.36
G1 F3000 X153.75 Y122.02 E1566.62319
G0 F12000 X153.18 Y122.03
G1 F3000 X148.66 Y126.54 E1566.88848
G0 F12000 X147.91 Y126.72
G1 F3000 X152.60 Y122.04 E1567.16388
G0 F12000 X152.02 Y122.05
G1 F3000 X147.16 Y126.91 E1567.44945
G0 F12000 X146.41 Y127.10
G1 F3000 X151.44 Y122.06 E1567.74526
G0 F12000 X150.87 Y122.08
G1 F3000 X145.66 Y127.28 E1568.05123
G0 F12000 X144.91 Y127.47
G1 F3000 X150.29 Y122.09 E1568.36741
G0 F12000 X149.71 Y122.10
G1 F3000 X144.01 Y127.80 E1568.70225
G0 F12000 X142.82 Y128.42
G1 F3000 X149.05 Y122.19 E1569.06849
G0 F12000 X148.35 Y122.33
G1 F3000 X141.63 Y129.05 E1569.46337
G0 F12000 X140.44 Y129.67
G1 F3000 X147.65 Y122.47 E1569.88694
G0 F12000 X146.83 Y122.71
G1 F3000 X139.25 Y130.30 E1570.33279
G0 F12000 X136.98 Y127.48
G1 F3000 X128.43 Y136.03 E1570.83579
G0 F12000 X127.70 Y137.32
G1 F3000 X138.46 Y126.57 E1571.46808
G0 F12000 X139.93 Y125.66
G1 F3000 X126.98 Y138.61 E1572.22955
G0 F12000 X126.32 Y139.83
G1 F3000 X141.22 Y124.93 E1573.10556
G0 F12000 X142.16 Y124.56
G1 F3000 X126.00 Y140.72 E1574.05529
G0 F12000 X125.69 Y141.60
G1 F3000 X143.09 Y124.19 E1575.07864
G0 F12000 X144.03 Y123.83
G1 F3000 X125.37 Y142.48 E1576.17563
G0 F12000 X125.05 Y143.37
G1 F3000 X144.96 Y123.45 E1577.34632
G0 F12000 X145.90 Y123.08
G1 F3000 X135.37 Y133.61 E1577.96544
G0 F12000 X133.99 Y135.00
G1 F3000 X124.80 Y144.19 E1578.50578
G0 F12000 X124.67 Y144.88
G1 F3000 X132.72 Y136.82 E1578.97926
G0 F12000 X131.46 Y138.65
G1 F3000 X124.55 Y145.57 E1579.38596
G0 F12000 X124.42 Y146.26
G1 F3000 X130.59 Y140.09 E1579.74882
G0 F12000 X130.25 Y141.00
G1 F3000 X124.30 Y146.95 E1580.09871
G0 F12000 X124.17 Y147.64
G1 F3000 X129.90 Y141.91 E1580.43556
G0 F12000 X129.56 Y142.82
G1 F3000 X124.05 Y148.33 E1580.75941
G0 F12000 X124.02 Y148.92
G1 F3000 X129.21 Y143.73 E1581.06438
G0 F12000 X128.86 Y144.65
G1 F3000 X124.02 Y149.49 E1581.34942
G0 F12000 X124.01 Y150.07
G1 F3000 X128.53 Y145.54 E1581.61554
G0 F12000 X128.46 Y146.18
G1 F3000 X124.00 Y150.64 E1581.87750
G0 F12000 X123.99 Y151.21
G1 F3000 X128.38 Y146.83 E1582.13527
G0 F12000 X128.30 Y147.47
G1 F3000 X123.99 Y151.78 E1582.38891
G0 F12000 X123.98 Y152.36
G1 F3000 X128.22 Y148.11 E1582.63841
G0 F12000 X128.15 Y148.76
G1 F3000 X123.97 Y152.93 E1582.88377
G0 F12000 X124.02 Y153.44
G1 F3000 X128.07 Y149.40 E1583.12145
G0 F12000 X127.99 Y150.04
G1 F3000 X124.10 Y153.93 E1583.35008
G0 F12000 X124.18 Y154.42
G1 F3000 X127.91 Y150.69 E1583.56963
G0 F12000 X127.83 Y151.33
G1 F3000 X124.25 Y154.91 E1583.78012
G0 F12000 X124.33 Y155.40
G1 F3000 X127.82 Y151.91 E1583.98558
G0 F12000 X127.88 Y152.41
G1 F3000 X124.41 Y155.89 E1584.19013
G0 F12000 X124.48 Y156.38
G1 F3000 X127.94 Y152.92 E1584.39377
G0 F12000 X128.01 Y153.42
G1 F3000 X124.56 Y156.87 E1584.59653
G0 F12000 X124.63 Y157.36
G1 F3000 X128.07 Y153.93 E1584.79838
G0 F12000 X128.13 Y154.43
G1 F3000 X124.71 Y157.85 E1584.99929
G0 F12000 X124.83 Y158.29
G1 F3000 X128.19 Y154.94 E1585.19658
G0 F12000 X128.25 Y155.44
G1 F3000 X124.97 Y158.72 E1585.38913
G0 F12000 X125.12 Y159.14
G1 F3000 X128.31 Y155.94 E1585.57699
G0 F12000 X128.37 Y156.45
G1 F3000 X125.26 Y159.56 E1585.76005
G0 F12000 X125.40 Y159.99
G1 F3000 X128.43 Y156.95 E1585.93835
G0 F12000 X128.50 Y157.46
G1 F3000 X125.54 Y160.41 E1586.11191
G0 F12000 X125.69 Y160.83
G1 F3000 X128.58 Y157.94 E1586.28222
G0 F12000 X128.74 Y158.35
G1 F3000 X125.83 Y161.26 E1586.45337
G0 F12000 X125.97 Y161.68
G1 F3000 X128.89 Y158.76 E1586.62535
G0 F12000 X129.05 Y159.17
G1 F3000 X126.11 Y162.10 E1586.79810
G0 F12000 X126.25 Y162.53
G1 F3000 X129.20 Y159.58 E1586.97163
G0 F12000 X129.36 Y159.99
G1 F3000 X126.39 Y162.95 E1587.14602
G0 F12000 X126.57 Y163.34
G1 F3000 X129.51 Y160.40 E1587.31894
G0 F12000 X129.67 Y160.81
G1 F3000 X126.77 Y163.71 E1587.48936
G0 F12000 X126.97 Y164.07
G1 F3000 X129.83 Y161.22 E1587.65734
G0 F12000 X129.98 Y161.63
G1 F3000 X127.17 Y164.44 E1587.82279
G0 F12000 X127.37 Y164.81
G1 F3000 X130.14 Y162.04 E1587.98572
G0 F12000 X130.29 Y162.45
G1 F3000 X127.56 Y165.18 E1588.14617
G0 F12000 X127.76 Y165.54
G1 F3000 X130.45 Y162.86 E1588.30404
G0 F12000 X130.60 Y163.27
G1 F3000 X127.96 Y165.91 E1588.45944
G0 F12000 X128.16 Y166.28
G1 F3000 X130.77 Y163.67 E1588.61290
G0 F12000 X131.00 Y164.00
G1 F3000 X128.36 Y166.65 E1588.76827
G0 F12000 X128.56 Y167.01
G1 F3000 X131.23 Y164.34 E1588.92561
G0 F12000 X131.46 Y164.67
G1 F3000 X128.75 Y167.38 E1589.08488
G0 F12000 X128.95 Y167.75
G1 F3000 X131.69 Y165.01 E1589.24610
G0 F12000 X131.93 Y165.34
G1 F3000 X129.15 Y168.12 E1589.40920
G0 F12000 X129.36 Y168.47
G1 F3000 X132.16 Y165.68 E1589.57336
G0 F12000 X132.39 Y166.01
G1 F3000 X129.61 Y168.78 E1589.73640
G0 F12000 X129.87 Y169.10
G1 F3000 X132.62 Y166.35 E1589.89827
G0 F12000 X132.85 Y166.68
G1 F3000 X130.12 Y169.41 E1590.05905
G0 F12000 X130.37 Y169.73
G1 F3000 X133.08 Y167.01 E1590.21871
G0 F12000 X133.31 Y167.35
G1 F3000 X130.62 Y170.05 E1590.37722
G0 F12000 X130.87 Y170.36
G1 F3000 X133.54 Y167.68 E1590.53462
G0 F12000 X133.77 Y168.02
G1 F3000 X131.12 Y170.68 E1590.69090
G0 F12000 X131.37 Y170.99
G1 F3000 X134.00 Y168.35 E1590.84601
G0 F12000 X134.24 Y168.69
G1 F3000 X131.62 Y171.31 E1590.99999
G0 F12000 X131.87 Y171.62
G1 F3000 X134.53 Y168.96 E1591.15648
G0 F12000 X134.83 Y169.23
G1 F3000 X132.12 Y171.94 E1591.31588
G0 F12000 X132.37 Y172.25
G1 F3000 X135.13 Y169.49 E1591.47818
G0 F12000 X135.43 Y169.76
G1 F3000 X132.62 Y172.57 E1591.64340
G0 F12000 X132.87 Y172.88
G1 F3000 X135.73 Y170.03 E1591.81156
G0 F12000 X136.03 Y170.29
G1 F3000 X133.12 Y173.20 E1591.98262
G0 F12000 X133.37 Y173.52
G1 F3000 X136.33 Y170.56 E1592.15666
G0 F12000 X136.63 Y170.82
G1 F3000 X133.63 Y173.82 E1592.33281
G0 F12000 X133.93 Y174.08
G1 F3000 X136.93 Y171.09 E1592.50882
G0 F12000 X137.23 Y171.35
G1 F3000 X134.24 Y174.35 E1592.68471
G0 F12000 X134.54 Y174.61
G1 F3000 X137.53 Y171.62 E1592.86051
G0 F12000 X137.83 Y171.88
G1 F3000 X134.84 Y174.87 E1593.03619
G0 F12000 X135.14 Y175.14
G1 F3000 X138.13 Y172.15 E1593.21170
G0 F12000 X138.43 Y172.42
G1 F3000 X135.48 Y175.37 E1593.38518
G0 F12000 X135.83 Y175.58
G1 F3000 X138.73 Y172.68 E1593.55557
G0 F12000 X139.05 Y172.92
G1 F3000 X136.18 Y175.79 E1593.72449
G0 F12000 X136.53 Y176.01
G1 F3000 X139.42 Y173.12 E1593.89450
G0 F12000 X139.79 Y173.31
G1 F3000 X136.88 Y176.22 E1594.06560
G0 F12000 X137.24 Y176.43
G1 F3000 X140.17 Y173.51 E1594.23775
G0 F12000 X140.54 Y173.70
G1 F3000 X137.59 Y176.65 E1594.41105
G0 F12000 X137.94 Y176.86
G1 F3000 X140.91 Y173.90 E1594.58535
G0 F12000 X141.28 Y174.09
G1 F3000 X138.29 Y177.07 E1594.76080
G0 F12000 X138.65 Y177.29
G1 F3000 X141.65 Y174.28 E1594.93734
G0 F12000 X142.02 Y174.48
G1 F3000 X139.00 Y177.50 E1595.11490
G0 F12000 X139.35 Y177.71
G1 F3000 X142.39 Y174.67 E1595.29358
G0 F12000 X142.76 Y174.87
G1 F3000 X139.73 Y177.90 E1595.47176
G0 F12000 X140.16 Y178.04
G1 F3000 X143.13 Y175.06 E1595.64680
G0 F12000 X143.50 Y175.26
G1 F3000 X140.58 Y178.18 E1595.81878
G0 F12000 X141.00 Y178.32
G1 F3000 X143.88 Y175.45 E1595.98761
G0 F12000 X144.25 Y175.65
G1 F3000 X141.43 Y178.47 E1596.15330
G0 F12000 X141.85 Y178.61
G1 F3000 X144.66 Y175.79 E1596.31866
G0 F12000 X145.12 Y175.91
G1 F3000 X142.28 Y178.75 E1596.48573
G0 F12000 X142.70 Y178.89
G1 F3000 X145.57 Y176.02 E1596.65451
G0 F12000 X146.03 Y176.13
G1 F3000 X143.12 Y179.03 E1596.82513
G0 F12000 X143.55 Y179.17
G1 F3000 X146.48 Y176.24 E1596.99744
G0 F12000 X146.93 Y176.35
G1 F3000 X143.97 Y179.31 E1597.17147
G0 F12000 X144.40 Y179.46
G1 F3000 X147.39 Y176.47 E1597.34730
G0 F12000 X147.84 Y176.58
G1 F3000 X144.82 Y179.60 E1597.52487
G0 F12000 X145.25 Y179.74
G1 F3000 X148.29 Y176.69 E1597.70417
G0 F12000 X148.75 Y176.80
G1 F3000 X145.67 Y179.88 E1597.88526
G0 F12000 X146.09 Y180.02
G1 F3000 X149.20 Y176.91 E1598.06809
G0 F12000 X149.66 Y177.03
G1 F3000 X146.52 Y180.16 E1598.25265
G0 F12000 X146.94 Y180.31
G1 F3000 X150.11 Y177.14 E1598.43891
G0 F12000 X150.60 Y177.22
G1 F3000 X147.42 Y180.39 E1598.62544
G0 F12000 X147.95 Y180.43
G1 F3000 X151.16 Y177.22 E1598.81453
G0 F12000 X151.73 Y177.22
G1 F3000 X148.47 Y180.48 E1599.00627
G0 F12000 X148.99 Y180.52
G1 F3000 X152.29 Y177.22 E1599.20056
G0 F12000 X152.86 Y177.22
G1 F3000 X149.51 Y180.57 E1599.39747
G0 F12000 X150.03 Y180.61
G1 F3000 X153.43 Y177.22 E1599.59696
G0 F12000 X153.99 Y177.22
G1 F3000 X150.55 Y180.65 E1599.79902
G0 F12000 X151.07 Y180.70
G1 F3000 X154.56 Y177.22 E1600.00371
G0 F12000 X155.12 Y177.22
G1 F3000 X151.60 Y180.74 E1600.21097
G0 F12000 X152.12 Y180.79
G1 F3000 X155.69 Y177.22 E1600.42084
G0 F12000 X156.25 Y177.22
G1 F3000 X152.64 Y180.83 E1600.63330
G0 F12000 X153.16 Y180.88
G1 F3000 X156.88 Y177.16 E1600.85179
G0 F12000 X157.63 Y176.97
G1 F3000 X153.68 Y180.92 E1601.08374
G0 F12000 X154.21 Y180.96
G1 F3000 X158.38 Y176.79 E1601.32916
G0 F12000 X159.13 Y176.60
G1 F3000 X154.73 Y181.01 E1601.58809
G0 F12000 X155.25 Y181.05
G1 F3000 X159.88 Y176.42 E1601.86044
G0 F12000 X162.01 Y179.95
G1 F3000 X181.54 Y160.42 E1603.00867
G0 F12000 X181.09 Y161.43
G1 F3000 X162.70 Y179.83 E1604.09028
G0 F12000 X163.38 Y179.70
G1 F3000 X180.65 Y162.44 E1605.10525
G0 F12000 X180.20 Y163.45
G1 F3000 X164.07 Y179.58 E1606.05358
G0 F12000 X164.90 Y179.32
G1 F3000 X179.76 Y164.46 E1606.92717
G0 F12000 X179.31 Y165.47
G1 F3000 X166.27 Y178.52 E1607.69396
G0 F12000 X167.81 Y177.53
G1 F3000 X178.87 Y166.49 E1608.34366
G0 F12000 X178.42 Y167.50
G1 F3000 X169.36 Y176.55 E1608.87629
G0 F12000 X170.91 Y175.57
G1 F3000 X175.53 Y170.95 E1609.14799
G0 F12000 X178.40 Y157.79
G0 X179.14 Y151.66
G0 X178.40 Y145.54
G0 X176.21 Y139.77
G0 X172.70 Y134.69
G0 X168.08 Y130.59
G0 X162.62 Y127.72
G0 X156.62 Y126.25
G0 X150.45 Y126.25
G0 X144.46 Y127.72
G0 X138.99 Y130.59
G0 X134.86 Y129.03
G1 F3000 X130.26 Y133.63 E1609.41822
G1 F1800 E1606.41822
G0 F12000 X147.96 Y181.82
;TYPE:SUPPORT
G1 F1800 E1609.41822
G1 F3000 X147.96 Y187.21 E1609.64218
G0 F12000 X147.96 Y187.05
G0 X150.59 Y186.73
G0 X150.63 Y186.89
G1 F3000 X150.63 Y182.05 E1609.84353
G0 F12000 X150.62 Y182.20
G0 X153.28 Y182.43
G0 X153.29 Y182.27
G1 F3000 X153.29 Y186.17 E1610.00571
G0 F12000 X153.26 Y186.02
G0 X155.92 Y185.35
G0 X155.96 Y185.51
G1 F3000 X155.96 Y182.43 E1610.13381
G0 F12000 X155.99 Y182.59
G0 X158.66 Y182.11
G0 X158.63 Y181.95
G1 F3000 X158.63 Y184.41 E1610.23617
G1 F1800 E1607.23617
G0 F12000 X155.96 Y175.84
G1 F1800 E1610.23617
G1 F3000 X155.96 Y127.48 E1612.24649
G0 F12000 X155.96 Y127.64
G0 X153.29 Y127.64
G0 X153.29 Y127.48
G1 F3000 X153.29 Y175.84 E1614.25682
G0 F12000 X153.29 Y175.68
G0 X150.63 Y175.68
G0 X150.63 Y175.84
G1 F3000 X150.63 Y127.48 E1616.26714
G0 F12000 X150.63 Y127.64
G0 X148.00 Y128.29
G0 X147.96 Y128.13
G1 F3000 X147.96 Y175.19 E1618.22338
G0 F12000 X148.00 Y175.03
G0 X145.34 Y174.38
G0 X145.30 Y174.53
G1 F3000 X145.30 Y128.79 E1620.12507
G0 F12000 X145.33 Y128.95
G0 X142.71 Y130.22
G0 X142.63 Y130.08
G1 F3000 X142.63 Y173.24 E1621.91958
G0 F12000 X142.71 Y173.10
G0 X140.04 Y171.70
G0 X139.97 Y171.84
G1 F3000 X139.97 Y131.48 E1623.59768
G0 F12000 X140.04 Y131.62
G0 X137.40 Y133.87
G0 X137.30 Y133.75
G1 F3000 X137.30 Y169.58 E1625.08731
G0 F12000 X137.41 Y169.46
G0 X134.76 Y166.75
G0 X134.63 Y166.84
G1 F3000 X134.63 Y136.49 E1626.34895
G0 F12000 X134.76 Y136.58
G0 X132.11 Y140.42
G0 X131.97 Y140.35
G1 F3000 X131.97 Y162.97 E1627.28914
G0 F12000 X132.11 Y162.91
G0 X129.46 Y152.62
G0 X129.30 Y152.64
G1 F3000 X129.30 Y150.69 E1627.37017
G0 F12000 X129.46 Y150.71
G0 X158.59 Y128.17
G0 X158.63 Y128.02
G1 F3000 X158.63 Y175.31 E1629.33638
G0 F12000 X158.59 Y175.15
G0 X161.26 Y174.50
G0 X161.29 Y174.65
G1 F3000 X161.29 Y128.67 E1631.24796
G0 F12000 X161.25 Y128.83
G0 X163.88 Y129.97
G0 X163.96 Y129.83
G1 F3000 X163.96 Y173.50 E1633.06359
G0 F12000 X163.88 Y173.36
G0 X166.55 Y171.96
G0 X166.62 Y172.10
G1 F3000 X166.62 Y131.23 E1634.76281
G0 F12000 X166.55 Y131.37
G0 X169.19 Y133.44
G0 X169.29 Y133.32
G1 F3000 X169.29 Y170.01 E1636.28808
G0 F12000 X169.19 Y169.89
G0 X171.83 Y167.45
G0 X171.96 Y167.54
G1 F3000 X171.96 Y135.79 E1637.60801
G0 F12000 X171.82 Y135.88
G0 X174.49 Y139.74
G0 X174.62 Y139.65
G1 F3000 X174.62 Y163.67 E1638.60673
G0 F12000 X174.49 Y163.58
G0 X177.13 Y156.62
G0 X177.29 Y156.63
G1 F3000 X177.29 Y146.69 E1639.02007
G1 F1800 E1636.02007
G0 F12000 X129.30 Y170.61
G1 F1800 E1639.02007
G1 F3000 X129.30 Y173.97 E1639.15955
G0 F12000 X129.37 Y173.83
G0 X126.71 Y172.39
G0 X126.64 Y172.53
G1 F3000 X126.64 Y166.36 E1639.41624
G0 F12000 X126.49 Y166.44
G0 X124.01 Y164.38
G0 X123.97 Y164.23
G1 F3000 X123.97 Y170.10 E1639.66049
G0 F12000 X124.04 Y169.96
G0 X121.42 Y167.35
G0 X121.30 Y167.47
G1 F3000 X121.30 Y167.03 E1639.67854
G1 F1800 E1636.67854
G0 F12000 X134.63 Y126.30
G1 F1800 E1639.67854
G1 F3000 X134.63 Y121.35 E1639.88404
G0 F12000 X134.68 Y121.51
G0 X137.34 Y120.83
G0 X137.30 Y120.68
G1 F3000 X137.30 Y125.66 E1640.09125
G0 F12000 X137.22 Y125.53
G0 X139.88 Y123.88
G0 X139.97 Y124.02
G1 F3000 X139.97 Y120.01 E1640.25776
G0 F12000 X140.00 Y120.17
G0 X142.63 Y120.05
G0 X142.63 Y119.89
G1 F3000 X142.63 Y122.89 E1640.38274
G1 F1800 E1637.38274
G0 F12000 X163.96 Y122.83
G1 F1800 E1640.38274
G1 F3000 X163.96 Y120.58 E1640.47665
G1 F1800 E1637.47665
G0 F12000 X166.62 Y117.91
G1 F1800 E1640.47665
G1 F3000 X166.62 Y124.09 E1640.73355
