;-- START GCODE --
;Sliced for Type A Machines Series 1
;Sliced at: Mon 27-07-2015 20:05:25
;Basic settings: Layer height: 0.3 Walls: 0.8 Fill: 15
;Print Speed: 80 Support: 0
;Retraction Speed: 30 Retraction Distance: 3
;Print time: #P_TIME#
;Filament used: #F_AMNT#m #F_WGHT#g
;Filament cost: #F_COST#
M106 S255	 ;start with the fan on
G21        ;metric values
G90        ;absolute positioning
M106 S255    ;start with the fan on
G28     ;move to endstops
G29		;allows for auto-levelling
G1 X150 Y5  Z15.0 F12000 ;center and move the platform down 15mm
M109 S230 ;Heat To temp
G92 E0                  ;zero the extruded length
G1 F200 E30              ;extrude 30mm of feed stock
G92 E0                  ;zero the extruded length again
G1 X175 Y25  Z0 F12000 ;remove bugger
G1 X220 F12000 ;remove bugger
G1 X150 Y150  Z15 F12000 ;recenter and begin
G1 F12000

;Layer count: 158
;LAYER:-2
;RAFT
G0 F12000 X128.66 Y118.14 Z0.30
;TYPE:SUPPORT
G1 F2700 X133.37 Y116.57 E0.43299
G1 X139.86 Y114.95 E1.01741
G1 X147.62 Y114.95 E1.69536
G1 X149.31 Y115.28 E1.84555
G1 X153.37 Y116.30 E2.21121
G1 X153.73 Y116.66 E2.25554
G1 X154.79 Y116.64 E2.34810
G1 X159.87 Y117.67 E2.80075
G1 X164.20 Y113.35 E3.33489
G1 X169.22 Y113.35 E3.77335
G1 X173.04 Y117.17 E4.24471
G1 X173.44 Y117.36 E4.28356
G1 X178.96 Y122.89 E4.96549
G1 X178.96 Y123.09 E4.98296
G1 X179.36 Y123.49 E5.03234
G1 X179.36 Y123.69 E5.04981
G1 X179.76 Y124.09 E5.09920
G1 X179.76 Y124.29 E5.11666
G1 X180.16 Y124.69 E5.16605
G1 X180.16 Y124.89 E5.18351
G1 X180.56 Y125.29 E5.23290
G1 X180.56 Y125.49 E5.25036
G1 X180.96 Y125.89 E5.29975
G1 X180.96 Y126.09 E5.31721
G1 X181.16 Y126.29 E5.34190
G1 X181.16 Y126.49 E5.35936
G1 X181.56 Y126.89 E5.40875
G1 X181.56 Y127.09 E5.42621
G1 X181.96 Y127.49 E5.47560
G1 X181.96 Y127.69 E5.49306
G1 X182.36 Y128.09 E5.54245
G1 X182.36 Y128.29 E5.55991
G1 X182.76 Y128.69 E5.60930
G1 X182.76 Y128.89 E5.62677
G1 X183.16 Y129.29 E5.67615
G1 X183.16 Y129.49 E5.69362
G1 X183.22 Y129.55 E5.70115
G1 X184.56 Y129.55 E5.81805
G1 X184.56 Y135.77 E6.36154
G1 X185.56 Y137.69 E6.55075
G1 X186.34 Y139.16 E6.69563
G1 X187.88 Y147.10 E7.40174
G1 X187.88 Y147.10 E7.40183
G1 X188.41 Y149.82 E7.64336
G1 X187.23 Y160.69 E8.59830
G1 X184.05 Y167.89 E9.28529
G1 X182.82 Y170.70 E9.55315
G1 X176.97 Y177.41 E10.33072
G1 X175.69 Y178.88 E10.50078
G1 X173.33 Y180.38 E10.74517
G1 X173.65 Y181.73 E10.86576
G1 X170.04 Y183.53 E11.21791
G1 X168.64 Y184.93 E11.39089
G1 X159.05 Y189.73 E12.32680
G1 X157.86 Y190.12 E12.43655
G1 X154.66 Y190.92 E12.72460
G1 X154.06 Y191.12 E12.77976
G1 X149.96 Y192.15 E13.14836
G1 X142.86 Y192.15 E13.76833
G1 X142.86 Y188.21 E14.11224
G1 X142.66 Y188.01 E14.13693
G1 X142.66 Y187.61 E14.17186
G1 X142.46 Y187.41 E14.19655
G1 X142.46 Y187.01 E14.23147
G1 X142.40 Y186.95 E14.23900
G1 X141.26 Y186.95 E14.33845
G1 X141.26 Y184.01 E14.59522
G1 X139.09 Y183.28 E14.79536
G1 X139.09 Y183.28 E14.79545
G1 X137.12 Y182.62 E14.97684
G1 X135.90 Y181.89 E15.10089
G1 X135.90 Y181.89 E15.10098
G1 X135.34 Y181.55 E15.15840
G1 X134.43 Y181.55 E15.23724
G1 X133.16 Y181.12 E15.35430
G1 X132.36 Y180.93 E15.42602
G1 X131.77 Y180.72 E15.48099
G1 X129.65 Y180.19 E15.67187
G1 X128.98 Y179.53 E15.75385
G1 X127.78 Y178.93 E15.87087
G1 X127.58 Y178.73 E15.89563
G1 X126.38 Y178.13 E16.01269
G1 X126.18 Y177.93 E16.03744
G1 X124.98 Y177.33 E16.15450
G1 X124.78 Y177.13 E16.17926
G1 X123.58 Y176.53 E16.29631
G1 X121.38 Y174.33 E16.56814
G1 X120.98 Y174.13 E16.60699
G1 X114.10 Y167.25 E17.45697
G1 X118.46 Y162.89 E17.99549
G1 X118.46 Y162.69 E18.01287
G1 X120.16 Y160.99 E18.22227
G1 X119.52 Y159.10 E18.39657
G1 X119.24 Y157.29 E18.55669
G1 X118.63 Y153.38 E18.90156
G1 X118.70 Y147.88 E19.38241
G1 X119.47 Y143.64 E19.75797
G1 X119.66 Y142.59 E19.85182
G1 X121.47 Y137.52 E20.32157
G1 X121.98 Y136.61 E20.41273
G1 X124.17 Y132.72 E20.80237
G1 X125.10 Y131.57 E20.93169
G1 X125.10 Y131.56 E20.93181
G1 X127.80 Y128.22 E21.30741
G1 X129.06 Y127.10 E21.45474
G1 X129.06 Y126.61 E21.49735
G1 X128.86 Y126.41 E21.52204
G1 X128.86 Y125.61 E21.59189
G1 X128.66 Y125.41 E21.61658
G1 X128.66 Y118.14 E22.25131
G0 F12000 X129.50 Y117.75
G1 F2700 X129.50 Y180.20 E27.70360
G0 F12000 X130.50 Y180.52
G1 F2700 X130.50 Y117.41 E33.21290
G0 F12000 X131.50 Y117.08
G1 F2700 X131.50 Y180.77 E38.77310
G0 F12000 X132.50 Y181.07
G1 F2700 X132.50 Y116.75 E44.38865
G0 F12000 X133.50 Y116.43
G1 F2700 X133.50 Y181.35 E50.05650
G0 F12000 X134.50 Y181.65
G1 F2700 X134.50 Y116.18 E55.77290
G0 F12000 X135.50 Y115.93
G1 F2700 X135.50 Y181.77 E61.52125
G0 F12000 X136.50 Y182.37
G1 F2700 X136.50 Y115.68 E67.34425
G0 F12000 X137.50 Y115.43
G1 F2700 X137.50 Y182.86 E73.23176
G0 F12000 X138.50 Y183.20
G1 F2700 X138.50 Y115.18 E79.17018
G0 F12000 X139.50 Y114.93
G1 F2700 X139.50 Y183.53 E85.15950
G0 F12000 X140.50 Y183.86
G1 F2700 X140.50 Y114.84 E91.18549
G0 F12000 X141.50 Y114.84
G1 F2700 X141.50 Y187.05 E97.48999
G0 F12000 X142.50 Y187.60
G1 F2700 X142.50 Y114.84 E103.84198
G0 F12000 X143.50 Y114.84
G1 F2700 X143.50 Y192.25 E110.60049
G0 F12000 X144.50 Y192.25
G1 F2700 X144.50 Y114.84 E117.35899
G0 F12000 X145.50 Y114.84
G1 F2700 X145.50 Y192.25 E124.11749
G0 F12000 X146.50 Y192.25
G1 F2700 X146.50 Y114.84 E130.87599
G0 F12000 X147.50 Y114.84
G1 F2700 X147.50 Y192.25 E137.63449
G0 F12000 X148.50 Y192.25
G1 F2700 X148.50 Y115.02 E144.37780
G0 F12000 X149.50 Y115.22
G1 F2700 X149.50 Y192.25 E151.10295
G0 F12000 X150.50 Y192.12
G1 F2700 X150.50 Y115.47 E157.79483
G0 F12000 X151.50 Y115.72
G1 F2700 X151.50 Y191.87 E164.44306
G0 F12000 X152.50 Y191.62
G1 F2700 X152.50 Y115.97 E171.04773
G0 F12000 X153.50 Y116.28
G1 F2700 X153.50 Y191.37 E177.60403
G0 F12000 X154.50 Y191.09
G1 F2700 X154.50 Y116.54 E184.11274
G0 F12000 X155.50 Y116.68
G1 F2700 X155.50 Y190.82 E190.58627
G0 F12000 X156.50 Y190.57
G1 F2700 X156.50 Y116.88 E197.02016
G0 F12000 X157.50 Y117.08
G1 F2700 X157.50 Y190.32 E203.41450
G0 F12000 X158.50 Y190.02
G1 F2700 X158.50 Y117.29 E209.76475
G0 F12000 X159.50 Y117.49
G1 F2700 X159.50 Y189.62 E216.06200
G0 F12000 X160.50 Y189.12
G1 F2700 X160.50 Y116.90 E222.36729
G0 F12000 X161.50 Y115.90
G1 F2700 X161.50 Y188.62 E228.71623
G0 F12000 X162.50 Y188.12
G1 F2700 X162.50 Y114.90 E235.10882
G0 F12000 X163.50 Y113.90
G1 F2700 X163.50 Y187.62 E241.54507
G0 F12000 X164.50 Y187.12
G1 F2700 X164.50 Y113.24 E247.99494
G0 F12000 X165.50 Y113.24
G1 F2700 X165.50 Y186.62 E254.40115
G0 F12000 X166.50 Y186.12
G1 F2700 X166.50 Y113.24 E260.76371
G0 F12000 X167.50 Y113.24
G1 F2700 X167.50 Y185.62 E267.08261
G0 F12000 X168.50 Y185.12
G1 F2700 X168.50 Y113.24 E273.35787
G0 F12000 X169.50 Y113.48
G1 F2700 X169.50 Y184.22 E279.53385
G0 F12000 X170.50 Y183.42
G1 F2700 X170.50 Y114.48 E285.55277
G0 F12000 X171.50 Y115.48
G1 F2700 X171.50 Y182.92 E291.44072
G0 F12000 X172.50 Y182.42
G1 F2700 X172.50 Y116.48 E297.19780
G0 F12000 X173.50 Y117.28
G1 F2700 X173.50 Y180.40 E302.70876
G0 F12000 X173.50 Y180.66
G1 F2700 X173.50 Y181.92 E302.81894
G0 F12000 X174.50 Y179.76
G1 F2700 X174.50 Y118.28 E308.18715
G0 F12000 X175.50 Y119.28
G1 F2700 X175.50 Y179.13 E313.41270
G0 F12000 X176.50 Y178.12
G1 F2700 X176.50 Y120.28 E318.46241
G0 F12000 X177.50 Y121.28
G1 F2700 X177.50 Y176.97 E323.32450
G0 F12000 X178.50 Y175.82
G1 F2700 X178.50 Y122.28 E327.99896
G0 F12000 X179.50 Y123.68
G1 F2700 X179.50 Y174.67 E332.45088
G0 F12000 X180.50 Y173.52
G1 F2700 X180.50 Y125.08 E336.68033
G0 F12000 X181.50 Y126.68
G1 F2700 X181.50 Y172.37 E340.66978
G0 F12000 X182.50 Y171.22
G1 F2700 X182.50 Y128.28 E344.41921
G0 F12000 X183.50 Y129.44
G1 F2700 X183.50 Y169.41 E347.90873
G0 F12000 X184.50 Y167.14
G1 F2700 X184.50 Y129.44 E351.20007
G0 F12000 X185.50 Y137.34
G1 F2700 X185.50 Y164.87 E353.60348
G0 F12000 X186.50 Y162.60
G1 F2700 X186.50 Y139.46 E355.62361
G0 F12000 X187.50 Y144.59
G1 F2700 X187.50 Y159.15 E356.89472
G0 F12000 X188.50 Y149.99
G1 F2700 X188.50 Y149.72 E356.91847
G0 F12000 X128.50 Y127.45
G1 F2700 X128.50 Y179.41 E361.45464
G0 F12000 X127.50 Y178.81
G1 F2700 X127.50 Y128.41 E365.85434
G0 F12000 X126.50 Y129.66
G1 F2700 X126.50 Y178.31 E370.10195
G0 F12000 X125.50 Y177.71
G1 F2700 X125.50 Y130.90 E374.18883
G0 F12000 X124.50 Y132.14
G1 F2700 X124.50 Y177.11 E378.11498
G0 F12000 X123.50 Y176.60
G1 F2700 X123.50 Y133.69 E381.86093
G0 F12000 X122.50 Y135.47
G1 F2700 X122.50 Y175.60 E385.36389
G0 F12000 X121.50 Y174.60
G1 F2700 X121.50 Y137.26 E388.62397
G0 F12000 X120.50 Y139.92
G1 F2700 X120.50 Y173.80 E391.58169
G0 F12000 X119.50 Y172.80
G1 F2700 X119.50 Y161.50 E392.56810
G0 F12000 X118.50 Y162.50
G1 F2700 X118.50 Y171.80 E393.37989
G0 F12000 X117.50 Y170.80
G1 F2700 X117.50 Y163.70 E393.99969
G0 F12000 X116.50 Y164.70
G1 F2700 X116.50 Y169.80 E394.44487
G0 F12000 X115.50 Y168.80
G1 F2700 X115.50 Y165.70 E394.71544
G0 F12000 X114.50 Y166.70
G1 F2700 X114.50 Y167.80 E394.81139
G0 F12000 X119.50 Y159.36
G1 F2700 X119.50 Y142.85 E396.25284
M106 S255
;LAYER:-1
;RAFT
G0 F12000 X119.55 Y143.02 Z0.50
;TYPE:SUPPORT
G1 F4800 X163.87 Y187.35 E397.29532
G0 F12000 X164.25 Y187.16
G1 F4800 X119.64 Y142.55 E398.34454
G0 F12000 X119.79 Y142.13
G1 F4800 X164.62 Y186.97 E399.39909
G0 F12000 X165.00 Y186.78
G1 F4800 X119.94 Y141.71 E400.45902
G0 F12000 X120.08 Y141.30
G1 F4800 X165.38 Y186.59 E401.52432
G0 F12000 X165.76 Y186.40
G1 F4800 X120.23 Y140.88 E402.59495
G0 F12000 X120.38 Y140.47
G1 F4800 X166.13 Y186.22 E403.67094
G0 F12000 X166.51 Y186.03
G1 F4800 X120.53 Y140.05 E404.75227
G0 F12000 X120.68 Y139.63
G1 F4800 X166.89 Y185.84 E405.83895
G0 F12000 X167.27 Y185.65
G1 F4800 X120.83 Y139.22 E406.93102
G0 F12000 X120.98 Y138.80
G1 F4800 X167.64 Y185.46 E408.02843
G0 F12000 X168.02 Y185.27
G1 F4800 X121.13 Y138.38 E409.13119
G0 F12000 X121.28 Y137.97
G1 F4800 X168.40 Y185.09 E410.23932
G0 F12000 X168.74 Y184.87
G1 F4800 X121.43 Y137.55 E411.35207
G0 F12000 X121.63 Y137.18
G1 F4800 X169.03 Y184.58 E412.46685
G0 F12000 X169.31 Y184.30
G1 F4800 X121.83 Y136.82 E413.58352
G0 F12000 X122.03 Y136.46
G1 F4800 X169.59 Y184.02 E414.70205
G0 F12000 X169.88 Y183.74
G1 F4800 X122.24 Y136.10 E415.82246
G0 F12000 X122.44 Y135.73
G1 F4800 X170.19 Y183.49 E416.94550
G0 F12000 X170.57 Y183.30
G1 F4800 X122.64 Y135.37 E418.07265
G0 F12000 X122.85 Y135.01
G1 F4800 X170.95 Y183.11 E419.20386
G0 F12000 X171.32 Y182.92
G1 F4800 X123.05 Y134.65 E420.33920
G0 F12000 X123.25 Y134.28
G1 F4800 X171.70 Y182.73 E421.47863
G0 F12000 X172.08 Y182.54
G1 F4800 X123.46 Y133.92 E422.62214
G0 F12000 X123.66 Y133.56
G1 F4800 X172.46 Y182.35 E423.76975
G0 F12000 X172.83 Y182.17
G1 F4800 X123.86 Y133.20 E424.92145
G0 F12000 X124.07 Y132.83
G1 F4800 X173.21 Y181.98 E426.07724
G0 F12000 X173.59 Y181.79
G1 F4800 X124.30 Y132.50 E427.23637
G0 F12000 X124.55 Y132.19
G1 F4800 X173.55 Y181.19 E428.38868
G0 F12000 X173.37 Y180.44
G1 F4800 X124.81 Y131.88 E429.53091
G0 F12000 X125.06 Y131.56
G1 F4800 X173.69 Y180.19 E430.67455
G0 F12000 X174.03 Y179.97
G1 F4800 X125.31 Y131.25 E431.82042
G0 F12000 X125.56 Y130.94
G1 F4800 X174.38 Y179.75 E432.96847
G0 F12000 X174.72 Y179.53
G1 F4800 X125.81 Y130.62 E434.11874
G0 F12000 X126.07 Y130.31
G1 F4800 X175.07 Y179.31 E435.27122
G0 F12000 X175.42 Y179.09
G1 F4800 X126.32 Y130.00 E436.42589
G0 F12000 X126.57 Y129.68
G1 F4800 X175.75 Y178.86 E437.58249
G0 F12000 X176.01 Y178.56
G1 F4800 X126.83 Y129.37 E438.73936
G0 F12000 X127.08 Y129.06
G1 F4800 X176.28 Y178.26 E439.89652
G0 F12000 X176.54 Y177.96
G1 F4800 X127.33 Y128.74 E441.05391
G0 F12000 X127.58 Y128.43
G1 F4800 X176.80 Y177.65 E442.21156
G0 F12000 X177.07 Y177.35
G1 F4800 X127.85 Y128.13 E443.36917
G0 F12000 X128.15 Y127.86
G1 F4800 X177.33 Y177.05 E444.52593
G0 F12000 X177.59 Y176.75
G1 F4800 X128.45 Y127.60 E445.68179
G0 F12000 X128.75 Y127.33
G1 F4800 X177.86 Y176.44 E446.83679
G0 F12000 X178.12 Y176.14
G1 F4800 X129.03 Y127.05 E447.99135
G0 F12000 X128.83 Y126.28
G1 F4800 X178.38 Y175.84 E449.15680
G0 F12000 X178.65 Y175.53
G1 F4800 X128.83 Y125.72 E450.32843
G0 F12000 X128.63 Y124.95
G1 F4800 X178.91 Y175.23 E451.51096
G0 F12000 X179.17 Y174.93
G1 F4800 X128.63 Y124.39 E452.69969
G0 F12000 X128.63 Y123.82
G1 F4800 X179.44 Y174.63 E453.89460
G0 F12000 X179.70 Y174.33
G1 F4800 X128.63 Y123.25 E455.09571
G0 F12000 X128.63 Y122.69
G1 F4800 X179.96 Y174.02 E456.30301
G0 F12000 X180.23 Y173.72
G1 F4800 X128.63 Y122.12 E457.51651
G0 F12000 X128.63 Y121.56
G1 F4800 X180.49 Y173.42 E458.73617
G0 F12000 X180.75 Y173.12
G1 F4800 X128.63 Y120.99 E459.96205
G0 F12000 X128.63 Y120.43
G1 F4800 X181.02 Y172.81 E461.19412
G0 F12000 X181.28 Y172.51
G1 F4800 X128.63 Y119.86 E462.43238
G0 F12000 X128.63 Y119.30
G1 F4800 X181.54 Y172.21 E463.67684
G0 F12000 X181.81 Y171.91
G1 F4800 X128.63 Y118.73 E464.92748
G0 F12000 X128.63 Y118.16
G1 F4800 X182.07 Y171.60 E466.18432
G0 F12000 X182.33 Y171.30
G1 F4800 X129.02 Y117.99 E467.43818
G0 F12000 X129.44 Y117.85
G1 F4800 X182.60 Y171.00 E468.68827
G0 F12000 X182.85 Y170.69
G1 F4800 X129.87 Y117.70 E469.93446
G0 F12000 X130.29 Y117.56
G1 F4800 X183.03 Y170.30 E471.17470
G0 F12000 X183.20 Y169.91
G1 F4800 X130.72 Y117.42 E472.40906
G0 F12000 X131.14 Y117.28
G1 F4800 X183.37 Y169.51 E473.63749
G0 F12000 X183.54 Y169.12
G1 F4800 X131.56 Y117.14 E474.86000
G0 F12000 X131.99 Y117.00
G1 F4800 X183.72 Y168.73 E476.07661
G0 F12000 X183.89 Y168.34
G1 F4800 X132.41 Y116.86 E477.28732
G0 F12000 X132.84 Y116.72
G1 F4800 X184.06 Y167.94 E478.49210
G0 F12000 X184.24 Y167.55
G1 F4800 X133.26 Y116.57 E479.69097
G0 F12000 X133.71 Y116.45
G1 F4800 X184.41 Y167.16 E480.88342
G0 F12000 X184.58 Y166.76
G1 F4800 X134.16 Y116.34 E482.06929
G0 F12000 X134.61 Y116.23
G1 F4800 X184.76 Y166.37 E483.24858
G0 F12000 X184.93 Y165.98
G1 F4800 X135.06 Y116.11 E484.42130
G0 F12000 X135.52 Y116.00
G1 F4800 X185.10 Y165.59 E485.58744
G0 F12000 X185.28 Y165.19
G1 F4800 X135.97 Y115.89 E486.74701
G0 F12000 X136.42 Y115.78
G1 F4800 X185.45 Y164.80 E487.89998
G0 F12000 X185.62 Y164.41
G1 F4800 X136.88 Y115.66 E489.04639
G0 F12000 X137.33 Y115.55
G1 F4800 X185.79 Y164.01 E490.18621
G0 F12000 X185.97 Y163.62
G1 F4800 X137.78 Y115.44 E491.31946
G0 F12000 X138.23 Y115.32
G1 F4800 X186.14 Y163.23 E492.44614
G0 F12000 X186.31 Y162.84
G1 F4800 X138.69 Y115.21 E493.56624
G0 F12000 X139.14 Y115.10
G1 F4800 X186.49 Y162.44 E494.67976
G0 F12000 X186.66 Y162.05
G1 F4800 X139.59 Y114.98 E495.78671
G0 F12000 X140.09 Y114.92
G1 F4800 X186.83 Y161.66 E496.88596
G0 F12000 X187.00 Y161.26
G1 F4800 X140.66 Y114.92 E497.97598
G0 F12000 X141.22 Y114.92
G1 F4800 X187.18 Y160.87 E499.05677
G0 F12000 X187.28 Y160.41
G1 F4800 X141.79 Y114.92 E500.12679
G0 F12000 X142.35 Y114.92
G1 F4800 X187.34 Y159.91 E501.18482
G0 F12000 X187.40 Y159.40
G1 F4800 X142.92 Y114.92 E502.23085
G0 F12000 X143.49 Y114.92
G1 F4800 X187.45 Y158.88 E503.26489
G0 F12000 X187.51 Y158.38
G1 F4800 X144.05 Y114.92 E504.28693
G0 F12000 X144.62 Y114.92
G1 F4800 X187.56 Y157.87 E505.29699
G0 F12000 X187.62 Y157.35
G1 F4800 X145.18 Y114.92 E506.29504
G0 F12000 X145.75 Y114.92
G1 F4800 X187.68 Y156.84 E507.28110
G0 F12000 X187.73 Y156.34
G1 F4800 X146.31 Y114.92 E508.25518
G0 F12000 X146.88 Y114.92
G1 F4800 X187.79 Y155.82 E509.21726
G0 F12000 X187.84 Y155.31
G1 F4800 X147.44 Y114.92 E510.16733
G0 F12000 X148.11 Y115.01
G1 F4800 X187.90 Y154.81 E511.10316
G0 F12000 X187.95 Y154.29
G1 F4800 X148.81 Y115.16 E512.02366
G0 F12000 X149.53 Y115.31
G1 F4800 X188.01 Y153.78 E512.92853
G0 F12000 X188.06 Y153.28
G1 F4800 X150.29 Y115.50 E513.81695
G0 F12000 X151.04 Y115.69
G1 F4800 X188.12 Y152.76 E514.68897
G0 F12000 X188.18 Y152.25
G1 F4800 X151.80 Y115.88 E515.54455
G0 F12000 X152.55 Y116.06
G1 F4800 X188.23 Y151.75 E516.38369
G0 F12000 X188.29 Y151.24
G1 F4800 X153.31 Y116.25 E517.20641
G0 F12000 X154.24 Y116.62
G1 F4800 X188.34 Y150.72 E518.00853
G0 F12000 X188.40 Y150.22
G1 F4800 X154.79 Y116.61 E518.79892
G0 F12000 X155.50 Y116.75
G1 F4800 X188.41 Y149.66 E519.57293
G0 F12000 X188.28 Y148.96
G1 F4800 X156.21 Y116.90 E520.32698
G0 F12000 X156.92 Y117.04
G1 F4800 X188.14 Y148.26 E521.06108
G0 F12000 X188.00 Y147.55
G1 F4800 X157.63 Y117.19 E521.77521
G0 F12000 X158.34 Y117.33
G1 F4800 X187.86 Y146.85 E522.46946
G0 F12000 X187.73 Y146.15
G1 F4800 X159.06 Y117.48 E523.14376
G0 F12000 X159.77 Y117.62
G1 F4800 X187.59 Y145.45 E523.79814
G0 F12000 X187.45 Y144.74
G1 F4800 X160.11 Y117.40 E524.44131
G0 F12000 X160.39 Y117.11
G1 F4800 X187.32 Y144.04 E525.07460
G0 F12000 X187.18 Y143.34
G1 F4800 X160.67 Y116.83 E525.69801
G0 F12000 X160.96 Y116.55
G1 F4800 X187.04 Y142.64 E526.31156
G0 F12000 X186.91 Y141.93
G1 F4800 X161.24 Y116.27 E526.91522
G0 F12000 X161.52 Y115.98
G1 F4800 X186.77 Y141.23 E527.50902
G0 F12000 X186.63 Y140.53
G1 F4800 X161.80 Y115.70 E528.09294
G0 F12000 X162.09 Y115.42
G1 F4800 X186.50 Y139.83 E528.66701
G0 F12000 X186.34 Y139.10
G1 F4800 X162.37 Y115.13 E529.23070
G0 F12000 X162.65 Y114.85
G1 F4800 X185.72 Y137.91 E529.77312
G0 F12000 X185.09 Y136.73
G1 F4800 X162.94 Y114.57 E530.29425
G0 F12000 X163.22 Y114.29
G1 F4800 X184.59 Y135.66 E530.79687
G0 F12000 X184.59 Y135.09
G1 F4800 X163.50 Y114.00 E531.29285
G0 F12000 X163.78 Y113.72
G1 F4800 X184.59 Y134.53 E531.78218
G0 F12000 X184.59 Y133.96
G1 F4800 X164.07 Y113.44 E532.26485
G0 F12000 X164.51 Y113.32
G1 F4800 X184.59 Y133.39 E532.73702
G0 F12000 X184.59 Y132.83
G1 F4800 X165.08 Y113.32 E533.19589
G0 F12000 X165.64 Y113.32
G1 F4800 X184.59 Y132.26 E533.64144
G0 F12000 X184.59 Y131.70
G1 F4800 X166.21 Y113.32 E534.07370
G0 F12000 X166.78 Y113.32
G1 F4800 X184.59 Y131.13 E534.49266
G0 F12000 X184.59 Y130.57
G1 F4800 X183.54 Y129.52 E534.51733
G0 F12000 X184.11 Y129.52
G1 F4800 X184.59 Y130.00 E534.52869
G0 F12000 X182.79 Y128.77
G1 F4800 X167.34 Y113.32 E534.89200
G0 F12000 X167.91 Y113.32
G1 F4800 X181.59 Y127.00 E535.21379
G0 F12000 X180.59 Y125.44
G1 F4800 X168.47 Y113.32 E535.49877
G0 F12000 X169.04 Y113.32
G1 F4800 X179.39 Y123.67 E535.74221
G0 F12000 X119.46 Y143.50
G1 F4800 X163.49 Y187.54 E536.77787
G0 F12000 X163.12 Y187.72
G1 F4800 X119.37 Y143.98 E537.80668
G0 F12000 X119.29 Y144.46
G1 F4800 X162.74 Y187.91 E538.82865
G0 F12000 X162.36 Y188.10
G1 F4800 X119.20 Y144.94 E539.84380
G0 F12000 X119.11 Y145.42
G1 F4800 X161.99 Y188.29 E540.85212
G0 F12000 X161.61 Y188.48
G1 F4800 X119.03 Y145.90 E541.85361
G0 F12000 X118.94 Y146.38
G1 F4800 X161.23 Y188.67 E542.84825
G0 F12000 X160.85 Y188.86
G1 F4800 X118.85 Y146.85 E543.83606
G0 F12000 X118.77 Y147.33
G1 F4800 X160.48 Y189.04 E544.81702
G0 F12000 X160.10 Y189.23
G1 F4800 X118.68 Y147.81 E545.79117
G0 F12000 X118.66 Y148.36
G1 F4800 X159.72 Y189.42 E546.75682
G0 F12000 X159.35 Y189.61
G1 F4800 X118.66 Y148.92 E547.71379
G0 F12000 X118.65 Y149.48
G1 F4800 X158.96 Y189.79 E548.66177
G0 F12000 X158.53 Y189.93
G1 F4800 X118.64 Y150.04 E549.59994
G0 F12000 X118.64 Y150.60
G1 F4800 X158.11 Y190.07 E550.52832
G0 F12000 X157.67 Y190.20
G1 F4800 X118.63 Y151.16 E551.44659
G0 F12000 X118.62 Y151.71
G1 F4800 X157.22 Y190.31 E552.35438
G0 F12000 X156.77 Y190.43
G1 F4800 X118.61 Y152.27 E553.25171
G0 F12000 X118.61 Y152.83
G1 F4800 X156.31 Y190.54 E554.13854
G0 F12000 X155.86 Y190.65
G1 F4800 X118.60 Y153.39 E555.01486
G0 F12000 X118.71 Y154.06
G1 F4800 X155.41 Y190.76 E555.87808
G0 F12000 X154.96 Y190.88
G1 F4800 X118.81 Y154.73 E556.72821
G0 F12000 X118.92 Y155.40
G1 F4800 X154.51 Y191.00 E557.56544
G0 F12000 X154.09 Y191.14
G1 F4800 X119.02 Y156.07 E558.39026
G0 F12000 X119.12 Y156.74
G1 F4800 X153.64 Y191.26 E559.20202
G0 F12000 X153.19 Y191.37
G1 F4800 X119.23 Y157.41 E560.00068
G0 F12000 X119.33 Y158.08
G1 F4800 X152.74 Y191.48 E560.78625
G0 F12000 X152.28 Y191.60
G1 F4800 X119.44 Y158.75 E561.55869
G0 F12000 X119.63 Y159.51
G1 F4800 X151.83 Y191.71 E562.31599
G0 F12000 X151.38 Y191.82
G1 F4800 X119.91 Y160.36 E563.05598
G0 F12000 X120.05 Y161.06
G1 F4800 X150.92 Y191.94 E563.78219
G0 F12000 X150.47 Y192.05
G1 F4800 X119.76 Y161.34 E564.50442
G0 F12000 X119.48 Y161.62
G1 F4800 X150.02 Y192.16 E565.22265
G0 F12000 X149.47 Y192.18
G1 F4800 X119.20 Y161.91 E565.93458
G0 F12000 X118.91 Y162.19
G1 F4800 X140.51 Y183.79 E566.44252
G0 F12000 X139.66 Y183.50
G1 F4800 X118.63 Y162.47 E566.93711
G0 F12000 X118.43 Y162.84
G1 F4800 X138.81 Y183.22 E567.41655
G0 F12000 X137.97 Y182.94
G1 F4800 X118.17 Y163.14 E567.88226
G0 F12000 X117.88 Y163.42
G1 F4800 X137.12 Y182.66 E568.33466
G0 F12000 X135.70 Y181.80
G1 F4800 X117.60 Y163.70 E568.76035
G0 F12000 X117.32 Y163.99
G1 F4800 X134.91 Y181.58 E569.17409
G0 F12000 X134.30 Y181.53
G1 F4800 X117.03 Y164.27 E569.58015
G0 F12000 X116.75 Y164.55
G1 F4800 X133.45 Y181.25 E569.97290
G0 F12000 X132.66 Y181.03
G1 F4800 X116.47 Y164.83 E570.35378
G0 F12000 X116.19 Y165.12
G1 F4800 X131.85 Y180.78 E570.72222
G0 F12000 X131.09 Y180.58
G1 F4800 X115.90 Y165.40 E571.07933
G0 F12000 X115.62 Y165.68
G1 F4800 X130.33 Y180.40 E571.42538
G0 F12000 X128.89 Y179.52
G1 F4800 X115.34 Y165.97 E571.74410
G0 F12000 X115.05 Y166.25
G1 F4800 X127.56 Y178.75 E572.03819
G0 F12000 X126.43 Y178.19
G1 F4800 X114.77 Y166.53 E572.31232
G0 F12000 X114.49 Y166.81
G1 F4800 X125.09 Y177.42 E572.56176
G0 F12000 X123.76 Y176.66
G1 F4800 X114.20 Y167.10 E572.78657
G0 F12000 X141.23 Y184.50
G1 F4800 X148.90 Y192.18 E572.96700
G0 F12000 X148.34 Y192.18
G1 F4800 X141.23 Y185.07 E573.13412
G0 F12000 X141.23 Y185.64
G1 F4800 X147.77 Y192.18 E573.28796
G0 F12000 X147.21 Y192.18
G1 F4800 X142.43 Y187.40 E573.40028
G0 F12000 X142.00 Y186.98
G1 F4800 X141.23 Y186.20 E573.41851
G0 F12000 X141.23 Y186.77
G1 F4800 X141.44 Y186.98 E573.42343
G0 F12000 X142.83 Y188.37
G1 F4800 X146.64 Y192.18 E573.51303
G0 F12000 X146.07 Y192.18
G1 F4800 X142.83 Y188.93 E573.58934
G0 F12000 X142.83 Y189.50
G1 F4800 X145.51 Y192.18 E573.65234
G0 F12000 X144.94 Y192.18
G1 F4800 X142.83 Y190.06 E573.70204
G0 F12000 X142.83 Y190.63
G1 F4800 X144.38 Y192.18 E573.73843
G0 F12000 X143.81 Y192.18
G1 F4800 X142.83 Y191.20 E573.76151
G0 F12000 X142.83 Y191.76
G1 F4800 X143.25 Y192.18 E573.77130
;LAYER:-1
;RAFT
G0 F12000 X142.80 Y192.06 Z0.70
;TYPE:SUPPORT
G1 F2700 X150.56 Y192.06 E574.02940
G0 F12000 X152.00 Y191.70
G1 F2700 X142.80 Y191.70 E574.33546
G0 F12000 X142.80 Y191.34
G1 F2700 X153.44 Y191.34 E574.68951
G0 F12000 X154.68 Y190.98
G1 F2700 X142.80 Y190.98 E575.08461
G0 F12000 X142.80 Y190.62
G1 F2700 X156.12 Y190.62 E575.52770
G0 F12000 X157.56 Y190.26
G1 F2700 X142.80 Y190.26 E576.01879
G0 F12000 X142.80 Y189.90
G1 F2700 X158.72 Y189.90 E576.54825
G0 F12000 X159.56 Y189.54
G1 F2700 X142.80 Y189.54 E577.10553
G0 F12000 X142.80 Y189.18
G1 F2700 X160.28 Y189.18 E577.68675
G0 F12000 X161.00 Y188.82
G1 F2700 X142.80 Y188.82 E578.29192
G0 F12000 X142.80 Y188.46
G1 F2700 X161.72 Y188.46 E578.92103
G0 F12000 X162.44 Y188.10
G1 F2700 X142.67 Y188.10 E579.57855
G0 F12000 X142.60 Y187.74
G1 F2700 X163.16 Y187.74 E580.26221
G0 F12000 X163.88 Y187.38
G1 F2700 X142.40 Y187.38 E580.97647
G0 F12000 X142.39 Y187.02
G1 F2700 X164.59 Y187.02 E581.71512
G0 F12000 X165.31 Y186.66
G1 F2700 X141.20 Y186.66 E582.51718
G0 F12000 X141.20 Y186.30
G1 F2700 X166.03 Y186.30 E583.34320
G0 F12000 X166.75 Y185.94
G1 F2700 X141.20 Y185.94 E584.19316
G0 F12000 X141.20 Y185.58
G1 F2700 X167.47 Y185.58 E585.06707
G0 F12000 X168.19 Y185.22
G1 F2700 X141.20 Y185.22 E585.96493
G0 F12000 X141.20 Y184.86
G1 F2700 X168.79 Y184.86 E586.88268
G0 F12000 X169.15 Y184.50
G1 F2700 X141.20 Y184.50 E587.81240
G0 F12000 X141.20 Y184.14
G1 F2700 X169.51 Y184.14 E588.75409
G0 F12000 X169.87 Y183.78
G1 F2700 X140.39 Y183.78 E589.73463
G0 F12000 X139.32 Y183.42
G1 F2700 X170.40 Y183.42 E590.76833
G0 F12000 X171.12 Y183.06
G1 F2700 X138.23 Y183.06 E591.86198
G0 F12000 X137.15 Y182.70
G1 F2700 X171.84 Y182.70 E593.01551
G0 F12000 X172.56 Y182.34
G1 F2700 X136.53 Y182.34 E594.21374
G0 F12000 X135.93 Y181.98
G1 F2700 X173.28 Y181.98 E595.45574
G0 F12000 X173.68 Y181.62
G1 F2700 X135.34 Y181.62 E596.73104
G0 F12000 X133.38 Y181.26
G1 F2700 X173.60 Y181.26 E598.06869
G0 F12000 X173.51 Y180.90
G1 F2700 X132.10 Y180.90 E599.44609
G0 F12000 X130.78 Y180.54
G1 F2700 X173.43 Y180.54 E600.86461
G0 F12000 X173.76 Y180.18
G1 F2700 X129.54 Y180.18 E602.33524
G0 F12000 X129.19 Y179.82
G1 F2700 X174.33 Y179.82 E603.83673
G0 F12000 X174.90 Y179.46
G1 F2700 X128.70 Y179.46 E605.37312
G0 F12000 X127.98 Y179.10
G1 F2700 X175.47 Y179.10 E606.95234
G0 F12000 X175.90 Y178.74
G1 F2700 X127.46 Y178.74 E608.56333
G0 F12000 X126.74 Y178.38
G1 F2700 X176.21 Y178.38 E610.20861
G0 F12000 X176.52 Y178.02
G1 F2700 X126.18 Y178.02 E611.88292
G0 F12000 X125.50 Y177.66
G1 F2700 X176.84 Y177.66 E613.59033
G0 F12000 X177.15 Y177.30
G1 F2700 X124.86 Y177.30 E615.32937
G0 F12000 X124.26 Y176.94
G1 F2700 X177.46 Y176.94 E617.09888
G0 F12000 X177.78 Y176.58
G1 F2700 X123.55 Y176.58 E618.90267
G0 F12000 X123.19 Y176.22
G1 F2700 X178.09 Y176.22 E620.72886
G0 F12000 X178.40 Y175.86
G1 F2700 X122.83 Y175.86 E622.57742
G0 F12000 X122.47 Y175.50
G1 F2700 X178.72 Y175.50 E624.44840
G0 F12000 X179.03 Y175.14
G1 F2700 X122.11 Y175.14 E626.34177
G0 F12000 X121.75 Y174.78
G1 F2700 X179.34 Y174.78 E628.25752
G0 F12000 X179.66 Y174.42
G1 F2700 X121.39 Y174.42 E630.19569
G0 F12000 X120.83 Y174.06
G1 F2700 X179.97 Y174.06 E632.16289
G0 F12000 X180.28 Y173.70
G1 F2700 X120.47 Y173.70 E634.15248
G0 F12000 X120.11 Y173.34
G1 F2700 X180.60 Y173.34 E636.16448
G0 F12000 X180.91 Y172.98
G1 F2700 X119.75 Y172.98 E638.19887
G0 F12000 X119.39 Y172.62
G1 F2700 X181.22 Y172.62 E640.25565
G0 F12000 X181.54 Y172.26
G1 F2700 X119.03 Y172.26 E642.33484
G0 F12000 X118.67 Y171.90
G1 F2700 X181.85 Y171.90 E644.43641
G0 F12000 X182.16 Y171.54
G1 F2700 X118.31 Y171.54 E646.56037
G0 F12000 X117.94 Y171.18
G1 F2700 X182.48 Y171.18 E648.70675
G0 F12000 X182.79 Y170.82
G1 F2700 X117.58 Y170.82 E650.87551
G0 F12000 X117.22 Y170.46
G1 F2700 X182.99 Y170.46 E653.06280
G0 F12000 X183.15 Y170.10
G1 F2700 X116.86 Y170.10 E655.26731
G0 F12000 X116.50 Y169.74
G1 F2700 X183.31 Y169.74 E657.48909
G0 F12000 X183.46 Y169.38
G1 F2700 X116.14 Y169.38 E659.72813
G0 F12000 X115.78 Y169.02
G1 F2700 X183.62 Y169.02 E661.98439
G0 F12000 X183.78 Y168.66
G1 F2700 X115.42 Y168.66 E664.25792
G0 F12000 X115.06 Y168.30
G1 F2700 X183.94 Y168.30 E666.54868
G0 F12000 X184.10 Y167.94
G1 F2700 X114.70 Y167.94 E668.85670
G0 F12000 X114.34 Y167.58
G1 F2700 X184.26 Y167.58 E671.18195
G0 F12000 X184.41 Y167.22
G1 F2700 X114.04 Y167.22 E673.52260
G0 F12000 X114.40 Y166.86
G1 F2700 X184.57 Y166.86 E675.85656
G0 F12000 X184.73 Y166.50
G1 F2700 X114.76 Y166.50 E678.18381
G0 F12000 X115.12 Y166.14
G1 F2700 X184.89 Y166.14 E680.50437
G0 F12000 X185.05 Y165.78
G1 F2700 X115.48 Y165.78 E682.81821
G0 F12000 X115.84 Y165.42
G1 F2700 X185.21 Y165.42 E685.12537
G0 F12000 X185.37 Y165.06
G1 F2700 X116.20 Y165.06 E687.42580
G0 F12000 X116.56 Y164.70
G1 F2700 X185.53 Y164.70 E689.71956
G0 F12000 X185.68 Y164.34
G1 F2700 X116.92 Y164.34 E692.00659
G0 F12000 X117.28 Y163.98
G1 F2700 X185.84 Y163.98 E694.28694
G0 F12000 X186.00 Y163.62
G1 F2700 X117.64 Y163.62 E696.56060
G0 F12000 X118.00 Y163.26
G1 F2700 X186.16 Y163.26 E698.82754
G0 F12000 X186.32 Y162.90
G1 F2700 X118.36 Y162.90 E701.08780
G0 F12000 X118.52 Y162.54
G1 F2700 X186.48 Y162.54 E703.34796
G0 F12000 X186.63 Y162.18
G1 F2700 X118.88 Y162.18 E705.60144
G0 F12000 X119.24 Y161.82
G1 F2700 X186.79 Y161.82 E707.84819
G0 F12000 X186.95 Y161.46
G1 F2700 X119.60 Y161.46 E710.08826
G0 F12000 X119.96 Y161.10
G1 F2700 X187.11 Y161.10 E712.32165
G0 F12000 X187.27 Y160.74
G1 F2700 X120.01 Y160.74 E714.55882
G0 F12000 X119.89 Y160.38
G1 F2700 X187.32 Y160.38 E716.80169
G0 F12000 X187.36 Y160.02
G1 F2700 X119.77 Y160.02 E719.04987
G0 F12000 X119.64 Y159.66
G1 F2700 X187.40 Y159.66 E721.30338
G0 F12000 X187.44 Y159.30
G1 F2700 X119.52 Y159.30 E723.56221
G0 F12000 X119.44 Y158.94
G1 F2700 X187.48 Y158.94 E725.82529
G0 F12000 X187.52 Y158.58
G1 F2700 X119.38 Y158.58 E728.09154
G0 F12000 X119.32 Y158.22
G1 F2700 X187.56 Y158.22 E730.36098
G0 F12000 X187.59 Y157.86
G1 F2700 X119.27 Y157.86 E732.63361
G0 F12000 X119.21 Y157.50
G1 F2700 X187.63 Y157.50 E734.90940
G0 F12000 X187.67 Y157.14
G1 F2700 X119.15 Y157.14 E737.18839
G0 F12000 X119.10 Y156.78
G1 F2700 X187.71 Y156.78 E739.47053
G0 F12000 X187.75 Y156.42
G1 F2700 X119.04 Y156.42 E741.75583
G0 F12000 X118.99 Y156.06
G1 F2700 X187.79 Y156.06 E744.04433
G0 F12000 X187.83 Y155.70
G1 F2700 X118.93 Y155.70 E746.33599
G0 F12000 X118.87 Y155.34
G1 F2700 X187.87 Y155.34 E748.63080
G0 F12000 X187.91 Y154.98
G1 F2700 X118.82 Y154.98 E750.92878
G0 F12000 X118.76 Y154.62
G1 F2700 X187.95 Y154.62 E753.22995
G0 F12000 X187.99 Y154.26
G1 F2700 X118.71 Y154.26 E755.53428
G0 F12000 X118.65 Y153.90
G1 F2700 X188.03 Y153.90 E757.84180
G0 F12000 X188.07 Y153.54
G1 F2700 X118.59 Y153.54 E760.15251
G0 F12000 X118.57 Y153.18
G1 F2700 X188.11 Y153.18 E762.46519
G0 F12000 X188.15 Y152.82
G1 F2700 X118.58 Y152.82 E764.77900
G0 F12000 X118.58 Y152.46
G1 F2700 X188.19 Y152.46 E767.09400
G0 F12000 X188.22 Y152.10
G1 F2700 X118.59 Y152.10 E769.41014
G0 F12000 X118.59 Y151.74
G1 F2700 X188.26 Y151.74 E771.72744
G0 F12000 X188.30 Y151.38
G1 F2700 X118.60 Y151.38 E774.04587
G0 F12000 X118.60 Y151.02
G1 F2700 X188.34 Y151.02 E776.36550
G0 F12000 X188.38 Y150.66
G1 F2700 X118.61 Y150.66 E778.68626
G0 F12000 X118.61 Y150.30
G1 F2700 X188.42 Y150.30 E781.00818
G0 F12000 X188.46 Y149.94
G1 F2700 X118.61 Y149.94 E783.33127
G0 F12000 X118.62 Y149.58
G1 F2700 X188.43 Y149.58 E785.65319
G0 F12000 X188.36 Y149.22
G1 F2700 X118.62 Y149.22 E787.97259
G0 F12000 X118.63 Y148.86
G1 F2700 X188.29 Y148.86 E790.28952
G0 F12000 X188.22 Y148.50
G1 F2700 X118.63 Y148.50 E792.60396
G0 F12000 X118.64 Y148.14
G1 F2700 X188.15 Y148.14 E794.91591
G0 F12000 X188.08 Y147.78
G1 F2700 X118.66 Y147.78 E797.22486
G0 F12000 X118.72 Y147.42
G1 F2700 X188.01 Y147.42 E799.52929
G0 F12000 X187.94 Y147.06
G1 F2700 X118.79 Y147.06 E801.82926
G0 F12000 X118.85 Y146.70
G1 F2700 X187.87 Y146.70 E804.12474
G0 F12000 X187.80 Y146.34
G1 F2700 X118.92 Y146.34 E806.41570
G0 F12000 X118.98 Y145.98
G1 F2700 X187.73 Y145.98 E808.70217
G0 F12000 X187.66 Y145.62
G1 F2700 X119.05 Y145.62 E810.98414
G0 F12000 X119.11 Y145.26
G1 F2700 X187.59 Y145.26 E813.26163
G0 F12000 X187.51 Y144.90
G1 F2700 X119.18 Y144.90 E815.53460
G0 F12000 X119.24 Y144.54
G1 F2700 X187.44 Y144.54 E817.80307
G0 F12000 X187.38 Y144.18
G1 F2700 X119.31 Y144.18 E820.06706
G0 F12000 X119.37 Y143.82
G1 F2700 X187.31 Y143.82 E822.32655
G0 F12000 X187.24 Y143.46
G1 F2700 X119.44 Y143.46 E824.58155
G0 F12000 X119.50 Y143.10
G1 F2700 X187.16 Y143.10 E826.83203
G0 F12000 X187.09 Y142.74
G1 F2700 X119.57 Y142.74 E829.07802
G0 F12000 X119.66 Y142.38
G1 F2700 X187.02 Y142.38 E831.31843
G0 F12000 X186.95 Y142.02
G1 F2700 X119.79 Y142.02 E833.55218
G0 F12000 X119.92 Y141.66
G1 F2700 X186.88 Y141.66 E835.77928
G0 F12000 X186.81 Y141.30
G1 F2700 X120.05 Y141.30 E837.99976
G0 F12000 X120.18 Y140.94
G1 F2700 X186.74 Y140.94 E840.21362
G0 F12000 X186.67 Y140.58
G1 F2700 X120.31 Y140.58 E842.42086
G0 F12000 X120.44 Y140.22
G1 F2700 X186.60 Y140.22 E844.62145
G0 F12000 X186.53 Y139.86
G1 F2700 X120.57 Y139.86 E846.81539
G0 F12000 X120.70 Y139.50
G1 F2700 X186.46 Y139.50 E849.00271
G0 F12000 X186.39 Y139.14
G1 F2700 X120.83 Y139.14 E851.18338
G0 F12000 X120.96 Y138.78
G1 F2700 X186.20 Y138.78 E853.35343
G0 F12000 X186.01 Y138.42
G1 F2700 X121.09 Y138.42 E855.51295
G0 F12000 X121.22 Y138.06
G1 F2700 X185.83 Y138.06 E857.66192
G0 F12000 X185.64 Y137.70
G1 F2700 X121.34 Y137.70 E859.80031
G0 F12000 X121.50 Y137.34
G1 F2700 X185.45 Y137.34 E861.92710
G0 F12000 X185.26 Y136.98
G1 F2700 X121.71 Y136.98 E864.04088
G0 F12000 X121.91 Y136.62
G1 F2700 X185.07 Y136.62 E866.14169
G0 F12000 X184.88 Y136.26
G1 F2700 X122.11 Y136.26 E868.22949
G0 F12000 X122.31 Y135.90
G1 F2700 X184.69 Y135.90 E870.30433
G0 F12000 X184.62 Y135.54
G1 F2700 X122.52 Y135.54 E872.36995
G0 F12000 X122.72 Y135.18
G1 F2700 X184.62 Y135.18 E874.42885
G0 F12000 X184.62 Y134.82
G1 F2700 X122.92 Y134.82 E876.48107
G0 F12000 X123.12 Y134.46
G1 F2700 X184.62 Y134.46 E878.52657
G0 F12000 X184.62 Y134.10
G1 F2700 X123.32 Y134.10 E880.56535
G0 F12000 X123.52 Y133.74
G1 F2700 X184.62 Y133.74 E882.59741
G0 F12000 X184.62 Y133.38
G1 F2700 X123.73 Y133.38 E884.62275
G0 F12000 X123.93 Y133.02
G1 F2700 X184.62 Y133.02 E886.64137
G0 F12000 X184.62 Y132.66
G1 F2700 X124.14 Y132.66 E888.65308
G0 F12000 X124.43 Y132.30
G1 F2700 X184.62 Y132.30 E890.65511
G0 F12000 X184.62 Y131.94
G1 F2700 X124.72 Y131.94 E892.64746
G0 F12000 X125.01 Y131.58
G1 F2700 X184.62 Y131.58 E894.63016
G0 F12000 X184.62 Y131.22
G1 F2700 X125.30 Y131.22 E896.60325
G0 F12000 X125.59 Y130.86
G1 F2700 X184.62 Y130.86 E898.56669
G0 F12000 X184.62 Y130.50
G1 F2700 X125.88 Y130.50 E900.52053
G0 F12000 X126.17 Y130.14
G1 F2700 X184.62 Y130.14 E902.46472
G0 F12000 X184.62 Y129.78
G1 F2700 X126.46 Y129.78 E904.39926
G0 F12000 X126.75 Y129.42
G1 F2700 X183.22 Y129.42 E906.27759
G0 F12000 X183.02 Y129.06
G1 F2700 X127.04 Y129.06 E908.13959
G0 F12000 X127.33 Y128.70
G1 F2700 X182.82 Y128.70 E909.98533
G0 F12000 X182.50 Y128.34
G1 F2700 X127.62 Y128.34 E911.81075
G0 F12000 X127.97 Y127.98
G1 F2700 X182.34 Y127.98 E913.61910
G0 F12000 X182.02 Y127.62
G1 F2700 X128.38 Y127.62 E915.40331
G0 F12000 X128.78 Y127.26
G1 F2700 X181.82 Y127.26 E917.16729
G0 F12000 X181.62 Y126.90
G1 F2700 X129.00 Y126.90 E918.91747
G0 F12000 X128.91 Y126.54
G1 F2700 X181.30 Y126.54 E920.66007
G0 F12000 X181.14 Y126.18
G1 F2700 X128.80 Y126.18 E922.40091
G0 F12000 X128.80 Y125.82
G1 F2700 X180.98 Y125.82 E924.13642
G0 F12000 X180.62 Y125.46
G1 F2700 X128.63 Y125.46 E925.86575
G0 F12000 X128.60 Y125.10
G1 F2700 X180.46 Y125.10 E927.59062
G0 F12000 X180.22 Y124.74
G1 F2700 X128.60 Y124.74 E929.30754
G0 F12000 X128.60 Y124.38
G1 F2700 X179.94 Y124.38 E931.01512
G0 F12000 X179.78 Y124.02
G1 F2700 X128.60 Y124.02 E932.71737
G0 F12000 X128.60 Y123.66
G1 F2700 X179.42 Y123.66 E934.40768
G0 F12000 X179.26 Y123.30
G1 F2700 X128.60 Y123.30 E936.09264
G0 F12000 X128.60 Y122.94
G1 F2700 X179.02 Y122.94 E937.76965
G0 F12000 X178.74 Y122.58
G1 F2700 X128.60 Y122.58 E939.43731
G0 F12000 X128.60 Y122.22
G1 F2700 X178.38 Y122.22 E941.09300
G0 F12000 X178.02 Y121.86
G1 F2700 X128.60 Y121.86 E942.73672
G0 F12000 X128.60 Y121.50
G1 F2700 X177.66 Y121.50 E944.36846
G0 F12000 X177.30 Y121.14
G1 F2700 X128.60 Y121.14 E945.98823
G0 F12000 X128.60 Y120.78
G1 F2700 X176.94 Y120.78 E947.59603
G0 F12000 X176.58 Y120.42
G1 F2700 X128.60 Y120.42 E949.19185
G0 F12000 X128.60 Y120.06
G1 F2700 X176.22 Y120.06 E950.77569
G0 F12000 X175.86 Y119.70
G1 F2700 X128.60 Y119.70 E952.34757
G0 F12000 X128.60 Y119.34
G1 F2700 X175.50 Y119.34 E953.90747
G0 F12000 X175.14 Y118.98
G1 F2700 X128.60 Y118.98 E955.45540
G0 F12000 X128.60 Y118.62
G1 F2700 X174.78 Y118.62 E956.99132
G0 F12000 X174.42 Y118.26
G1 F2700 X128.60 Y118.26 E958.51526
G0 F12000 X129.19 Y117.90
G1 F2700 X174.06 Y117.90 E960.00778
G0 F12000 X173.70 Y117.54
G1 F2700 X159.92 Y117.54 E960.46600
G0 F12000 X159.52 Y117.54
G1 F2700 X130.26 Y117.54 E961.43906
G0 F12000 X131.34 Y117.18
G1 F2700 X157.76 Y117.18 E962.31749
G0 F12000 X155.99 Y116.82
G1 F2700 X132.43 Y116.82 E963.10127
G0 F12000 X133.56 Y116.46
G1 F2700 X153.62 Y116.46 E963.76853
G0 F12000 X152.82 Y116.10
G1 F2700 X135.00 Y116.10 E964.36136
G0 F12000 X136.44 Y115.74
G1 F2700 X151.38 Y115.74 E964.85843
G0 F12000 X149.94 Y115.38
G1 F2700 X137.88 Y115.38 E965.25972
G0 F12000 X139.32 Y115.02
G1 F2700 X148.30 Y115.02 E965.55829
G0 F12000 X160.28 Y117.18
G1 F2700 X173.21 Y117.18 E965.98815
G0 F12000 X172.78 Y116.82
G1 F2700 X160.64 Y116.82 E966.39183
G0 F12000 X161.00 Y116.46
G1 F2700 X172.42 Y116.46 E966.77156
G0 F12000 X172.06 Y116.10
G1 F2700 X161.36 Y116.10 E967.12734
G0 F12000 X161.72 Y115.74
G1 F2700 X171.70 Y115.74 E967.45918
G0 F12000 X171.34 Y115.38
G1 F2700 X162.08 Y115.38 E967.76707
G0 F12000 X162.44 Y115.02
G1 F2700 X170.98 Y115.02 E968.05101
G0 F12000 X170.62 Y114.66
G1 F2700 X162.80 Y114.66 E968.31100
G0 F12000 X163.16 Y114.30
G1 F2700 X170.26 Y114.30 E968.54705
G0 F12000 X169.90 Y113.94
G1 F2700 X163.52 Y113.94 E968.75915
G0 F12000 X163.88 Y113.58
G1 F2700 X169.54 Y113.58 E968.94730
;LAYER:-1
;RAFT
G0 F12000 X169.38 Y113.42 Z0.90
;TYPE:SUPPORT
G1 F2700 X169.38 Y184.27 E971.30385
G0 F12000 X169.74 Y183.91
G1 F2700 X169.74 Y113.78 E973.63645
G0 F12000 X170.10 Y114.14
G1 F2700 X170.10 Y183.57 E975.94557
G0 F12000 X170.46 Y183.39
G1 F2700 X170.46 Y114.50 E978.23673
G0 F12000 X170.82 Y114.86
G1 F2700 X170.82 Y183.21 E980.50992
G0 F12000 X171.18 Y183.03
G1 F2700 X171.18 Y115.22 E982.76516
G0 F12000 X171.54 Y115.58
G1 F2700 X171.54 Y182.85 E985.00244
G0 F12000 X171.90 Y182.67
G1 F2700 X171.90 Y115.94 E987.22175
G0 F12000 X172.26 Y116.30
G1 F2700 X172.26 Y182.49 E989.42311
G0 F12000 X172.62 Y182.31
G1 F2700 X172.62 Y116.66 E991.60650
G0 F12000 X172.98 Y117.02
G1 F2700 X172.98 Y182.13 E993.77194
G0 F12000 X173.34 Y181.95
G1 F2700 X173.34 Y117.25 E995.92383
G0 F12000 X173.70 Y117.54
G1 F2700 X173.70 Y180.22 E998.00851
G0 F12000 X174.06 Y179.99
G1 F2700 X174.06 Y117.90 E1000.07363
G0 F12000 X174.42 Y118.26
G1 F2700 X174.42 Y179.76 E1002.11917
G0 F12000 X174.78 Y179.53
G1 F2700 X174.78 Y118.62 E1004.14514
G0 F12000 X175.14 Y118.98
G1 F2700 X175.14 Y179.31 E1006.15156
G0 F12000 X175.50 Y179.08
G1 F2700 X175.50 Y119.34 E1008.13842
G0 F12000 X175.86 Y119.70
G1 F2700 X175.86 Y178.78 E1010.10349
G0 F12000 X176.22 Y178.37
G1 F2700 X176.22 Y120.06 E1012.04286
G0 F12000 X176.58 Y120.42
G1 F2700 X176.58 Y177.96 E1013.95648
G0 F12000 X176.94 Y177.54
G1 F2700 X176.94 Y120.78 E1015.84439
G0 F12000 X177.30 Y121.14
G1 F2700 X177.30 Y177.13 E1017.70656
G0 F12000 X177.66 Y176.72
G1 F2700 X177.66 Y121.50 E1019.54299
G0 F12000 X178.02 Y121.86
G1 F2700 X178.02 Y176.30 E1021.35370
G0 F12000 X178.38 Y175.89
G1 F2700 X178.38 Y122.22 E1023.13867
G0 F12000 X178.74 Y122.58
G1 F2700 X178.74 Y175.47 E1024.89790
G0 F12000 X179.10 Y175.06
G1 F2700 X179.10 Y123.14 E1026.62473
G0 F12000 X179.46 Y123.70
G1 F2700 X179.46 Y174.65 E1028.31917
G0 F12000 X179.82 Y174.23
G1 F2700 X179.82 Y124.06 E1029.98793
G0 F12000 X180.18 Y124.62
G1 F2700 X180.18 Y173.82 E1031.62426
G0 F12000 X180.54 Y173.41
G1 F2700 X180.54 Y125.18 E1033.22820
G0 F12000 X180.90 Y125.74
G1 F2700 X180.90 Y172.99 E1034.79978
G0 F12000 X181.26 Y172.58
G1 F2700 X181.26 Y126.50 E1036.33230
G0 F12000 X181.62 Y126.86
G1 F2700 X181.62 Y172.17 E1037.83915
G0 F12000 X181.98 Y171.75
G1 F2700 X181.98 Y127.42 E1039.31358
G0 F12000 X182.34 Y127.98
G1 F2700 X182.34 Y171.34 E1040.75560
G0 F12000 X182.70 Y170.93
G1 F2700 X182.70 Y128.54 E1042.16527
G0 F12000 X183.06 Y129.10
G1 F2700 X183.06 Y170.30 E1043.53542
G0 F12000 X183.42 Y169.48
G1 F2700 X183.42 Y129.49 E1044.86559
G0 F12000 X183.78 Y129.49
G1 F2700 X183.78 Y168.66 E1046.16856
G0 F12000 X184.14 Y167.84
G1 F2700 X184.14 Y129.49 E1047.44435
G0 F12000 X184.50 Y129.49
G1 F2700 X184.50 Y167.03 E1048.69297
G0 F12000 X184.86 Y166.21
G1 F2700 X184.86 Y136.22 E1049.69057
G0 F12000 X185.22 Y136.90
G1 F2700 X185.22 Y165.39 E1050.63812
G0 F12000 X185.58 Y164.57
G1 F2700 X185.58 Y137.59 E1051.53561
G0 F12000 X185.94 Y138.28
G1 F2700 X185.94 Y163.76 E1052.38305
G0 F12000 X186.30 Y162.94
G1 F2700 X186.30 Y138.97 E1053.18042
G0 F12000 X186.66 Y140.52
G1 F2700 X186.66 Y162.12 E1053.89908
G0 F12000 X187.02 Y161.31
G1 F2700 X187.02 Y142.36 E1054.52916
G0 F12000 X187.38 Y144.21
G1 F2700 X187.38 Y159.83 E1055.04888
G0 F12000 X187.74 Y156.54
G1 F2700 X187.74 Y146.05 E1055.39754
G0 F12000 X188.10 Y147.90
G1 F2700 X188.10 Y153.24 E1055.57509
G0 F12000 X188.46 Y149.94
G1 F2700 X188.46 Y149.74 E1055.58174
G0 F12000 X169.02 Y184.63
G1 F2700 X169.02 Y113.29 E1057.95472
G0 F12000 X168.66 Y113.29
G1 F2700 X168.66 Y184.99 E1060.33947
G0 F12000 X168.30 Y185.17
G1 F2700 X168.30 Y113.29 E1062.73021
G0 F12000 X167.94 Y113.29
G1 F2700 X167.94 Y185.35 E1065.12693
G0 F12000 X167.58 Y185.53
G1 F2700 X167.58 Y113.29 E1067.52964
G0 F12000 X167.22 Y113.29
G1 F2700 X167.22 Y185.71 E1069.93834
G0 F12000 X166.86 Y185.89
G1 F2700 X166.86 Y113.29 E1072.35303
G0 F12000 X166.50 Y113.29
G1 F2700 X166.50 Y186.07 E1074.77370
G0 F12000 X166.14 Y186.25
G1 F2700 X166.14 Y113.29 E1077.20036
G0 F12000 X165.78 Y113.29
G1 F2700 X165.78 Y186.43 E1079.63301
G0 F12000 X165.42 Y186.61
G1 F2700 X165.42 Y113.29 E1082.07164
G0 F12000 X165.06 Y113.29
G1 F2700 X165.06 Y186.79 E1084.51626
G0 F12000 X164.70 Y186.97
G1 F2700 X164.70 Y113.29 E1086.96687
G0 F12000 X164.34 Y113.29
G1 F2700 X164.34 Y187.15 E1089.42346
G0 F12000 X163.98 Y187.33
G1 F2700 X163.98 Y113.48 E1091.87959
G0 F12000 X163.62 Y113.84
G1 F2700 X163.62 Y187.51 E1094.32973
G0 F12000 X163.26 Y187.69
G1 F2700 X163.26 Y114.20 E1096.77388
G0 F12000 X162.90 Y114.56
G1 F2700 X162.90 Y187.87 E1099.21205
G0 F12000 X162.54 Y188.05
G1 F2700 X162.54 Y114.92 E1101.64423
G0 F12000 X162.18 Y115.28
G1 F2700 X162.18 Y188.23 E1104.07043
G0 F12000 X161.82 Y188.41
G1 F2700 X161.82 Y115.64 E1106.49063
G0 F12000 X161.46 Y116.00
G1 F2700 X161.46 Y188.59 E1108.90485
G0 F12000 X161.10 Y188.77
G1 F2700 X161.10 Y116.36 E1111.31309
G0 F12000 X160.74 Y116.72
G1 F2700 X160.74 Y188.95 E1113.71533
G0 F12000 X160.38 Y189.13
G1 F2700 X160.38 Y117.08 E1116.11159
G0 F12000 X160.02 Y117.44
G1 F2700 X160.02 Y189.31 E1118.50187
G0 F12000 X159.66 Y189.49
G1 F2700 X159.66 Y117.57 E1120.89387
G0 F12000 X159.30 Y117.50
G1 F2700 X159.30 Y189.67 E1123.29429
G0 F12000 X158.94 Y189.83
G1 F2700 X158.94 Y117.42 E1125.70245
G0 F12000 X158.58 Y117.35
G1 F2700 X158.58 Y189.95 E1128.11704
G0 F12000 X158.22 Y190.07
G1 F2700 X158.22 Y117.28 E1130.53811
G0 F12000 X157.86 Y117.20
G1 F2700 X157.86 Y190.19 E1132.96557
G0 F12000 X157.50 Y190.28
G1 F2700 X157.50 Y117.13 E1135.39848
G0 F12000 X157.14 Y117.06
G1 F2700 X157.14 Y190.37 E1137.83681
G0 F12000 X156.78 Y190.46
G1 F2700 X156.78 Y116.98 E1140.28054
G0 F12000 X156.42 Y116.91
G1 F2700 X156.42 Y190.54 E1142.72971
G0 F12000 X156.06 Y190.63
G1 F2700 X156.06 Y116.83 E1145.18431
G0 F12000 X155.70 Y116.76
G1 F2700 X155.70 Y190.72 E1147.64436
G0 F12000 X155.34 Y190.81
G1 F2700 X155.34 Y116.69 E1150.10984
G0 F12000 X154.98 Y116.61
G1 F2700 X154.98 Y190.90 E1152.58070
G0 F12000 X154.62 Y191.00
G1 F2700 X154.62 Y116.58 E1155.05588
G0 F12000 X154.26 Y116.59
G1 F2700 X154.26 Y191.12 E1157.53486
G0 F12000 X153.90 Y191.23
G1 F2700 X153.90 Y116.59 E1160.01710
G0 F12000 X153.54 Y116.38
G1 F2700 X153.54 Y191.32 E1162.50945
G0 F12000 X153.18 Y191.41
G1 F2700 X153.18 Y116.19 E1165.01114
G0 F12000 X152.82 Y116.10
G1 F2700 X152.82 Y191.50 E1167.51882
G0 F12000 X152.46 Y191.59
G1 F2700 X152.46 Y116.01 E1170.03246
G0 F12000 X152.10 Y115.92
G1 F2700 X152.10 Y191.68 E1172.55208
G0 F12000 X151.74 Y191.76
G1 F2700 X151.74 Y115.83 E1175.07769
G0 F12000 X151.38 Y115.74
G1 F2700 X151.38 Y191.85 E1177.60928
G0 F12000 X151.02 Y191.94
G1 F2700 X151.02 Y115.65 E1180.14687
G0 F12000 X150.66 Y115.56
G1 F2700 X150.66 Y192.03 E1182.69043
G0 F12000 X150.30 Y192.12
G1 F2700 X150.30 Y115.47 E1185.23999
G0 F12000 X149.94 Y115.38
G1 F2700 X149.94 Y192.21 E1187.79527
G0 F12000 X149.58 Y192.21
G1 F2700 X149.58 Y115.29 E1190.35354
G0 F12000 X149.22 Y115.20
G1 F2700 X149.22 Y192.21 E1192.91463
G0 F12000 X148.86 Y192.21
G1 F2700 X148.86 Y115.13 E1195.47812
G0 F12000 X148.50 Y115.06
G1 F2700 X148.50 Y192.21 E1198.04401
G0 F12000 X148.14 Y192.21
G1 F2700 X148.14 Y114.99 E1200.61229
G0 F12000 X147.78 Y114.92
G1 F2700 X147.78 Y192.21 E1203.18297
G0 F12000 X147.42 Y192.21
G1 F2700 X147.42 Y114.89 E1205.75464
G0 F12000 X147.06 Y114.89
G1 F2700 X147.06 Y192.21 E1208.32632
G0 F12000 X146.70 Y192.21
G1 F2700 X146.70 Y114.89 E1210.89799
G0 F12000 X146.34 Y114.89
G1 F2700 X146.34 Y192.21 E1213.46966
G0 F12000 X145.98 Y192.21
G1 F2700 X145.98 Y114.89 E1216.04134
G0 F12000 X145.62 Y114.89
G1 F2700 X145.62 Y192.21 E1218.61301
G0 F12000 X145.26 Y192.21
G1 F2700 X145.26 Y114.89 E1221.18468
G0 F12000 X144.90 Y114.89
G1 F2700 X144.90 Y192.21 E1223.75636
G0 F12000 X144.54 Y192.21
G1 F2700 X144.54 Y114.89 E1226.32803
G0 F12000 X144.18 Y114.89
G1 F2700 X144.18 Y192.21 E1228.89970
G0 F12000 X143.82 Y192.21
G1 F2700 X143.82 Y114.89 E1231.47138
G0 F12000 X143.46 Y114.89
G1 F2700 X143.46 Y192.21 E1234.04305
G0 F12000 X143.10 Y192.21
G1 F2700 X143.10 Y114.89 E1236.61473
G0 F12000 X142.74 Y114.89
G1 F2700 X142.74 Y188.17 E1239.05219
G0 F12000 X142.38 Y187.01
G1 F2700 X142.38 Y114.89 E1241.45108
G0 F12000 X142.02 Y114.89
G1 F2700 X142.02 Y187.01 E1243.84980
G0 F12000 X141.66 Y187.01
G1 F2700 X141.66 Y114.89 E1246.24852
G0 F12000 X141.30 Y114.89
G1 F2700 X141.30 Y187.01 E1248.64724
G0 F12000 X140.94 Y183.96
G1 F2700 X140.94 Y114.89 E1250.94469
G0 F12000 X140.58 Y114.89
G1 F2700 X140.58 Y183.84 E1253.23811
G0 F12000 X140.22 Y183.72
G1 F2700 X140.22 Y114.89 E1255.52754
G0 F12000 X139.86 Y114.89
G1 F2700 X139.86 Y183.60 E1257.81294
G0 F12000 X139.50 Y183.48
G1 F2700 X139.50 Y114.97 E1260.09146
G0 F12000 X139.14 Y115.06
G1 F2700 X139.14 Y183.36 E1262.36303
G0 F12000 X138.78 Y183.24
G1 F2700 X138.78 Y115.15 E1264.62761
G0 F12000 X138.42 Y115.24
G1 F2700 X138.42 Y183.12 E1266.88521
G0 F12000 X138.06 Y183.00
G1 F2700 X138.06 Y115.33 E1269.13582
G0 F12000 X137.70 Y115.42
G1 F2700 X137.70 Y182.88 E1271.37945
G0 F12000 X137.34 Y182.76
G1 F2700 X137.34 Y115.51 E1273.61609
G0 F12000 X136.98 Y115.60
G1 F2700 X136.98 Y182.61 E1275.84476
G0 F12000 X136.62 Y182.39
G1 F2700 X136.62 Y115.69 E1278.06317
G0 F12000 X136.26 Y115.78
G1 F2700 X136.26 Y182.18 E1280.27138
G0 F12000 X135.90 Y181.96
G1 F2700 X135.90 Y115.87 E1282.46934
G0 F12000 X135.54 Y115.96
G1 F2700 X135.54 Y181.74 E1284.65703
G0 F12000 X135.18 Y181.61
G1 F2700 X135.18 Y116.05 E1286.83733
G0 F12000 X134.82 Y116.14
G1 F2700 X134.82 Y181.61 E1289.01464
G0 F12000 X134.46 Y181.61
G1 F2700 X134.46 Y116.23 E1291.18895
G0 F12000 X134.10 Y116.32
G1 F2700 X134.10 Y181.50 E1293.35668
G0 F12000 X133.74 Y181.38
G1 F2700 X133.74 Y116.41 E1295.51743
G0 F12000 X133.38 Y116.50
G1 F2700 X133.38 Y181.26 E1297.67119
G0 F12000 X133.02 Y181.15
G1 F2700 X133.02 Y116.62 E1299.81740
G0 F12000 X132.66 Y116.74
G1 F2700 X132.66 Y181.06 E1301.95662
G0 F12000 X132.30 Y180.97
G1 F2700 X132.30 Y116.86 E1304.08876
G0 F12000 X131.94 Y116.98
G1 F2700 X131.94 Y180.84 E1306.21289
G0 F12000 X131.58 Y180.74
G1 F2700 X131.58 Y117.10 E1308.32950
G0 F12000 X131.22 Y117.22
G1 F2700 X131.22 Y180.65 E1310.43912
G0 F12000 X130.86 Y180.56
G1 F2700 X130.86 Y117.34 E1312.54176
G0 F12000 X130.50 Y117.46
G1 F2700 X130.50 Y180.47 E1314.63741
G0 F12000 X130.14 Y180.38
G1 F2700 X130.14 Y117.58 E1316.72608
G0 F12000 X129.78 Y117.70
G1 F2700 X129.78 Y180.29 E1318.80777
G0 F12000 X129.42 Y180.05
G1 F2700 X129.42 Y117.82 E1320.87758
G0 F12000 X129.06 Y117.94
G1 F2700 X129.06 Y179.69 E1322.93143
G0 F12000 X128.70 Y179.46
G1 F2700 X128.70 Y127.33 E1324.66501
G0 F12000 X128.34 Y127.65
G1 F2700 X128.34 Y179.28 E1326.38203
G0 F12000 X127.98 Y179.10
G1 F2700 X127.98 Y127.97 E1328.08249
G0 F12000 X127.62 Y128.34
G1 F2700 X127.62 Y178.85 E1329.76273
G0 F12000 X127.26 Y178.64
G1 F2700 X127.26 Y128.78 E1331.42091
G0 F12000 X126.90 Y129.23
G1 F2700 X126.90 Y178.46 E1333.05821
G0 F12000 X126.54 Y178.28
G1 F2700 X126.54 Y129.68 E1334.67465
G0 F12000 X126.18 Y130.12
G1 F2700 X126.18 Y178.01 E1336.26748
G0 F12000 X125.82 Y177.82
G1 F2700 X125.82 Y130.57 E1337.83892
G0 F12000 X125.46 Y131.02
G1 F2700 X125.46 Y177.64 E1339.38951
G0 F12000 X125.10 Y177.46
G1 F2700 X125.10 Y131.46 E1340.91924
G0 F12000 X124.74 Y131.91
G1 F2700 X124.74 Y177.18 E1342.42479
G0 F12000 X124.38 Y177.00
G1 F2700 X124.38 Y132.36 E1343.90953
G0 F12000 X124.02 Y132.85
G1 F2700 X124.02 Y176.82 E1345.37167
G0 F12000 X123.66 Y176.64
G1 F2700 X123.66 Y133.50 E1346.80648
G0 F12000 X123.30 Y134.14
G1 F2700 X123.30 Y176.33 E1348.20986
G0 F12000 X122.94 Y175.97
G1 F2700 X122.94 Y134.78 E1349.57991
G0 F12000 X122.58 Y135.42
G1 F2700 X122.58 Y175.61 E1350.91664
G0 F12000 X122.22 Y175.25
G1 F2700 X122.22 Y136.06 E1352.22004
G0 F12000 X121.86 Y136.71
G1 F2700 X121.86 Y174.89 E1353.49014
G0 F12000 X121.50 Y174.53
G1 F2700 X121.50 Y137.35 E1354.72692
G0 F12000 X121.14 Y138.27
G1 F2700 X121.14 Y174.28 E1355.92452
G0 F12000 X120.78 Y174.01
G1 F2700 X120.78 Y139.27 E1357.08001
G0 F12000 X120.42 Y140.28
G1 F2700 X120.42 Y173.65 E1358.19016
G0 F12000 X120.06 Y173.29
G1 F2700 X120.06 Y161.00 E1358.59896
G0 F12000 X120.06 Y160.89
G1 F2700 X120.06 Y141.28 E1359.25140
G0 F12000 X119.70 Y142.28
G1 F2700 X119.70 Y159.82 E1359.83468
G0 F12000 X119.34 Y158.32
G1 F2700 X119.34 Y143.99 E1360.31130
G0 F12000 X118.98 Y145.99
G1 F2700 X118.98 Y156.01 E1360.64473
G0 F12000 X118.62 Y153.70
G1 F2700 X118.62 Y149.47 E1360.78549
G0 F12000 X119.70 Y161.36
G1 F2700 X119.70 Y172.93 E1361.17034
G0 F12000 X119.34 Y172.57
G1 F2700 X119.34 Y161.72 E1361.53124
G0 F12000 X118.98 Y162.08
G1 F2700 X118.98 Y172.21 E1361.86820
G0 F12000 X118.62 Y171.85
G1 F2700 X118.62 Y162.44 E1362.18121
G0 F12000 X118.26 Y163.00
G1 F2700 X118.26 Y171.49 E1362.46363
G0 F12000 X117.90 Y171.13
G1 F2700 X117.90 Y163.36 E1362.72209
G0 F12000 X117.54 Y163.72
G1 F2700 X117.54 Y170.77 E1362.95661
G0 F12000 X117.18 Y170.41
G1 F2700 X117.18 Y164.08 E1363.16718
G0 F12000 X116.82 Y164.44
G1 F2700 X116.82 Y170.05 E1363.35380
G0 F12000 X116.46 Y169.69
G1 F2700 X116.46 Y164.80 E1363.51648
G0 F12000 X116.10 Y165.16
G1 F2700 X116.10 Y169.33 E1363.65520
G0 F12000 X115.74 Y168.97
G1 F2700 X115.74 Y165.52 E1363.76998
G0 F12000 X115.38 Y165.88
G1 F2700 X115.38 Y168.61 E1363.86082
G0 F12000 X115.02 Y168.25
G1 F2700 X115.02 Y166.24 E1363.92770
G0 F12000 X114.66 Y166.60
G1 F2700 X114.66 Y167.89 E1363.97064
G0 F12000 X114.30 Y167.53
G1 F2700 X114.30 Y166.96 E1363.98963
G0 F12000 X128.70 Y125.53
G1 F2700 X128.70 Y118.06 E1364.23812
;LAYER:0
G1 F1800 E1361.23812
G0 F12000 X135.81 Y128.61 Z1.42
;TYPE:WALL-INNER
G1 F1800 E1364.23812
G1 F2700 X140.55 Y125.68 E1364.51647
G1 X140.81 Y125.53 E1364.53116
G1 X146.57 Y123.25 E1364.84038
G1 X147.04 Y123.06 E1364.86565
G1 X150.80 Y122.32 E1365.05707
G1 X154.28 Y122.25 E1365.23072
G1 X161.99 Y123.82 E1365.62295
G1 X169.64 Y127.42 E1366.04474
G1 X176.49 Y133.19 E1366.49162
G1 X178.42 Y136.11 E1366.66632
G1 X181.00 Y141.04 E1366.94375
G1 X182.75 Y150.06 E1367.40218
G1 X181.75 Y159.22 E1367.86215
G1 X178.04 Y167.66 E1368.32229
G1 X172.00 Y174.59 E1368.78080
G1 X167.31 Y177.57 E1369.05819
G1 X164.18 Y179.14 E1369.23260
G1 X155.36 Y180.71 E1369.67970
G1 X146.93 Y180.00 E1370.10157
G1 X139.48 Y177.51 E1370.49368
G1 X136.50 Y175.71 E1370.66752
G1 X133.61 Y173.19 E1370.85857
G1 X129.44 Y167.94 E1371.19310
G1 X126.66 Y162.76 E1371.48626
G1 X124.98 Y157.77 E1371.74907
G1 X124.24 Y152.98 E1371.99067
G1 X124.29 Y148.41 E1372.21883
G1 X125.08 Y144.04 E1372.44028
G1 X126.59 Y139.85 E1372.66228
G1 X128.82 Y135.87 E1372.89027
G1 X131.86 Y132.10 E1373.13197
G1 X135.65 Y128.75 E1373.38436
G1 X135.81 Y128.61 E1373.39462
G0 F12000 X138.99 Y130.59
G1 F2700 X134.37 Y134.68 E1373.70255
G1 X130.87 Y139.76 E1374.01052
G1 X128.68 Y145.53 E1374.31846
G1 X127.93 Y151.66 E1374.62642
G1 X128.68 Y157.79 E1374.93434
G1 X130.87 Y163.56 E1375.24227
G1 X134.37 Y168.64 E1375.55024
G1 X138.99 Y172.73 E1375.85815
G1 X144.46 Y175.60 E1376.16608
G1 X150.45 Y177.08 E1376.47402
G1 X156.62 Y177.08 E1376.78194
G1 X162.62 Y175.60 E1377.08988
G1 X168.08 Y172.73 E1377.39782
G1 X172.70 Y168.64 E1377.70572
G1 X176.21 Y163.56 E1378.01369
G1 X178.40 Y157.79 E1378.32163
G1 X179.14 Y151.66 E1378.62955
G1 X178.40 Y145.53 E1378.93752
G1 X176.21 Y139.76 E1379.24545
G1 X172.70 Y134.68 E1379.55342
G1 X168.08 Y130.59 E1379.86136
G1 X162.62 Y127.72 E1380.16930
G1 X156.62 Y126.25 E1380.47724
G1 X150.45 Y126.25 E1380.78516
G1 X144.46 Y127.72 E1381.09310
G1 X138.99 Y130.59 E1381.40104
G0 F12000 X139.22 Y130.92
;TYPE:WALL-OUTER
G1 F2700 X134.67 Y134.95 E1381.70417
G1 X131.22 Y139.95 E1382.00726
G1 X129.07 Y145.63 E1382.31040
G1 X128.34 Y151.66 E1382.61349
G1 X129.07 Y157.69 E1382.91653
G1 X131.22 Y163.37 E1383.21966
G1 X134.67 Y168.37 E1383.52276
G1 X139.22 Y172.40 E1383.82586
G1 X144.60 Y175.22 E1384.12893
G1 X150.50 Y176.68 E1384.43204
G1 X156.57 Y176.68 E1384.73507
G1 X162.47 Y175.22 E1385.03818
G1 X167.85 Y172.40 E1385.34125
G1 X172.40 Y168.37 E1385.64435
G1 X175.85 Y163.37 E1385.94745
G1 X178.01 Y157.69 E1386.25058
G1 X178.74 Y151.66 E1386.55363
G1 X178.01 Y145.63 E1386.85673
G1 X175.85 Y139.95 E1387.15986
G1 X172.40 Y134.95 E1387.46296
G1 X167.85 Y130.92 E1387.76609
G1 X162.47 Y128.10 E1388.06916
G1 X156.57 Y126.64 E1388.37227
G1 X150.50 Y126.64 E1388.67530
G1 X144.60 Y128.10 E1388.97841
G1 X139.22 Y130.92 E1389.28149
G0 F12000 X139.02 Y130.70
G0 X135.75 Y128.53
G0 X135.57 Y128.29
G1 F2700 X140.63 Y125.17 E1389.57805
G1 X146.93 Y122.67 E1389.91627
G1 X150.76 Y121.92 E1390.11089
G1 X154.32 Y121.85 E1390.28869
G1 X162.11 Y123.44 E1390.68544
G1 X169.85 Y127.08 E1391.11225
G1 X176.79 Y132.92 E1391.56477
G1 X178.76 Y135.91 E1391.74335
G1 X181.38 Y140.90 E1392.02466
G1 X183.16 Y150.04 E1392.48884
G1 X182.14 Y159.33 E1392.95513
G1 X178.38 Y167.88 E1393.42137
G1 X172.27 Y174.90 E1393.88564
G1 X167.51 Y177.92 E1394.16672
G1 X164.31 Y179.52 E1394.34553
G1 X155.38 Y181.11 E1394.79805
G1 X146.85 Y180.39 E1395.22469
G1 X139.31 Y177.87 E1395.62158
G1 X136.26 Y176.03 E1395.79938
G1 X133.32 Y173.47 E1395.99404
G1 X129.11 Y168.16 E1396.33211
G1 X126.29 Y162.92 E1396.62862
G1 X124.59 Y157.86 E1396.89496
G1 X123.84 Y153.01 E1397.13995
G1 X123.89 Y148.38 E1397.37116
G1 X124.70 Y143.93 E1397.59645
G1 X126.22 Y139.69 E1397.82142
G1 X128.49 Y135.65 E1398.05259
G1 X131.57 Y131.82 E1398.29780
G1 X135.39 Y128.45 E1398.55189
G1 X135.57 Y128.29 E1398.56391
G0 F12000 X135.84 Y128.77
;TYPE:FILL
G1 F2700 X138.19 Y131.12 E1398.72968
G0 F12000 X137.89 Y131.38
G1 F2700 X135.54 Y129.03 E1398.89545
G0 F12000 X135.24 Y129.30
G1 F2700 X137.59 Y131.65 E1399.06129
G0 F12000 X137.29 Y131.91
G1 F2700 X134.94 Y129.56 E1399.22709
G0 F12000 X134.64 Y129.83
G1 F2700 X136.99 Y132.18 E1399.39297
G0 F12000 X136.69 Y132.44
G1 F2700 X134.34 Y130.09 E1399.55884
G0 F12000 X134.04 Y130.36
G1 F2700 X136.39 Y132.71 E1399.72479
G0 F12000 X136.09 Y132.98
G1 F2700 X133.74 Y130.62 E1399.89081
G0 F12000 X133.44 Y130.89
G1 F2700 X135.79 Y133.24 E1400.05675
G0 F12000 X135.49 Y133.51
G1 F2700 X133.13 Y131.16 E1400.22277
G0 F12000 X132.83 Y131.42
G1 F2700 X135.19 Y133.77 E1400.38882
G0 F12000 X134.89 Y134.04
G1 F2700 X132.53 Y131.69 E1400.55491
G0 F12000 X132.23 Y131.95
G1 F2700 X134.59 Y134.31 E1400.72100
G0 F12000 X134.29 Y134.57
G1 F2700 X131.94 Y132.22 E1400.88677
G0 F12000 X131.69 Y132.53
G1 F2700 X134.05 Y134.90 E1401.05377
G0 F12000 X133.82 Y135.24
G1 F2700 X131.43 Y132.85 E1401.22233
G0 F12000 X131.18 Y133.16
G1 F2700 X133.59 Y135.57 E1401.39233
G0 F12000 X133.36 Y135.91
G1 F2700 X130.93 Y133.47 E1401.56385
G0 F12000 X130.68 Y133.79
G1 F2700 X133.13 Y136.24 E1401.73685
G0 F12000 X132.90 Y136.57
G1 F2700 X130.42 Y134.10 E1401.91141
G0 F12000 X130.17 Y134.41
G1 F2700 X132.67 Y136.91 E1402.08748
G0 F12000 X132.44 Y137.24
G1 F2700 X129.92 Y134.73 E1402.26503
G0 F12000 X129.67 Y135.04
G1 F2700 X132.20 Y137.58 E1402.44403
G0 F12000 X131.97 Y137.91
G1 F2700 X129.41 Y135.35 E1402.62458
G0 F12000 X129.16 Y135.67
G1 F2700 X131.74 Y138.25 E1402.80661
G0 F12000 X131.51 Y138.58
G1 F2700 X128.91 Y135.99 E1402.98985
G0 F12000 X128.71 Y136.35
G1 F2700 X131.28 Y138.92 E1403.17114
G0 F12000 X131.05 Y139.25
G1 F2700 X128.51 Y136.71 E1403.35042
G0 F12000 X128.30 Y137.07
G1 F2700 X130.82 Y139.59 E1403.52780
G0 F12000 X130.64 Y139.97
G1 F2700 X128.10 Y137.44 E1403.70672
G0 F12000 X127.90 Y137.80
G1 F2700 X130.48 Y140.38 E1403.88907
G0 F12000 X130.33 Y140.79
G1 F2700 X127.69 Y138.16 E1404.07478
G0 F12000 X127.49 Y138.52
G1 F2700 X130.17 Y141.20 E1404.26383
G0 F12000 X130.01 Y141.61
G1 F2700 X127.29 Y138.88 E1404.45627
G0 F12000 X127.08 Y139.25
G1 F2700 X129.86 Y142.02 E1404.65199
G0 F12000 X129.70 Y142.43
G1 F2700 X126.88 Y139.61 E1404.85110
G0 F12000 X126.69 Y139.98
G1 F2700 X129.55 Y142.84 E1405.05289
G0 F12000 X129.39 Y143.25
G1 F2700 X126.54 Y140.40 E1405.25425
G0 F12000 X126.39 Y140.81
G1 F2700 X129.24 Y143.66 E1405.45526
G0 F12000 X129.08 Y144.07
G1 F2700 X126.24 Y141.23 E1405.65578
G0 F12000 X126.09 Y141.65
G1 F2700 X128.93 Y144.48 E1405.85591
G0 F12000 X128.77 Y144.89
G1 F2700 X125.94 Y142.06 E1406.05558
G0 F12000 X125.79 Y142.48
G1 F2700 X128.61 Y145.30 E1406.25483
G0 F12000 X128.51 Y145.76
G1 F2700 X125.64 Y142.89 E1406.45711
G0 F12000 X125.49 Y143.31
G1 F2700 X128.45 Y146.27 E1406.66568
G0 F12000 X128.39 Y146.77
G1 F2700 X125.34 Y143.73 E1406.88045
G0 F12000 X125.20 Y144.15
G1 F2700 X128.32 Y147.28 E1407.10072
G0 F12000 X128.26 Y147.78
G1 F2700 X125.12 Y144.63 E1407.32279
G0 F12000 X125.03 Y145.11
G1 F2700 X128.20 Y148.28 E1407.54667
G0 F12000 X128.14 Y148.79
G1 F2700 X124.94 Y145.59 E1407.77230
G0 F12000 X124.86 Y146.07
G1 F2700 X128.08 Y149.29 E1407.99977
G0 F12000 X128.02 Y149.80
G1 F2700 X124.77 Y146.55 E1408.22894
G0 F12000 X124.68 Y147.03
G1 F2700 X127.96 Y150.30 E1408.45997
G0 F12000 X127.90 Y150.81
G1 F2700 X124.60 Y147.51 E1408.69280
G0 F12000 X124.51 Y147.99
G1 F2700 X127.84 Y151.31 E1408.92740
G0 F12000 X127.82 Y151.86
G1 F2700 X124.43 Y148.47 E1409.16627
G0 F12000 X124.42 Y149.03
G1 F2700 X127.90 Y152.50 E1409.41116
G0 F12000 X127.97 Y153.15
G1 F2700 X124.42 Y149.59 E1409.66206
G0 F12000 X124.41 Y150.15
G1 F2700 X128.05 Y153.79 E1409.91895
G0 F12000 X128.13 Y154.43
G1 F2700 X124.40 Y150.71 E1410.18180
G0 F12000 X124.40 Y151.27
G1 F2700 X128.21 Y155.08 E1410.45062
G0 F12000 X128.28 Y155.72
G1 F2700 X124.39 Y151.83 E1410.72543
G0 F12000 X124.38 Y152.38
G1 F2700 X128.36 Y156.36 E1411.00621
G0 F12000 X128.44 Y157.01
G1 F2700 X124.38 Y152.94 E1411.29302
G0 F12000 X124.47 Y153.61
G1 F2700 X128.52 Y157.65 E1411.57834
G0 F12000 X128.79 Y158.49
G1 F2700 X124.58 Y154.28 E1411.87559
G0 F12000 X124.68 Y154.95
G1 F2700 X129.14 Y159.40 E1412.18988
G0 F12000 X129.49 Y160.31
G1 F2700 X124.79 Y155.62 E1412.52128
G0 F12000 X124.89 Y156.29
G1 F2700 X129.83 Y161.23 E1412.86972
G0 F12000 X130.18 Y162.14
G1 F2700 X125.00 Y156.96 E1413.23520
G0 F12000 X125.10 Y157.63
G1 F2700 X130.52 Y163.05 E1413.61778
G0 F12000 X131.21 Y164.30
G1 F2700 X125.36 Y158.45 E1414.03039
G0 F12000 X125.64 Y159.30
G1 F2700 X132.47 Y166.12 E1414.51186
G0 F12000 X133.73 Y167.95
G1 F2700 X125.93 Y160.15 E1415.06212
G0 F12000 X126.21 Y161.00
G1 F2700 X144.12 Y178.91 E1416.32549
G0 F12000 X143.27 Y178.63
G1 F2700 X126.50 Y161.85 E1417.50891
G0 F12000 X126.78 Y162.70
G1 F2700 X142.42 Y178.34 E1418.61226
G0 F12000 X141.57 Y178.06
G1 F2700 X127.44 Y163.93 E1419.60906
G0 F12000 X128.11 Y165.16
G1 F2700 X140.72 Y177.78 E1420.49919
G0 F12000 X139.87 Y177.49
G1 F2700 X128.77 Y166.39 E1421.28271
G0 F12000 X129.43 Y167.62
G1 F2700 X138.67 Y176.86 E1421.93478
G0 F12000 X137.24 Y175.99
G1 F2700 X131.30 Y170.05 E1422.35402
G0 F12000 X133.46 Y172.78
G1 F2700 X134.22 Y173.53 E1422.40733
G0 F12000 X136.39 Y170.61
G1 F2700 X144.97 Y179.19 E1423.01283
G0 F12000 X145.82 Y179.48
G1 F2700 X139.50 Y173.16 E1423.45874
G0 F12000 X140.69 Y173.78
G1 F2700 X146.67 Y179.76 E1423.88059
G0 F12000 X147.37 Y179.89
G1 F2700 X141.88 Y174.41 E1424.26777
G0 F12000 X143.07 Y175.03
G1 F2700 X147.98 Y179.94 E1424.61455
G0 F12000 X148.60 Y180.00
G1 F2700 X144.26 Y175.66 E1424.92083
G0 F12000 X145.06 Y175.90
G1 F2700 X149.22 Y180.05 E1425.21392
G0 F12000 X149.84 Y180.10
G1 F2700 X145.82 Y176.08 E1425.49762
G0 F12000 X146.57 Y176.26
G1 F2700 X150.46 Y180.15 E1425.77197
G0 F12000 X151.07 Y180.21
G1 F2700 X147.32 Y176.45 E1426.03698
G0 F12000 X148.07 Y176.63
G1 F2700 X151.69 Y180.26 E1426.29260
G0 F12000 X152.31 Y180.31
G1 F2700 X148.82 Y176.82 E1426.53884
G0 F12000 X149.57 Y177.00
G1 F2700 X152.93 Y180.36 E1426.77573
G0 F12000 X153.54 Y180.41
G1 F2700 X150.32 Y177.19 E1427.00327
G0 F12000 X150.91 Y177.22
G1 F2700 X154.16 Y180.47 E1427.23254
G0 F12000 X154.78 Y180.52
G1 F2700 X151.48 Y177.22 E1427.46548
G0 F12000 X152.04 Y177.22
G1 F2700 X155.39 Y180.56 E1427.70142
G0 F12000 X155.87 Y180.47
G1 F2700 X152.61 Y177.22 E1427.93129
G0 F12000 X153.18 Y177.22
G1 F2700 X156.35 Y180.39 E1428.15516
G0 F12000 X156.83 Y180.31
G1 F2700 X153.74 Y177.22 E1428.37303
G0 F12000 X154.31 Y177.22
G1 F2700 X157.31 Y180.22 E1428.58484
G0 F12000 X157.79 Y180.13
G1 F2700 X154.87 Y177.22 E1428.79062
G0 F12000 X155.44 Y177.22
G1 F2700 X158.27 Y180.05 E1428.99032
G0 F12000 X158.75 Y179.96
G1 F2700 X156.00 Y177.22 E1429.18400
G0 F12000 X156.57 Y177.22
G1 F2700 X159.23 Y179.88 E1429.37171
G0 F12000 X159.71 Y179.79
G1 F2700 X157.04 Y177.12 E1429.56023
G0 F12000 X157.49 Y177.01
G1 F2700 X160.19 Y179.71 E1429.75059
G0 F12000 X160.67 Y179.62
G1 F2700 X157.95 Y176.90 E1429.94282
G0 F12000 X158.40 Y176.78
G1 F2700 X161.15 Y179.53 E1430.13688
G0 F12000 X161.63 Y179.45
G1 F2700 X158.85 Y176.67 E1430.33282
G0 F12000 X159.31 Y176.56
G1 F2700 X162.11 Y179.37 E1430.53069
G0 F12000 X162.59 Y179.28
G1 F2700 X159.76 Y176.45 E1430.73040
G0 F12000 X160.22 Y176.34
G1 F2700 X163.07 Y179.19 E1430.93197
G0 F12000 X163.55 Y179.11
G1 F2700 X160.67 Y176.22 E1431.13538
G0 F12000 X161.12 Y176.11
G1 F2700 X164.03 Y179.02 E1431.34063
G0 F12000 X164.43 Y178.86
G1 F2700 X161.58 Y176.00 E1431.54206
G0 F12000 X162.03 Y175.89
G1 F2700 X164.81 Y178.67 E1431.73800
G0 F12000 X165.18 Y178.48
G1 F2700 X162.48 Y175.78 E1431.92846
G0 F12000 X162.89 Y175.62
G1 F2700 X165.56 Y178.29 E1432.11699
G0 F12000 X165.94 Y178.10
G1 F2700 X163.26 Y175.42 E1432.30593
G0 F12000 X163.63 Y175.23
G1 F2700 X166.31 Y177.91 E1432.49527
G0 F12000 X166.69 Y177.72
G1 F2700 X164.00 Y175.03 E1432.68499
G0 F12000 X164.37 Y174.84
G1 F2700 X167.07 Y177.53 E1432.87514
G0 F12000 X167.43 Y177.33
G1 F2700 X164.74 Y174.64 E1433.06447
G0 F12000 X165.11 Y174.45
G1 F2700 X167.77 Y177.11 E1433.25208
G0 F12000 X168.12 Y176.89
G1 F2700 X165.49 Y174.25 E1433.43792
G0 F12000 X165.86 Y174.06
G1 F2700 X168.47 Y176.67 E1433.62204
G0 F12000 X168.81 Y176.45
G1 F2700 X166.23 Y173.86 E1433.80442
G0 F12000 X166.60 Y173.67
G1 F2700 X169.16 Y176.23 E1433.98505
G0 F12000 X169.50 Y176.01
G1 F2700 X166.97 Y173.47 E1434.16394
G0 F12000 X167.34 Y173.28
G1 F2700 X169.85 Y175.79 E1434.34103
G0 F12000 X170.20 Y175.57
G1 F2700 X167.71 Y173.09 E1434.51643
G0 F12000 X168.08 Y172.89
G1 F2700 X170.54 Y175.35 E1434.69007
G0 F12000 X170.89 Y175.13
G1 F2700 X168.40 Y172.64 E1434.86586
G0 F12000 X168.70 Y172.37
G1 F2700 X171.24 Y174.91 E1435.04493
G0 F12000 X171.58 Y174.69
G1 F2700 X169.00 Y172.11 E1435.22724
G0 F12000 X169.30 Y171.84
G1 F2700 X171.92 Y174.47 E1435.41266
G0 F12000 X172.19 Y174.17
G1 F2700 X169.60 Y171.58 E1435.59547
G0 F12000 X169.90 Y171.31
G1 F2700 X172.45 Y173.87 E1435.77567
G0 F12000 X172.71 Y173.56
G1 F2700 X170.20 Y171.04 E1435.95326
G0 F12000 X170.50 Y170.78
G1 F2700 X172.98 Y173.26 E1436.12831
G0 F12000 X173.24 Y172.96
G1 F2700 X170.80 Y170.51 E1436.30081
G0 F12000 X171.10 Y170.25
G1 F2700 X173.50 Y172.66 E1436.47071
G0 F12000 X173.77 Y172.35
G1 F2700 X171.40 Y169.98 E1436.63796
G0 F12000 X171.70 Y169.72
G1 F2700 X174.03 Y172.05 E1436.80264
G0 F12000 X174.29 Y171.75
G1 F2700 X172.00 Y169.45 E1436.96474
G0 F12000 X172.30 Y169.19
G1 F2700 X174.56 Y171.44 E1437.12423
G0 F12000 X174.82 Y171.14
G1 F2700 X172.60 Y168.92 E1437.28115
G0 F12000 X172.88 Y168.63
G1 F2700 X175.08 Y170.84 E1437.43697
G0 F12000 X175.35 Y170.54
G1 F2700 X173.11 Y168.30 E1437.59505
G0 F12000 X173.34 Y167.96
G1 F2700 X175.61 Y170.24 E1437.75535
G0 F12000 X175.87 Y169.93
G1 F2700 X173.57 Y167.63 E1437.91798
G0 F12000 X173.80 Y167.29
G1 F2700 X176.14 Y169.63 E1438.08287
G0 F12000 X176.40 Y169.33
G1 F2700 X174.03 Y166.96 E1438.25001
G0 F12000 X174.26 Y166.62
G1 F2700 X176.66 Y169.03 E1438.41945
G0 F12000 X176.93 Y168.72
G1 F2700 X174.49 Y166.29 E1438.59118
G0 F12000 X174.72 Y165.96
G1 F2700 X177.19 Y168.42 E1438.76517
G0 F12000 X177.45 Y168.12
G1 F2700 X174.96 Y165.62 E1438.94135
G0 F12000 X175.19 Y165.29
G1 F2700 X177.72 Y167.82 E1439.11986
G0 F12000 X177.96 Y167.49
G1 F2700 X175.42 Y164.95 E1439.29914
G0 F12000 X175.65 Y164.62
G1 F2700 X178.13 Y167.10 E1439.47426
G0 F12000 X178.30 Y166.71
G1 F2700 X175.88 Y164.28 E1439.64528
G0 F12000 X176.11 Y163.95
G1 F2700 X178.48 Y166.31 E1439.81222
G0 F12000 X178.65 Y165.92
G1 F2700 X176.34 Y163.61 E1439.97527
G0 F12000 X176.49 Y163.20
G1 F2700 X178.82 Y165.53 E1440.13956
G0 F12000 X178.99 Y165.13
G1 F2700 X176.65 Y162.79 E1440.30501
G0 F12000 X176.80 Y162.38
G1 F2700 X179.17 Y164.74 E1440.47177
G0 F12000 X179.34 Y164.35
G1 F2700 X176.96 Y161.97 E1440.63976
G0 F12000 X177.12 Y161.56
G1 F2700 X179.51 Y163.96 E1440.80892
G0 F12000 X179.69 Y163.56
G1 F2700 X177.27 Y161.15 E1440.97938
G0 F12000 X177.43 Y160.74
G1 F2700 X179.86 Y163.17 E1441.15097
G0 F12000 X180.03 Y162.78
G1 F2700 X177.58 Y160.33 E1441.32383
G0 F12000 X177.74 Y159.92
G1 F2700 X180.21 Y162.39 E1441.49789
G0 F12000 X180.38 Y161.99
G1 F2700 X177.89 Y159.51 E1441.67319
G0 F12000 X178.05 Y159.10
G1 F2700 X180.55 Y161.60 E1441.84971
G0 F12000 X180.72 Y161.21
G1 F2700 X178.21 Y158.69 E1442.02748
G0 F12000 X178.36 Y158.28
G1 F2700 X180.90 Y160.81 E1442.20648
G0 F12000 X181.07 Y160.42
G1 F2700 X178.52 Y157.87 E1442.38668
G0 F12000 X178.59 Y157.37
G1 F2700 X181.24 Y160.03 E1442.57407
G0 F12000 X181.42 Y159.64
G1 F2700 X178.65 Y156.87 E1442.76937
G0 F12000 X178.71 Y156.37
G1 F2700 X181.59 Y159.24 E1442.97253
G0 F12000 X181.66 Y158.75
G1 F2700 X178.77 Y155.86 E1443.17658
G0 F12000 X178.83 Y155.36
G1 F2700 X181.72 Y158.24 E1443.38020
G0 F12000 X181.77 Y157.73
G1 F2700 X178.89 Y154.85 E1443.58347
G0 F12000 X178.95 Y154.35
G1 F2700 X181.83 Y157.22 E1443.78639
G0 F12000 X181.89 Y156.71
G1 F2700 X179.01 Y153.84 E1443.98895
G0 F12000 X179.08 Y153.34
G1 F2700 X181.94 Y156.20 E1444.19110
G0 F12000 X182.00 Y155.69
G1 F2700 X179.14 Y152.83 E1444.39285
G0 F12000 X179.20 Y152.33
G1 F2700 X182.05 Y155.18 E1444.59428
G0 F12000 X182.11 Y154.67
G1 F2700 X179.26 Y151.82 E1444.79526
G0 F12000 X179.23 Y151.22
G1 F2700 X182.16 Y154.16 E1445.00255
G0 F12000 X182.22 Y153.65
G1 F2700 X179.15 Y150.58 E1445.21926
G0 F12000 X179.07 Y149.94
G1 F2700 X182.28 Y153.14 E1445.44543
G0 F12000 X182.33 Y152.63
G1 F2700 X178.99 Y149.29 E1445.68101
G0 F12000 X178.91 Y148.65
G1 F2700 X182.39 Y152.12 E1445.92605
G0 F12000 X182.44 Y151.61
G1 F2700 X178.84 Y148.01 E1446.18055
G0 F12000 X178.76 Y147.36
G1 F2700 X182.50 Y151.10 E1446.44442
G0 F12000 X182.55 Y150.59
G1 F2700 X178.68 Y146.72 E1446.71776
G0 F12000 X178.60 Y146.07
G1 F2700 X182.61 Y150.08 E1447.00054
G0 F12000 X182.48 Y149.39
G1 F2700 X178.50 Y145.40 E1447.28167
G0 F12000 X178.15 Y144.49
G1 F2700 X182.34 Y148.69 E1447.57751
G0 F12000 X182.21 Y147.98
G1 F2700 X177.80 Y143.58 E1447.88816
G0 F12000 X177.46 Y142.67
G1 F2700 X182.07 Y147.28 E1448.21349
G0 F12000 X181.93 Y146.58
G1 F2700 X177.11 Y141.76 E1448.55354
G0 F12000 X176.77 Y140.84
G1 F2700 X181.79 Y145.87 E1448.90836
G0 F12000 X181.66 Y145.17
G1 F2700 X176.42 Y139.93 E1449.27786
G0 F12000 X175.40 Y138.34
G1 F2700 X181.52 Y144.47 E1449.70990
G0 F12000 X181.38 Y143.77
G1 F2700 X174.14 Y136.52 E1450.22125
G0 F12000 X172.88 Y134.69
G1 F2700 X181.25 Y143.06 E1450.81187
G0 F12000 X181.11 Y142.36
G1 F2700 X163.38 Y124.63 E1452.06279
G0 F12000 X164.45 Y125.13
G1 F2700 X180.97 Y141.66 E1453.22871
G0 F12000 X180.75 Y140.87
G1 F2700 X165.52 Y125.64 E1454.30327
G0 F12000 X166.58 Y126.14
G1 F2700 X180.12 Y139.68 E1455.25873
G0 F12000 X179.50 Y138.49
G1 F2700 X167.65 Y126.64 E1456.09517
G0 F12000 X168.72 Y127.14
G1 F2700 X178.88 Y137.31 E1456.81243
G0 F12000 X178.24 Y136.10
G1 F2700 X170.31 Y128.17 E1457.37180
G0 F12000 X168.02 Y130.40
G1 F2700 X161.48 Y123.86 E1457.83305
G0 F12000 X160.77 Y123.72
G1 F2700 X166.83 Y129.77 E1458.26044
G0 F12000 X165.64 Y129.15
G1 F2700 X160.06 Y123.57 E1458.65407
G0 F12000 X159.35 Y123.42
G1 F2700 X164.45 Y128.53 E1459.01390
G0 F12000 X163.26 Y127.90
G1 F2700 X158.63 Y123.28 E1459.33990
G0 F12000 X157.93 Y123.14
G1 F2700 X162.29 Y127.50 E1459.64763
G0 F12000 X161.53 Y127.31
G1 F2700 X157.21 Y122.99 E1459.95250
G0 F12000 X156.50 Y122.84
G1 F2700 X160.78 Y127.13 E1460.25455
G0 F12000 X160.03 Y126.94
G1 F2700 X155.79 Y122.70 E1460.55374
G0 F12000 X155.08 Y122.56
G1 F2700 X159.28 Y126.75 E1460.85007
G0 F12000 X158.53 Y126.57
G1 F2700 X154.37 Y122.41 E1461.14355
G0 F12000 X153.79 Y122.40
G1 F2700 X157.78 Y126.39 E1461.42482
G0 F12000 X157.03 Y126.20
G1 F2700 X153.24 Y122.41 E1461.69222
G0 F12000 X152.69 Y122.42
G1 F2700 X156.37 Y126.10 E1461.95201
G0 F12000 X155.80 Y126.10
G1 F2700 X152.13 Y122.43 E1462.21105
G0 F12000 X151.58 Y122.44
G1 F2700 X155.24 Y126.10 E1462.46928
G0 F12000 X154.67 Y126.10
G1 F2700 X151.02 Y122.46 E1462.72667
G0 F12000 X150.52 Y122.52
G1 F2700 X154.11 Y126.10 E1462.97972
G0 F12000 X153.54 Y126.10
G1 F2700 X150.05 Y122.61 E1463.22624
G0 F12000 X149.57 Y122.70
G1 F2700 X152.97 Y126.10 E1463.46613
G0 F12000 X152.41 Y126.10
G1 F2700 X149.10 Y122.80 E1463.69952
G0 F12000 X148.63 Y122.89
G1 F2700 X151.84 Y126.10 E1463.92636
G0 F12000 X151.28 Y126.10
G1 F2700 X148.16 Y122.98 E1464.14663
G0 F12000 X147.68 Y123.07
G1 F2700 X150.71 Y126.10 E1464.36042
G0 F12000 X150.20 Y126.16
G1 F2700 X147.21 Y123.17 E1464.57159
G0 F12000 X146.78 Y123.31
G1 F2700 X149.75 Y126.27 E1464.78068
G0 F12000 X149.29 Y126.38
G1 F2700 X146.38 Y123.47 E1464.98628
G0 F12000 X145.97 Y123.63
G1 F2700 X148.84 Y126.50 E1465.18849
G0 F12000 X148.39 Y126.61
G1 F2700 X145.57 Y123.79 E1465.38731
G0 F12000 X145.16 Y123.95
G1 F2700 X147.93 Y126.72 E1465.58272
G0 F12000 X147.48 Y126.83
G1 F2700 X144.76 Y124.11 E1465.77470
G0 F12000 X144.35 Y124.27
G1 F2700 X147.03 Y126.94 E1465.96326
G0 F12000 X146.57 Y127.06
G1 F2700 X143.95 Y124.43 E1466.14840
G0 F12000 X143.54 Y124.59
G1 F2700 X146.12 Y127.17 E1466.33011
G0 F12000 X145.66 Y127.28
G1 F2700 X143.14 Y124.75 E1466.50833
G0 F12000 X142.73 Y124.91
G1 F2700 X145.21 Y127.39 E1466.68317
G0 F12000 X144.76 Y127.50
G1 F2700 X142.33 Y125.07 E1466.85465
G0 F12000 X141.92 Y125.23
G1 F2700 X144.32 Y127.63 E1467.02402
G0 F12000 X143.95 Y127.83
G1 F2700 X141.52 Y125.39 E1467.19583
G0 F12000 X141.11 Y125.56
G1 F2700 X143.58 Y128.02 E1467.37003
G0 F12000 X143.21 Y128.22
G1 F2700 X140.73 Y125.74 E1467.54511
G0 F12000 X140.38 Y125.95
G1 F2700 X142.84 Y128.41 E1467.71868
G0 F12000 X142.47 Y128.61
G1 F2700 X140.03 Y126.17 E1467.89076
G0 F12000 X139.68 Y126.38
G1 F2700 X142.10 Y128.80 E1468.06140
G0 F12000 X141.72 Y129.00
G1 F2700 X139.33 Y126.60 E1468.23052
G0 F12000 X138.98 Y126.82
G1 F2700 X141.35 Y129.19 E1468.39816
G0 F12000 X140.98 Y129.39
G1 F2700 X138.63 Y127.03 E1468.56432
G0 F12000 X138.28 Y127.25
G1 F2700 X140.61 Y129.58 E1468.72903
G0 F12000 X140.24 Y129.78
G1 F2700 X137.93 Y127.46 E1468.89222
G0 F12000 X137.58 Y127.68
G1 F2700 X139.87 Y129.97 E1469.05394
G0 F12000 X139.50 Y130.17
G1 F2700 X137.23 Y127.89 E1469.21417
G0 F12000 X136.88 Y128.11
G1 F2700 X139.13 Y130.36 E1469.37285
G0 F12000 X138.79 Y130.58
G1 F2700 X136.53 Y128.33 E1469.53213
G0 F12000 X136.18 Y128.54
G1 F2700 X138.49 Y130.85 E1469.69497
G0 F12000 X144.46 Y127.72
G0 X150.45 Y126.25
G0 X162.31 Y124.13
G1 F2700 X172.53 Y134.35 E1470.41604
G0 F12000 X173.88 Y131.18
G1 F2700 X177.15 Y134.44 E1470.64634
G1 F1800 E1467.64634
G0 F12000 X145.30 Y122.42
;TYPE:SUPPORT
G1 F1800 E1470.64634
G1 F2700 X145.30 Y119.89 E1470.77241
G0 F12000 X145.30 Y120.05
G0 X142.63 Y120.05
G0 X142.63 Y119.89
G1 F2700 X142.63 Y123.47 E1470.95112
G0 F12000 X142.57 Y123.32
G0 X139.88 Y124.45
G0 X139.97 Y124.59
G1 F2700 X139.97 Y120.01 E1471.17936
G0 F12000 X140.00 Y120.17
G0 X137.34 Y120.83
G0 X137.30 Y120.68
G1 F2700 X137.30 Y126.23 E1471.45645
G0 F12000 X137.22 Y126.10
G0 X134.75 Y126.68
G0 X134.63 Y126.80
G1 F2700 X134.63 Y121.35 E1471.72796
G1 F1800 E1468.72796
G0 F12000 X139.97 Y131.48
G1 F1800 E1471.72796
G1 F2700 X139.97 Y171.84 E1473.74168
G0 F12000 X140.04 Y171.70
G0 X142.71 Y173.10
G0 X142.63 Y173.24
G1 F2700 X142.63 Y130.08 E1475.89509
G0 F12000 X142.71 Y130.22
G0 X145.33 Y128.95
G0 X145.30 Y128.79
G1 F2700 X145.30 Y174.53 E1478.17711
G0 F12000 X145.34 Y174.38
G0 X148.00 Y175.03
G0 X147.96 Y175.19
G1 F2700 X147.96 Y128.13 E1480.52460
G0 F12000 X148.00 Y128.29
G0 X150.63 Y127.64
G0 X150.63 Y127.48
G1 F2700 X150.63 Y175.84 E1482.93699
G0 F12000 X150.63 Y175.68
G0 X153.29 Y175.68
G0 X153.29 Y175.84
G1 F2700 X153.29 Y127.48 E1485.34938
G0 F12000 X153.29 Y127.64
G0 X155.96 Y127.64
G0 X155.96 Y127.48
G1 F2700 X155.96 Y175.84 E1487.76177
G0 F12000 X155.96 Y175.68
G0 X158.59 Y175.15
G0 X158.63 Y175.31
G1 F2700 X158.63 Y128.02 E1490.12123
G0 F12000 X158.59 Y128.17
G0 X161.25 Y128.83
G0 X161.29 Y128.67
G1 F2700 X161.29 Y174.65 E1492.41513
G0 F12000 X161.26 Y174.50
G0 X163.88 Y173.36
G0 X163.96 Y173.50
G1 F2700 X163.96 Y129.83 E1494.59388
G0 F12000 X163.88 Y129.97
G0 X166.55 Y131.37
G0 X166.62 Y131.23
G1 F2700 X166.62 Y172.10 E1496.63295
G0 F12000 X166.55 Y171.96
G0 X169.19 Y169.89
G0 X169.29 Y170.01
G1 F2700 X169.29 Y133.32 E1498.46327
G0 F12000 X169.19 Y133.44
G0 X171.83 Y135.88
G0 X171.96 Y135.79
G1 F2700 X171.96 Y167.54 E1500.04718
G0 F12000 X171.83 Y167.45
G0 X174.49 Y163.58
G0 X174.62 Y163.68
G1 F2700 X174.62 Y139.65 E1501.24574
G0 F12000 X174.49 Y139.74
G0 X177.13 Y146.71
G0 X177.29 Y146.69
G1 F2700 X177.29 Y156.63 E1501.74155
G0 F12000 X177.13 Y156.61
G0 X137.41 Y169.46
G0 X137.30 Y169.58
G1 F2700 X137.30 Y133.75 E1503.52912
G0 F12000 X137.40 Y133.87
G0 X134.76 Y136.58
G0 X134.63 Y136.49
G1 F2700 X134.63 Y166.84 E1505.04309
G0 F12000 X134.76 Y166.75
G0 X132.12 Y162.91
G0 X131.97 Y162.97
G1 F2700 X131.97 Y140.36 E1506.17120
G0 F12000 X132.11 Y140.42
G0 X129.46 Y150.71
G0 X129.30 Y150.69
G1 F2700 X129.30 Y152.64 E1506.26834
G1 F1800 E1503.26834
G0 F12000 X163.96 Y123.38
G1 F1800 E1506.26834
G1 F2700 X163.96 Y120.58 E1506.40813
G1 F1800 E1503.40813
G0 F12000 X166.62 Y117.91
G1 F1800 E1506.40813
G1 F2700 X166.62 Y124.63 E1506.74345
G0 F12000 X166.69 Y124.49
G0 X169.36 Y125.74
G0 X169.29 Y125.88
G1 F2700 X169.29 Y120.41 E1507.01674
G0 F12000 X169.18 Y120.52
G0 X171.84 Y122.98
G0 X171.96 Y122.87
G1 F2700 X171.96 Y127.75 E1507.26006
G0 F12000 X172.06 Y127.63
G0 X174.51 Y126.05
G0 X174.62 Y125.94
G1 F2700 X174.62 Y129.91 E1507.45847
G1 F1800 E1504.45847
G0 F12000 X126.64 Y165.34
G1 F1800 E1507.45847
G1 F2700 X126.64 Y172.53 E1507.81748
G0 F12000 X126.71 Y172.39
G0 X129.41 Y173.95
G0 X129.30 Y174.06
G1 F2700 X129.30 Y169.75 E1508.03266
G0 F12000 X129.18 Y169.85
G0 X131.84 Y173.21
G0 X131.97 Y173.11
G1 F2700 X131.97 Y173.38 E1508.04598
G0 F12000 X131.84 Y173.28
G0 X124.04 Y169.96
G0 X123.97 Y170.10
G1 F2700 X123.97 Y164.16 E1508.34218
G0 F12000 X124.08 Y164.28
G0 X123.64 Y165.03
G0 X121.41 Y167.14
G0 X121.30 Y167.03
G1 F2700 X121.30 Y167.47 E1508.36383
G1 F1800 E1505.36383
G0 F12000 X147.96 Y181.33
G1 F1800 E1508.36383
G1 F2700 X147.96 Y187.21 E1508.65708
G0 F12000 X147.96 Y187.05
G0 X150.59 Y186.73
G0 X150.63 Y186.89
G1 F2700 X150.63 Y181.56 E1508.92325
G0 F12000 X150.62 Y181.71
G0 X153.28 Y181.94
G0 X153.29 Y181.78
G1 F2700 X153.29 Y186.17 E1509.14242
G0 F12000 X153.26 Y186.02
G0 X155.92 Y185.35
G0 X155.96 Y185.51
G1 F2700 X155.96 Y181.86 E1509.32432
G0 F12000 X155.99 Y182.02
G0 X158.65 Y181.54
G0 X158.63 Y181.39
G1 F2700 X158.63 Y184.41 E1509.47538
;LAYER:1
G1 F1800 E1506.47538
G0 F12000 X155.66 Y181.27 Z1.50
;TYPE:WALL-INNER
G1 F1800 E1509.47538
G1 F3180 X147.09 Y180.55 E1509.90437
G1 X139.52 Y178.02 E1510.30301
G1 X135.06 Y175.32 E1510.56311
G1 X133.43 Y173.91 E1510.67039
G1 X133.11 Y173.49 E1510.69674
G1 X129.15 Y168.50 E1511.01461
G1 X126.28 Y163.19 E1511.31587
G1 X124.56 Y158.05 E1511.58609
G1 X123.79 Y153.13 E1511.83467
G1 X123.80 Y152.35 E1511.87318
G1 X123.81 Y151.78 E1511.90197
G1 X123.85 Y148.42 E1512.06937
G1 X124.59 Y144.32 E1512.27741
G1 X124.67 Y143.93 E1512.29732
G1 X126.05 Y140.08 E1512.50115
G1 X126.21 Y139.62 E1512.52529
G1 X126.77 Y138.63 E1512.58210
G1 X128.51 Y135.52 E1512.75998
G1 X129.10 Y134.78 E1512.80724
G1 X129.54 Y134.24 E1512.84211
G1 X131.63 Y131.65 E1513.00831
G1 X135.15 Y128.54 E1513.24253
G1 X135.69 Y128.06 E1513.27837
G1 X140.84 Y124.89 E1513.58019
G1 X145.72 Y122.95 E1513.84231
G1 X147.24 Y122.35 E1513.92395
G1 X149.36 Y121.93 E1514.03164
G1 X154.57 Y121.83 E1514.29157
G1 X162.40 Y123.42 E1514.69036
G1 X170.18 Y127.08 E1515.11922
G1 X177.15 Y132.95 E1515.57359
G1 X177.55 Y133.56 E1515.61019
G1 X180.84 Y139.84 E1515.96359
G1 X181.18 Y140.50 E1516.00110
G1 X181.44 Y140.99 E1516.02873
G1 X183.22 Y150.09 E1516.49135
G1 X182.21 Y159.34 E1516.95553
G1 X178.46 Y167.86 E1517.41987
G1 X172.37 Y174.86 E1517.88255
G1 X165.29 Y179.35 E1518.30089
G1 X164.63 Y179.68 E1518.33741
G1 X155.66 Y181.27 E1518.79191
G0 F12000 X156.62 Y177.08
G1 F3180 X162.62 Y175.60 E1519.09984
G1 X168.08 Y172.73 E1519.40778
G1 X172.70 Y168.64 E1519.71568
G1 X176.21 Y163.56 E1520.02366
G1 X178.40 Y157.79 E1520.33163
G1 X179.14 Y151.66 E1520.63951
G1 X178.40 Y145.54 E1520.94743
G1 X176.21 Y139.76 E1521.25541
G1 X172.70 Y134.68 E1521.56338
G1 X168.08 Y130.59 E1521.87132
G1 X162.62 Y127.72 E1522.17925
G1 X156.62 Y126.25 E1522.48719
G1 X150.45 Y126.25 E1522.79511
G1 X144.46 Y127.72 E1523.10305
G1 X138.99 Y130.59 E1523.41099
G1 X134.37 Y134.68 E1523.71893
G1 X130.87 Y139.76 E1524.02690
G1 X128.68 Y145.54 E1524.33488
G1 X127.93 Y151.66 E1524.64279
G1 X128.68 Y157.79 E1524.95066
G1 X130.87 Y163.56 E1525.25864
G1 X134.37 Y168.64 E1525.56661
G1 X138.99 Y172.73 E1525.87451
G1 X144.46 Y175.60 E1526.18245
G1 X150.45 Y177.08 E1526.49039
G1 X156.62 Y177.08 E1526.79831
G0 F12000 X156.57 Y176.68
;TYPE:WALL-OUTER
G1 F3180 X162.47 Y175.22 E1527.10142
G1 X167.85 Y172.40 E1527.40449
G1 X172.40 Y168.37 E1527.70759
G1 X175.85 Y163.37 E1528.01069
G1 X178.01 Y157.69 E1528.31382
G1 X178.74 Y151.66 E1528.61687
G1 X178.01 Y145.63 E1528.91997
G1 X175.85 Y139.95 E1529.22310
G1 X172.40 Y134.95 E1529.52620
G1 X167.85 Y130.92 E1529.82933
G1 X162.47 Y128.10 E1530.13240
G1 X156.57 Y126.64 E1530.43551
G1 X150.50 Y126.64 E1530.73854
G1 X144.60 Y128.10 E1531.04165
G1 X139.22 Y130.92 E1531.34473
G1 X134.67 Y134.95 E1531.64786
G1 X131.22 Y139.95 E1531.95095
G1 X129.07 Y145.63 E1532.25409
G1 X128.34 Y151.66 E1532.55718
G1 X129.07 Y157.69 E1532.86022
G1 X131.22 Y163.37 E1533.16335
G1 X134.67 Y168.37 E1533.46645
G1 X139.22 Y172.40 E1533.76955
G1 X144.60 Y175.22 E1534.07262
G1 X150.50 Y176.68 E1534.37573
G1 X156.57 Y176.68 E1534.67876
G0 F12000 X156.57 Y176.98
G0 X155.67 Y181.38
G0 X155.68 Y181.68
G1 F3180 X147.02 Y180.94 E1535.11251
G1 X139.35 Y178.38 E1535.51593
G1 X134.82 Y175.64 E1535.77999
G1 X133.14 Y174.18 E1535.89092
G1 X128.81 Y168.72 E1536.23848
G1 X125.91 Y163.34 E1536.54342
G1 X124.17 Y158.14 E1536.81702
G1 X123.39 Y153.15 E1537.06898
G1 X123.45 Y148.39 E1537.30672
G1 X124.28 Y143.82 E1537.53831
G1 X125.84 Y139.46 E1537.76964
G1 X128.18 Y135.30 E1538.00748
G1 X131.34 Y131.37 E1538.25918
G1 X135.46 Y127.73 E1538.53317
G1 X140.65 Y124.53 E1538.83782
G1 X147.13 Y121.96 E1539.18554
G1 X149.32 Y121.53 E1539.29643
G1 X154.61 Y121.43 E1539.56045
G1 X162.53 Y123.04 E1539.96382
G1 X170.40 Y126.74 E1540.39771
G1 X177.46 Y132.68 E1540.85777
G1 X177.90 Y133.36 E1540.89819
G1 X181.82 Y140.86 E1541.32062
G1 X183.62 Y150.07 E1541.78897
G1 X182.60 Y159.45 E1542.25948
G1 X178.80 Y168.08 E1542.72993
G1 X172.63 Y175.16 E1543.19837
G1 X165.49 Y179.69 E1543.62056
G1 X164.76 Y180.06 E1543.66121
G1 X155.68 Y181.68 E1544.12124
G0 F12000 X155.75 Y181.11
;TYPE:FILL
G1 F3180 X160.63 Y176.23 E1544.46548
G0 F12000 X161.38 Y176.05
G1 F3180 X156.44 Y180.99 E1544.81413
G0 F12000 X157.13 Y180.87
G1 F3180 X162.13 Y175.86 E1545.16719
G0 F12000 X163.01 Y175.55
G1 F3180 X157.82 Y180.75 E1545.53362
G0 F12000 X158.50 Y180.62
G1 F3180 X164.20 Y174.93 E1545.93553
G0 F12000 X165.39 Y174.30
G1 F3180 X159.19 Y180.50 E1546.37294
G0 F12000 X159.88 Y180.38
G1 F3180 X166.58 Y173.68 E1546.84573
G0 F12000 X167.77 Y173.05
G1 F3180 X160.57 Y180.26 E1547.35401
G0 F12000 X161.26 Y180.13
G1 F3180 X171.50 Y169.88 E1548.07710
G0 F12000 X173.14 Y168.25
G1 F3180 X182.06 Y159.34 E1548.70624
G0 F12000 X182.13 Y158.69
G1 F3180 X174.40 Y166.42 E1549.25199
G0 F12000 X175.66 Y164.60
G1 F3180 X182.21 Y158.05 E1549.71356
G0 F12000 X182.28 Y157.42
G1 F3180 X176.49 Y163.20 E1550.12144
G0 F12000 X176.84 Y162.29
G1 F3180 X182.34 Y156.78 E1550.50982
G0 F12000 X182.41 Y156.15
G1 F3180 X177.19 Y161.38 E1550.87865
G0 F12000 X177.53 Y160.47
G1 F3180 X182.48 Y155.51 E1551.22804
G0 F12000 X182.55 Y154.88
G1 F3180 X177.88 Y159.55 E1551.55792
G0 F12000 X178.22 Y158.64
G1 F3180 X182.62 Y154.24 E1551.86829
G0 F12000 X182.69 Y153.61
G1 F3180 X178.54 Y157.76 E1552.16110
G0 F12000 X178.62 Y157.11
G1 F3180 X182.76 Y152.97 E1552.45334
G0 F12000 X182.83 Y152.34
G1 F3180 X178.70 Y156.47 E1552.74498
G0 F12000 X178.78 Y155.83
G1 F3180 X182.90 Y151.70 E1553.03602
G0 F12000 X182.97 Y151.07
G1 F3180 X178.85 Y155.18 E1553.32649
G0 F12000 X178.93 Y154.54
G1 F3180 X183.04 Y150.43 E1553.61634
G0 F12000 X183.03 Y149.87
G1 F3180 X179.01 Y153.90 E1553.90011
G0 F12000 X179.09 Y153.25
G1 F3180 X182.94 Y149.40 E1554.17189
G0 F12000 X182.85 Y148.93
G1 F3180 X179.16 Y152.61 E1554.43167
G0 F12000 X179.24 Y151.97
G1 F3180 X182.75 Y148.45 E1554.67939
G0 F12000 X182.66 Y147.98
G1 F3180 X179.25 Y151.40 E1554.92031
G0 F12000 X179.19 Y150.89
G1 F3180 X182.57 Y147.51 E1555.15903
G0 F12000 X182.48 Y147.03
G1 F3180 X179.12 Y150.39 E1555.39553
G0 F12000 X179.06 Y149.88
G1 F3180 X182.38 Y146.56 E1555.62985
G0 F12000 X182.29 Y146.09
G1 F3180 X179.00 Y149.38 E1555.86194
G0 F12000 X178.94 Y148.87
G1 F3180 X182.20 Y145.61 E1556.09184
G0 F12000 X182.11 Y145.14
G1 F3180 X178.88 Y148.37 E1556.31953
G0 F12000 X178.82 Y147.86
G1 F3180 X182.01 Y144.67 E1556.54498
G0 F12000 X181.92 Y144.19
G1 F3180 X178.76 Y147.36 E1556.76826
G0 F12000 X178.70 Y146.85
G1 F3180 X181.83 Y143.72 E1556.98938
G0 F12000 X181.74 Y143.25
G1 F3180 X178.64 Y146.35 E1557.20824
G0 F12000 X178.57 Y145.84
G1 F3180 X181.65 Y142.77 E1557.42488
G0 F12000 X181.55 Y142.30
G1 F3180 X178.48 Y145.37 E1557.64142
G0 F12000 X178.33 Y144.96
G1 F3180 X181.46 Y141.83 E1557.86247
G0 F12000 X181.37 Y141.35
G1 F3180 X178.17 Y144.55 E1558.08793
G0 F12000 X178.02 Y144.14
G1 F3180 X181.24 Y140.91 E1558.31547
G0 F12000 X181.05 Y140.54
G1 F3180 X177.86 Y143.73 E1558.54022
G0 F12000 X177.71 Y143.32
G1 F3180 X180.85 Y140.17 E1558.76222
G0 F12000 X180.66 Y139.80
G1 F3180 X177.55 Y142.91 E1558.98155
G0 F12000 X177.40 Y142.50
G1 F3180 X180.46 Y139.43 E1559.19808
G0 F12000 X180.27 Y139.06
G1 F3180 X177.24 Y142.09 E1559.41193
G0 F12000 X177.08 Y141.68
G1 F3180 X180.08 Y138.69 E1559.62307
G0 F12000 X179.88 Y138.31
G1 F3180 X176.93 Y141.27 E1559.83153
G0 F12000 X176.77 Y140.86
G1 F3180 X179.69 Y137.94 E1560.03719
G0 F12000 X179.49 Y137.57
G1 F3180 X176.62 Y140.45 E1560.24022
G0 F12000 X176.46 Y140.04
G1 F3180 X179.30 Y137.20 E1560.44045
G0 F12000 X179.10 Y136.83
G1 F3180 X176.29 Y139.64 E1560.63882
G0 F12000 X176.06 Y139.31
G1 F3180 X178.91 Y136.46 E1560.83983
G0 F12000 X178.72 Y136.09
G1 F3180 X175.83 Y138.97 E1561.04342
G0 F12000 X175.60 Y138.64
G1 F3180 X178.52 Y135.72 E1561.24962
G0 F12000 X178.33 Y135.34
G1 F3180 X175.37 Y138.30 E1561.45843
G0 F12000 X175.14 Y137.97
G1 F3180 X178.13 Y134.97 E1561.66981
G0 F12000 X177.94 Y134.60
G1 F3180 X174.91 Y137.63 E1561.88377
G0 F12000 X174.68 Y137.30
G1 F3180 X177.75 Y134.23 E1562.10034
G0 F12000 X177.55 Y133.86
G1 F3180 X174.44 Y136.96 E1562.31949
G0 F12000 X174.21 Y136.63
G1 F3180 X177.34 Y133.50 E1562.54043
G0 F12000 X177.12 Y133.16
G1 F3180 X173.98 Y136.29 E1562.76180
G0 F12000 X173.75 Y135.96
G1 F3180 X176.84 Y132.87 E1562.97981
G0 F12000 X176.53 Y132.61
G1 F3180 X173.52 Y135.62 E1563.19240
G0 F12000 X173.29 Y135.29
G1 F3180 X176.23 Y132.35 E1563.39969
G0 F12000 X175.92 Y132.09
G1 F3180 X173.06 Y134.96 E1563.60162
G0 F12000 X172.83 Y134.62
G1 F3180 X175.61 Y131.84 E1563.79812
G0 F12000 X175.31 Y131.58
G1 F3180 X172.53 Y134.35 E1563.99373
G0 F12000 X172.23 Y134.09
G1 F3180 X175.00 Y131.32 E1564.18889
G0 F12000 X174.69 Y131.06
G1 F3180 X171.93 Y133.82 E1564.38355
G0 F12000 X171.63 Y133.55
G1 F3180 X174.38 Y130.80 E1564.57765
G0 F12000 X174.08 Y130.54
G1 F3180 X171.33 Y133.29 E1564.77122
G0 F12000 X171.03 Y133.02
G1 F3180 X173.77 Y130.28 E1564.96426
G0 F12000 X173.46 Y130.03
G1 F3180 X170.73 Y132.75 E1565.15677
G0 F12000 X170.43 Y132.49
G1 F3180 X173.16 Y129.77 E1565.34878
G0 F12000 X172.85 Y129.51
G1 F3180 X170.13 Y132.22 E1565.54027
G0 F12000 X169.83 Y131.96
G1 F3180 X172.54 Y129.25 E1565.73126
G0 F12000 X172.23 Y128.99
G1 F3180 X169.53 Y131.69 E1565.92173
G0 F12000 X169.23 Y131.43
G1 F3180 X171.93 Y128.73 E1566.11173
G0 F12000 X171.62 Y128.48
G1 F3180 X168.93 Y131.16 E1566.30117
G0 F12000 X168.63 Y130.90
G1 F3180 X171.31 Y128.22 E1566.49009
G0 F12000 X171.00 Y127.96
G1 F3180 X168.34 Y130.63 E1566.67847
G0 F12000 X168.00 Y130.39
G1 F3180 X170.70 Y127.70 E1566.86847
G0 F12000 X170.39 Y127.44
G1 F3180 X167.63 Y130.20 E1567.06300
G0 F12000 X167.26 Y130.00
G1 F3180 X170.08 Y127.19 E1567.26161
G0 F12000 X169.69 Y127.01
G1 F3180 X166.89 Y129.81 E1567.45924
G0 F12000 X166.52 Y129.61
G1 F3180 X169.31 Y126.83 E1567.65587
G0 F12000 X168.92 Y126.65
G1 F3180 X166.15 Y129.42 E1567.85159
G0 F12000 X165.78 Y129.22
G1 F3180 X168.54 Y126.47 E1568.04633
G0 F12000 X168.15 Y126.28
G1 F3180 X165.41 Y129.03 E1568.24007
G0 F12000 X165.04 Y128.84
G1 F3180 X167.77 Y126.10 E1568.43290
G0 F12000 X167.38 Y125.92
G1 F3180 X164.67 Y128.64 E1568.62474
G0 F12000 X164.29 Y128.45
G1 F3180 X167.00 Y125.74 E1568.81559
G0 F12000 X166.62 Y125.56
G1 F3180 X163.92 Y128.25 E1569.00549
G0 F12000 X163.55 Y128.06
G1 F3180 X166.23 Y125.38 E1569.19440
G0 F12000 X165.85 Y125.20
G1 F3180 X163.18 Y127.86 E1569.38236
G0 F12000 X162.81 Y127.67
G1 F3180 X165.46 Y125.02 E1569.56937
G0 F12000 X165.08 Y124.84
G1 F3180 X162.39 Y127.52 E1569.75892
G0 F12000 X161.94 Y127.41
G1 F3180 X164.69 Y124.66 E1569.95337
G0 F12000 X164.31 Y124.47
G1 F3180 X161.48 Y127.30 E1570.15269
G0 F12000 X161.03 Y127.19
G1 F3180 X163.92 Y124.29 E1570.35680
G0 F12000 X163.54 Y124.11
G1 F3180 X160.57 Y127.08 E1570.56579
G0 F12000 X160.12 Y126.96
G1 F3180 X163.15 Y123.93 E1570.77964
G0 F12000 X162.77 Y123.75
G1 F3180 X159.67 Y126.85 E1570.99844
G0 F12000 X159.21 Y126.74
G1 F3180 X162.38 Y123.57 E1571.22203
G0 F12000 X161.92 Y123.47
G1 F3180 X158.76 Y126.63 E1571.44484
G0 F12000 X158.31 Y126.52
G1 F3180 X161.45 Y123.37 E1571.66659
G0 F12000 X160.98 Y123.28
G1 F3180 X157.85 Y126.40 E1571.88719
G0 F12000 X157.40 Y126.29
G1 F3180 X160.51 Y123.18 E1572.10665
G0 F12000 X160.04 Y123.08
G1 F3180 X156.94 Y126.18 E1572.32502
G0 F12000 X156.46 Y126.10
G1 F3180 X159.57 Y122.99 E1572.54476
G0 F12000 X159.10 Y122.89
G1 F3180 X155.89 Y126.10 E1572.77132
G0 F12000 X155.32 Y126.10
G1 F3180 X158.63 Y122.80 E1573.00464
G0 F12000 X158.16 Y122.70
G1 F3180 X154.76 Y126.10 E1573.24467
G0 F12000 X154.19 Y126.10
G1 F3180 X157.69 Y122.61 E1573.49155
G0 F12000 X157.22 Y122.51
G1 F3180 X153.63 Y126.10 E1573.74519
G0 F12000 X153.06 Y126.10
G1 F3180 X156.75 Y122.41 E1574.00554
G0 F12000 X156.28 Y122.32
G1 F3180 X152.50 Y126.10 E1574.27266
G0 F12000 X151.93 Y126.10
G1 F3180 X155.81 Y122.22 E1574.54656
G0 F12000 X155.34 Y122.13
G1 F3180 X151.36 Y126.10 E1574.82727
G0 F12000 X150.80 Y126.10
G1 F3180 X154.87 Y122.03 E1575.11471
G0 F12000 X154.37 Y121.97
G1 F3180 X150.17 Y126.17 E1575.41108
G0 F12000 X149.41 Y126.36
G1 F3180 X153.79 Y121.98 E1575.71965
G0 F12000 X153.21 Y121.99
G1 F3180 X148.66 Y126.54 E1576.04047
G0 F12000 X147.91 Y126.72
G1 F3180 X152.63 Y122.01 E1576.37342
G0 F12000 X152.06 Y122.02
G1 F3180 X147.16 Y126.91 E1576.71861
G0 F12000 X146.41 Y127.10
G1 F3180 X151.48 Y122.03 E1577.07604
G0 F12000 X150.90 Y122.04
G1 F3180 X145.66 Y127.28 E1577.44568
G0 F12000 X144.91 Y127.47
G1 F3180 X150.32 Y122.05 E1577.82756
G0 F12000 X149.75 Y122.07
G1 F3180 X144.01 Y127.80 E1578.23185
G0 F12000 X142.82 Y128.42
G1 F3180 X149.12 Y122.12 E1578.67620
G0 F12000 X148.42 Y122.26
G1 F3180 X141.63 Y129.05 E1579.15492
G0 F12000 X140.44 Y129.67
G1 F3180 X147.72 Y122.40 E1579.66807
G0 F12000 X146.92 Y122.63
G1 F3180 X139.25 Y130.30 E1580.20923
G0 F12000 X137.11 Y127.35
G1 F3180 X128.33 Y136.13 E1580.82885
G0 F12000 X127.61 Y137.42
G1 F3180 X138.59 Y126.44 E1581.60365
G0 F12000 X140.06 Y125.53
G1 F3180 X126.88 Y138.71 E1582.53357
G0 F12000 X126.26 Y139.90
G1 F3180 X141.30 Y124.85 E1583.59508
G0 F12000 X142.24 Y124.48
G1 F3180 X125.94 Y140.78 E1584.74499
G0 F12000 X125.63 Y141.66
G1 F3180 X143.18 Y124.11 E1585.98331
G0 F12000 X144.11 Y123.74
G1 F3180 X125.31 Y142.54 E1587.31003
G0 F12000 X124.99 Y143.43
G1 F3180 X145.05 Y123.37 E1588.72516
G0 F12000 X145.99 Y123.00
G1 F3180 X135.37 Y133.61 E1589.47425
G0 F12000 X133.99 Y135.00
G1 F3180 X124.75 Y144.23 E1590.12572
G0 F12000 X124.63 Y144.92
G1 F3180 X132.72 Y136.82 E1590.69708
G0 F12000 X131.46 Y138.65
G1 F3180 X124.50 Y145.61 E1591.18829
G0 F12000 X124.38 Y146.30
G1 F3180 X130.59 Y140.09 E1591.62686
G0 F12000 X130.25 Y141.00
G1 F3180 X124.25 Y146.99 E1592.04987
G0 F12000 X124.13 Y147.68
G1 F3180 X129.90 Y141.91 E1592.45730
G0 F12000 X129.56 Y142.82
G1 F3180 X124.00 Y148.38 E1592.84916
G0 F12000 X123.98 Y148.96
G1 F3180 X129.21 Y143.73 E1593.21781
G0 F12000 X128.86 Y144.65
G1 F3180 X123.98 Y149.53 E1593.56248
G0 F12000 X123.97 Y150.10
G1 F3180 X128.53 Y145.54 E1593.88449
G0 F12000 X128.46 Y146.18
G1 F3180 X123.96 Y150.68 E1594.20143
G0 F12000 X123.96 Y151.25
G1 F3180 X128.38 Y146.83 E1594.51335
G0 F12000 X128.30 Y147.47
G1 F3180 X123.95 Y151.82 E1594.82030
G0 F12000 X123.94 Y152.39
G1 F3180 X128.22 Y148.11 E1595.12228
G0 F12000 X128.15 Y148.76
G1 F3180 X123.94 Y152.97 E1595.41925
G0 F12000 X123.99 Y153.48
G1 F3180 X128.07 Y149.40 E1595.70683
G0 F12000 X127.99 Y150.04
G1 F3180 X124.07 Y153.97 E1595.98351
G0 F12000 X124.14 Y154.46
G1 F3180 X127.91 Y150.69 E1596.24937
G0 F12000 X127.83 Y151.33
G1 F3180 X124.22 Y154.95 E1596.50435
G0 F12000 X124.30 Y155.44
G1 F3180 X127.82 Y151.91 E1596.75327
G0 F12000 X127.88 Y152.41
G1 F3180 X124.37 Y155.92 E1597.00106
G0 F12000 X124.45 Y156.41
G1 F3180 X127.94 Y152.92 E1597.24783
G0 F12000 X128.01 Y153.42
G1 F3180 X124.52 Y156.90 E1597.49354
G0 F12000 X124.60 Y157.39
G1 F3180 X128.07 Y153.93 E1597.73816
G0 F12000 X128.13 Y154.43
G1 F3180 X124.68 Y157.88 E1597.98171
G0 F12000 X124.80 Y158.32
G1 F3180 X128.19 Y154.94 E1598.22079
G0 F12000 X128.25 Y155.44
G1 F3180 X124.94 Y158.75 E1598.45412
G0 F12000 X125.08 Y159.17
G1 F3180 X128.31 Y155.94 E1598.68180
G0 F12000 X128.37 Y156.45
G1 F3180 X125.23 Y159.59 E1598.90377
G0 F12000 X125.37 Y160.02
G1 F3180 X128.43 Y156.95 E1599.11995
G0 F12000 X128.50 Y157.46
G1 F3180 X125.51 Y160.44 E1599.33049
G0 F12000 X125.65 Y160.87
G1 F3180 X128.58 Y157.94 E1599.53714
G0 F12000 X128.74 Y158.35
G1 F3180 X125.80 Y161.29 E1599.74472
G0 F12000 X125.94 Y161.71
G1 F3180 X128.89 Y158.76 E1599.95328
G0 F12000 X129.05 Y159.17
G1 F3180 X126.08 Y162.14 E1600.16283
G0 F12000 X126.22 Y162.56
G1 F3180 X129.20 Y159.58 E1600.37333
G0 F12000 X129.36 Y159.99
G1 F3180 X126.36 Y162.98 E1600.58478
G0 F12000 X126.54 Y163.37
G1 F3180 X129.52 Y160.40 E1600.79462
G0 F12000 X129.67 Y160.81
G1 F3180 X126.74 Y163.74 E1601.00148
G0 F12000 X126.94 Y164.11
G1 F3180 X129.83 Y161.22 E1601.20528
G0 F12000 X129.98 Y161.63
G1 F3180 X127.14 Y164.47 E1601.40608
G0 F12000 X127.33 Y164.84
G1 F3180 X130.14 Y162.04 E1601.60389
G0 F12000 X130.29 Y162.45
G1 F3180 X127.53 Y165.21 E1601.79873
G0 F12000 X127.73 Y165.58
G1 F3180 X130.45 Y162.86 E1601.99049
G0 F12000 X130.60 Y163.27
G1 F3180 X127.93 Y165.94 E1602.17927
G0 F12000 X128.13 Y166.31
G1 F3180 X130.77 Y163.67 E1602.36574
G0 F12000 X131.00 Y164.00
G1 F3180 X128.32 Y166.68 E1602.55455
G0 F12000 X128.52 Y167.05
G1 F3180 X131.23 Y164.34 E1602.74568
G0 F12000 X131.46 Y164.67
G1 F3180 X128.72 Y167.41 E1602.93908
G0 F12000 X128.92 Y167.78
G1 F3180 X131.69 Y165.01 E1603.13480
G0 F12000 X131.93 Y165.34
G1 F3180 X129.12 Y168.15 E1603.33285
G0 F12000 X129.33 Y168.50
G1 F3180 X132.16 Y165.68 E1603.53231
G0 F12000 X132.39 Y166.01
G1 F3180 X129.58 Y168.82 E1603.73036
G0 F12000 X129.83 Y169.13
G1 F3180 X132.62 Y166.35 E1603.92706
G0 F12000 X132.85 Y166.68
G1 F3180 X130.08 Y169.45 E1604.12243
G0 F12000 X130.33 Y169.76
G1 F3180 X133.08 Y167.01 E1604.31649
G0 F12000 X133.31 Y167.35
G1 F3180 X130.58 Y170.08 E1604.50918
G0 F12000 X130.83 Y170.40
G1 F3180 X133.54 Y167.68 E1604.70049
G0 F12000 X133.77 Y168.02
G1 F3180 X131.08 Y170.71 E1604.89043
G0 F12000 X131.33 Y171.03
G1 F3180 X134.00 Y168.35 E1605.07906
G0 F12000 X134.24 Y168.69
G1 F3180 X131.58 Y171.34 E1605.26635
G0 F12000 X131.83 Y171.66
G1 F3180 X134.53 Y168.96 E1605.45656
G0 F12000 X134.83 Y169.23
G1 F3180 X132.08 Y171.97 E1605.65031
G0 F12000 X132.33 Y172.29
G1 F3180 X135.13 Y169.49 E1605.84758
G0 F12000 X135.43 Y169.76
G1 F3180 X132.58 Y172.60 E1606.04835
G0 F12000 X132.83 Y172.92
G1 F3180 X135.73 Y170.03 E1606.25261
G0 F12000 X136.03 Y170.29
G1 F3180 X133.08 Y173.24 E1606.46043
G0 F12000 X133.33 Y173.55
G1 F3180 X136.33 Y170.56 E1606.67178
G0 F12000 X136.63 Y170.82
G1 F3180 X133.59 Y173.86 E1606.88598
G0 F12000 X133.89 Y174.12
G1 F3180 X136.93 Y171.09 E1607.10001
G0 F12000 X137.23 Y171.35
G1 F3180 X134.19 Y174.38 E1607.31386
G0 F12000 X134.50 Y174.65
G1 F3180 X137.53 Y171.62 E1607.52761
G0 F12000 X137.83 Y171.88
G1 F3180 X134.80 Y174.91 E1607.74118
G0 F12000 X135.10 Y175.18
G1 F3180 X138.13 Y172.15 E1607.95461
G0 F12000 X138.43 Y172.42
G1 F3180 X135.45 Y175.40 E1608.16469
G0 F12000 X135.80 Y175.61
G1 F3180 X138.73 Y172.68 E1608.37103
G0 F12000 X139.05 Y172.92
G1 F3180 X136.15 Y175.82 E1608.57557
G0 F12000 X136.51 Y176.03
G1 F3180 X139.42 Y173.12 E1608.78145
G0 F12000 X139.79 Y173.31
G1 F3180 X136.86 Y176.25 E1608.98860
G0 F12000 X137.21 Y176.46
G1 F3180 X140.17 Y173.51 E1609.19706
G0 F12000 X140.54 Y173.70
G1 F3180 X137.56 Y176.67 E1609.40682
G0 F12000 X137.92 Y176.89
G1 F3180 X140.91 Y173.90 E1609.61789
G0 F12000 X141.28 Y174.09
G1 F3180 X138.27 Y177.10 E1609.83022
G0 F12000 X138.62 Y177.31
G1 F3180 X141.65 Y174.28 E1610.04394
G0 F12000 X142.02 Y174.48
G1 F3180 X138.97 Y177.53 E1610.25885
G0 F12000 X139.33 Y177.74
G1 F3180 X142.39 Y174.67 E1610.47510
G0 F12000 X142.76 Y174.87
G1 F3180 X139.70 Y177.93 E1610.69114
G0 F12000 X140.12 Y178.07
G1 F3180 X143.13 Y175.06 E1610.90337
G0 F12000 X143.50 Y175.26
G1 F3180 X140.55 Y178.21 E1611.11193
G0 F12000 X140.97 Y178.35
G1 F3180 X143.88 Y175.45 E1611.31668
G0 F12000 X144.25 Y175.65
G1 F3180 X141.40 Y178.50 E1611.51766
G0 F12000 X141.82 Y178.64
G1 F3180 X144.66 Y175.79 E1611.71829
G0 F12000 X145.12 Y175.91
G1 F3180 X142.25 Y178.78 E1611.92096
G0 F12000 X142.67 Y178.92
G1 F3180 X145.57 Y176.02 E1612.12571
G0 F12000 X146.03 Y176.13
G1 F3180 X143.09 Y179.06 E1612.33258
G0 F12000 X143.52 Y179.21
G1 F3180 X146.48 Y176.24 E1612.54156
G0 F12000 X146.93 Y176.35
G1 F3180 X143.94 Y179.35 E1612.75263
G0 F12000 X144.37 Y179.49
G1 F3180 X147.39 Y176.47 E1612.96581
G0 F12000 X147.84 Y176.58
G1 F3180 X144.79 Y179.63 E1613.18108
G0 F12000 X145.21 Y179.77
G1 F3180 X148.29 Y176.69 E1613.39842
G0 F12000 X148.75 Y176.80
G1 F3180 X145.64 Y179.91 E1613.61792
G0 F12000 X146.06 Y180.05
G1 F3180 X149.20 Y176.91 E1613.83950
G0 F12000 X149.66 Y177.03
G1 F3180 X146.49 Y180.20 E1614.06316
G0 F12000 X146.91 Y180.34
G1 F3180 X150.11 Y177.14 E1614.28887
G0 F12000 X150.60 Y177.22
G1 F3180 X147.38 Y180.43 E1614.51560
G0 F12000 X147.90 Y180.47
G1 F3180 X151.16 Y177.22 E1614.74547
G0 F12000 X151.73 Y177.22
G1 F3180 X148.43 Y180.52 E1614.97844
G0 F12000 X148.95 Y180.56
G1 F3180 X152.29 Y177.22 E1615.21452
G0 F12000 X152.86 Y177.22
G1 F3180 X149.47 Y180.61 E1615.45370
G0 F12000 X149.99 Y180.65
G1 F3180 X153.43 Y177.22 E1615.69599
G0 F12000 X153.99 Y177.22
G1 F3180 X150.51 Y180.70 E1615.94141
G0 F12000 X151.03 Y180.74
G1 F3180 X154.56 Y177.22 E1616.18995
G0 F12000 X155.12 Y177.22
G1 F3180 X151.56 Y180.78 E1616.44155
G0 F12000 X152.08 Y180.83
G1 F3180 X155.69 Y177.22 E1616.69629
G0 F12000 X156.25 Y177.22
G1 F3180 X152.60 Y180.87 E1616.95413
G0 F12000 X153.12 Y180.92
G1 F3180 X156.88 Y177.16 E1617.21924
G0 F12000 X157.63 Y176.97
G1 F3180 X153.64 Y180.96 E1617.50048
G0 F12000 X154.16 Y181.00
G1 F3180 X158.38 Y176.79 E1617.79787
G0 F12000 X159.13 Y176.60
G1 F3180 X154.69 Y181.05 E1618.11149
G0 F12000 X155.21 Y181.09
G1 F3180 X159.88 Y176.42 E1618.44119
G0 F12000 X161.94 Y180.01
G1 F3180 X181.61 Y160.34 E1619.82873
G0 F12000 X181.17 Y161.36
G1 F3180 X162.63 Y179.89 E1621.13634
G0 F12000 X163.32 Y179.77
G1 F3180 X180.72 Y162.37 E1622.36397
G0 F12000 X180.28 Y163.38
G1 F3180 X164.01 Y179.64 E1623.51169
G0 F12000 X164.77 Y179.45
G1 F3180 X179.83 Y164.39 E1624.57426
G0 F12000 X179.38 Y165.40
G1 F3180 X166.16 Y178.63 E1625.50749
G0 F12000 X167.70 Y177.65
G1 F3180 X178.94 Y166.41 E1626.30032
G0 F12000 X178.50 Y167.42
G1 F3180 X169.25 Y176.67 E1626.95268
G0 F12000 X170.79 Y175.69
G1 F3180 X175.91 Y170.57 E1627.31375
G0 F12000 X178.40 Y157.79
G0 X179.14 Y151.66
G0 X178.40 Y145.54
G0 X176.21 Y139.77
G0 X172.70 Y134.69
G0 X168.08 Y130.59
G0 X162.62 Y127.72
G0 X156.62 Y126.25
G0 X150.45 Y126.25
G0 X144.46 Y127.72
G0 X138.99 Y130.59
G0 X135.31 Y128.58
G1 F3180 X130.01 Y133.88 E1627.68748
G1 F1800 E1624.68748
G0 F12000 X147.96 Y181.87
;TYPE:SUPPORT
G1 F1800 E1627.68748
G1 F3180 X147.96 Y187.21 E1627.95394
G0 F12000 X147.96 Y187.05
G0 X150.59 Y186.73
G0 X150.63 Y186.89
G1 F3180 X150.63 Y182.09 E1628.19331
G0 F12000 X150.62 Y182.25
G0 X153.28 Y182.47
G0 X153.29 Y182.32
G1 F3180 X153.29 Y186.17 E1628.38569
G0 F12000 X153.26 Y186.02
G0 X155.92 Y185.35
G0 X155.96 Y185.51
G1 F3180 X155.96 Y182.48 E1628.53686
G0 F12000 X155.99 Y182.64
G0 X158.48 Y182.12
G0 X158.63 Y182.04
G1 F3180 X158.63 Y184.41 E1628.65530
G1 F1800 E1625.65530
G0 F12000 X155.96 Y175.84
G1 F1800 E1628.65530
G1 F3180 X155.96 Y127.48 E1631.06769
G0 F12000 X155.96 Y127.64
G0 X153.29 Y127.64
G0 X153.29 Y127.48
G1 F3180 X153.29 Y175.84 E1633.48008
G0 F12000 X153.29 Y175.68
G0 X150.63 Y175.68
G0 X150.63 Y175.84
G1 F3180 X150.63 Y127.48 E1635.89247
G0 F12000 X150.63 Y127.64
G0 X148.00 Y128.29
G0 X147.96 Y128.13
G1 F3180 X147.96 Y175.19 E1638.23995
G0 F12000 X148.00 Y175.03
G0 X145.34 Y174.38
G0 X145.30 Y174.53
G1 F3180 X145.30 Y128.79 E1640.52198
G0 F12000 X145.33 Y128.95
G0 X142.71 Y130.22
G0 X142.63 Y130.08
G1 F3180 X142.63 Y173.24 E1642.67539
G0 F12000 X142.71 Y173.10
G0 X140.04 Y171.70
G0 X139.97 Y171.84
G1 F3180 X139.97 Y131.48 E1644.68911
G0 F12000 X140.04 Y131.62
G0 X137.40 Y133.87
G0 X137.30 Y133.75
G1 F3180 X137.30 Y169.58 E1646.47668
G0 F12000 X137.41 Y169.46
G0 X134.76 Y166.75
G0 X134.63 Y166.84
G1 F3180 X134.63 Y136.49 E1647.99064
G0 F12000 X134.76 Y136.58
G0 X132.11 Y140.42
G0 X131.97 Y140.36
G1 F3180 X131.97 Y162.97 E1649.11876
G0 F12000 X132.12 Y162.91
G0 X129.46 Y152.62
G0 X129.30 Y152.64
G1 F3180 X129.30 Y150.69 E1649.21590
G0 F12000 X129.46 Y150.71
G0 X158.59 Y128.17
G0 X158.63 Y128.02
G1 F3180 X158.63 Y175.31 E1651.57536
G0 F12000 X158.59 Y175.15
G0 X161.26 Y174.50
G0 X161.29 Y174.65
G1 F3180 X161.29 Y128.67 E1653.86926
G0 F12000 X161.25 Y128.83
G0 X163.88 Y129.97
G0 X163.96 Y129.83
G1 F3180 X163.96 Y173.50 E1656.04801
G0 F12000 X163.88 Y173.36
G0 X166.55 Y171.96
G0 X166.62 Y172.10
G1 F3180 X166.62 Y131.23 E1658.08707
G0 F12000 X166.55 Y131.37
G0 X169.19 Y133.44
G0 X169.29 Y133.32
G1 F3180 X169.29 Y170.01 E1659.91740
G0 F12000 X169.19 Y169.89
G0 X171.83 Y167.45
G0 X171.96 Y167.54
G1 F3180 X171.96 Y135.79 E1661.50131
G0 F12000 X171.83 Y135.88
G0 X174.49 Y139.74
G0 X174.62 Y139.65
G1 F3180 X174.62 Y163.68 E1662.69987
G0 F12000 X174.49 Y163.58
G0 X177.13 Y156.61
G0 X177.29 Y156.63
G1 F3180 X177.29 Y146.69 E1663.19568
G1 F1800 E1660.19568
G0 F12000 X129.30 Y170.69
G1 F1800 E1663.19568
G1 F3180 X129.30 Y173.97 E1663.35912
G0 F12000 X129.37 Y173.82
G0 X126.71 Y172.39
G0 X126.64 Y172.53
G1 F3180 X126.64 Y166.45 E1663.66260
G0 F12000 X126.49 Y166.53
G0 X124.01 Y164.47
G0 X123.97 Y164.32
G1 F3180 X123.97 Y170.10 E1663.95112
G0 F12000 X124.04 Y169.96
G0 X121.42 Y167.35
G0 X121.30 Y167.47
G1 F3180 X121.30 Y167.03 E1663.97277
G1 F1800 E1660.97277
G0 F12000 X134.63 Y126.24
G1 F1800 E1663.97277
G1 F3180 X134.63 Y121.35 E1664.21668
G0 F12000 X134.68 Y121.51
G0 X137.34 Y120.83
G0 X137.30 Y120.68
G1 F3180 X137.30 Y125.61 E1664.46269
G0 F12000 X137.22 Y125.47
G0 X139.88 Y123.83
G0 X139.97 Y123.97
G1 F3180 X139.97 Y120.01 E1664.65986
G0 F12000 X140.00 Y120.17
G0 X142.63 Y120.05
G0 X142.63 Y119.89
G1 F3180 X142.63 Y122.84 E1664.80724
G1 F1800 E1661.80724
G0 F12000 X163.96 Y122.79
G1 F1800 E1664.80724
G1 F3180 X163.96 Y120.58 E1664.91754
G1 F1800 E1661.91754
G0 F12000 X166.62 Y117.91
G1 F1800 E1664.91754
G1 F3180 X166.62 Y124.04 E1665.22337
G0 F12000 X166.69 Y123.90
G0 X169.36 Y125.15
G0 X169.29 Y125.29
G1 F3180 X169.29 Y120.41 E1665.46723
G0 F12000 X169.18 Y120.52
G0 X171.84 Y122.98
G0 X171.96 Y122.87
G1 F3180 X171.96 Y126.96 E1665.67103
G0 F12000 X172.06 Y126.83
G0 X174.56 Y127.41
