;-- START GCODE --
;Sliced for Type A Machines Series 1
;Sliced at: Thu 15-10-2015 14:29:24
;Basic settings: Layer height: 0.2 Walls: 0.8 Fill: 15
;Print Speed: 70 Support: 0
;Retraction Speed: 40 Retraction Distance: 1.2
;Print time: #P_TIME#
;Filament used: #F_AMNT#m #F_WGHT#g
;Filament cost: #F_COST#
M106 S255	 ;start with the fan on
G21        ;metric values
G90        ;absolute positioning
M106 S255    ;start with the fan on
G28     ;move to endstops
G29		;allows for auto-levelling
G1 X150 Y5  Z15.0 F12000 ;center and move the platform down 15mm
M109 S220 ;Heat To temp
G92 E0                  ;zero the extruded length
G1 F200 E30              ;extrude 30mm of feed stock
G92 E0                  ;zero the extruded length again
G1 X175 Y25  Z0 F12000 ;remove bugger
G1 X220 F12000 ;remove bugger
G1 X150 Y150  Z15 F12000 ;recenter and begin
G1 F12000

;Layer count: 205
;LAYER:0
M106 S255
G0 F12000 X134.35 Y122.91 Z0.30
;TYPE:SKIRT
G1 F2700 X140.34 Y116.92 E0.42263
G1 X140.74 Y116.72 E0.44487
G1 X140.94 Y116.52 E0.45898
G1 X141.74 Y116.12 E0.50365
G1 X141.94 Y115.93 E0.51762
G1 X144.17 Y114.81 E0.64225
G1 X145.37 Y114.41 E0.70552
G1 X145.77 Y114.21 E0.72776
G1 X148.32 Y113.36 E0.86177
G1 X157.28 Y113.36 E1.30859
G1 X160.43 Y114.41 E1.47415
G1 X160.82 Y114.61 E1.49639
G1 X161.43 Y114.81 E1.52821
G1 X168.53 Y118.36 E1.92431
G1 X168.16 Y120.02 E2.00935
G1 X171.05 Y122.91 E2.21319
G1 X171.05 Y123.31 E2.23314
G1 X171.65 Y123.91 E2.27548
G1 X171.65 Y124.31 E2.29543
G1 X172.25 Y124.91 E2.33777
G1 X172.25 Y125.31 E2.35772
G1 X172.45 Y125.51 E2.37183
G1 X172.45 Y125.91 E2.39179
G1 X172.65 Y126.11 E2.40590
G1 X172.65 Y126.91 E2.44581
G1 X172.85 Y127.11 E2.45993
G1 X172.85 Y127.51 E2.47988
G1 X173.05 Y127.71 E2.49399
G1 X173.05 Y139.40 E3.07721
G1 X172.85 Y139.60 E3.09132
G1 X172.85 Y140.00 E3.11128
G1 X172.65 Y140.20 E3.12539
G1 X172.65 Y141.00 E3.16530
G1 X172.45 Y141.20 E3.17941
G1 X172.45 Y141.60 E3.19937
G1 X172.25 Y141.80 E3.21348
G1 X172.25 Y142.20 E3.23343
G1 X171.65 Y142.80 E3.27577
G1 X171.65 Y143.20 E3.29572
G1 X171.05 Y143.80 E3.33806
G1 X171.05 Y144.00 E3.34803
G1 X170.85 Y144.20 E3.36215
G1 X170.85 Y144.40 E3.37212
G1 X167.65 Y147.60 E3.59787
G1 X167.65 Y160.80 E4.25617
G1 X167.25 Y161.00 E4.27848
G1 X167.25 Y164.56 E4.45614
G1 X137.95 Y164.56 E5.91792
G1 X137.95 Y161.00 E6.09558
G1 X137.55 Y160.80 E6.11789
G1 X137.55 Y147.40 E6.78612
G1 X134.75 Y144.60 E6.98368
G1 X134.75 Y144.40 E6.99365
G1 X133.95 Y143.60 E7.05010
G1 X133.95 Y143.40 E7.06008
G1 X133.75 Y143.20 E7.07419
G1 X133.75 Y143.00 E7.08416
G1 X133.35 Y142.60 E7.11239
G1 X133.35 Y142.40 E7.12236
G1 X133.15 Y142.20 E7.13648
G1 X133.15 Y141.80 E7.15643
G1 X132.95 Y141.60 E7.17054
G1 X132.95 Y141.20 E7.19050
G1 X132.75 Y141.00 E7.20461
G1 X132.75 Y140.60 E7.22457
G1 X132.55 Y140.40 E7.23868
G1 X132.55 Y140.20 E7.24866
G1 X132.35 Y140.00 E7.26277
G1 X132.35 Y127.11 E7.90585
G1 X132.55 Y126.91 E7.91996
G1 X132.55 Y126.51 E7.93992
G1 X132.75 Y126.31 E7.95403
G1 X132.75 Y126.11 E7.96401
G1 X132.95 Y125.91 E7.97812
G1 X132.95 Y125.51 E7.99807
G1 X133.15 Y125.31 E8.01219
G1 X133.15 Y124.91 E8.03214
G1 X133.35 Y124.71 E8.04625
G1 X133.35 Y124.51 E8.05623
G1 X133.75 Y124.11 E8.08445
G1 X133.75 Y123.91 E8.09443
G1 X133.95 Y123.71 E8.10854
G1 X133.95 Y123.51 E8.11852
G1 X134.35 Y123.11 E8.14674
G1 X134.35 Y122.91 E8.15672
G0 F12000 X134.75 Y123.08
G1 F2700 X140.58 Y117.25 E8.56785
G1 X140.97 Y117.05 E8.59009
G1 X141.18 Y116.85 E8.60420
G1 X141.97 Y116.45 E8.64871
G1 X142.17 Y116.25 E8.66286
G1 X144.32 Y115.18 E8.78279
G1 X145.53 Y114.78 E8.84611
G1 X145.93 Y114.58 E8.86831
G1 X148.39 Y113.76 E8.99768
G1 X157.21 Y113.76 E9.43801
G1 X160.27 Y114.78 E9.59893
G1 X160.67 Y114.98 E9.62129
G1 X161.28 Y115.18 E9.65297
G1 X168.07 Y118.58 E10.03209
G1 X167.72 Y120.15 E10.11253
G1 X170.65 Y123.08 E10.31905
G1 X170.65 Y123.48 E10.33901
G1 X171.25 Y124.08 E10.38134
G1 X171.25 Y124.48 E10.40129
G1 X171.85 Y125.08 E10.44363
G1 X171.85 Y125.48 E10.46358
G1 X172.05 Y125.68 E10.47770
G1 X172.05 Y126.08 E10.49765
G1 X172.25 Y126.28 E10.51176
G1 X172.25 Y127.08 E10.55167
G1 X172.45 Y127.28 E10.56579
G1 X172.45 Y127.68 E10.58574
G1 X172.65 Y127.88 E10.59985
G1 X172.65 Y139.24 E11.16651
G1 X172.45 Y139.44 E11.18062
G1 X172.45 Y139.84 E11.20057
G1 X172.25 Y140.04 E11.21468
G1 X172.25 Y140.84 E11.25460
G1 X172.05 Y141.04 E11.26871
G1 X172.05 Y141.44 E11.28866
G1 X171.85 Y141.64 E11.30277
G1 X171.85 Y142.04 E11.32273
G1 X171.25 Y142.64 E11.36506
G1 X171.25 Y143.04 E11.38502
G1 X170.65 Y143.64 E11.42735
G1 X170.65 Y143.84 E11.43733
G1 X170.45 Y144.04 E11.45144
G1 X170.45 Y144.24 E11.46142
G1 X167.25 Y147.44 E11.68720
G1 X167.25 Y160.55 E12.34136
G1 X166.85 Y160.75 E12.36367
G1 X166.85 Y164.16 E12.53374
G1 X138.35 Y164.16 E13.95562
G1 X138.35 Y160.75 E14.12569
G1 X137.95 Y160.55 E14.14800
G1 X137.95 Y147.24 E14.81214
G1 X135.15 Y144.44 E15.00970
G1 X135.15 Y144.24 E15.01967
G1 X134.35 Y143.44 E15.07612
G1 X134.35 Y143.24 E15.08610
G1 X134.15 Y143.04 E15.10021
G1 X134.15 Y142.84 E15.11019
G1 X133.75 Y142.44 E15.13841
G1 X133.75 Y142.24 E15.14839
G1 X133.55 Y142.04 E15.16250
G1 X133.55 Y141.64 E15.18245
G1 X133.35 Y141.44 E15.19656
G1 X133.35 Y141.04 E15.21652
G1 X133.15 Y140.84 E15.23063
G1 X133.15 Y140.44 E15.25059
G1 X132.95 Y140.24 E15.26470
G1 X132.95 Y140.04 E15.27468
G1 X132.75 Y139.84 E15.28879
G1 X132.75 Y127.28 E15.91531
G1 X132.95 Y127.08 E15.92942
G1 X132.95 Y126.68 E15.94938
G1 X133.15 Y126.48 E15.96349
G1 X133.15 Y126.28 E15.97347
G1 X133.35 Y126.08 E15.98758
G1 X133.35 Y125.68 E16.00753
G1 X133.55 Y125.48 E16.02164
G1 X133.55 Y125.08 E16.04160
G1 X133.75 Y124.88 E16.05571
G1 X133.75 Y124.68 E16.06569
G1 X134.15 Y124.28 E16.09391
G1 X134.15 Y124.08 E16.10389
G1 X134.35 Y123.88 E16.11800
G1 X134.35 Y123.68 E16.12798
G1 X134.75 Y123.28 E16.15620
G1 X134.75 Y123.08 E16.16618
G0 F12000 X135.15 Y123.25
G1 F2700 X140.81 Y117.58 E16.56584
G1 X141.21 Y117.38 E16.58813
G1 X141.41 Y117.18 E16.60217
G1 X142.21 Y116.78 E16.64668
G1 X142.41 Y116.58 E16.66079
G1 X144.48 Y115.55 E16.77614
G1 X145.69 Y115.15 E16.83963
G1 X146.08 Y114.95 E16.86160
G1 X148.45 Y114.16 E16.98635
G1 X157.15 Y114.16 E17.42020
G1 X160.12 Y115.15 E17.57650
G1 X160.51 Y115.35 E17.59854
G1 X161.12 Y115.55 E17.63052
G1 X167.61 Y118.80 E17.99264
G1 X167.28 Y120.28 E18.06848
G1 X170.25 Y123.25 E18.27768
G1 X170.25 Y123.64 E18.29763
G1 X170.85 Y124.25 E18.33997
G1 X170.85 Y124.64 E18.35992
G1 X171.45 Y125.25 E18.40226
G1 X171.45 Y125.64 E18.42221
G1 X171.65 Y125.84 E18.43632
G1 X171.65 Y126.25 E18.45628
G1 X171.85 Y126.44 E18.47039
G1 X171.85 Y127.25 E18.51030
G1 X172.05 Y127.44 E18.52441
G1 X172.05 Y127.84 E18.54437
G1 X172.25 Y128.04 E18.55848
G1 X172.25 Y139.07 E19.10857
G1 X172.05 Y139.27 E19.12268
G1 X172.05 Y139.67 E19.14264
G1 X171.85 Y139.87 E19.15675
G1 X171.85 Y140.67 E19.19666
G1 X171.65 Y140.87 E19.21077
G1 X171.65 Y141.27 E19.23073
G1 X171.45 Y141.47 E19.24484
G1 X171.45 Y141.87 E19.26480
G1 X170.85 Y142.47 E19.30713
G1 X170.85 Y142.87 E19.32708
G1 X170.25 Y143.47 E19.36942
G1 X170.25 Y143.67 E19.37940
G1 X170.05 Y143.87 E19.39351
G1 X170.05 Y144.07 E19.40349
G1 X166.85 Y147.27 E19.62930
G1 X166.85 Y160.30 E20.27937
G1 X166.45 Y160.50 E20.30168
G1 X166.45 Y163.76 E20.46412
G1 X138.75 Y163.76 E21.84608
G1 X138.75 Y160.50 E22.00852
G1 X138.35 Y160.30 E22.03083
G1 X138.35 Y147.07 E22.69093
G1 X135.55 Y144.27 E22.88849
G1 X135.55 Y144.07 E22.89846
G1 X134.75 Y143.27 E22.95491
G1 X134.75 Y143.07 E22.96489
G1 X134.55 Y142.87 E22.97900
G1 X134.55 Y142.67 E22.98898
G1 X134.15 Y142.27 E23.01720
G1 X134.15 Y142.07 E23.02718
G1 X133.95 Y141.87 E23.04129
G1 X133.95 Y141.47 E23.06124
G1 X133.75 Y141.27 E23.07535
G1 X133.75 Y140.87 E23.09531
G1 X133.55 Y140.67 E23.10942
G1 X133.55 Y140.27 E23.12938
G1 X133.35 Y140.07 E23.14349
G1 X133.35 Y139.87 E23.15347
G1 X133.15 Y139.67 E23.16758
G1 X133.15 Y127.44 E23.77754
G1 X133.35 Y127.25 E23.79165
G1 X133.35 Y126.84 E23.81160
G1 X133.55 Y126.64 E23.82571
G1 X133.55 Y126.44 E23.83569
G1 X133.75 Y126.25 E23.84980
G1 X133.75 Y125.84 E23.86976
G1 X133.95 Y125.64 E23.88387
G1 X133.95 Y125.25 E23.90383
G1 X134.15 Y125.05 E23.91794
G1 X134.15 Y124.84 E23.92792
G1 X134.55 Y124.44 E23.95614
G1 X134.55 Y124.25 E23.96612
G1 X134.75 Y124.05 E23.98023
G1 X134.75 Y123.84 E23.99020
G1 X135.15 Y123.44 E24.01843
G1 X135.15 Y123.25 E24.02840
G0 F12000 X135.55 Y123.41
G1 F2700 X141.05 Y117.91 E24.41653
G1 X141.45 Y117.71 E24.43884
G1 X141.65 Y117.51 E24.45285
G1 X142.45 Y117.11 E24.49736
G1 X142.65 Y116.91 E24.51147
G1 X144.63 Y115.92 E24.62213
G1 X145.83 Y115.52 E24.68540
G1 X146.23 Y115.32 E24.70767
G1 X148.52 Y114.56 E24.82773
G1 X157.08 Y114.56 E25.25509
G1 X159.97 Y115.52 E25.40670
G1 X160.36 Y115.72 E25.42894
G1 X160.97 Y115.92 E25.46072
G1 X167.16 Y119.01 E25.80588
G1 X166.85 Y120.41 E25.87708
G1 X169.85 Y123.41 E26.08895
G1 X169.85 Y123.81 E26.10891
G1 X170.45 Y124.41 E26.15124
G1 X170.45 Y124.81 E26.17120
G1 X171.05 Y125.41 E26.21353
G1 X171.05 Y125.81 E26.23349
G1 X171.25 Y126.01 E26.24760
G1 X171.25 Y126.41 E26.26756
G1 X171.45 Y126.61 E26.28167
G1 X171.45 Y127.41 E26.32158
G1 X171.65 Y127.61 E26.33569
G1 X171.65 Y128.01 E26.35565
G1 X171.85 Y128.21 E26.36976
G1 X171.85 Y138.91 E26.90338
G1 X171.65 Y139.11 E26.91749
G1 X171.65 Y139.51 E26.93745
G1 X171.45 Y139.71 E26.95156
G1 X171.45 Y140.51 E26.99147
G1 X171.25 Y140.71 E27.00558
G1 X171.25 Y141.11 E27.02554
G1 X171.05 Y141.31 E27.03965
G1 X171.05 Y141.71 E27.05961
G1 X170.45 Y142.31 E27.10194
G1 X170.45 Y142.71 E27.12190
G1 X169.85 Y143.31 E27.16423
G1 X169.85 Y143.51 E27.17421
G1 X169.65 Y143.71 E27.18832
G1 X169.65 Y143.91 E27.19830
G1 X166.45 Y147.11 E27.42407
G1 X166.45 Y160.06 E28.07010
G1 X166.05 Y160.25 E28.09241
G1 X166.05 Y163.36 E28.24722
G1 X139.15 Y163.36 E29.58927
G1 X139.15 Y160.25 E29.74408
G1 X138.75 Y160.06 E29.76639
G1 X138.75 Y146.91 E30.42240
G1 X135.95 Y144.11 E30.61995
G1 X135.95 Y143.91 E30.62993
G1 X135.15 Y143.11 E30.68637
G1 X135.15 Y142.91 E30.69635
G1 X134.95 Y142.71 E30.71046
G1 X134.95 Y142.51 E30.72044
G1 X134.55 Y142.11 E30.74866
G1 X134.55 Y141.91 E30.75864
G1 X134.35 Y141.71 E30.77275
G1 X134.35 Y141.31 E30.79271
G1 X134.15 Y141.11 E30.80682
G1 X134.15 Y140.71 E30.82678
G1 X133.95 Y140.51 E30.84089
G1 X133.95 Y140.11 E30.86084
G1 X133.75 Y139.91 E30.87495
G1 X133.75 Y139.71 E30.88493
G1 X133.55 Y139.51 E30.89904
G1 X133.55 Y127.61 E31.49254
G1 X133.75 Y127.41 E31.50665
G1 X133.75 Y127.01 E31.52660
G1 X133.95 Y126.81 E31.54072
G1 X133.95 Y126.61 E31.55069
G1 X134.15 Y126.41 E31.56481
G1 X134.15 Y126.01 E31.58476
G1 X134.35 Y125.81 E31.59887
G1 X134.35 Y125.41 E31.61883
G1 X134.55 Y125.21 E31.63294
G1 X134.55 Y125.01 E31.64292
G1 X134.95 Y124.61 E31.67114
G1 X134.95 Y124.41 E31.68112
G1 X135.15 Y124.21 E31.69523
G1 X135.15 Y124.01 E31.70521
G1 X135.55 Y123.61 E31.73343
G1 X135.55 Y123.41 E31.74341
G0 F12000 X135.95 Y123.58
G1 F2700 X141.29 Y118.24 E32.12003
G1 X141.68 Y118.04 E32.14216
G1 X141.88 Y117.84 E32.15635
G1 X142.69 Y117.44 E32.20101
G1 X142.88 Y117.24 E32.21498
G1 X144.78 Y116.29 E32.32103
G1 X145.99 Y115.89 E32.38436
G1 X146.39 Y115.69 E32.40651
G1 X148.58 Y114.96 E32.52194
G1 X157.02 Y114.96 E32.94281
G1 X159.81 Y115.89 E33.08979
G1 X160.21 Y116.09 E33.11212
G1 X160.81 Y116.29 E33.14378
G1 X166.70 Y119.23 E33.47192
G1 X166.41 Y120.53 E33.53851
G1 X169.45 Y123.58 E33.75307
G1 X169.45 Y123.98 E33.77302
G1 X170.05 Y124.58 E33.81535
G1 X170.05 Y124.98 E33.83531
G1 X170.65 Y125.58 E33.87764
G1 X170.65 Y125.98 E33.89760
G1 X170.85 Y126.18 E33.91171
G1 X170.85 Y126.58 E33.93167
G1 X171.05 Y126.78 E33.94578
G1 X171.05 Y127.58 E33.98569
G1 X171.25 Y127.78 E33.99980
G1 X171.25 Y128.18 E34.01976
G1 X171.45 Y128.38 E34.03387
G1 X171.45 Y138.74 E34.55093
G1 X171.25 Y138.94 E34.56504
G1 X171.25 Y139.34 E34.58500
G1 X171.05 Y139.54 E34.59911
G1 X171.05 Y140.34 E34.63902
G1 X170.85 Y140.54 E34.65313
G1 X170.85 Y140.94 E34.67309
G1 X170.65 Y141.14 E34.68720
G1 X170.65 Y141.54 E34.70716
G1 X170.05 Y142.14 E34.74949
G1 X170.05 Y142.54 E34.76944
G1 X169.45 Y143.14 E34.81178
G1 X169.45 Y143.34 E34.82176
G1 X169.25 Y143.54 E34.83587
G1 X169.25 Y143.74 E34.84584
G1 X166.05 Y146.94 E35.07162
G1 X166.05 Y159.81 E35.71361
G1 X165.65 Y160.01 E35.73592
G1 X165.65 Y162.96 E35.88310
G1 X139.55 Y162.96 E37.18523
G1 X139.55 Y160.01 E37.33241
G1 X139.15 Y159.81 E37.35472
G1 X139.15 Y146.74 E38.00668
G1 X136.35 Y143.94 E38.20424
G1 X136.35 Y143.74 E38.21422
G1 X135.55 Y142.94 E38.27066
G1 X135.55 Y142.74 E38.28064
G1 X135.35 Y142.54 E38.29475
G1 X135.35 Y142.34 E38.30473
G1 X134.95 Y141.94 E38.33295
G1 X134.95 Y141.74 E38.34293
G1 X134.75 Y141.54 E38.35704
G1 X134.75 Y141.14 E38.37700
G1 X134.55 Y140.94 E38.39111
G1 X134.55 Y140.54 E38.41106
G1 X134.35 Y140.34 E38.42517
G1 X134.35 Y139.94 E38.44513
G1 X134.15 Y139.74 E38.45924
G1 X134.15 Y139.54 E38.46922
G1 X133.95 Y139.34 E38.48333
G1 X133.95 Y127.78 E39.06026
G1 X134.15 Y127.58 E39.07437
G1 X134.15 Y127.18 E39.09433
G1 X134.35 Y126.98 E39.10844
G1 X134.35 Y126.78 E39.11842
G1 X134.55 Y126.58 E39.13253
G1 X134.55 Y126.18 E39.15248
G1 X134.75 Y125.98 E39.16660
G1 X134.75 Y125.58 E39.18655
G1 X134.95 Y125.38 E39.20066
G1 X134.95 Y125.18 E39.21064
G1 X135.35 Y124.78 E39.23886
G1 X135.35 Y124.58 E39.24884
G1 X135.55 Y124.38 E39.26295
G1 X135.55 Y124.18 E39.27293
G1 X135.95 Y123.78 E39.30115
G1 X135.95 Y123.58 E39.31113
G0 F12000 X136.35 Y123.74
G1 F2700 X141.52 Y118.57 E39.67622
G1 X141.92 Y118.37 E39.69846
G1 X142.12 Y118.17 E39.71257
G1 X142.92 Y117.77 E39.75713
G1 X143.12 Y117.57 E39.77124
G1 X144.94 Y116.66 E39.87263
G1 X146.14 Y116.26 E39.93575
G1 X146.54 Y116.06 E39.95810
G1 X148.65 Y115.36 E40.06886
G1 X156.95 Y115.36 E40.48324
G1 X159.66 Y116.26 E40.62555
G1 X160.06 Y116.46 E40.64768
G1 X160.66 Y116.66 E40.67957
G1 X166.24 Y119.45 E40.99073
G1 X165.97 Y120.66 E41.05262
G1 X169.05 Y123.74 E41.26989
G1 X169.05 Y124.14 E41.28985
G1 X169.65 Y124.74 E41.33218
G1 X169.65 Y125.14 E41.35214
G1 X170.25 Y125.74 E41.39447
G1 X170.25 Y126.14 E41.41443
G1 X170.45 Y126.34 E41.42854
G1 X170.45 Y126.74 E41.44849
G1 X170.65 Y126.94 E41.46260
G1 X170.65 Y127.74 E41.50252
G1 X170.85 Y127.94 E41.51663
G1 X170.85 Y128.34 E41.53658
G1 X171.05 Y128.54 E41.55069
G1 X171.05 Y138.57 E42.05119
G1 X170.85 Y138.77 E42.06530
G1 X170.85 Y139.17 E42.08526
G1 X170.65 Y139.37 E42.09937
G1 X170.65 Y140.17 E42.13928
G1 X170.45 Y140.37 E42.15339
G1 X170.45 Y140.77 E42.17335
G1 X170.25 Y140.97 E42.18746
G1 X170.25 Y141.37 E42.20742
G1 X169.65 Y141.97 E42.24975
G1 X169.65 Y142.37 E42.26971
G1 X169.05 Y142.97 E42.31204
G1 X169.05 Y143.17 E42.32202
G1 X168.85 Y143.37 E42.33613
G1 X168.85 Y143.57 E42.34611
G1 X165.65 Y146.78 E42.57192
G1 X165.65 Y159.56 E43.20982
G1 X165.25 Y159.76 E43.23213
G1 X165.25 Y162.56 E43.37167
G1 X139.95 Y162.56 E44.63389
G1 X139.95 Y159.76 E44.77344
G1 X139.55 Y159.56 E44.79575
G1 X139.55 Y146.57 E45.44367
G1 X136.75 Y143.77 E45.64123
G1 X136.75 Y143.57 E45.65120
G1 X135.95 Y142.77 E45.70765
G1 X135.95 Y142.57 E45.71763
G1 X135.75 Y142.37 E45.73174
G1 X135.75 Y142.17 E45.74172
G1 X135.35 Y141.77 E45.76994
G1 X135.35 Y141.57 E45.77992
G1 X135.15 Y141.37 E45.79403
G1 X135.15 Y140.97 E45.81398
G1 X134.95 Y140.77 E45.82809
G1 X134.95 Y140.37 E45.84805
G1 X134.75 Y140.17 E45.86216
G1 X134.75 Y139.77 E45.88212
G1 X134.55 Y139.57 E45.89623
G1 X134.55 Y139.37 E45.90621
G1 X134.35 Y139.17 E45.92032
G1 X134.35 Y127.94 E46.48068
G1 X134.55 Y127.74 E46.49480
G1 X134.55 Y127.34 E46.51475
G1 X134.75 Y127.14 E46.52886
G1 X134.75 Y126.94 E46.53884
G1 X134.95 Y126.74 E46.55295
G1 X134.95 Y126.34 E46.57291
G1 X135.15 Y126.14 E46.58702
G1 X135.15 Y125.74 E46.60697
G1 X135.35 Y125.54 E46.62109
G1 X135.35 Y125.34 E46.63106
G1 X135.75 Y124.94 E46.65929
G1 X135.75 Y124.74 E46.66926
G1 X135.95 Y124.54 E46.68337
G1 X135.95 Y124.34 E46.69335
G1 X136.35 Y123.94 E46.72158
G1 X136.35 Y123.74 E46.73155
G0 F12000 X136.75 Y123.91
G1 F2700 X141.76 Y118.90 E47.08511
G1 X142.16 Y118.70 E47.10735
G1 X142.36 Y118.50 E47.12146
G1 X143.16 Y118.10 E47.16602
G1 X143.36 Y117.90 E47.18013
G1 X145.09 Y117.03 E47.27685
G1 X146.29 Y116.63 E47.34007
G1 X146.69 Y116.43 E47.36233
G1 X148.71 Y115.76 E47.46845
G1 X156.89 Y115.76 E47.87635
G1 X159.50 Y116.63 E48.01402
G1 X159.91 Y116.83 E48.03640
G1 X160.51 Y117.03 E48.06801
G1 X165.78 Y119.67 E48.36219
G1 X165.53 Y120.79 E48.41948
G1 X168.65 Y123.91 E48.63940
G1 X168.65 Y124.31 E48.65936
G1 X169.25 Y124.91 E48.70169
G1 X169.25 Y125.31 E48.72165
G1 X169.85 Y125.91 E48.76398
G1 X169.85 Y126.31 E48.78394
G1 X170.05 Y126.51 E48.79805
G1 X170.05 Y126.91 E48.81800
G1 X170.25 Y127.11 E48.83211
G1 X170.25 Y127.91 E48.87203
G1 X170.45 Y128.11 E48.88614
G1 X170.45 Y128.51 E48.90609
G1 X170.65 Y128.71 E48.92021
G1 X170.65 Y138.41 E49.40424
G1 X170.45 Y138.61 E49.41835
G1 X170.45 Y139.01 E49.43831
G1 X170.25 Y139.21 E49.45242
G1 X170.25 Y140.01 E49.49233
G1 X170.05 Y140.21 E49.50644
G1 X170.05 Y140.61 E49.52640
G1 X169.85 Y140.81 E49.54051
G1 X169.85 Y141.21 E49.56046
G1 X169.25 Y141.81 E49.60280
G1 X169.25 Y142.21 E49.62275
G1 X168.65 Y142.81 E49.66509
G1 X168.65 Y143.01 E49.67507
G1 X168.45 Y143.21 E49.68918
G1 X168.45 Y143.41 E49.69915
G1 X165.25 Y146.61 E49.92493
G1 X165.25 Y159.31 E50.55874
G1 X164.85 Y159.51 E50.58105
G1 X164.85 Y162.16 E50.71301
G1 X140.35 Y162.16 E51.93532
G1 X140.35 Y159.51 E52.06728
G1 X139.95 Y159.31 E52.08959
G1 X139.95 Y146.41 E52.73337
G1 X137.15 Y143.61 E52.93093
G1 X137.15 Y143.41 E52.94091
G1 X136.35 Y142.61 E52.99735
G1 X136.35 Y142.41 E53.00733
G1 X136.15 Y142.21 E53.02144
G1 X136.15 Y142.01 E53.03142
G1 X135.75 Y141.61 E53.05964
G1 X135.75 Y141.41 E53.06962
G1 X135.55 Y141.21 E53.08373
G1 X135.55 Y140.81 E53.10368
G1 X135.35 Y140.61 E53.11780
G1 X135.35 Y140.21 E53.13775
G1 X135.15 Y140.01 E53.15186
G1 X135.15 Y139.61 E53.17182
G1 X134.95 Y139.41 E53.18593
G1 X134.95 Y139.21 E53.19591
G1 X134.75 Y139.01 E53.21002
G1 X134.75 Y128.11 E53.75392
G1 X134.95 Y127.91 E53.76803
G1 X134.95 Y127.51 E53.78799
G1 X135.15 Y127.31 E53.80210
G1 X135.15 Y127.11 E53.81208
G1 X135.35 Y126.91 E53.82619
G1 X135.35 Y126.51 E53.84615
G1 X135.55 Y126.31 E53.86026
G1 X135.55 Y125.91 E53.88021
G1 X135.75 Y125.71 E53.89432
G1 X135.75 Y125.51 E53.90430
G1 X136.15 Y125.11 E53.93252
G1 X136.15 Y124.91 E53.94250
G1 X136.35 Y124.71 E53.95661
G1 X136.35 Y124.51 E53.96659
G1 X136.75 Y124.11 E53.99481
G1 X136.75 Y123.91 E54.00479
G0 F12000 X137.15 Y124.07
G1 F2700 X142.00 Y119.22 E54.34684
G1 X142.40 Y119.03 E54.36904
G1 X142.60 Y118.83 E54.38319
G1 X143.39 Y118.43 E54.42770
G1 X143.59 Y118.23 E54.44185
G1 X145.25 Y117.40 E54.53393
G1 X146.45 Y117.00 E54.59738
G1 X146.85 Y116.80 E54.61940
G1 X148.78 Y116.16 E54.72085
G1 X156.82 Y116.16 E55.12226
G1 X159.35 Y117.00 E55.25526
G1 X159.75 Y117.20 E55.27739
G1 X160.35 Y117.40 E55.30923
G1 X165.32 Y119.89 E55.58645
G1 X165.09 Y120.92 E55.63914
G1 X168.25 Y124.07 E55.86175
G1 X168.25 Y124.47 E55.88170
G1 X168.85 Y125.07 E55.92403
G1 X168.85 Y125.47 E55.94399
G1 X169.45 Y126.07 E55.98632
G1 X169.45 Y126.47 E56.00628
G1 X169.65 Y126.67 E56.02039
G1 X169.65 Y127.07 E56.04035
G1 X169.85 Y127.27 E56.05446
G1 X169.85 Y128.07 E56.09437
G1 X170.05 Y128.27 E56.10848
G1 X170.05 Y128.67 E56.12844
G1 X170.25 Y128.87 E56.14255
G1 X170.25 Y138.24 E56.61002
G1 X170.05 Y138.44 E56.62413
G1 X170.05 Y138.84 E56.64409
G1 X169.85 Y139.04 E56.65820
G1 X169.85 Y139.84 E56.69811
G1 X169.65 Y140.04 E56.71222
G1 X169.65 Y140.44 E56.73218
G1 X169.45 Y140.64 E56.74629
G1 X169.45 Y141.04 E56.76624
G1 X168.85 Y141.64 E56.80858
G1 X168.85 Y142.04 E56.82853
G1 X168.25 Y142.64 E56.87087
G1 X168.25 Y142.84 E56.88085
G1 X168.05 Y143.04 E56.89496
G1 X168.05 Y143.24 E56.90493
G1 X164.85 Y146.44 E57.13071
G1 X164.85 Y159.07 E57.76048
G1 X164.45 Y159.27 E57.78279
G1 X164.45 Y161.76 E57.90711
G1 X140.75 Y161.76 E59.08951
G1 X140.75 Y159.27 E59.21384
G1 X140.35 Y159.07 E59.23615
G1 X140.35 Y146.24 E59.87589
G1 X137.55 Y143.44 E60.07345
G1 X137.55 Y143.24 E60.08342
G1 X136.75 Y142.44 E60.13987
G1 X136.75 Y142.24 E60.14985
G1 X136.55 Y142.04 E60.16396
G1 X136.55 Y141.84 E60.17394
G1 X136.15 Y141.44 E60.20216
G1 X136.15 Y141.24 E60.21214
G1 X135.95 Y141.04 E60.22625
G1 X135.95 Y140.64 E60.24620
G1 X135.75 Y140.44 E60.26031
G1 X135.75 Y140.04 E60.28027
G1 X135.55 Y139.84 E60.29438
G1 X135.55 Y139.44 E60.31434
G1 X135.35 Y139.24 E60.32845
G1 X135.35 Y139.04 E60.33843
G1 X135.15 Y138.84 E60.35254
G1 X135.15 Y128.27 E60.87988
G1 X135.35 Y128.07 E60.89399
G1 X135.35 Y127.67 E60.91394
G1 X135.55 Y127.47 E60.92806
G1 X135.55 Y127.27 E60.93803
G1 X135.75 Y127.07 E60.95214
G1 X135.75 Y126.67 E60.97210
G1 X135.95 Y126.47 E60.98621
G1 X135.95 Y126.07 E61.00617
G1 X136.15 Y125.87 E61.02028
G1 X136.15 Y125.67 E61.03026
G1 X136.55 Y125.27 E61.05848
G1 X136.55 Y125.07 E61.06846
G1 X136.75 Y124.87 E61.08257
G1 X136.75 Y124.67 E61.09255
G1 X137.15 Y124.27 E61.12077
G1 X137.15 Y124.07 E61.13075
G0 F12000 X137.55 Y124.24
G1 F2700 X142.23 Y119.55 E61.46130
G1 X142.63 Y119.36 E61.48350
G1 X142.83 Y119.16 E61.49765
G1 X143.63 Y118.76 E61.54209
G1 X143.83 Y118.56 E61.55634
G1 X145.40 Y117.77 E61.64374
G1 X146.60 Y117.37 E61.70706
G1 X147.00 Y117.17 E61.72922
G1 X148.84 Y116.56 E61.82603
G1 X156.76 Y116.56 E62.22096
G1 X159.20 Y117.37 E62.34932
G1 X159.60 Y117.57 E62.37158
G1 X160.20 Y117.77 E62.40329
G1 X164.87 Y120.11 E62.66351
G1 X164.66 Y121.05 E62.71160
G1 X167.85 Y124.24 E62.93689
G1 X167.85 Y124.64 E62.95684
G1 X168.45 Y125.24 E62.99918
G1 X168.45 Y125.64 E63.01913
G1 X169.05 Y126.24 E63.06147
G1 X169.05 Y126.64 E63.08142
G1 X169.25 Y126.84 E63.09553
G1 X169.25 Y127.24 E63.11549
G1 X169.45 Y127.44 E63.12960
G1 X169.45 Y128.24 E63.16951
G1 X169.65 Y128.44 E63.18362
G1 X169.65 Y128.84 E63.20358
G1 X169.85 Y129.04 E63.21769
G1 X169.85 Y138.08 E63.66860
G1 X169.65 Y138.28 E63.68271
G1 X169.65 Y138.68 E63.70267
G1 X169.45 Y138.88 E63.71678
G1 X169.45 Y139.68 E63.75669
G1 X169.25 Y139.88 E63.77080
G1 X169.25 Y140.28 E63.79076
G1 X169.05 Y140.48 E63.80487
G1 X169.05 Y140.88 E63.82482
G1 X168.45 Y141.48 E63.86716
G1 X168.45 Y141.88 E63.88711
G1 X167.85 Y142.48 E63.92945
G1 X167.85 Y142.68 E63.93942
G1 X167.65 Y142.88 E63.95353
G1 X167.65 Y143.08 E63.96351
G1 X164.45 Y146.28 E64.18933
G1 X164.45 Y158.82 E64.81500
G1 X164.05 Y159.02 E64.83731
G1 X164.05 Y161.36 E64.95400
G1 X141.15 Y161.36 E66.09649
G1 X141.15 Y159.02 E66.21318
G1 X140.75 Y158.82 E66.23549
G1 X140.75 Y146.08 E66.87119
G1 X137.95 Y143.28 E67.06875
G1 X137.95 Y143.08 E67.07873
G1 X137.15 Y142.28 E67.13517
G1 X137.15 Y142.08 E67.14515
G1 X136.95 Y141.88 E67.15926
G1 X136.95 Y141.68 E67.16924
G1 X136.55 Y141.28 E67.19746
G1 X136.55 Y141.08 E67.20744
G1 X136.35 Y140.88 E67.22155
G1 X136.35 Y140.48 E67.24151
G1 X136.15 Y140.28 E67.25562
G1 X136.15 Y139.88 E67.27557
G1 X135.95 Y139.68 E67.28968
G1 X135.95 Y139.28 E67.30964
G1 X135.75 Y139.08 E67.32375
G1 X135.75 Y138.88 E67.33373
G1 X135.55 Y138.68 E67.34784
G1 X135.55 Y128.44 E67.85862
G1 X135.75 Y128.24 E67.87273
G1 X135.75 Y127.84 E67.89268
G1 X135.95 Y127.64 E67.90679
G1 X135.95 Y127.44 E67.91677
G1 X136.15 Y127.24 E67.93088
G1 X136.15 Y126.84 E67.95084
G1 X136.35 Y126.64 E67.96495
G1 X136.35 Y126.24 E67.98491
G1 X136.55 Y126.04 E67.99902
G1 X136.55 Y125.84 E68.00900
G1 X136.95 Y125.44 E68.03722
G1 X136.95 Y125.24 E68.04720
G1 X137.15 Y125.04 E68.06131
G1 X137.15 Y124.84 E68.07129
G1 X137.55 Y124.44 E68.09951
G1 X137.55 Y124.24 E68.10949
G0 F12000 X137.95 Y124.40
G1 F2700 X142.47 Y119.88 E68.42850
G1 X142.87 Y119.69 E68.45064
G1 X143.07 Y119.48 E68.46489
G1 X143.87 Y119.08 E68.50944
G1 X144.07 Y118.88 E68.52355
G1 X145.55 Y118.14 E68.60633
G1 X146.76 Y117.74 E68.66966
G1 X147.15 Y117.54 E68.69179
G1 X148.91 Y116.96 E68.78388
G1 X156.69 Y116.96 E69.17242
G1 X159.04 Y117.74 E69.29607
G1 X159.44 Y117.94 E69.31838
G1 X160.05 Y118.14 E69.35004
G1 X164.41 Y120.32 E69.59324
G1 X164.22 Y121.17 E69.63668
G1 X167.45 Y124.40 E69.86468
G1 X167.45 Y124.80 E69.88464
G1 X168.05 Y125.40 E69.92697
G1 X168.05 Y125.80 E69.94693
G1 X168.65 Y126.40 E69.98926
G1 X168.65 Y126.80 E70.00921
G1 X168.85 Y127.00 E70.02333
G1 X168.85 Y127.40 E70.04328
G1 X169.05 Y127.60 E70.05739
G1 X169.05 Y128.40 E70.09731
G1 X169.25 Y128.60 E70.11142
G1 X169.25 Y129.00 E70.13137
G1 X169.45 Y129.20 E70.14548
G1 X169.45 Y137.91 E70.57993
G1 X169.25 Y138.11 E70.59404
G1 X169.25 Y138.51 E70.61399
G1 X169.05 Y138.71 E70.62811
G1 X169.05 Y139.51 E70.66802
G1 X168.85 Y139.71 E70.68213
G1 X168.85 Y140.11 E70.70208
G1 X168.65 Y140.31 E70.71620
G1 X168.65 Y140.71 E70.73615
G1 X168.05 Y141.31 E70.77849
G1 X168.05 Y141.71 E70.79844
G1 X167.45 Y142.31 E70.84077
G1 X167.45 Y142.51 E70.85075
G1 X167.25 Y142.71 E70.86486
G1 X167.25 Y142.91 E70.87484
G1 X164.05 Y146.11 E71.10062
G1 X164.05 Y158.57 E71.72225
G1 X163.65 Y158.77 E71.74456
G1 X163.65 Y160.96 E71.85362
G1 X141.55 Y160.96 E72.95620
G1 X141.55 Y158.77 E73.06526
G1 X141.15 Y158.57 E73.08757
G1 X141.15 Y145.91 E73.71923
G1 X138.35 Y143.11 E73.91675
G1 X138.35 Y142.91 E73.92673
G1 X137.55 Y142.11 E73.98317
G1 X137.55 Y141.91 E73.99315
G1 X137.35 Y141.71 E74.00726
G1 X137.35 Y141.51 E74.01724
G1 X136.95 Y141.11 E74.04546
G1 X136.95 Y140.91 E74.05544
G1 X136.75 Y140.71 E74.06955
G1 X136.75 Y140.31 E74.08950
G1 X136.55 Y140.11 E74.10362
G1 X136.55 Y139.71 E74.12357
G1 X136.35 Y139.51 E74.13768
G1 X136.35 Y139.11 E74.15764
G1 X136.15 Y138.91 E74.17175
G1 X136.15 Y138.71 E74.18173
G1 X135.95 Y138.51 E74.19584
G1 X135.95 Y128.60 E74.69015
G1 X136.15 Y128.40 E74.70426
G1 X136.15 Y128.00 E74.72422
G1 X136.35 Y127.80 E74.73833
G1 X136.35 Y127.60 E74.74831
G1 X136.55 Y127.40 E74.76242
G1 X136.55 Y127.00 E74.78237
G1 X136.75 Y126.80 E74.79649
G1 X136.75 Y126.40 E74.81644
G1 X136.95 Y126.20 E74.83055
G1 X136.95 Y126.00 E74.84053
G1 X137.35 Y125.60 E74.86875
G1 X137.35 Y125.40 E74.87873
G1 X137.55 Y125.20 E74.89284
G1 X137.55 Y125.00 E74.90282
G1 X137.95 Y124.60 E74.93104
G1 X137.95 Y124.40 E74.94102
G0 F12000 X138.35 Y124.57
G1 F2700 X142.71 Y120.21 E75.24850
G1 X143.11 Y120.01 E75.27081
G1 X143.31 Y119.81 E75.28492
G1 X144.11 Y119.41 E75.32948
G1 X144.31 Y119.21 E75.34359
G1 X145.71 Y118.51 E75.42168
G1 X146.91 Y118.11 E75.48490
G1 X147.31 Y117.91 E75.50717
G1 X148.97 Y117.36 E75.59462
G1 X156.63 Y117.36 E75.97667
G1 X158.89 Y118.11 E76.09568
G1 X159.29 Y118.31 E76.11783
G1 X159.89 Y118.51 E76.14965
G1 X163.95 Y120.54 E76.37585
G1 X163.78 Y121.30 E76.41464
G1 X167.05 Y124.57 E76.64536
G1 X167.05 Y124.97 E76.66532
G1 X167.65 Y125.57 E76.70765
G1 X167.65 Y125.97 E76.72761
G1 X168.25 Y126.57 E76.76994
G1 X168.25 Y126.97 E76.78989
G1 X168.45 Y127.17 E76.80401
G1 X168.45 Y127.57 E76.82396
G1 X168.65 Y127.77 E76.83807
G1 X168.65 Y128.57 E76.87798
G1 X168.85 Y128.77 E76.89210
G1 X168.85 Y129.17 E76.91205
G1 X169.05 Y129.37 E76.92616
G1 X169.05 Y137.75 E77.34404
G1 X168.85 Y137.95 E77.35815
G1 X168.85 Y138.35 E77.37811
G1 X168.65 Y138.55 E77.39222
G1 X168.65 Y139.35 E77.43213
G1 X168.45 Y139.55 E77.44624
G1 X168.45 Y139.95 E77.46620
G1 X168.25 Y140.15 E77.48031
G1 X168.25 Y140.55 E77.50027
G1 X167.65 Y141.15 E77.54260
G1 X167.65 Y141.55 E77.56256
G1 X167.05 Y142.15 E77.60489
G1 X167.05 Y142.35 E77.61487
G1 X166.85 Y142.55 E77.62898
G1 X166.85 Y142.75 E77.63896
G1 X163.65 Y145.95 E77.86474
G1 X163.65 Y158.32 E78.48233
G1 X163.25 Y158.53 E78.50464
G1 X163.25 Y160.56 E78.60606
G1 X141.95 Y160.56 E79.66873
G1 X141.95 Y158.53 E79.77015
G1 X141.55 Y158.32 E79.79246
G1 X141.55 Y145.75 E80.42003
G1 X138.75 Y142.95 E80.61759
G1 X138.75 Y142.75 E80.62757
G1 X137.95 Y141.95 E80.68401
G1 X137.95 Y141.75 E80.69399
G1 X137.75 Y141.55 E80.70810
G1 X137.75 Y141.35 E80.71808
G1 X137.35 Y140.95 E80.74630
G1 X137.35 Y140.75 E80.75628
G1 X137.15 Y140.55 E80.77039
G1 X137.15 Y140.15 E80.79034
G1 X136.95 Y139.95 E80.80446
G1 X136.95 Y139.55 E80.82441
G1 X136.75 Y139.35 E80.83852
G1 X136.75 Y138.95 E80.85848
G1 X136.55 Y138.75 E80.87259
G1 X136.55 Y138.55 E80.88257
G1 X136.35 Y138.35 E80.89668
G1 X136.35 Y128.77 E81.37443
G1 X136.55 Y128.57 E81.38854
G1 X136.55 Y128.17 E81.40850
G1 X136.75 Y127.97 E81.42261
G1 X136.75 Y127.77 E81.43258
G1 X136.95 Y127.57 E81.44670
G1 X136.95 Y127.17 E81.46665
G1 X137.15 Y126.97 E81.48076
G1 X137.15 Y126.57 E81.50072
G1 X137.35 Y126.37 E81.51483
G1 X137.35 Y126.17 E81.52481
G1 X137.75 Y125.77 E81.55303
G1 X137.75 Y125.57 E81.56301
G1 X137.95 Y125.37 E81.57712
G1 X137.95 Y125.17 E81.58710
G1 X138.35 Y124.77 E81.61532
G1 X138.35 Y124.57 E81.62530
G0 F12000 X138.75 Y124.74
G1 F2700 X142.94 Y120.54 E81.92131
G1 X143.34 Y120.34 E81.94367
G1 X143.54 Y120.14 E81.95771
G1 X144.34 Y119.74 E82.00227
G1 X144.54 Y119.54 E82.01638
G1 X145.86 Y118.88 E82.08985
G1 X147.06 Y118.48 E82.15318
G1 X147.46 Y118.28 E82.17531
G1 X149.03 Y117.76 E82.25809
G1 X156.56 Y117.76 E82.63366
G1 X158.74 Y118.48 E82.74800
G1 X159.14 Y118.68 E82.77035
G1 X159.74 Y118.88 E82.80197
G1 X163.49 Y120.76 E83.01118
G1 X163.34 Y121.43 E83.04538
G1 X166.65 Y124.74 E83.27878
G1 X166.65 Y125.14 E83.29873
G1 X167.25 Y125.74 E83.34107
G1 X167.25 Y126.14 E83.36102
G1 X167.85 Y126.74 E83.40335
G1 X167.85 Y127.14 E83.42331
G1 X168.05 Y127.34 E83.43742
G1 X168.05 Y127.74 E83.45738
G1 X168.25 Y127.94 E83.47149
G1 X168.25 Y128.74 E83.51140
G1 X168.45 Y128.94 E83.52551
G1 X168.45 Y129.34 E83.54547
G1 X168.65 Y129.54 E83.55958
G1 X168.65 Y137.58 E83.96090
G1 X168.45 Y137.78 E83.97501
G1 X168.45 Y138.18 E83.99496
G1 X168.25 Y138.38 E84.00907
G1 X168.25 Y139.18 E84.04899
G1 X168.05 Y139.38 E84.06310
G1 X168.05 Y139.78 E84.08305
G1 X167.85 Y139.98 E84.09716
G1 X167.85 Y140.38 E84.11712
G1 X167.25 Y140.98 E84.15945
G1 X167.25 Y141.38 E84.17941
G1 X166.65 Y141.98 E84.22174
G1 X166.65 Y142.18 E84.23172
G1 X166.45 Y142.38 E84.24583
G1 X166.45 Y142.58 E84.25581
G1 X163.25 Y145.78 E84.48159
G1 X163.25 Y158.08 E85.09509
G1 X162.85 Y158.28 E85.11740
G1 X162.85 Y160.16 E85.21124
G1 X142.35 Y160.16 E86.23399
G1 X142.35 Y158.28 E86.32784
G1 X141.95 Y158.08 E86.35015
G1 X141.95 Y145.58 E86.97362
G1 X139.15 Y142.78 E87.17118
G1 X139.15 Y142.58 E87.18116
G1 X138.35 Y141.78 E87.23760
G1 X138.35 Y141.58 E87.24758
G1 X138.15 Y141.38 E87.26169
G1 X138.15 Y141.18 E87.27167
G1 X137.75 Y140.78 E87.29989
G1 X137.75 Y140.58 E87.30987
G1 X137.55 Y140.38 E87.32398
G1 X137.55 Y139.98 E87.34394
G1 X137.35 Y139.78 E87.35805
G1 X137.35 Y139.38 E87.37800
G1 X137.15 Y139.18 E87.39212
G1 X137.15 Y138.78 E87.41207
G1 X136.95 Y138.58 E87.42618
G1 X136.95 Y138.38 E87.43616
G1 X136.75 Y138.18 E87.45027
G1 X136.75 Y128.94 E87.91146
G1 X136.95 Y128.74 E87.92557
G1 X136.95 Y128.34 E87.94552
G1 X137.15 Y128.14 E87.95963
G1 X137.15 Y127.94 E87.96961
G1 X137.35 Y127.74 E87.98372
G1 X137.35 Y127.34 E88.00368
G1 X137.55 Y127.14 E88.01779
G1 X137.55 Y126.74 E88.03775
G1 X137.75 Y126.54 E88.05186
G1 X137.75 Y126.34 E88.06184
G1 X138.15 Y125.94 E88.09006
G1 X138.15 Y125.74 E88.10004
G1 X138.35 Y125.54 E88.11415
G1 X138.35 Y125.34 E88.12413
G1 X138.75 Y124.94 E88.15235
G1 X138.75 Y124.74 E88.16233
G0 F12000 X139.15 Y124.90
G1 F2700 X143.18 Y120.87 E88.44681
G1 X143.58 Y120.67 E88.46909
G1 X143.78 Y120.47 E88.48317
G1 X144.58 Y120.07 E88.52773
G1 X144.78 Y119.87 E88.54191
G1 X146.01 Y119.25 E88.61067
G1 X147.22 Y118.85 E88.67411
G1 X147.61 Y118.65 E88.69615
G1 X149.10 Y118.16 E88.77430
G1 X156.50 Y118.16 E89.14338
G1 X158.58 Y118.85 E89.25308
G1 X158.98 Y119.05 E89.27523
G1 X159.59 Y119.25 E89.30701
G1 X163.03 Y120.98 E89.49927
G1 X162.90 Y121.56 E89.52881
G1 X166.25 Y124.90 E89.76489
G1 X166.25 Y125.30 E89.78485
G1 X166.85 Y125.90 E89.82718
G1 X166.85 Y126.30 E89.84714
G1 X167.45 Y126.90 E89.88947
G1 X167.45 Y127.30 E89.90943
G1 X167.65 Y127.50 E89.92354
G1 X167.65 Y127.90 E89.94349
G1 X167.85 Y128.10 E89.95760
G1 X167.85 Y128.90 E89.99752
G1 X168.05 Y129.10 E90.01163
G1 X168.05 Y129.50 E90.03158
G1 X168.25 Y129.70 E90.04570
G1 X168.25 Y137.41 E90.43055
G1 X168.05 Y137.62 E90.44466
G1 X168.05 Y138.01 E90.46462
G1 X167.85 Y138.22 E90.47873
G1 X167.85 Y139.01 E90.51864
G1 X167.65 Y139.22 E90.53275
G1 X167.65 Y139.62 E90.55271
G1 X167.45 Y139.81 E90.56682
G1 X167.45 Y140.22 E90.58677
G1 X166.85 Y140.81 E90.62911
G1 X166.85 Y141.22 E90.64906
G1 X166.25 Y141.81 E90.69140
G1 X166.25 Y142.01 E90.70137
G1 X166.05 Y142.22 E90.71548
G1 X166.05 Y142.41 E90.72546
G1 X162.85 Y145.62 E90.95124
G1 X162.85 Y157.83 E91.56065
G1 X162.45 Y158.03 E91.58296
G1 X162.45 Y159.76 E91.66917
G1 X142.75 Y159.76 E92.65201
G1 X142.75 Y158.03 E92.73822
G1 X142.35 Y157.83 E92.76053
G1 X142.35 Y145.41 E93.37992
G1 X139.55 Y142.62 E93.57747
G1 X139.55 Y142.41 E93.58745
G1 X138.75 Y141.62 E93.64389
G1 X138.75 Y141.41 E93.65387
G1 X138.55 Y141.22 E93.66798
G1 X138.55 Y141.01 E93.67796
G1 X138.15 Y140.62 E93.70618
G1 X138.15 Y140.41 E93.71616
G1 X137.95 Y140.22 E93.73027
G1 X137.95 Y139.81 E93.75023
G1 X137.75 Y139.62 E93.76434
G1 X137.75 Y139.22 E93.78430
G1 X137.55 Y139.01 E93.79841
G1 X137.55 Y138.62 E93.81836
G1 X137.35 Y138.41 E93.83247
G1 X137.35 Y138.22 E93.84245
G1 X137.15 Y138.01 E93.85656
G1 X137.15 Y129.10 E94.30128
G1 X137.35 Y128.90 E94.31540
G1 X137.35 Y128.50 E94.33535
G1 X137.55 Y128.30 E94.34946
G1 X137.55 Y128.10 E94.35944
G1 X137.75 Y127.90 E94.37355
G1 X137.75 Y127.50 E94.39351
G1 X137.95 Y127.30 E94.40762
G1 X137.95 Y126.90 E94.42757
G1 X138.15 Y126.70 E94.44169
G1 X138.15 Y126.50 E94.45166
G1 X138.55 Y126.10 E94.47989
G1 X138.55 Y125.90 E94.48986
G1 X138.75 Y125.70 E94.50398
G1 X138.75 Y125.50 E94.51395
G1 X139.15 Y125.10 E94.54218
G1 X139.15 Y124.90 E94.55215
G0 F12000 X139.55 Y125.07
G1 F2700 X143.42 Y121.20 E94.82513
G1 X143.82 Y121.00 E94.84742
G1 X144.02 Y120.80 E94.86150
G1 X144.82 Y120.40 E94.90612
G1 X145.02 Y120.20 E94.92023
G1 X146.17 Y119.62 E94.98438
G1 X147.37 Y119.22 E95.04748
G1 X147.77 Y119.02 E95.06984
G1 X149.16 Y118.56 E95.14331
G1 X156.43 Y118.56 E95.50591
G1 X158.43 Y119.22 E95.61094
G1 X158.83 Y119.42 E95.63307
G1 X159.43 Y119.62 E95.66489
G1 X162.57 Y121.19 E95.84011
G1 X162.47 Y121.68 E95.86504
G1 X165.85 Y125.07 E96.10380
G1 X165.85 Y125.47 E96.12376
G1 X166.45 Y126.07 E96.16609
G1 X166.45 Y126.47 E96.18605
G1 X167.05 Y127.07 E96.22838
G1 X167.05 Y127.47 E96.24834
G1 X167.25 Y127.67 E96.26245
G1 X167.25 Y128.07 E96.28240
G1 X167.45 Y128.27 E96.29651
G1 X167.45 Y129.07 E96.33643
G1 X167.65 Y129.27 E96.35054
G1 X167.65 Y129.67 E96.37049
G1 X167.85 Y129.87 E96.38461
G1 X167.85 Y137.25 E96.75289
G1 X167.65 Y137.45 E96.76701
G1 X167.65 Y137.85 E96.78696
G1 X167.45 Y138.05 E96.80107
G1 X167.45 Y138.85 E96.84099
G1 X167.25 Y139.05 E96.85510
G1 X167.25 Y139.45 E96.87505
G1 X167.05 Y139.65 E96.88916
G1 X167.05 Y140.05 E96.90912
G1 X166.45 Y140.65 E96.95145
G1 X166.45 Y141.05 E96.97141
G1 X165.85 Y141.65 E97.01374
G1 X165.85 Y141.85 E97.02372
G1 X165.65 Y142.05 E97.03783
G1 X165.65 Y142.25 E97.04781
G1 X162.45 Y145.45 E97.27359
G1 X162.45 Y157.58 E97.87895
G1 X162.05 Y157.78 E97.90127
G1 X162.05 Y159.36 E97.97984
G1 X143.15 Y159.36 E98.92277
G1 X143.15 Y157.78 E99.00134
G1 X142.75 Y157.58 E99.02366
G1 X142.75 Y145.25 E99.63900
G1 X139.95 Y142.45 E99.83656
G1 X139.95 Y142.25 E99.84659
G1 X139.15 Y141.45 E99.90299
G1 X139.15 Y141.25 E99.91297
G1 X138.95 Y141.05 E99.92708
G1 X138.95 Y140.85 E99.93706
G1 X138.55 Y140.45 E99.96528
G1 X138.55 Y140.25 E99.97526
G1 X138.35 Y140.05 E99.98937
G1 X138.35 Y139.65 E100.00933
G1 X138.15 Y139.45 E100.02344
G1 X138.15 Y139.05 E100.04340
G1 X137.95 Y138.85 E100.05751
G1 X137.95 Y138.45 E100.07746
G1 X137.75 Y138.25 E100.09157
G1 X137.75 Y138.05 E100.10155
G1 X137.55 Y137.85 E100.11566
G1 X137.55 Y129.27 E100.54382
G1 X137.75 Y129.07 E100.55793
G1 X137.75 Y128.67 E100.57789
G1 X137.95 Y128.47 E100.59200
G1 X137.95 Y128.27 E100.60198
G1 X138.15 Y128.07 E100.61609
G1 X138.15 Y127.67 E100.63604
G1 X138.35 Y127.47 E100.65016
G1 X138.35 Y127.07 E100.67011
G1 X138.55 Y126.87 E100.68422
G1 X138.55 Y126.67 E100.69420
G1 X138.95 Y126.27 E100.72242
G1 X138.95 Y126.07 E100.73240
G1 X139.15 Y125.87 E100.74651
G1 X139.15 Y125.67 E100.75649
G1 X139.55 Y125.27 E100.78471
G1 X139.55 Y125.07 E100.79469
G0 F12000 X139.95 Y125.23
G1 F2700 X143.66 Y121.53 E101.05617
G1 X144.05 Y121.33 E101.07841
G1 X144.25 Y121.13 E101.09252
G1 X145.05 Y120.73 E101.13704
G1 X145.25 Y120.53 E101.15125
G1 X146.32 Y120.00 E101.21071
G1 X147.52 Y119.59 E101.27406
G1 X147.92 Y119.39 E101.29619
G1 X149.23 Y118.96 E101.36502
G1 X156.37 Y118.96 E101.72114
G1 X158.28 Y119.59 E101.82153
G1 X158.68 Y119.79 E101.84388
G1 X159.28 Y120.00 E101.87545
G1 X162.12 Y121.41 E102.03369
G1 X162.03 Y121.81 E102.05402
G1 X165.45 Y125.23 E102.29546
G1 X165.45 Y125.63 E102.31542
G1 X166.05 Y126.23 E102.35775
G1 X166.05 Y126.63 E102.37771
G1 X166.65 Y127.23 E102.42004
G1 X166.65 Y127.63 E102.44000
G1 X166.85 Y127.83 E102.45411
G1 X166.85 Y128.23 E102.47406
G1 X167.05 Y128.43 E102.48817
G1 X167.05 Y129.23 E102.52809
G1 X167.25 Y129.43 E102.54220
G1 X167.25 Y129.83 E102.56215
G1 X167.45 Y130.03 E102.57627
G1 X167.45 Y137.08 E102.92799
G1 X167.25 Y137.28 E102.94210
G1 X167.25 Y137.68 E102.96206
G1 X167.05 Y137.88 E102.97617
G1 X167.05 Y138.68 E103.01608
G1 X166.85 Y138.88 E103.03019
G1 X166.85 Y139.28 E103.05015
G1 X166.65 Y139.48 E103.06426
G1 X166.65 Y139.88 E103.08422
G1 X166.05 Y140.48 E103.12655
G1 X166.05 Y140.88 E103.14651
G1 X165.45 Y141.48 E103.18884
G1 X165.45 Y141.68 E103.19882
G1 X165.25 Y141.88 E103.21293
G1 X165.25 Y142.08 E103.22291
G1 X162.05 Y145.28 E103.44868
G1 X162.05 Y157.34 E104.05001
G1 X161.65 Y157.54 E104.07232
G1 X161.65 Y158.96 E104.14327
G1 X143.55 Y158.96 E105.04628
G1 X143.55 Y157.54 E105.11722
G1 X143.15 Y157.34 E105.13953
G1 X143.15 Y145.08 E105.75079
G1 X140.35 Y142.28 E105.94838
G1 X140.35 Y142.08 E105.95831
G1 X139.55 Y141.28 E106.01479
G1 X139.55 Y141.08 E106.02476
G1 X139.35 Y140.88 E106.03888
G1 X139.35 Y140.68 E106.04885
G1 X138.95 Y140.28 E106.07708
G1 X138.95 Y140.08 E106.08705
G1 X138.75 Y139.88 E106.10116
G1 X138.75 Y139.48 E106.12112
G1 X138.55 Y139.28 E106.13523
G1 X138.55 Y138.88 E106.15519
G1 X138.35 Y138.68 E106.16930
G1 X138.35 Y138.28 E106.18925
G1 X138.15 Y138.08 E106.20337
G1 X138.15 Y137.88 E106.21334
G1 X137.95 Y137.68 E106.22746
G1 X137.95 Y129.43 E106.63905
G1 X138.15 Y129.23 E106.65316
G1 X138.15 Y128.83 E106.67312
G1 X138.35 Y128.63 E106.68723
G1 X138.35 Y128.43 E106.69721
G1 X138.55 Y128.23 E106.71132
G1 X138.55 Y127.83 E106.73127
G1 X138.75 Y127.63 E106.74538
G1 X138.75 Y127.23 E106.76534
G1 X138.95 Y127.03 E106.77945
G1 X138.95 Y126.83 E106.78943
G1 X139.35 Y126.43 E106.81765
G1 X139.35 Y126.23 E106.82763
G1 X139.55 Y126.03 E106.84174
G1 X139.55 Y125.83 E106.85172
G1 X139.95 Y125.43 E106.87994
G1 X139.95 Y125.23 E106.88992
G0 F12000 X140.35 Y125.40
G1 F2700 X143.89 Y121.86 E107.13983
G1 X144.29 Y121.66 E107.16207
G1 X144.49 Y121.46 E107.17625
G1 X145.29 Y121.06 E107.22079
G1 X145.49 Y120.86 E107.23497
G1 X146.47 Y120.36 E107.28981
G1 X147.68 Y119.96 E107.35303
G1 X148.07 Y119.77 E107.37523
G1 X149.29 Y119.36 E107.43944
G1 X156.30 Y119.36 E107.78907
G1 X158.12 Y119.97 E107.88483
G1 X158.52 Y120.16 E107.90697
G1 X159.12 Y120.36 E107.93869
G1 X161.66 Y121.63 E108.07999
G1 X161.59 Y121.94 E108.09563
G1 X165.05 Y125.40 E108.33975
G1 X165.05 Y125.80 E108.35971
G1 X165.65 Y126.40 E108.40204
G1 X165.65 Y126.80 E108.42200
G1 X166.25 Y127.40 E108.46433
G1 X166.25 Y127.80 E108.48429
G1 X166.45 Y128.00 E108.49840
G1 X166.45 Y128.40 E108.51835
G1 X166.65 Y128.60 E108.53247
G1 X166.65 Y129.40 E108.57238
G1 X166.85 Y129.60 E108.58649
G1 X166.85 Y130.00 E108.60644
G1 X167.05 Y130.20 E108.62056
G1 X167.05 Y136.92 E108.95582
G1 X166.85 Y137.12 E108.96993
G1 X166.85 Y137.52 E108.98988
G1 X166.65 Y137.72 E109.00400
G1 X166.65 Y138.52 E109.04391
G1 X166.45 Y138.72 E109.05802
G1 X166.45 Y139.12 E109.07798
G1 X166.25 Y139.32 E109.09209
G1 X166.25 Y139.72 E109.11204
G1 X165.65 Y140.32 E109.15438
G1 X165.65 Y140.72 E109.17433
G1 X165.05 Y141.32 E109.21667
G1 X165.05 Y141.52 E109.22664
G1 X164.85 Y141.72 E109.24075
G1 X164.85 Y141.92 E109.25073
G1 X161.65 Y145.12 E109.47647
G1 X161.65 Y157.09 E110.07371
G1 X161.25 Y157.29 E110.09602
G1 X161.25 Y158.56 E110.15938
G1 X143.95 Y158.56 E111.02248
G1 X143.95 Y157.29 E111.08584
G1 X143.55 Y157.09 E111.10815
G1 X143.55 Y144.92 E111.71532
G1 X140.75 Y142.12 E111.91287
G1 X140.75 Y141.92 E111.92285
G1 X139.95 Y141.12 E111.97930
G1 X139.95 Y140.92 E111.98927
G1 X139.75 Y140.72 E112.00339
G1 X139.75 Y140.52 E112.01336
G1 X139.35 Y140.12 E112.04159
G1 X139.35 Y139.92 E112.05156
G1 X139.15 Y139.72 E112.06567
G1 X139.15 Y139.32 E112.08563
G1 X138.95 Y139.12 E112.09974
G1 X138.95 Y138.72 E112.11970
G1 X138.75 Y138.52 E112.13381
G1 X138.75 Y138.12 E112.15376
G1 X138.55 Y137.92 E112.16788
G1 X138.55 Y137.72 E112.17785
G1 X138.35 Y137.52 E112.19196
G1 X138.35 Y129.60 E112.58710
G1 X138.55 Y129.40 E112.60121
G1 X138.55 Y129.00 E112.62116
G1 X138.75 Y128.80 E112.63527
G1 X138.75 Y128.60 E112.64525
G1 X138.95 Y128.40 E112.65936
G1 X138.95 Y128.00 E112.67932
G1 X139.15 Y127.80 E112.69343
G1 X139.15 Y127.40 E112.71339
G1 X139.35 Y127.20 E112.72750
G1 X139.35 Y127.00 E112.73748
G1 X139.75 Y126.60 E112.76570
G1 X139.75 Y126.40 E112.77568
G1 X139.95 Y126.20 E112.78979
G1 X139.95 Y126.00 E112.79976
G1 X140.35 Y125.60 E112.82799
G1 X140.35 Y125.40 E112.83796
G0 F12000 X140.75 Y125.56
G1 F2700 X144.13 Y122.19 E113.07637
G1 X144.53 Y121.99 E113.09862
G1 X144.73 Y121.78 E113.11280
G1 X145.53 Y121.39 E113.15735
G1 X145.73 Y121.19 E113.17154
G1 X146.63 Y120.73 E113.22174
G1 X147.83 Y120.33 E113.28506
G1 X148.23 Y120.14 E113.30715
G1 X149.36 Y119.76 E113.36668
G1 X156.24 Y119.76 E113.70982
G1 X157.97 Y120.33 E113.80090
G1 X158.37 Y120.53 E113.82295
G1 X158.97 Y120.74 E113.85483
G1 X161.20 Y121.85 E113.97911
G1 X161.14 Y122.12 E113.99290
G1 X161.27 Y122.19 E114.00020
G1 X164.65 Y125.56 E114.23861
G1 X164.65 Y125.96 E114.25856
G1 X165.25 Y126.56 E114.30090
G1 X165.25 Y126.96 E114.32085
G1 X165.85 Y127.56 E114.36319
G1 X165.85 Y127.96 E114.38314
G1 X166.05 Y128.16 E114.39725
G1 X166.05 Y128.56 E114.41721
G1 X166.25 Y128.76 E114.43132
G1 X166.25 Y129.56 E114.47123
G1 X166.45 Y129.76 E114.48534
G1 X166.45 Y130.16 E114.50530
G1 X166.65 Y130.36 E114.51941
G1 X166.65 Y136.75 E114.83811
G1 X166.45 Y136.95 E114.85222
G1 X166.45 Y137.35 E114.87218
G1 X166.25 Y137.55 E114.88629
G1 X166.25 Y138.35 E114.92620
G1 X166.05 Y138.55 E114.94031
G1 X166.05 Y138.95 E114.96027
G1 X165.85 Y139.15 E114.97438
G1 X165.85 Y139.55 E114.99433
G1 X165.25 Y140.15 E115.03667
G1 X165.25 Y140.55 E115.05662
G1 X164.65 Y141.15 E115.09896
G1 X164.65 Y141.35 E115.10893
G1 X164.45 Y141.55 E115.12305
G1 X164.45 Y141.75 E115.13302
G1 X161.27 Y144.93 E115.35732
G1 X161.25 Y144.94 E115.35848
G1 X161.25 Y156.84 E115.95217
G1 X160.85 Y157.04 E115.97448
G1 X160.85 Y158.16 E116.03021
G1 X144.35 Y158.16 E116.85340
G1 X144.35 Y157.04 E116.90913
G1 X143.95 Y156.84 E116.93144
G1 X143.95 Y144.75 E117.53456
G1 X141.15 Y141.95 E117.73212
G1 X141.15 Y141.75 E117.74209
G1 X140.35 Y140.95 E117.79854
G1 X140.35 Y140.75 E117.80852
G1 X140.15 Y140.55 E117.82263
G1 X140.15 Y140.35 E117.83261
G1 X139.75 Y139.95 E117.86083
G1 X139.75 Y139.75 E117.87081
G1 X139.55 Y139.55 E117.88492
G1 X139.55 Y139.15 E117.90487
G1 X139.35 Y138.95 E117.91898
G1 X139.35 Y138.55 E117.93894
G1 X139.15 Y138.35 E117.95305
G1 X139.15 Y137.95 E117.97301
G1 X138.95 Y137.75 E117.98712
G1 X138.95 Y137.55 E117.99710
G1 X138.75 Y137.35 E118.01121
G1 X138.75 Y129.76 E118.38978
G1 X138.95 Y129.56 E118.40389
G1 X138.95 Y129.16 E118.42384
G1 X139.15 Y128.96 E118.43795
G1 X139.15 Y128.76 E118.44793
G1 X139.35 Y128.56 E118.46204
G1 X139.35 Y128.16 E118.48200
G1 X139.55 Y127.96 E118.49611
G1 X139.55 Y127.56 E118.51607
G1 X139.75 Y127.36 E118.53018
G1 X139.75 Y127.16 E118.54015
G1 X140.15 Y126.76 E118.56838
G1 X140.15 Y126.56 E118.57836
G1 X140.35 Y126.36 E118.59247
G1 X140.35 Y126.16 E118.60244
G1 X140.75 Y125.76 E118.63067
G1 X140.75 Y125.56 E118.64064
G0 F12000 X141.15 Y125.73
G1 F2700 X144.37 Y122.51 E118.86755
G1 X144.76 Y122.31 E118.88980
G1 X144.97 Y122.11 E118.90398
G1 X145.76 Y121.71 E118.94860
G1 X145.97 Y121.51 E118.96271
G1 X146.78 Y121.11 E119.00823
G1 X147.99 Y120.70 E119.07189
G1 X148.38 Y120.51 E119.09364
G1 X149.43 Y120.16 E119.14854
G1 X156.17 Y120.16 E119.48520
G1 X157.82 Y120.71 E119.57166
G1 X158.21 Y120.90 E119.59375
G1 X158.82 Y121.11 E119.62552
G1 X160.74 Y122.07 E119.73284
G1 X160.68 Y122.34 E119.74664
G1 X161.03 Y122.51 E119.76627
G1 X164.25 Y125.73 E119.99318
G1 X164.25 Y126.13 E120.01313
G1 X164.85 Y126.73 E120.05547
G1 X164.85 Y127.13 E120.07542
G1 X165.45 Y127.73 E120.11776
G1 X165.45 Y128.13 E120.13771
G1 X165.65 Y128.33 E120.15182
G1 X165.65 Y128.73 E120.17178
G1 X165.85 Y128.93 E120.18589
G1 X165.85 Y129.73 E120.22580
G1 X166.05 Y129.93 E120.23991
G1 X166.05 Y130.33 E120.25987
G1 X166.25 Y130.53 E120.27398
G1 X166.25 Y136.59 E120.57612
G1 X166.05 Y136.79 E120.59023
G1 X166.05 Y137.19 E120.61018
G1 X165.85 Y137.39 E120.62429
G1 X165.85 Y138.19 E120.66421
G1 X165.65 Y138.39 E120.67832
G1 X165.65 Y138.79 E120.69827
G1 X165.45 Y138.99 E120.71239
G1 X165.45 Y139.39 E120.73234
G1 X164.85 Y139.99 E120.77467
G1 X164.85 Y140.39 E120.79463
G1 X164.25 Y140.99 E120.83696
G1 X164.25 Y141.19 E120.84694
G1 X164.05 Y141.39 E120.86105
G1 X164.05 Y141.59 E120.87103
G1 X161.03 Y144.60 E121.08383
G1 X160.85 Y144.69 E121.09409
G1 X160.85 Y156.59 E121.68778
G1 X160.45 Y156.79 E121.71009
G1 X160.45 Y157.76 E121.75819
G1 X144.75 Y157.76 E122.54146
G1 X144.75 Y156.79 E122.58956
G1 X144.35 Y156.59 E122.61187
G1 X144.35 Y144.59 E123.21095
G1 X141.55 Y141.79 E123.40851
G1 X141.55 Y141.59 E123.41849
G1 X140.75 Y140.79 E123.47493
G1 X140.75 Y140.59 E123.48491
G1 X140.55 Y140.39 E123.49902
G1 X140.55 Y140.19 E123.50900
G1 X140.15 Y139.79 E123.53722
G1 X140.15 Y139.59 E123.54720
G1 X139.95 Y139.39 E123.56131
G1 X139.95 Y138.99 E123.58126
G1 X139.75 Y138.79 E123.59538
G1 X139.75 Y138.39 E123.61533
G1 X139.55 Y138.19 E123.62944
G1 X139.55 Y137.79 E123.64940
G1 X139.35 Y137.59 E123.66351
G1 X139.35 Y137.39 E123.67349
G1 X139.15 Y137.19 E123.68760
G1 X139.15 Y129.93 E124.04960
G1 X139.35 Y129.73 E124.06371
G1 X139.35 Y129.33 E124.08367
G1 X139.55 Y129.13 E124.09778
G1 X139.55 Y128.93 E124.10776
G1 X139.75 Y128.73 E124.12187
G1 X139.75 Y128.33 E124.14183
G1 X139.95 Y128.13 E124.15594
G1 X139.95 Y127.73 E124.17589
G1 X140.15 Y127.53 E124.19000
G1 X140.15 Y127.33 E124.19998
G1 X140.55 Y126.93 E124.22820
G1 X140.55 Y126.73 E124.23818
G1 X140.75 Y126.53 E124.25229
G1 X140.75 Y126.33 E124.26227
G1 X141.15 Y125.93 E124.29049
G1 X141.15 Y125.73 E124.30047
G0 F12000 X141.55 Y125.89
G1 F2700 X144.60 Y122.84 E124.51584
G1 X145.00 Y122.64 E124.53815
G1 X145.20 Y122.44 E124.55226
G1 X146.00 Y122.04 E124.59689
G1 X146.20 Y121.84 E124.61100
G1 X146.94 Y121.48 E124.65190
G1 X148.14 Y121.08 E124.71511
G1 X148.53 Y120.88 E124.73731
G1 X149.49 Y120.56 E124.78753
G1 X156.11 Y120.56 E125.11770
G1 X157.66 Y121.08 E125.19947
G1 X158.06 Y121.28 E125.22167
G1 X158.66 Y121.48 E125.25334
G1 X160.28 Y122.29 E125.34365
G1 X160.24 Y122.48 E125.35382
G1 X160.40 Y122.64 E125.36497
G1 X160.80 Y122.84 E125.38728
G1 X163.85 Y125.89 E125.60265
G1 X163.85 Y126.30 E125.62266
G1 X164.45 Y126.89 E125.66496
G1 X164.45 Y127.30 E125.68496
G1 X165.05 Y127.89 E125.72726
G1 X165.05 Y128.30 E125.74727
G1 X165.25 Y128.50 E125.76134
G1 X165.25 Y128.90 E125.78135
G1 X165.45 Y129.09 E125.79542
G1 X165.45 Y129.90 E125.83539
G1 X165.65 Y130.09 E125.84946
G1 X165.65 Y130.50 E125.86947
G1 X165.85 Y130.69 E125.88354
G1 X165.85 Y136.42 E126.16921
G1 X165.65 Y136.62 E126.18329
G1 X165.65 Y137.02 E126.20330
G1 X165.45 Y137.22 E126.21737
G1 X165.45 Y138.02 E126.25733
G1 X165.25 Y138.22 E126.27141
G1 X165.25 Y138.62 E126.29142
G1 X165.05 Y138.82 E126.30549
G1 X165.05 Y139.22 E126.32550
G1 X164.45 Y139.82 E126.36780
G1 X164.45 Y140.22 E126.38780
G1 X163.85 Y140.82 E126.43010
G1 X163.85 Y141.02 E126.44013
G1 X163.65 Y141.22 E126.45420
G1 X163.65 Y141.42 E126.46423
G1 X160.80 Y144.27 E126.66549
G1 X160.45 Y144.45 E126.68486
G1 X160.45 Y156.35 E127.27855
G1 X160.05 Y156.55 E127.30086
G1 X160.05 Y157.36 E127.34132
G1 X145.15 Y157.36 E128.08469
G1 X145.15 Y156.55 E128.12515
G1 X144.75 Y156.35 E128.14746
G1 X144.75 Y144.38 E128.74460
G1 X144.69 Y144.36 E128.74796
G1 X141.95 Y141.62 E128.94100
G1 X141.95 Y141.42 E128.95102
G1 X141.15 Y140.62 E129.00743
G1 X141.15 Y140.42 E129.01746
G1 X140.95 Y140.22 E129.03154
G1 X140.95 Y140.02 E129.04156
G1 X140.55 Y139.62 E129.06975
G1 X140.55 Y139.42 E129.07978
G1 X140.35 Y139.22 E129.09386
G1 X140.35 Y138.82 E129.11386
G1 X140.15 Y138.62 E129.12794
G1 X140.15 Y138.22 E129.14794
G1 X139.95 Y138.02 E129.16202
G1 X139.95 Y137.62 E129.18202
G1 X139.75 Y137.42 E129.19610
G1 X139.75 Y137.22 E129.20613
G1 X139.55 Y137.02 E129.22020
G1 X139.55 Y130.09 E129.56574
G1 X139.75 Y129.90 E129.57982
G1 X139.75 Y129.50 E129.59983
G1 X139.95 Y129.30 E129.61390
G1 X139.95 Y129.09 E129.62393
G1 X140.15 Y128.90 E129.63801
G1 X140.15 Y128.50 E129.65801
G1 X140.35 Y128.30 E129.67209
G1 X140.35 Y127.89 E129.69209
G1 X140.55 Y127.70 E129.70617
G1 X140.55 Y127.50 E129.71620
G1 X140.95 Y127.10 E129.74438
G1 X140.95 Y126.89 E129.75441
G1 X141.15 Y126.70 E129.76849
G1 X141.15 Y126.50 E129.77852
G1 X141.55 Y126.10 E129.80670
G1 X141.55 Y125.89 E129.81673
G0 F12000 X141.95 Y126.06
G1 F2700 X144.84 Y123.17 E130.02060
G1 X145.24 Y122.97 E130.04291
G1 X145.44 Y122.77 E130.05702
G1 X146.24 Y122.37 E130.10165
G1 X146.44 Y122.17 E130.11576
G1 X147.09 Y121.85 E130.15197
G1 X148.29 Y121.44 E130.21541
G1 X148.69 Y121.25 E130.23738
G1 X149.56 Y120.96 E130.28298
G1 X156.04 Y120.96 E130.60667
G1 X157.51 Y121.45 E130.68381
G1 X157.90 Y121.64 E130.70579
G1 X158.51 Y121.85 E130.73768
G1 X159.82 Y122.50 E130.81097
G1 X159.80 Y122.61 E130.81654
G1 X160.16 Y122.97 E130.84187
G1 X160.56 Y123.17 E130.86418
G1 X163.45 Y126.06 E131.06805
G1 X163.45 Y126.46 E131.08805
G1 X164.05 Y127.06 E131.13035
G1 X164.05 Y127.46 E131.15036
G1 X164.65 Y128.06 E131.19266
G1 X164.65 Y128.46 E131.21266
G1 X164.85 Y128.66 E131.22674
G1 X164.85 Y129.06 E131.24674
G1 X165.05 Y129.26 E131.26082
G1 X165.05 Y130.06 E131.30078
G1 X165.25 Y130.26 E131.31486
G1 X165.25 Y130.66 E131.33486
G1 X165.45 Y130.86 E131.34894
G1 X165.45 Y136.25 E131.61805
G1 X165.25 Y136.45 E131.63212
G1 X165.25 Y136.85 E131.65213
G1 X165.05 Y137.05 E131.66620
G1 X165.05 Y137.85 E131.70617
G1 X164.85 Y138.05 E131.72024
G1 X164.85 Y138.46 E131.74025
G1 X164.65 Y138.65 E131.75432
G1 X164.65 Y139.06 E131.77433
G1 X164.05 Y139.65 E131.81663
G1 X164.05 Y140.06 E131.83663
G1 X163.45 Y140.65 E131.87893
G1 X163.45 Y140.85 E131.88896
G1 X163.25 Y141.05 E131.90304
G1 X163.25 Y141.25 E131.91306
G1 X160.56 Y143.94 E132.10282
G1 X160.05 Y144.20 E132.13127
G1 X160.05 Y156.10 E132.72501
G1 X159.65 Y156.30 E132.74733
G1 X159.65 Y156.96 E132.78015
G1 X145.55 Y156.96 E133.48360
G1 X145.55 Y156.30 E133.51643
G1 X145.15 Y156.10 E133.53874
G1 X145.15 Y144.09 E134.13798
G1 X144.90 Y144.01 E134.15101
G1 X142.35 Y141.46 E134.33106
G1 X142.35 Y141.25 E134.34109
G1 X141.55 Y140.46 E134.39750
G1 X141.55 Y140.25 E134.40753
G1 X141.35 Y140.06 E134.42160
G1 X141.35 Y139.85 E134.43163
G1 X140.95 Y139.46 E134.45982
G1 X140.95 Y139.25 E134.46985
G1 X140.75 Y139.06 E134.48392
G1 X140.75 Y138.65 E134.50393
G1 X140.55 Y138.46 E134.51801
G1 X140.55 Y138.05 E134.53801
G1 X140.35 Y137.85 E134.55209
G1 X140.35 Y137.45 E134.57209
G1 X140.15 Y137.25 E134.58617
G1 X140.15 Y137.05 E134.59620
G1 X139.95 Y136.85 E134.61027
G1 X139.95 Y130.26 E134.93925
G1 X140.15 Y130.06 E134.95332
G1 X140.15 Y129.66 E134.97333
G1 X140.35 Y129.46 E134.98741
G1 X140.35 Y129.26 E134.99743
G1 X140.55 Y129.06 E135.01151
G1 X140.55 Y128.66 E135.03152
G1 X140.75 Y128.46 E135.04559
G1 X140.75 Y128.06 E135.06560
G1 X140.95 Y127.86 E135.07967
G1 X140.95 Y127.66 E135.08970
G1 X141.35 Y127.26 E135.11789
G1 X141.35 Y127.06 E135.12792
G1 X141.55 Y126.86 E135.14199
G1 X141.55 Y126.66 E135.15202
G1 X141.95 Y126.26 E135.18021
G1 X141.95 Y126.06 E135.19024
G1 F2400 E133.99024
G0 F12000 X145.00 Y128.47
;TYPE:WALL-INNER
G1 F2400 E135.19024
G1 F2700 X145.34 Y128.01 E135.21865
G1 X145.85 Y127.39 E135.25876
G1 X146.23 Y126.99 E135.28632
G1 X146.84 Y126.45 E135.32684
G1 X147.28 Y126.11 E135.35478
G1 X147.95 Y125.66 E135.39502
G1 X148.44 Y125.39 E135.42307
G1 X149.17 Y125.05 E135.46309
G1 X149.59 Y124.89 E135.48521
G1 X150.14 Y124.71 E135.51415
G1 X150.91 Y124.52 E135.55384
G1 X151.47 Y124.43 E135.58214
G1 X152.26 Y124.36 E135.62189
G1 X152.71 Y124.34 E135.64414
G1 X153.29 Y124.37 E135.67330
G1 X154.08 Y124.44 E135.71276
G1 X154.64 Y124.55 E135.74108
G1 X155.42 Y124.75 E135.78127
G1 X156.37 Y125.10 E135.83201
G1 X156.69 Y125.24 E135.84943
G1 X157.19 Y125.50 E135.87715
G1 X157.88 Y125.91 E135.91730
G1 X158.34 Y126.24 E135.94575
G1 X158.95 Y126.75 E135.98545
G1 X159.36 Y127.15 E136.01378
G1 X159.90 Y127.74 E136.05391
G1 X160.24 Y128.19 E136.08185
G1 X160.68 Y128.86 E136.12183
G1 X160.95 Y129.35 E136.15012
G1 X161.30 Y130.09 E136.19049
G1 X161.63 Y131.05 E136.24122
G1 X161.82 Y131.82 E136.28095
G1 X161.91 Y132.38 E136.30905
G1 X161.99 Y133.17 E136.34894
G1 X162.00 Y133.62 E136.37125
G1 X161.98 Y134.20 E136.40041
G1 X161.90 Y134.99 E136.43986
G1 X161.79 Y135.55 E136.46818
G1 X161.60 Y136.33 E136.50838
G1 X161.25 Y137.28 E136.55911
G1 X161.10 Y137.60 E136.57653
G1 X160.85 Y138.10 E136.60425
G1 X160.43 Y138.79 E136.64487
G1 X160.11 Y139.24 E136.67225
G1 X159.59 Y139.86 E136.71258
G1 X159.20 Y140.26 E136.74059
G1 X158.60 Y140.81 E136.78104
G1 X158.15 Y141.15 E136.80924
G1 X157.50 Y141.59 E136.84845
G1 X156.57 Y142.07 E136.90056
G1 X155.84 Y142.37 E136.93989
G1 X155.30 Y142.54 E136.96835
G1 X154.52 Y142.73 E137.00809
G1 X153.97 Y142.82 E137.03618
G1 X153.17 Y142.90 E137.07608
G1 X152.72 Y142.91 E137.09833
G1 X152.14 Y142.89 E137.12749
G1 X151.35 Y142.81 E137.16695
G1 X150.80 Y142.71 E137.19526
G1 X150.01 Y142.51 E137.23546
G1 X149.59 Y142.37 E137.25778
G1 X149.04 Y142.15 E137.28718
G1 X148.25 Y141.76 E137.33129
G1 X147.56 Y141.34 E137.37160
G1 X147.10 Y141.01 E137.39975
G1 X146.48 Y140.50 E137.44005
G1 X146.08 Y140.11 E137.46750
G1 X145.54 Y139.51 E137.50812
G1 X145.20 Y139.06 E137.53607
G1 X144.75 Y138.39 E137.57627
G1 X144.48 Y137.90 E137.60429
G1 X144.14 Y137.17 E137.64437
G1 X143.98 Y136.76 E137.66650
G1 X143.81 Y136.21 E137.69544
G1 X143.61 Y135.43 E137.73512
G1 X143.52 Y134.87 E137.76343
G1 X143.45 Y134.08 E137.80317
G1 X143.44 Y133.63 E137.82543
G1 X143.46 Y133.05 E137.85463
G1 X143.54 Y132.26 E137.89410
G1 X143.64 Y131.70 E137.92278
G1 X143.84 Y130.92 E137.96261
G1 X143.98 Y130.50 E137.98493
G1 X144.20 Y129.95 E138.01433
G1 X144.59 Y129.16 E138.05844
G1 X145.00 Y128.47 E138.09864
G0 F12000 X147.68 Y129.97
G1 F2700 X147.17 Y130.80 E138.14741
G1 X146.80 Y131.70 E138.19612
G1 X146.57 Y132.65 E138.24491
G1 X146.49 Y133.63 E138.29366
G1 X146.57 Y134.60 E138.34240
G1 X146.80 Y135.55 E138.39115
G1 X147.17 Y136.45 E138.43986
G1 X147.68 Y137.29 E138.48863
G1 X148.31 Y138.03 E138.53736
G1 X149.06 Y138.66 E138.58609
G1 X149.89 Y139.18 E138.63489
G1 X150.79 Y139.55 E138.68359
G1 X151.74 Y139.78 E138.73238
G1 X152.72 Y139.85 E138.78108
G1 X153.69 Y139.78 E138.82982
G1 X154.64 Y139.55 E138.87857
G1 X155.54 Y139.18 E138.92726
G1 X156.38 Y138.66 E138.97606
G1 X157.12 Y138.03 E139.02479
G1 X157.75 Y137.29 E139.07352
G1 X158.26 Y136.45 E139.12232
G1 X158.64 Y135.55 E139.17101
G1 X158.87 Y134.60 E139.21975
G1 X158.94 Y133.63 E139.26850
G1 X158.87 Y132.65 E139.31725
G1 X158.64 Y131.70 E139.36604
G1 X158.26 Y130.80 E139.41474
G1 X157.75 Y129.97 E139.46354
G1 X157.12 Y129.22 E139.51227
G1 X156.38 Y128.59 E139.56099
G1 X155.54 Y128.08 E139.60977
G1 X154.64 Y127.70 E139.65848
G1 X153.69 Y127.48 E139.70722
G1 X152.72 Y127.40 E139.75597
G1 X151.74 Y127.48 E139.80466
G1 X150.79 Y127.70 E139.85345
G1 X149.89 Y128.08 E139.90217
G1 X149.06 Y128.59 E139.95094
G1 X148.31 Y129.22 E139.99967
G1 X147.68 Y129.97 E140.04840
G0 F12000 X148.00 Y130.20
;TYPE:WALL-OUTER
G1 F2700 X147.53 Y130.98 E140.09404
G1 X147.18 Y131.83 E140.13962
G1 X146.96 Y132.72 E140.18528
G1 X146.89 Y133.63 E140.23087
G1 X146.96 Y134.54 E140.27646
G1 X147.18 Y135.43 E140.32207
G1 X147.53 Y136.27 E140.36766
G1 X148.00 Y137.05 E140.41330
G1 X148.60 Y137.75 E140.45888
G1 X149.29 Y138.34 E140.50446
G1 X150.07 Y138.82 E140.55012
G1 X150.92 Y139.17 E140.59569
G1 X151.81 Y139.38 E140.64134
G1 X152.72 Y139.45 E140.68689
G1 X153.63 Y139.38 E140.73249
G1 X154.52 Y139.17 E140.77809
G1 X155.36 Y138.82 E140.82366
G1 X156.14 Y138.34 E140.86932
G1 X156.84 Y137.75 E140.91490
G1 X157.43 Y137.05 E140.96048
G1 X157.91 Y136.27 E141.00615
G1 X158.26 Y135.43 E141.05172
G1 X158.47 Y134.54 E141.09732
G1 X158.54 Y133.63 E141.14292
G1 X158.47 Y132.72 E141.18851
G1 X158.26 Y131.83 E141.23417
G1 X157.91 Y130.98 E141.27974
G1 X157.43 Y130.20 E141.32540
G1 X156.84 Y129.51 E141.37098
G1 X156.14 Y128.91 E141.41656
G1 X155.36 Y128.44 E141.46220
G1 X154.52 Y128.09 E141.50779
G1 X153.63 Y127.87 E141.55339
G1 X152.72 Y127.80 E141.59899
G1 X151.81 Y127.87 E141.64453
G1 X150.92 Y128.09 E141.69018
G1 X150.07 Y128.44 E141.73577
G1 X149.29 Y128.91 E141.78141
G1 X148.60 Y129.51 E141.82699
G1 X148.00 Y130.20 E141.87257
G0 F12000 X147.75 Y130.04
G0 X145.26 Y127.94
G0 X145.02 Y127.76
G1 F2700 X145.54 Y127.12 E141.91364
G1 X145.96 Y126.70 E141.94303
G1 X146.58 Y126.14 E141.98507
G1 X147.05 Y125.78 E142.01416
G1 X147.75 Y125.32 E142.05601
G1 X148.27 Y125.03 E142.08576
G1 X149.01 Y124.68 E142.12655
G1 X149.46 Y124.51 E142.15061
G1 X150.03 Y124.33 E142.18070
G1 X150.83 Y124.13 E142.22182
G1 X151.41 Y124.03 E142.25129
G1 X152.24 Y123.95 E142.29274
G1 X152.72 Y123.94 E142.31634
G1 X153.32 Y123.97 E142.34635
G1 X154.13 Y124.05 E142.38732
G1 X154.73 Y124.16 E142.41766
G1 X155.53 Y124.36 E142.45873
G1 X156.54 Y124.73 E142.51249
G1 X156.86 Y124.88 E142.53007
G1 X157.39 Y125.15 E142.55948
G1 X158.09 Y125.58 E142.60078
G1 X158.59 Y125.93 E142.63104
G1 X159.21 Y126.45 E142.67159
G1 X159.64 Y126.86 E142.70147
G1 X160.21 Y127.49 E142.74351
G1 X160.56 Y127.95 E142.77260
G1 X161.03 Y128.66 E142.81466
G1 X161.31 Y129.17 E142.84375
G1 X161.66 Y129.92 E142.88502
G1 X162.02 Y130.94 E142.93914
G1 X162.22 Y131.75 E142.98052
G1 X162.31 Y132.32 E143.00962
G1 X162.39 Y133.15 E143.05092
G1 X162.40 Y133.62 E143.07458
G1 X162.38 Y134.23 E143.10483
G1 X162.30 Y135.04 E143.14564
G1 X162.18 Y135.64 E143.17609
G1 X161.98 Y136.43 E143.21690
G1 X161.61 Y137.45 E143.27097
G1 X161.47 Y137.77 E143.28840
G1 X161.20 Y138.29 E143.31779
G1 X160.77 Y139.00 E143.35926
G1 X160.41 Y139.50 E143.38942
G1 X159.90 Y140.12 E143.43010
G1 X159.48 Y140.55 E143.45998
G1 X158.85 Y141.12 E143.50195
G1 X158.38 Y141.47 E143.53150
G1 X157.70 Y141.93 E143.57251
G1 X156.74 Y142.43 E143.62635
G1 X155.98 Y142.74 E143.66741
G1 X155.40 Y142.93 E143.69765
G1 X154.60 Y143.12 E143.73878
G1 X154.02 Y143.22 E143.76819
G1 X153.19 Y143.30 E143.80969
G1 X152.72 Y143.31 E143.83329
G1 X152.12 Y143.29 E143.86330
G1 X151.30 Y143.21 E143.90426
G1 X150.70 Y143.09 E143.93461
G1 X149.91 Y142.89 E143.97567
G1 X148.89 Y142.52 E144.02944
G1 X148.04 Y142.10 E144.07658
G1 X147.34 Y141.68 E144.11769
G1 X146.85 Y141.32 E144.14795
G1 X146.21 Y140.80 E144.18903
G1 X145.79 Y140.39 E144.21842
G1 X145.23 Y139.76 E144.26045
G1 X144.87 Y139.30 E144.28954
G1 X144.41 Y138.60 E144.33153
G1 X144.12 Y138.07 E144.36132
G1 X143.77 Y137.34 E144.40199
G1 X143.42 Y136.31 E144.45606
G1 X143.22 Y135.51 E144.49744
G1 X143.13 Y134.93 E144.52665
G1 X143.05 Y134.10 E144.56810
G1 X143.03 Y133.63 E144.59145
G1 X143.06 Y133.02 E144.62201
G1 X143.14 Y132.21 E144.66257
G1 X143.25 Y131.61 E144.69307
G1 X143.45 Y130.82 E144.73383
G1 X143.83 Y129.80 E144.78791
G1 X144.24 Y128.96 E144.83465
G1 X144.67 Y128.25 E144.87616
G1 X145.02 Y127.76 E144.90639
G0 F12000 X145.40 Y128.15
;TYPE:FILL
G1 F2700 X147.40 Y130.15 E145.04747
G0 F12000 X147.63 Y129.81
G1 F2700 X145.66 Y127.84 E145.18674
G0 F12000 X145.91 Y127.53
G1 F2700 X147.89 Y129.50 E145.32634
G0 F12000 X148.15 Y129.20
G1 F2700 X146.19 Y127.23 E145.46494
G0 F12000 X146.47 Y126.96
G1 F2700 X148.44 Y128.93 E145.60383
G0 F12000 X148.75 Y128.67
G1 F2700 X146.77 Y126.69 E145.74332
G0 F12000 X147.08 Y126.43
G1 F2700 X149.06 Y128.42 E145.88330
G0 F12000 X149.42 Y128.20
G1 F2700 X147.41 Y126.19 E146.02519
G0 F12000 X147.75 Y125.97
G1 F2700 X149.77 Y127.99 E146.16785
G0 F12000 X150.16 Y127.81
G1 F2700 X148.09 Y125.75 E146.31383
G0 F12000 X148.45 Y125.54
G1 F2700 X150.56 Y127.65 E146.46228
G0 F12000 X150.99 Y127.51
G1 F2700 X148.84 Y125.36 E146.61412
G0 F12000 X149.22 Y125.18
G1 F2700 X151.44 Y127.40 E146.77107
G0 F12000 X151.93 Y127.32
G1 F2700 X149.63 Y125.02 E146.93327
G0 F12000 X150.06 Y124.89
G1 F2700 X152.45 Y127.28 E147.10218
G0 F12000 X153.02 Y127.28
G1 F2700 X150.50 Y124.77 E147.27970
G0 F12000 X150.96 Y124.66
G1 F2700 X153.64 Y127.33 E147.46858
G0 F12000 X154.36 Y127.49
G1 F2700 X151.45 Y124.58 E147.67449
G0 F12000 X151.96 Y124.52
G1 F2700 X155.24 Y127.80 E147.90556
G0 F12000 X156.59 Y128.59
G1 F2700 X152.49 Y124.49 E148.19466
G0 F12000 X153.06 Y124.50
G1 F2700 X161.85 Y133.28 E148.81442
G0 F12000 X161.85 Y133.85
G1 F2700 X157.75 Y129.75 E149.10328
G0 F12000 X158.54 Y131.11
G1 F2700 X161.82 Y134.38 E149.33427
G0 F12000 X161.77 Y134.90
G1 F2700 X158.85 Y131.98 E149.54019
G0 F12000 X159.01 Y132.70
G1 F2700 X161.68 Y135.38 E149.72889
G0 F12000 X161.58 Y135.84
G1 F2700 X159.06 Y133.32 E149.90651
G0 F12000 X159.06 Y133.89
G1 F2700 X161.46 Y136.29 E150.07578
G0 F12000 X161.31 Y136.70
G1 F2700 X159.02 Y134.41 E150.23728
G0 F12000 X158.94 Y134.90
G1 F2700 X161.16 Y137.12 E150.39384
G0 F12000 X160.99 Y137.51
G1 F2700 X158.83 Y135.35 E150.54638
G0 F12000 X158.69 Y135.78
G1 F2700 X160.80 Y137.89 E150.69497
G0 F12000 X160.59 Y138.25
G1 F2700 X158.53 Y136.18 E150.84077
G0 F12000 X158.35 Y136.57
G1 F2700 X160.38 Y138.60 E150.98386
G0 F12000 X160.15 Y138.94
G1 F2700 X158.14 Y136.93 E151.12589
G0 F12000 X157.92 Y137.28
G1 F2700 X159.91 Y139.26 E151.26587
G0 F12000 X159.65 Y139.57
G1 F2700 X157.67 Y137.59 E151.40539
G0 F12000 X157.41 Y137.90
G1 F2700 X159.39 Y139.87 E151.54460
G0 F12000 X159.11 Y140.16
G1 F2700 X157.14 Y138.19 E151.68320
G0 F12000 X156.84 Y138.45
G1 F2700 X158.81 Y140.43 E151.82234
G0 F12000 X158.51 Y140.69
G1 F2700 X156.53 Y138.71 E151.96197
G0 F12000 X156.19 Y138.94
G1 F2700 X158.19 Y140.94 E152.10297
G0 F12000 X157.86 Y141.17
G1 F2700 X155.84 Y139.16 E152.24528
G0 F12000 X155.48 Y139.35
G1 F2700 X157.52 Y141.40 E152.38957
G0 F12000 X157.16 Y141.60
G1 F2700 X155.08 Y139.52 E152.53650
G0 F12000 X154.68 Y139.68
G1 F2700 X156.79 Y141.80 E152.68548
G0 F12000 X156.41 Y141.98
G1 F2700 X154.22 Y139.79 E152.83992
G0 F12000 X153.76 Y139.90
G1 F2700 X156.01 Y142.15 E152.99825
G0 F12000 X155.59 Y142.30
G1 F2700 X153.25 Y139.95 E153.16377
G0 F12000 X152.72 Y140.00
G1 F2700 X155.16 Y142.43 E153.33551
G0 F12000 X154.70 Y142.54
G1 F2700 X152.11 Y139.94 E153.51874
G0 F12000 X151.44 Y139.85
G1 F2700 X154.23 Y142.64 E153.71545
G0 F12000 X153.73 Y142.70
G1 F2700 X150.69 Y139.66 E153.93039
G0 F12000 X149.67 Y139.21
G1 F2700 X153.22 Y142.75 E154.18069
G0 F12000 X152.66 Y142.76
G1 F2700 X143.57 Y133.68 E154.82200
G0 F12000 X143.59 Y133.13
G1 F2700 X147.14 Y136.68 E155.07233
G0 F12000 X146.69 Y135.66
G1 F2700 X143.64 Y132.61 E155.28724
G0 F12000 X143.71 Y132.11
G1 F2700 X146.49 Y134.90 E155.48392
G0 F12000 X146.40 Y134.24
G1 F2700 X143.80 Y131.64 E155.66719
G0 F12000 X143.91 Y131.19
G1 F2700 X146.35 Y133.62 E155.83906
G0 F12000 X146.39 Y133.10
G1 F2700 X144.04 Y130.75 E156.00490
G0 F12000 X144.19 Y130.33
G1 F2700 X146.44 Y132.58 E156.16351
G0 F12000 X146.55 Y132.12
G1 F2700 X144.36 Y129.94 E156.31802
G0 F12000 X144.55 Y129.56
G1 F2700 X146.66 Y131.67 E156.46707
G0 F12000 X146.82 Y131.27
G1 F2700 X144.73 Y129.18 E156.61446
G0 F12000 X144.95 Y128.82
G1 F2700 X146.99 Y130.87 E156.75854
G0 F12000 X147.19 Y130.50
G1 F2700 X145.16 Y128.48 E156.90127
G0 F12000 X143.60 Y134.27
G1 F2700 X152.07 Y142.74 E157.49880
G0 F12000 X151.44 Y142.68
G1 F2700 X143.66 Y134.90 E158.04765
G0 F12000 X143.79 Y135.59
G1 F2700 X150.75 Y142.55 E158.53847
G0 F12000 X149.99 Y142.35
G1 F2700 X144.00 Y136.36 E158.96089
G0 F12000 X144.33 Y137.26
G1 F2700 X149.08 Y142.01 E159.29588
G0 F12000 X147.88 Y141.37
G1 F2700 X144.96 Y138.46 E159.50159
G0 F12000 X147.17 Y130.80
G0 X149.06 Y128.59
G0 X153.68 Y124.55
G1 F2700 X161.80 Y132.66 E160.07443
G0 F12000 X161.71 Y132.01
G1 F2700 X154.33 Y124.64 E160.59492
G0 F12000 X155.07 Y124.80
G1 F2700 X161.54 Y131.28 E161.05190
G0 F12000 X161.27 Y130.44
G1 F2700 X155.91 Y125.08 E161.43057
G0 F12000 X156.90 Y125.50
G1 F2700 X160.84 Y129.44 E161.70849
G0 F12000 X159.74 Y127.77
G1 F2700 X158.61 Y126.65 E161.78783
G1 F2400 E160.58783
G0 F12000 X154.72 Y129.40
;TYPE:SUPPORT
G1 F2400 E161.78783
G1 F2700 X154.72 Y137.85 E162.20930
G0 F12000 X154.66 Y137.70
G0 X152.62 Y138.14
G0 X152.61 Y138.30
G1 F2700 X152.61 Y128.95 E162.67568
G0 F12000 X152.62 Y129.11
G0 X150.59 Y129.64
G0 X150.51 Y129.50
G1 F2700 X150.51 Y137.75 E163.08687
G0 F12000 X150.59 Y137.61
G0 X148.55 Y135.34
G0 X148.40 Y135.41
G1 F2700 X148.40 Y131.85 E163.26438
G0 F12000 X148.55 Y131.91
G0 X156.69 Y131.47
G0 X156.82 Y131.39
G1 F2700 X156.82 Y135.86 E163.48749
G1 F2400 E162.28749
G0 F12000 X158.93 Y142.57
G1 F2400 E163.48749
G1 F2700 X158.93 Y156.82 E164.19808
G0 F12000 X158.93 Y156.66
G0 X156.82 Y156.66
G0 X156.82 Y156.82
G1 F2700 X156.82 Y143.63 E164.85603
G0 F12000 X156.88 Y143.78
G0 X154.74 Y144.42
G0 X154.72 Y144.26
G1 F2700 X154.72 Y156.82 E165.48255
G0 F12000 X154.72 Y156.66
G0 X152.61 Y156.66
G0 X152.61 Y156.82
G1 F2700 X152.61 Y144.45 E166.09979
G0 F12000 X152.61 Y144.60
G0 X150.48 Y144.37
G0 X150.51 Y144.22
G1 F2700 X150.51 Y156.82 E166.72841
G0 F12000 X150.51 Y156.66
G0 X148.40 Y156.66
G0 X148.40 Y156.82
G1 F2700 X148.40 Y143.55 E167.39045
G0 F12000 X148.34 Y143.69
G0 X146.38 Y142.84
G0 X146.30 Y142.70
G1 F2700 X146.30 Y156.82 E168.09485
;LAYER:1
G1 F2400 E166.89485
G0 F12000 X150.34 Y143.15 Z0.50
;TYPE:WALL-INNER
G1 F2400 E168.09485
G1 F3000 X149.40 Y142.87 E168.12721
G1 X148.52 Y142.50 E168.15920
G1 X147.67 Y142.05 E168.19113
G1 X146.86 Y141.50 E168.22361
G1 X146.12 Y140.90 E168.25523
G1 X145.44 Y140.22 E168.28726
G1 X144.83 Y139.48 E168.31916
G1 X144.29 Y138.66 E168.35178
G1 X143.84 Y137.81 E168.38389
G1 X143.47 Y136.94 E168.41546
G1 X143.19 Y136.00 E168.44803
G1 X143.09 Y135.55 E168.46337
G1 X142.94 Y134.59 E168.49554
G1 X142.91 Y134.12 E168.51132
G1 X142.90 Y133.63 E168.52765
G1 X142.91 Y133.13 E168.54422
G1 X143.00 Y132.19 E168.57568
G1 X143.19 Y131.25 E168.60731
G1 X143.48 Y130.31 E168.64033
G1 X143.84 Y129.44 E168.67141
G1 X144.06 Y129.00 E168.68801
G1 X144.56 Y128.17 E168.72011
G1 X145.13 Y127.39 E168.75225
G1 X145.77 Y126.68 E168.78409
G1 X146.48 Y126.04 E168.81592
G1 X147.26 Y125.46 E168.84807
G1 X148.09 Y124.97 E168.88017
G1 X148.95 Y124.56 E168.91208
G1 X149.87 Y124.23 E168.94450
G1 X150.80 Y124.00 E168.97623
G1 X151.75 Y123.85 E169.00838
G1 X152.23 Y123.82 E169.02415
G1 X152.72 Y123.81 E169.04049
G1 X153.21 Y123.82 E169.05682
G1 X154.16 Y123.91 E169.08848
G1 X154.64 Y124.00 E169.10478
G1 X155.56 Y124.23 E169.13647
G1 X156.48 Y124.56 E169.16889
G1 X157.35 Y124.97 E169.20084
G1 X158.17 Y125.46 E169.23276
G1 X158.95 Y126.04 E169.26491
G1 X159.66 Y126.68 E169.29689
G1 X160.30 Y127.39 E169.32872
G1 X160.89 Y128.18 E169.36127
G1 X161.38 Y129.00 E169.39299
G1 X161.79 Y129.87 E169.42520
G1 X162.12 Y130.79 E169.45766
G1 X162.34 Y131.70 E169.48870
G1 X162.49 Y132.65 E169.52088
G1 X162.52 Y133.13 E169.53676
G1 X162.54 Y133.63 E169.55332
G1 X162.52 Y134.12 E169.56966
G1 X162.43 Y135.06 E169.60131
G1 X162.35 Y135.55 E169.61761
G1 X162.25 Y136.00 E169.63298
G1 X161.96 Y136.94 E169.66570
G1 X161.59 Y137.83 E169.69771
G1 X161.15 Y138.66 E169.72918
G1 X160.60 Y139.47 E169.76162
G1 X159.99 Y140.22 E169.79372
G1 X159.31 Y140.90 E169.82575
G1 X158.56 Y141.51 E169.85784
G1 X157.78 Y142.04 E169.88939
G1 X157.34 Y142.29 E169.90623
G1 X156.47 Y142.70 E169.93804
G1 X155.55 Y143.03 E169.97051
G1 X154.64 Y143.26 E170.00185
G1 X153.68 Y143.40 E170.03403
G1 X153.21 Y143.43 E170.04980
G1 X152.72 Y143.45 E170.06614
G1 X152.23 Y143.43 E170.08247
G1 X151.28 Y143.34 E170.11413
G1 X150.34 Y143.15 E170.14613
G0 F12000 X150.79 Y139.55
G1 F3000 X151.74 Y139.78 E170.17866
G1 X152.72 Y139.85 E170.21113
G1 X153.69 Y139.78 E170.24363
G1 X154.64 Y139.55 E170.27612
G1 X155.54 Y139.18 E170.30858
G1 X156.38 Y138.66 E170.34112
G1 X157.12 Y138.03 E170.37360
G1 X157.75 Y137.29 E170.40609
G1 X158.26 Y136.45 E170.43862
G1 X158.64 Y135.55 E170.47108
G1 X158.87 Y134.60 E170.50358
G1 X158.94 Y133.63 E170.53608
G1 X158.87 Y132.65 E170.56858
G1 X158.64 Y131.70 E170.60110
G1 X158.26 Y130.80 E170.63357
G1 X157.75 Y129.97 E170.66610
G1 X157.12 Y129.22 E170.69859
G1 X156.38 Y128.59 E170.73107
G1 X155.54 Y128.08 E170.76359
G1 X154.64 Y127.70 E170.79606
G1 X153.69 Y127.48 E170.82856
G1 X152.72 Y127.40 E170.86106
G1 X151.74 Y127.48 E170.89352
G1 X150.79 Y127.70 E170.92605
G1 X149.89 Y128.08 E170.95852
G1 X149.06 Y128.59 E170.99104
G1 X148.31 Y129.22 E171.02352
G1 X147.68 Y129.97 E171.05601
G1 X147.17 Y130.80 E171.08852
G1 X146.80 Y131.70 E171.12100
G1 X146.57 Y132.65 E171.15353
G1 X146.49 Y133.63 E171.18602
G1 X146.57 Y134.60 E171.21852
G1 X146.80 Y135.55 E171.25101
G1 X147.17 Y136.45 E171.28349
G1 X147.68 Y137.29 E171.31601
G1 X148.31 Y138.03 E171.34849
G1 X149.06 Y138.66 E171.38098
G1 X149.89 Y139.18 E171.41351
G1 X150.79 Y139.55 E171.44598
G0 F12000 X150.92 Y139.17
;TYPE:WALL-OUTER
G1 F3000 X151.81 Y139.38 E171.47641
G1 X152.72 Y139.45 E171.50678
G1 X153.63 Y139.38 E171.53717
G1 X154.52 Y139.17 E171.56758
G1 X155.36 Y138.82 E171.59796
G1 X156.14 Y138.34 E171.62840
G1 X156.84 Y137.75 E171.65879
G1 X157.43 Y137.05 E171.68917
G1 X157.91 Y136.27 E171.71962
G1 X158.26 Y135.43 E171.74999
G1 X158.47 Y134.54 E171.78040
G1 X158.54 Y133.63 E171.81080
G1 X158.47 Y132.72 E171.84119
G1 X158.26 Y131.83 E171.87163
G1 X157.91 Y130.98 E171.90201
G1 X157.43 Y130.20 E171.93245
G1 X156.84 Y129.51 E171.96284
G1 X156.14 Y128.91 E171.99323
G1 X155.36 Y128.44 E172.02365
G1 X154.52 Y128.09 E172.05404
G1 X153.63 Y127.87 E172.08445
G1 X152.72 Y127.80 E172.11484
G1 X151.81 Y127.87 E172.14520
G1 X150.92 Y128.09 E172.17564
G1 X150.07 Y128.44 E172.20603
G1 X149.29 Y128.91 E172.23646
G1 X148.60 Y129.51 E172.26684
G1 X148.00 Y130.20 E172.29723
G1 X147.53 Y130.98 E172.32766
G1 X147.18 Y131.83 E172.35805
G1 X146.96 Y132.72 E172.38848
G1 X146.89 Y133.63 E172.41888
G1 X146.96 Y134.54 E172.44927
G1 X147.18 Y135.43 E172.47968
G1 X147.53 Y136.27 E172.51007
G1 X148.00 Y137.05 E172.54049
G1 X148.60 Y137.75 E172.57088
G1 X149.29 Y138.34 E172.60127
G1 X150.07 Y138.82 E172.63171
G1 X150.92 Y139.17 E172.66209
G0 F12000 X150.85 Y139.46
G0 X149.84 Y143.12
G0 X149.75 Y143.41
G1 F3000 X148.80 Y143.07 E172.69566
G1 X147.90 Y142.64 E172.72900
G1 X147.46 Y142.39 E172.74567
G1 X146.63 Y141.84 E172.77876
G1 X146.23 Y141.52 E172.79575
G1 X145.49 Y140.85 E172.82909
G1 X145.14 Y140.49 E172.84577
G1 X144.51 Y139.71 E172.87909
G1 X144.22 Y139.30 E172.89580
G1 X143.95 Y138.88 E172.91246
G1 X143.70 Y138.44 E172.92915
G1 X143.48 Y137.99 E172.94583
G1 X143.09 Y137.06 E172.97920
G1 X142.94 Y136.59 E172.99590
G1 X142.80 Y136.10 E173.01258
G1 X142.69 Y135.62 E173.02925
G1 X142.61 Y135.12 E173.04592
G1 X142.55 Y134.62 E173.06264
G1 X142.51 Y134.13 E173.07898
G1 X142.50 Y133.63 E173.09565
G1 X142.51 Y133.12 E173.11269
G1 X142.61 Y132.13 E173.14574
G1 X142.69 Y131.64 E173.16238
G1 X142.80 Y131.15 E173.17908
G1 X142.94 Y130.66 E173.19575
G1 X143.09 Y130.19 E173.21246
G1 X143.28 Y129.71 E173.22946
G1 X143.70 Y128.81 E173.26248
G1 X143.95 Y128.38 E173.27917
G1 X144.22 Y127.94 E173.29617
G1 X144.82 Y127.14 E173.32955
G1 X145.49 Y126.40 E173.36256
G1 X145.86 Y126.05 E173.37957
G1 X146.63 Y125.42 E173.41292
G1 X147.46 Y124.86 E173.44596
G1 X147.90 Y124.62 E173.46263
G1 X148.35 Y124.39 E173.47964
G1 X149.28 Y124.00 E173.51299
G1 X150.24 Y123.71 E173.54635
G1 X150.72 Y123.60 E173.56288
G1 X151.22 Y123.52 E173.57969
G1 X152.21 Y123.42 E173.61275
G1 X152.72 Y123.41 E173.62958
G1 X153.22 Y123.42 E173.64642
G1 X154.21 Y123.52 E173.67947
G1 X154.71 Y123.60 E173.69631
G1 X155.69 Y123.85 E173.72979
G1 X156.63 Y124.19 E173.76317
G1 X157.54 Y124.62 E173.79656
G1 X157.97 Y124.86 E173.81322
G1 X158.81 Y125.42 E173.84648
G1 X159.20 Y125.73 E173.86326
G1 X159.94 Y126.40 E173.89627
G1 X160.29 Y126.77 E173.91328
G1 X160.61 Y127.14 E173.92962
G1 X160.92 Y127.54 E173.94635
G1 X161.21 Y127.94 E173.96303
G1 X161.48 Y128.37 E173.97971
G1 X161.73 Y128.81 E173.99638
G1 X161.96 Y129.26 E174.01340
G1 X162.34 Y130.18 E174.04641
G1 X162.50 Y130.66 E174.06309
G1 X162.63 Y131.14 E174.07976
G1 X162.74 Y131.63 E174.09647
G1 X162.83 Y132.13 E174.11344
G1 X162.92 Y133.12 E174.14650
G1 X162.94 Y133.62 E174.16320
G1 X162.92 Y134.13 E174.18020
G1 X162.83 Y135.12 E174.21326
G1 X162.74 Y135.62 E174.22993
G1 X162.63 Y136.11 E174.24663
G1 X162.50 Y136.59 E174.26326
G1 X162.34 Y137.06 E174.27998
G1 X162.16 Y137.54 E174.29698
G1 X161.96 Y137.99 E174.31334
G1 X161.73 Y138.44 E174.33002
G1 X161.49 Y138.88 E174.34671
G1 X161.21 Y139.31 E174.36368
G1 X160.61 Y140.11 E174.39708
G1 X159.95 Y140.85 E174.43010
G1 X159.58 Y141.20 E174.44710
G1 X158.80 Y141.84 E174.48043
G1 X157.97 Y142.40 E174.51380
G1 X157.53 Y142.64 E174.53048
G1 X156.63 Y143.07 E174.56353
G1 X156.16 Y143.25 E174.58053
G1 X155.68 Y143.41 E174.59711
G1 X155.20 Y143.54 E174.61387
G1 X154.71 Y143.65 E174.63041
G1 X154.21 Y143.74 E174.64725
G1 X153.22 Y143.83 E174.68030
G1 X152.72 Y143.85 E174.69714
G1 X152.21 Y143.83 E174.71397
G1 X151.22 Y143.74 E174.74703
G1 X150.72 Y143.65 E174.76384
G1 X150.24 Y143.54 E174.78040
G1 X149.75 Y143.41 E174.79717
G0 F12000 X149.87 Y142.87
;TYPE:FILL
G1 F3000 X152.75 Y139.99 E174.93240
G0 F12000 X152.22 Y139.95
G1 F3000 X149.44 Y142.73 E175.06314
G0 F12000 X149.04 Y142.57
G1 F3000 X151.70 Y139.91 E175.18821
G0 F12000 X151.25 Y139.80
G1 F3000 X148.64 Y142.40 E175.31065
G0 F12000 X148.27 Y142.21
G1 F3000 X150.79 Y139.69 E175.42921
G0 F12000 X150.38 Y139.53
G1 F3000 X147.90 Y142.01 E175.54605
G0 F12000 X147.55 Y141.80
G1 F3000 X149.98 Y139.37 E175.66063
G0 F12000 X149.61 Y139.17
G1 F3000 X147.21 Y141.57 E175.77371
G0 F12000 X146.88 Y141.34
G1 F3000 X149.26 Y138.95 E175.88594
G0 F12000 X148.92 Y138.73
G1 F3000 X146.57 Y141.08 E175.99666
G0 F12000 X146.25 Y140.83
G1 F3000 X148.61 Y138.47 E176.10764
G0 F12000 X148.31 Y138.21
G1 F3000 X145.97 Y140.55 E176.21773
G0 F12000 X145.69 Y140.27
G1 F3000 X148.03 Y137.92 E176.32822
G0 F12000 X147.77 Y137.61
G1 F3000 X145.42 Y139.97 E176.43909
G0 F12000 X145.16 Y139.66
G1 F3000 X147.52 Y137.30 E176.55010
G0 F12000 X147.31 Y136.95
G1 F3000 X144.91 Y139.34 E176.66287
G0 F12000 X144.68 Y139.01
G1 F3000 X147.09 Y136.60 E176.77616
G0 F12000 X146.91 Y136.21
G1 F3000 X144.46 Y138.67 E176.89175
G0 F12000 X144.25 Y138.30
G1 F3000 X146.75 Y135.81 E177.00911
G0 F12000 X146.61 Y135.38
G1 F3000 X144.06 Y137.94 E177.12912
G0 F12000 X143.88 Y137.55
G1 F3000 X146.50 Y134.93 E177.25250
G0 F12000 X146.41 Y134.45
G1 F3000 X143.71 Y137.15 E177.37959
G0 F12000 X143.56 Y136.74
G1 F3000 X146.37 Y133.92 E177.51195
G0 F12000 X146.37 Y133.36
G1 F3000 X143.43 Y136.31 E177.65043
G0 F12000 X143.30 Y135.86
G1 F3000 X146.42 Y132.75 E177.79714
G0 F12000 X146.57 Y132.03
G1 F3000 X143.21 Y135.39 E177.95551
G0 F12000 X143.13 Y134.90
G1 F3000 X146.86 Y131.17 E178.13091
G0 F12000 X147.53 Y129.94
G1 F3000 X143.07 Y134.40 E178.34084
G0 F12000 X143.04 Y133.86
G1 F3000 X152.95 Y123.95 E178.80683
G0 F12000 X153.48 Y123.99
G1 F3000 X149.02 Y128.44 E179.01648
G0 F12000 X150.26 Y127.77
G1 F3000 X154.00 Y124.04 E179.19216
G0 F12000 X154.49 Y124.11
G1 F3000 X151.12 Y127.48 E179.35072
G0 F12000 X151.84 Y127.33
G1 F3000 X154.95 Y124.22 E179.49705
G0 F12000 X155.40 Y124.33
G1 F3000 X152.45 Y127.28 E179.63572
G0 F12000 X153.01 Y127.28
G1 F3000 X155.82 Y124.47 E179.76794
G0 F12000 X156.24 Y124.62
G1 F3000 X153.54 Y127.33 E179.89518
G0 F12000 X154.02 Y127.41
G1 F3000 X156.64 Y124.79 E180.01855
G0 F12000 X157.02 Y124.97
G1 F3000 X154.47 Y127.52 E180.13857
G0 F12000 X154.90 Y127.66
G1 F3000 X157.40 Y125.16 E180.25616
G0 F12000 X157.75 Y125.37
G1 F3000 X155.30 Y127.83 E180.37152
G0 F12000 X155.69 Y128.00
G1 F3000 X158.10 Y125.59 E180.48521
G0 F12000 X158.43 Y125.83
G1 F3000 X156.04 Y128.22 E180.59770
G0 F12000 X156.39 Y128.43
G1 F3000 X158.75 Y126.07 E180.70898
G0 F12000 X159.06 Y126.33
G1 F3000 X156.70 Y128.68 E180.81985
G0 F12000 X157.01 Y128.94
G1 F3000 X159.36 Y126.60 E180.93034
G0 F12000 X159.64 Y126.88
G1 F3000 X157.30 Y129.22 E181.04060
G0 F12000 X157.56 Y129.52
G1 F3000 X159.91 Y127.17 E181.15127
G0 F12000 X160.18 Y127.47
G1 F3000 X157.82 Y129.83 E181.26237
G0 F12000 X158.04 Y130.17
G1 F3000 X160.42 Y127.79 E181.37430
G0 F12000 X160.66 Y128.12
G1 F3000 X158.26 Y130.52 E181.48745
G0 F12000 X158.46 Y130.89
G1 F3000 X160.89 Y128.46 E181.60193
G0 F12000 X161.10 Y128.81
G1 F3000 X158.62 Y131.29 E181.71859
G0 F12000 X158.78 Y131.70
G1 F3000 X161.30 Y129.17 E181.83726
G0 F12000 X161.49 Y129.56
G1 F3000 X158.89 Y132.15 E181.95934
G0 F12000 X159.00 Y132.61
G1 F3000 X161.66 Y129.94 E182.08470
G0 F12000 X161.81 Y130.36
G1 F3000 X159.04 Y133.13 E182.21501
G0 F12000 X159.08 Y133.66
G1 F3000 X161.96 Y130.78 E182.35060
G0 F12000 X162.08 Y131.23
G1 F3000 X159.03 Y134.28 E182.49406
G0 F12000 X158.93 Y134.95
G1 F3000 X162.19 Y131.68 E182.64778
G0 F12000 X162.27 Y132.17
G1 F3000 X158.72 Y135.72 E182.81490
G0 F12000 X158.23 Y136.77
G1 F3000 X162.35 Y132.66 E183.00836
G0 F12000 X162.38 Y133.19
G1 F3000 X152.28 Y143.29 E183.48386
G0 F12000 X151.76 Y143.25
G1 F3000 X155.86 Y139.14 E183.67690
G0 F12000 X154.81 Y139.63
G1 F3000 X151.25 Y143.19 E183.84444
G0 F12000 X150.78 Y143.10
G1 F3000 X154.04 Y139.84 E183.99783
G0 F12000 X153.37 Y139.94
G1 F3000 X150.31 Y143.00 E184.14160
G0 F12000 X152.83 Y143.30
G1 F3000 X162.39 Y133.74 E184.59125
G0 F12000 X162.36 Y134.34
G1 F3000 X153.42 Y143.28 E185.01157
G0 F12000 X154.07 Y143.20
G1 F3000 X162.30 Y134.97 E185.39868
G0 F12000 X162.18 Y135.65
G1 F3000 X154.75 Y143.08 E185.74815
G0 F12000 X155.50 Y142.89
G1 F3000 X161.97 Y136.43 E186.05219
G0 F12000 X161.65 Y137.31
G1 F3000 X156.38 Y142.58 E186.30017
G0 F12000 X157.48 Y142.05
G1 F3000 X161.12 Y138.41 E186.47150
G0 F12000 X157.75 Y129.97
G0 X155.54 Y128.08
G0 X152.38 Y123.95
G1 F3000 X143.04 Y133.29 E186.91069
G0 F12000 X143.09 Y132.68
G1 F3000 X151.78 Y123.99 E187.31920
G0 F12000 X151.12 Y124.09
G1 F3000 X143.18 Y132.03 E187.69258
G0 F12000 X143.32 Y131.32
G1 F3000 X150.40 Y124.24 E188.02572
G0 F12000 X149.60 Y124.47
G1 F3000 X143.56 Y130.52 E188.30994
G0 F12000 X143.93 Y129.58
G1 F3000 X148.65 Y124.85 E188.53229
G0 F12000 X147.40 Y125.54
G1 F3000 X144.63 Y128.31 E188.66251
G1 F2400 E187.46251
G0 F12000 X146.30 Y143.04
;TYPE:SUPPORT
G1 F2400 E188.66251
G1 F3000 X146.30 Y156.82 E189.12060
G0 F12000 X146.30 Y156.66
G0 X148.40 Y156.66
G0 X148.40 Y156.82
G1 F3000 X148.40 Y144.13 E189.54247
G0 F12000 X148.34 Y144.28
G0 X150.49 Y144.93
G0 X150.51 Y144.77
G1 F3000 X150.51 Y156.82 E189.94322
G0 F12000 X150.51 Y156.66
G0 X152.61 Y156.66
G0 X152.61 Y156.82
G1 F3000 X152.61 Y144.98 E190.33686
G0 F12000 X152.61 Y145.14
G0 X154.74 Y144.96
G0 X154.72 Y144.80
G1 F3000 X154.72 Y156.82 E190.73644
G0 F12000 X154.72 Y156.66
G0 X156.82 Y156.66
G0 X156.82 Y156.82
G1 F3000 X156.82 Y144.21 E191.15565
G0 F12000 X156.88 Y144.36
G0 X159.00 Y143.36
G0 X158.93 Y143.21
G1 F3000 X158.93 Y156.82 E191.60816
G1 F2400 E190.40816
G0 F12000 X154.72 Y137.85
G1 F2400 E191.60816
G1 F3000 X154.72 Y129.40 E191.88914
G0 F12000 X154.66 Y129.55
G0 X152.62 Y129.11
G0 X152.61 Y128.95
G1 F3000 X152.61 Y138.30 E192.20006
G0 F12000 X152.62 Y138.14
G0 X150.59 Y137.61
G0 X150.51 Y137.75
G1 F3000 X150.51 Y129.50 E192.47419
G0 F12000 X150.59 Y129.64
G0 X148.55 Y131.91
G0 X148.40 Y131.85
G1 F3000 X148.40 Y135.41 E192.59252
G0 F12000 X148.55 Y135.34
G0 X156.69 Y135.78
G0 X156.82 Y135.86
G1 F3000 X156.82 Y131.39 E192.74126
;LAYER:2
G0 F12000 X158.05 Y130.64 Z0.70
G0 X158.26 Y130.80
;TYPE:WALL-INNER
G1 F3420 X157.75 Y129.97 E192.77380
G1 X157.12 Y129.22 E192.80628
G1 X156.38 Y128.59 E192.83877
G1 X155.54 Y128.08 E192.87128
G1 X154.64 Y127.70 E192.90376
G1 X153.69 Y127.48 E192.93625
G1 X152.72 Y127.40 E192.96875
G1 X151.74 Y127.48 E193.00121
G1 X150.79 Y127.70 E193.03374
G1 X149.89 Y128.08 E193.06622
G1 X149.06 Y128.59 E193.09873
G1 X148.31 Y129.22 E193.13122
G1 X147.68 Y129.97 E193.16370
G1 X147.17 Y130.80 E193.19622
G1 X146.80 Y131.70 E193.22870
G1 X146.57 Y132.65 E193.26122
G1 X146.49 Y133.63 E193.29372
G1 X146.57 Y134.60 E193.32622
G1 X146.80 Y135.55 E193.35871
G1 X147.17 Y136.45 E193.39119
G1 X147.68 Y137.29 E193.42370
G1 X148.31 Y138.03 E193.45619
G1 X149.06 Y138.66 E193.48867
G1 X149.89 Y139.18 E193.52121
G1 X150.79 Y139.55 E193.55367
G1 X151.74 Y139.78 E193.58620
G1 X152.72 Y139.85 E193.61866
G1 X153.69 Y139.78 E193.65116
G1 X154.64 Y139.55 E193.68366
G1 X155.54 Y139.18 E193.71612
G1 X156.38 Y138.66 E193.74865
G1 X157.12 Y138.03 E193.78114
G1 X157.75 Y137.29 E193.81363
G1 X158.26 Y136.45 E193.84616
G1 X158.64 Y135.55 E193.87862
G1 X158.87 Y134.60 E193.91112
G1 X158.94 Y133.63 E193.94362
G1 X158.87 Y132.65 E193.97611
G1 X158.64 Y131.70 E194.00864
G1 X158.26 Y130.80 E194.04111
G0 F12000 X161.85 Y128.74
G1 F3420 X162.08 Y129.19 E194.05790
G1 X162.28 Y129.67 E194.07507
G1 X162.47 Y130.14 E194.09183
G1 X162.63 Y130.63 E194.10924
G1 X162.87 Y131.60 E194.14242
G1 X162.96 Y132.12 E194.15998
G1 X163.06 Y133.10 E194.19273
G1 X163.07 Y133.63 E194.21020
G1 X163.06 Y134.15 E194.22743
G1 X163.02 Y134.64 E194.24407
G1 X162.96 Y135.14 E194.26080
G1 X162.87 Y135.65 E194.27784
G1 X162.76 Y136.14 E194.29472
G1 X162.47 Y137.12 E194.32854
G1 X162.28 Y137.59 E194.34530
G1 X162.08 Y138.06 E194.36247
G1 X161.85 Y138.51 E194.37932
G1 X161.60 Y138.95 E194.39619
G1 X161.34 Y139.37 E194.41255
G1 X161.03 Y139.80 E194.43033
G1 X160.40 Y140.58 E194.46354
G1 X160.05 Y140.94 E194.48017
G1 X159.66 Y141.31 E194.49803
G1 X158.90 Y141.94 E194.53093
G1 X158.46 Y142.24 E194.54853
G1 X157.60 Y142.76 E194.58199
G1 X157.15 Y142.99 E194.59885
G1 X156.68 Y143.19 E194.61601
G1 X156.21 Y143.38 E194.63278
G1 X155.71 Y143.54 E194.65001
G1 X155.23 Y143.67 E194.66660
G1 X154.74 Y143.78 E194.68348
G1 X154.23 Y143.87 E194.70053
G1 X153.73 Y143.93 E194.71725
G1 X153.24 Y143.97 E194.73390
G1 X152.72 Y143.98 E194.75113
G1 X152.20 Y143.97 E194.76836
G1 X151.70 Y143.93 E194.78501
G1 X150.69 Y143.78 E194.81887
G1 X150.20 Y143.67 E194.83564
G1 X149.23 Y143.38 E194.86946
G1 X148.76 Y143.19 E194.88622
G1 X148.29 Y142.99 E194.90339
G1 X147.84 Y142.76 E194.92019
G1 X147.38 Y142.50 E194.93754
G1 X146.54 Y141.94 E194.97131
G1 X145.77 Y141.31 E195.00421
G1 X145.40 Y140.95 E195.02157
G1 X145.03 Y140.57 E195.03893
G1 X144.71 Y140.20 E195.05537
G1 X144.40 Y139.79 E195.07234
G1 X144.11 Y139.38 E195.08904
G1 X143.84 Y138.95 E195.10607
G1 X143.59 Y138.51 E195.12294
G1 X143.35 Y138.05 E195.14003
G1 X142.97 Y137.11 E195.17396
G1 X142.80 Y136.62 E195.19109
G1 X142.56 Y135.65 E195.22439
G1 X142.47 Y135.14 E195.24143
G1 X142.41 Y134.64 E195.25815
G1 X142.37 Y134.15 E195.27480
G1 X142.36 Y133.63 E195.29203
G1 X142.37 Y133.10 E195.30950
G1 X142.47 Y132.12 E195.34225
G1 X142.56 Y131.60 E195.35980
G1 X142.67 Y131.11 E195.37658
G1 X142.96 Y130.15 E195.40987
G1 X143.16 Y129.65 E195.42774
G1 X143.59 Y128.74 E195.46111
G1 X143.84 Y128.29 E195.47848
G1 X144.40 Y127.46 E195.51173
G1 X144.71 Y127.06 E195.52877
G1 X145.04 Y126.67 E195.54561
G1 X145.39 Y126.30 E195.56250
G1 X145.76 Y125.95 E195.57940
G1 X146.15 Y125.62 E195.59623
G1 X146.55 Y125.31 E195.61327
G1 X146.97 Y125.01 E195.63029
G1 X147.84 Y124.49 E195.66390
G1 X148.29 Y124.26 E195.68096
G1 X149.24 Y123.87 E195.71488
G1 X149.72 Y123.71 E195.73184
G1 X150.20 Y123.58 E195.74844
G1 X150.69 Y123.47 E195.76521
G1 X151.21 Y123.38 E195.78250
G1 X152.20 Y123.28 E195.81572
G1 X152.72 Y123.27 E195.83295
G1 X153.24 Y123.28 E195.85019
G1 X153.73 Y123.32 E195.86683
G1 X154.23 Y123.38 E195.88355
G1 X154.74 Y123.47 E195.90060
G1 X155.23 Y123.58 E195.91748
G1 X156.20 Y123.87 E195.95102
G1 X156.69 Y124.06 E195.96864
G1 X157.60 Y124.49 E196.00204
G1 X158.04 Y124.75 E196.01891
G1 X158.47 Y125.02 E196.03594
G1 X158.88 Y125.31 E196.05264
G1 X159.29 Y125.62 E196.06961
G1 X159.66 Y125.94 E196.08605
G1 X160.04 Y126.30 E196.10341
G1 X160.40 Y126.68 E196.12082
G1 X161.03 Y127.45 E196.15367
G1 X161.34 Y127.89 E196.17156
G1 X161.85 Y128.74 E196.20480
G0 F12000 X162.20 Y128.55
;TYPE:WALL-OUTER
G1 F3420 X162.44 Y129.03 E196.22268
G1 X162.65 Y129.51 E196.23992
G1 X162.84 Y130.00 E196.25746
G1 X163.01 Y130.50 E196.27501
G1 X163.15 Y131.01 E196.29258
G1 X163.26 Y131.52 E196.31014
G1 X163.36 Y132.05 E196.32803
G1 X163.42 Y132.57 E196.34526
G1 X163.46 Y133.09 E196.36280
G1 X163.47 Y133.62 E196.38040
G1 X163.46 Y134.16 E196.39830
G1 X163.42 Y134.68 E196.41551
G1 X163.36 Y135.20 E196.43307
G1 X163.27 Y135.72 E196.45066
G1 X163.15 Y136.24 E196.46821
G1 X163.01 Y136.74 E196.48574
G1 X162.84 Y137.25 E196.50333
G1 X162.65 Y137.75 E196.52115
G1 X162.44 Y138.22 E196.53843
G1 X162.21 Y138.69 E196.55599
G1 X161.94 Y139.15 E196.57357
G1 X161.66 Y139.60 E196.59107
G1 X161.36 Y140.03 E196.60868
G1 X161.03 Y140.45 E196.62655
G1 X160.69 Y140.85 E196.64379
G1 X160.33 Y141.23 E196.66134
G1 X159.94 Y141.60 E196.67920
G1 X159.54 Y141.94 E196.69646
G1 X159.12 Y142.27 E196.71430
G1 X158.69 Y142.57 E196.73177
G1 X158.25 Y142.85 E196.74913
G1 X157.79 Y143.11 E196.76667
G1 X157.31 Y143.35 E196.78458
G1 X156.84 Y143.56 E196.80183
G1 X156.34 Y143.75 E196.81968
G1 X155.84 Y143.92 E196.83713
G1 X155.32 Y144.06 E196.85483
G1 X154.82 Y144.18 E196.87218
G1 X154.29 Y144.27 E196.88994
G1 X153.77 Y144.33 E196.90733
G1 X153.25 Y144.37 E196.92471
G1 X152.72 Y144.38 E196.94244
G1 X152.18 Y144.37 E196.96017
G1 X151.66 Y144.33 E196.97755
G1 X151.14 Y144.27 E196.99494
G1 X150.62 Y144.18 E197.01266
G1 X150.11 Y144.06 E197.03009
G1 X149.60 Y143.92 E197.04775
G1 X149.10 Y143.75 E197.06520
G1 X148.60 Y143.56 E197.08305
G1 X148.12 Y143.35 E197.10030
G1 X147.64 Y143.11 E197.11818
G1 X147.18 Y142.85 E197.13572
G1 X146.74 Y142.57 E197.15311
G1 X146.31 Y142.27 E197.17058
G1 X145.89 Y141.94 E197.18842
G1 X145.50 Y141.60 E197.20568
G1 X145.11 Y141.23 E197.22354
G1 X144.75 Y140.85 E197.24107
G1 X144.41 Y140.45 E197.25831
G1 X144.08 Y140.03 E197.27620
G1 X143.78 Y139.61 E197.29343
G1 X143.49 Y139.15 E197.31129
G1 X143.23 Y138.69 E197.32888
G1 X142.99 Y138.22 E197.34645
G1 X142.78 Y137.75 E197.36371
G1 X142.59 Y137.25 E197.38155
G1 X142.42 Y136.74 E197.39913
G1 X142.28 Y136.24 E197.41666
G1 X142.17 Y135.72 E197.43422
G1 X142.08 Y135.20 E197.45180
G1 X142.01 Y134.68 E197.46936
G1 X141.97 Y134.16 E197.48657
G1 X141.96 Y133.63 E197.50414
G1 X141.97 Y133.09 E197.52207
G1 X142.01 Y132.58 E197.53928
G1 X142.08 Y132.05 E197.55684
G1 X142.17 Y131.53 E197.57439
G1 X142.28 Y131.02 E197.59198
G1 X142.42 Y130.51 E197.60951
G1 X142.59 Y130.01 E197.62710
G1 X142.78 Y129.51 E197.64496
G1 X142.99 Y129.03 E197.66219
G1 X143.23 Y128.56 E197.67973
G1 X143.49 Y128.10 E197.69732
G1 X143.78 Y127.65 E197.71521
G1 X144.08 Y127.22 E197.73244
G1 X144.41 Y126.80 E197.75033
G1 X144.75 Y126.41 E197.76755
G1 X145.11 Y126.02 E197.78510
G1 X145.50 Y125.65 E197.80298
G1 X145.89 Y125.32 E197.82020
G1 X146.31 Y124.98 E197.83809
G1 X146.74 Y124.69 E197.85532
G1 X147.18 Y124.40 E197.87289
G1 X147.64 Y124.14 E197.89046
G1 X148.12 Y123.90 E197.90834
G1 X148.60 Y123.69 E197.92557
G1 X149.10 Y123.50 E197.94343
G1 X149.60 Y123.33 E197.96088
G1 X150.11 Y123.19 E197.97855
G1 X150.62 Y123.08 E197.99597
G1 X151.14 Y122.99 E198.01369
G1 X151.66 Y122.92 E198.03108
G1 X152.18 Y122.88 E198.04846
G1 X152.72 Y122.87 E198.06619
G1 X153.25 Y122.88 E198.08393
G1 X153.77 Y122.92 E198.10130
G1 X154.29 Y122.99 E198.11870
G1 X154.82 Y123.08 E198.13645
G1 X155.33 Y123.19 E198.15384
G1 X155.84 Y123.33 E198.17150
G1 X156.34 Y123.50 E198.18895
G1 X156.84 Y123.69 E198.20682
G1 X157.31 Y123.90 E198.22405
G1 X157.79 Y124.14 E198.24196
G1 X158.25 Y124.40 E198.25952
G1 X158.70 Y124.69 E198.27707
G1 X159.12 Y124.98 E198.29430
G1 X159.54 Y125.32 E198.31219
G1 X159.94 Y125.65 E198.32943
G1 X160.32 Y126.02 E198.34696
G1 X160.69 Y126.41 E198.36486
G1 X161.03 Y126.80 E198.38208
G1 X161.35 Y127.22 E198.39966
G1 X161.66 Y127.65 E198.41719
G1 X161.94 Y128.09 E198.43477
G1 X162.20 Y128.55 E198.45232
G0 F12000 X161.94 Y128.70
G0 X158.16 Y130.83
G0 X157.91 Y130.98
G1 F3420 X157.43 Y130.20 E198.48276
G1 X156.84 Y129.51 E198.51315
G1 X156.14 Y128.91 E198.54354
G1 X155.36 Y128.44 E198.57396
G1 X154.52 Y128.09 E198.60435
G1 X153.63 Y127.87 E198.63476
G1 X152.72 Y127.80 E198.66515
G1 X151.81 Y127.87 E198.69551
G1 X150.92 Y128.09 E198.72595
G1 X150.07 Y128.44 E198.75634
G1 X149.29 Y128.91 E198.78677
G1 X148.60 Y129.51 E198.81715
G1 X148.00 Y130.20 E198.84754
G1 X147.53 Y130.98 E198.87797
G1 X147.18 Y131.83 E198.90836
G1 X146.96 Y132.72 E198.93879
G1 X146.89 Y133.63 E198.96919
G1 X146.96 Y134.54 E198.99958
G1 X147.18 Y135.43 E199.02999
G1 X147.53 Y136.27 E199.06038
G1 X148.00 Y137.05 E199.09081
G1 X148.60 Y137.75 E199.12119
G1 X149.29 Y138.34 E199.15158
G1 X150.07 Y138.82 E199.18202
G1 X150.92 Y139.17 E199.21240
G1 X151.81 Y139.38 E199.24284
G1 X152.72 Y139.45 E199.27320
G1 X153.63 Y139.38 E199.30360
G1 X154.52 Y139.17 E199.33400
G1 X155.36 Y138.82 E199.36438
G1 X156.14 Y138.34 E199.39482
G1 X156.84 Y137.75 E199.42521
G1 X157.43 Y137.05 E199.45560
G1 X157.91 Y136.27 E199.48604
G1 X158.26 Y135.43 E199.51642
G1 X158.47 Y134.54 E199.54682
G1 X158.54 Y133.63 E199.57722
G1 X158.47 Y132.72 E199.60762
G1 X158.26 Y131.83 E199.63806
G1 X157.91 Y130.98 E199.66843
G0 F12000 X158.54 Y131.11
;TYPE:FILL
G1 F3420 X162.78 Y135.35 E199.86787
G0 F12000 X162.69 Y135.82
G1 F3420 X158.85 Y131.98 E200.04866
G0 F12000 X159.01 Y132.70
G1 F3420 X162.58 Y136.27 E200.21646
G0 F12000 X162.44 Y136.71
G1 F3420 X159.06 Y133.32 E200.37573
G0 F12000 X159.06 Y133.89
G1 F3420 X162.31 Y137.13 E200.52841
G0 F12000 X162.15 Y137.54
G1 F3420 X159.02 Y134.41 E200.67561
G0 F12000 X158.94 Y134.90
G1 F3420 X161.98 Y137.94 E200.81853
G0 F12000 X161.79 Y138.31
G1 F3420 X158.83 Y135.35 E200.95786
G0 F12000 X158.69 Y135.78
G1 F3420 X161.59 Y138.68 E201.09422
G0 F12000 X161.38 Y139.04
G1 F3420 X158.53 Y136.18 E201.22846
G0 F12000 X158.35 Y136.57
G1 F3420 X161.16 Y139.38 E201.36035
G0 F12000 X160.92 Y139.71
G1 F3420 X158.14 Y136.93 E201.49130
G0 F12000 X157.92 Y137.28
G1 F3420 X160.67 Y140.02 E201.62039
G0 F12000 X160.41 Y140.33
G1 F3420 X157.67 Y137.59 E201.74925
G0 F12000 X157.41 Y137.90
G1 F3420 X160.15 Y140.63 E201.87785
G0 F12000 X159.87 Y140.92
G1 F3420 X157.14 Y138.19 E202.00598
G0 F12000 X156.84 Y138.45
G1 F3420 X159.58 Y141.19 E202.13486
G0 F12000 X159.27 Y141.45
G1 F3420 X156.53 Y138.71 E202.26346
G0 F12000 X156.19 Y138.94
G1 F3420 X158.96 Y141.70 E202.39340
G0 F12000 X158.63 Y141.95
G1 F3420 X155.84 Y139.16 E202.52473
G0 F12000 X155.48 Y139.35
G1 F3420 X158.30 Y142.18 E202.65746
G0 F12000 X157.94 Y142.39
G1 F3420 X155.08 Y139.52 E202.79241
G0 F12000 X154.68 Y139.68
G1 F3420 X157.59 Y142.60 E202.92957
G0 F12000 X157.22 Y142.79
G1 F3420 X154.22 Y139.79 E203.07068
G0 F12000 X153.76 Y139.90
G1 F3420 X156.83 Y142.97 E203.21504
G0 F12000 X156.43 Y143.14
G1 F3420 X153.25 Y139.95 E203.36488
G0 F12000 X152.72 Y140.00
G1 F3420 X156.02 Y143.29 E203.51986
G0 F12000 X155.59 Y143.43
G1 F3420 X152.11 Y139.94 E203.68365
G0 F12000 X151.44 Y139.85
G1 F3420 X155.14 Y143.55 E203.85764
G0 F12000 X154.68 Y143.65
G1 F3420 X150.69 Y139.66 E204.04548
G0 F12000 X149.67 Y139.21
G1 F3420 X154.20 Y143.73 E204.25851
G0 F12000 X153.69 Y143.79
G1 F3420 X142.56 Y132.66 E204.78238
G0 F12000 X142.61 Y132.14
G1 F3420 X147.14 Y136.68 E204.99555
G0 F12000 X146.69 Y135.66
G1 F3420 X142.69 Y131.66 E205.18347
G0 F12000 X142.79 Y131.20
G1 F3420 X146.49 Y134.90 E205.35750
G0 F12000 X146.40 Y134.24
G1 F3420 X142.92 Y130.76 E205.52096
G0 F12000 X143.05 Y130.33
G1 F3420 X146.35 Y133.62 E205.67594
G0 F12000 X146.39 Y133.10
G1 F3420 X143.20 Y129.91 E205.82592
G0 F12000 X143.37 Y129.51
G1 F3420 X146.44 Y132.58 E205.97016
G0 F12000 X146.55 Y132.12
G1 F3420 X143.56 Y129.13 E206.11099
G0 F12000 X143.74 Y128.75
G1 F3420 X146.66 Y131.67 E206.24822
G0 F12000 X146.82 Y131.27
G1 F3420 X143.95 Y128.39 E206.38354
G0 F12000 X144.17 Y128.05
G1 F3420 X146.99 Y130.87 E206.51614
G0 F12000 X147.19 Y130.50
G1 F3420 X144.40 Y127.71 E206.64742
G0 F12000 X144.63 Y127.38
G1 F3420 X147.40 Y130.15 E206.77759
G0 F12000 X147.63 Y129.81
G1 F3420 X144.89 Y127.07 E206.90662
G0 F12000 X145.15 Y126.76
G1 F3420 X147.89 Y129.50 E207.03552
G0 F12000 X148.15 Y129.20
G1 F3420 X145.42 Y126.47 E207.16377
G0 F12000 X145.71 Y126.19
G1 F3420 X148.44 Y128.93 E207.29227
G0 F12000 X148.75 Y128.67
G1 F3420 X146.01 Y125.93 E207.42115
G0 F12000 X146.32 Y125.67
G1 F3420 X149.06 Y128.42 E207.55046
G0 F12000 X149.42 Y128.20
G1 F3420 X146.63 Y125.42 E207.68136
G0 F12000 X146.97 Y125.19
G1 F3420 X149.77 Y127.99 E207.81316
G0 F12000 X150.16 Y127.81
G1 F3420 X147.31 Y124.97 E207.94698
G0 F12000 X147.67 Y124.76
G1 F3420 X150.56 Y127.65 E208.08296
G0 F12000 X150.99 Y127.51
G1 F3420 X148.03 Y124.55 E208.22215
G0 F12000 X148.41 Y124.37
G1 F3420 X151.44 Y127.40 E208.36497
G0 F12000 X151.93 Y127.32
G1 F3420 X148.81 Y124.20 E208.51171
G0 F12000 X149.21 Y124.04
G1 F3420 X152.45 Y127.28 E208.66420
G0 F12000 X153.02 Y127.28
G1 F3420 X149.63 Y123.89 E208.82368
G0 F12000 X150.07 Y123.76
G1 F3420 X153.64 Y127.33 E208.99155
G0 F12000 X154.36 Y127.49
G1 F3420 X150.52 Y123.65 E209.17227
G0 F12000 X151.00 Y123.56
G1 F3420 X155.24 Y127.80 E209.37170
G0 F12000 X156.59 Y128.59
G1 F3420 X151.49 Y123.49 E209.61131
G0 F12000 X152.01 Y123.44
G1 F3420 X162.91 Y134.34 E210.12383
G0 F12000 X162.85 Y134.85
G1 F3420 X157.75 Y129.75 E210.36376
G0 F12000 X161.46 Y128.37
G1 F3420 X157.94 Y124.85 E210.52919
G0 F12000 X156.79 Y124.27
G1 F3420 X162.08 Y129.55 E210.77776
G0 F12000 X162.43 Y130.47
G1 F3420 X155.89 Y123.93 E211.08538
G0 F12000 X155.09 Y123.69
G1 F3420 X162.64 Y131.24 E211.44060
G0 F12000 X162.79 Y131.96
G1 F3420 X154.38 Y123.55 E211.83637
G0 F12000 X153.72 Y123.46
G1 F3420 X162.87 Y132.60 E212.26655
G0 F12000 X162.92 Y133.22
G1 F3420 X153.12 Y123.42 E212.72765
G0 F12000 X152.55 Y123.41
G1 F3420 X162.93 Y133.79 E213.21596
G0 F12000 X153.16 Y143.83
G1 F3420 X142.51 Y133.18 E213.71709
G0 F12000 X142.50 Y133.73
G1 F3420 X152.61 Y143.84 E214.19245
G0 F12000 X152.02 Y143.82
G1 F3420 X142.53 Y134.32 E214.63892
G0 F12000 X142.59 Y134.95
G1 F3420 X151.38 Y143.74 E215.05245
G0 F12000 X150.72 Y143.65
G1 F3420 X142.70 Y135.63 E215.42959
G0 F12000 X142.89 Y136.38
G1 F3420 X149.96 Y143.45 E215.76221
G0 F12000 X149.13 Y143.19
G1 F3420 X143.16 Y137.22 E216.04274
G0 F12000 X143.60 Y138.22
G1 F3420 X148.12 Y142.74 E216.25544
G0 F12000 X146.66 Y141.85
G1 F3420 X144.49 Y139.68 E216.35730
G1 F2400 E215.15730
G0 F12000 X148.40 Y135.41
;TYPE:SUPPORT
G1 F2400 E216.35730
G1 F3420 X148.40 Y131.85 E216.47564
G0 F12000 X148.55 Y131.91
G0 X150.59 Y129.64
G0 X150.51 Y129.50
G1 F3420 X150.51 Y137.75 E216.74977
G0 F12000 X150.59 Y137.61
G0 X152.62 Y138.14
G0 X152.61 Y138.30
G1 F3420 X152.61 Y128.95 E217.06069
G0 F12000 X152.62 Y129.11
G0 X154.66 Y129.55
G0 X154.72 Y129.40
G1 F3420 X154.72 Y137.85 E217.34167
G0 F12000 X154.66 Y137.70
G0 X156.69 Y135.78
G0 X156.82 Y135.86
G1 F3420 X156.82 Y131.39 E217.49041
G1 F2400 E216.29041
G0 F12000 X158.93 Y143.82
G1 F2400 E217.49041
G1 F3420 X158.93 Y156.82 E217.92286
G0 F12000 X158.93 Y156.66
G0 X156.82 Y156.66
G0 X156.82 Y156.82
G1 F3420 X156.82 Y144.79 E218.32298
G0 F12000 X156.88 Y144.94
G0 X154.74 Y145.51
G0 X154.72 Y145.35
G1 F3420 X154.72 Y156.82 E218.70444
G0 F12000 X154.72 Y156.66
G0 X152.61 Y156.66
G0 X152.61 Y156.82
G1 F3420 X152.61 Y145.52 E219.08021
G0 F12000 X152.61 Y145.68
G0 X150.48 Y145.47
G0 X150.51 Y145.31
G1 F3420 X150.51 Y156.82 E219.46283
G0 F12000 X150.51 Y156.66
G0 X148.40 Y156.66
G0 X148.40 Y156.82
G1 F3420 X148.40 Y144.71 E219.86558
G0 F12000 X148.34 Y144.86
G0 X146.23 Y143.85
G0 X146.30 Y143.71
G1 F3420 X146.30 Y156.82 E220.30152
;LAYER:3
G1 F2400 E219.10152
G0 F12000 X149.61 Y144.06 Z0.90
;TYPE:WALL-INNER
G1 F2400 E220.30152
G1 F3780 X149.10 Y143.90 E220.31936
G1 X148.60 Y143.71 E220.33722
G1 X148.09 Y143.49 E220.35553
G1 X147.63 Y143.26 E220.37265
G1 X147.17 Y143.00 E220.39046
G1 X146.71 Y142.71 E220.40830
G1 X146.27 Y142.40 E220.42621
G1 X145.84 Y142.07 E220.44444
G1 X145.45 Y141.74 E220.46140
G1 X145.05 Y141.36 E220.47962
G1 X144.68 Y140.98 E220.49730
G1 X144.33 Y140.57 E220.51518
G1 X144.01 Y140.16 E220.53244
G1 X143.69 Y139.72 E220.55054
G1 X143.40 Y139.26 E220.56885
G1 X143.14 Y138.82 E220.58568
G1 X142.89 Y138.31 E220.60446
G1 X142.68 Y137.84 E220.62159
G1 X142.47 Y137.32 E220.64022
G1 X142.46 Y137.29 E220.64149
G1 X142.17 Y136.32 E220.67499
G1 X142.04 Y135.79 E220.69301
G1 X141.95 Y135.27 E220.71067
G1 X141.88 Y134.74 E220.72845
G1 X141.84 Y134.22 E220.74596
G1 X141.83 Y133.66 E220.76450
G1 X141.83 Y133.62 E220.76583
G1 X141.84 Y133.08 E220.78366
G1 X141.88 Y132.54 E220.80170
G1 X142.03 Y131.54 E220.83554
G1 X142.14 Y131.03 E220.85291
G1 X142.28 Y130.53 E220.87017
G1 X142.45 Y130.01 E220.88825
G1 X142.64 Y129.51 E220.90612
G1 X142.86 Y129.00 E220.92442
G1 X143.09 Y128.54 E220.94160
G1 X143.35 Y128.07 E220.95968
G1 X143.64 Y127.60 E220.97783
G1 X143.94 Y127.19 E220.99484
G1 X144.28 Y126.75 E221.01331
G1 X144.60 Y126.36 E221.03013
G1 X144.98 Y125.96 E221.04850
G1 X145.37 Y125.59 E221.06619
G1 X145.77 Y125.24 E221.08406
G1 X146.18 Y124.92 E221.10126
G1 X146.62 Y124.60 E221.11943
G1 X147.09 Y124.31 E221.13774
G1 X147.53 Y124.05 E221.15457
G1 X148.03 Y123.80 E221.17320
G1 X148.50 Y123.59 E221.19048
G1 X149.02 Y123.38 E221.20911
G1 X149.50 Y123.22 E221.22605
G1 X150.02 Y123.08 E221.24388
G1 X150.55 Y122.95 E221.26183
G1 X151.08 Y122.86 E221.27970
G1 X151.60 Y122.79 E221.29734
G1 X152.13 Y122.75 E221.31485
G1 X152.68 Y122.74 E221.33339
G1 X152.72 Y122.73 E221.33472
G1 X153.26 Y122.75 E221.35252
G1 X153.80 Y122.79 E221.37056
G1 X154.80 Y122.94 E221.40420
G1 X155.32 Y123.05 E221.42176
G1 X155.82 Y123.19 E221.43927
G1 X156.33 Y123.36 E221.45711
G1 X156.84 Y123.55 E221.47498
G1 X157.34 Y123.77 E221.49328
G1 X157.80 Y124.00 E221.51044
G1 X158.27 Y124.26 E221.52825
G1 X158.73 Y124.55 E221.54645
G1 X159.16 Y124.85 E221.56370
G1 X159.60 Y125.19 E221.58217
G1 X159.98 Y125.51 E221.59899
G1 X160.37 Y125.88 E221.61682
G1 X160.76 Y126.29 E221.63559
G1 X161.09 Y126.67 E221.65233
G1 X161.44 Y127.10 E221.67072
G1 X161.75 Y127.55 E221.68886
G1 X162.03 Y127.99 E221.70624
G1 X162.29 Y128.44 E221.72342
G1 X162.54 Y128.93 E221.74169
G1 X162.75 Y129.40 E221.75902
G1 X162.96 Y129.91 E221.77742
G1 X163.12 Y130.40 E221.79457
G1 X163.27 Y130.95 E221.81333
G1 X163.38 Y131.44 E221.83016
G1 X163.48 Y131.99 E221.84887
G1 X163.55 Y132.50 E221.86571
G1 X163.59 Y133.03 E221.88343
G1 X163.61 Y133.59 E221.90229
G1 X163.61 Y133.63 E221.90362
G1 X163.60 Y134.17 E221.92142
G1 X163.56 Y134.71 E221.93957
G1 X163.41 Y135.69 E221.97235
G1 X163.29 Y136.23 E221.99067
G1 X163.16 Y136.73 E222.00794
G1 X162.99 Y137.24 E222.02602
G1 X162.80 Y137.75 E222.04388
G1 X162.58 Y138.24 E222.06163
G1 X162.34 Y138.73 E222.07995
G1 X162.09 Y139.18 E222.09700
G1 X161.80 Y139.63 E222.11496
G1 X161.49 Y140.07 E222.13287
G1 X161.16 Y140.51 E222.15110
G1 X160.83 Y140.89 E222.16788
G1 X160.45 Y141.29 E222.18627
G1 X160.06 Y141.66 E222.20403
G1 X159.68 Y142.00 E222.22124
G1 X159.24 Y142.34 E222.23963
G1 X158.80 Y142.66 E222.25777
G1 X158.37 Y142.93 E222.27455
G1 X157.89 Y143.21 E222.29286
G1 X157.41 Y143.45 E222.31092
G1 X156.94 Y143.66 E222.32792
G1 X156.43 Y143.87 E222.34632
G1 X155.93 Y144.03 E222.36372
G1 X155.40 Y144.18 E222.38200
G1 X154.89 Y144.30 E222.39943
G1 X154.35 Y144.39 E222.41761
G1 X153.84 Y144.46 E222.43491
G1 X153.31 Y144.50 E222.45263
G1 X152.75 Y144.52 E222.47116
G1 X152.71 Y144.52 E222.47249
G1 X152.18 Y144.51 E222.49029
G1 X151.63 Y144.47 E222.50843
G1 X150.65 Y144.32 E222.54132
G1 X150.12 Y144.20 E222.55954
G1 X149.61 Y144.06 E222.57705
G0 F12000 X150.79 Y139.55
G1 F3780 X151.74 Y139.78 E222.60957
G1 X152.72 Y139.85 E222.64204
G1 X153.69 Y139.78 E222.67454
G1 X154.64 Y139.55 E222.70703
G1 X155.54 Y139.18 E222.73950
G1 X156.38 Y138.66 E222.77203
G1 X157.12 Y138.03 E222.80452
G1 X157.75 Y137.29 E222.83700
G1 X158.26 Y136.45 E222.86953
G1 X158.64 Y135.55 E222.90200
G1 X158.87 Y134.60 E222.93449
G1 X158.94 Y133.63 E222.96699
G1 X158.87 Y132.65 E222.99949
G1 X158.64 Y131.70 E223.03202
G1 X158.26 Y130.80 E223.06448
G1 X157.75 Y129.97 E223.09701
G1 X157.12 Y129.22 E223.12950
G1 X156.38 Y128.59 E223.16199
G1 X155.54 Y128.08 E223.19450
