;-- START GCODE --
;Sliced for Type A Machines Series 1
;Sliced at: Tue 14-04-2015 01:38:20
;Basic settings: Layer height: 0.25 Walls: 0.4 Fill: 8
;Print Speed: 115 Support: 0
;Retraction Speed: 40 Retraction Distance: 1.2
;Print time: #P_TIME#
;Filament used: #F_AMNT#m #F_WGHT#g
;Filament cost: #F_COST#
M106 S255	 ;start with the fan on
G21        ;metric values
G90        ;absolute positioning
M106 S255    ;start with the fan on
G28     ;move to endstops
G29		;allows for auto-levelling
G1 X150 Y5  Z15.0 F6000 ;center and move the platform down 15mm
M109 S220 ;Heat To temp
G92 E0                  ;zero the extruded length
G1 F200 E30              ;extrude 30mm of feed stock
G92 E0                  ;zero the extruded length again
G1 X175 Y25  Z0 F6000 ;remove bugger
G1 X220 F6000 ;remove bugger
G1 X150 Y150  Z15 F6000 ;recenter and begin
G1 F6000

;Layer count: 436
;LAYER:-2
;RAFT
G0 F6000 X125.05 Y112.62 Z0.30
;TYPE:SUPPORT
G1 F2100 X155.05 Y112.62 E2.61924
G1 X155.05 Y113.13 E2.66429
G1 X173.99 Y113.13 E4.31798
G1 X179.76 Y113.19 E4.82195
G1 X179.90 Y118.29 E5.26747
G1 X179.90 Y118.32 E5.27036
G1 X179.90 Y118.39 E5.27629
G1 X179.90 Y118.41 E5.27805
G1 X179.90 Y118.44 E5.28084
G1 X179.90 Y118.45 E5.28146
G1 X179.90 Y118.52 E5.28792
G1 X179.90 Y118.54 E5.28968
G1 X179.90 Y118.58 E5.29247
G1 X179.90 Y118.58 E5.29309
G1 X179.90 Y118.66 E5.29955
G1 X179.90 Y118.68 E5.30131
G1 X179.90 Y118.71 E5.30410
G1 X179.90 Y118.72 E5.30472
G1 X179.90 Y118.79 E5.31119
G1 X179.90 Y118.81 E5.31294
G1 X179.90 Y118.84 E5.31574
G1 X179.90 Y118.85 E5.31635
G1 X179.90 Y118.92 E5.32282
G1 X179.90 Y118.94 E5.32457
G1 X179.90 Y118.97 E5.32737
G1 X179.90 Y118.98 E5.32798
G1 X179.90 Y119.06 E5.33445
G1 X179.90 Y119.08 E5.33620
G1 X179.90 Y119.11 E5.33900
G1 X179.89 Y119.17 E5.34478
G1 X179.78 Y124.09 E5.77408
G1 X179.90 Y128.29 E6.14091
G1 X179.90 Y128.32 E6.14380
G1 X179.90 Y128.39 E6.14973
G1 X179.90 Y128.41 E6.15149
G1 X179.90 Y128.44 E6.15428
G1 X179.90 Y128.45 E6.15490
G1 X179.90 Y128.52 E6.16137
G1 X179.90 Y128.54 E6.16312
G1 X179.90 Y128.57 E6.16592
G1 X179.90 Y128.58 E6.16653
G1 X179.90 Y128.66 E6.17300
G1 X179.90 Y128.68 E6.17475
G1 X179.90 Y128.71 E6.17755
G1 X179.90 Y128.72 E6.17816
G1 X179.90 Y128.79 E6.18463
G1 X179.90 Y128.81 E6.18638
G1 X179.90 Y128.84 E6.18918
G1 X179.90 Y128.85 E6.18979
G1 X179.90 Y128.92 E6.19626
G1 X179.90 Y128.94 E6.19801
G1 X179.90 Y128.97 E6.20081
G1 X179.90 Y128.98 E6.20142
G1 X179.90 Y129.06 E6.20789
G1 X179.90 Y129.07 E6.20964
G1 X179.90 Y129.11 E6.21244
G1 X179.89 Y129.17 E6.21822
G1 X179.78 Y134.09 E6.64752
G1 X179.90 Y138.29 E7.01435
G1 X179.90 Y138.32 E7.01724
G1 X179.90 Y138.39 E7.02318
G1 X179.90 Y138.41 E7.02493
G1 X179.90 Y138.44 E7.02773
G1 X179.90 Y138.45 E7.02834
G1 X179.90 Y138.52 E7.03481
G1 X179.90 Y138.54 E7.03656
G1 X179.90 Y138.57 E7.03936
G1 X179.90 Y138.58 E7.03997
G1 X179.90 Y138.66 E7.04644
G1 X179.90 Y138.68 E7.04819
G1 X179.90 Y138.71 E7.05099
G1 X179.90 Y138.72 E7.05160
G1 X179.90 Y138.79 E7.05807
G1 X179.90 Y138.81 E7.05982
G1 X179.90 Y138.84 E7.06262
G1 X179.90 Y138.85 E7.06323
G1 X179.90 Y138.92 E7.06970
G1 X179.90 Y138.94 E7.07145
G1 X179.90 Y138.97 E7.07425
G1 X179.90 Y138.98 E7.07487
G1 X179.90 Y139.06 E7.08133
G1 X179.90 Y139.07 E7.08308
G1 X179.90 Y139.11 E7.08588
G1 X179.89 Y139.17 E7.09166
G1 X179.78 Y144.09 E7.52096
G1 X179.90 Y148.29 E7.88779
G1 X179.90 Y148.32 E7.89068
G1 X179.90 Y148.39 E7.89662
G1 X179.90 Y148.41 E7.89837
G1 X179.90 Y148.44 E7.90117
G1 X179.90 Y148.45 E7.90178
G1 X179.90 Y148.52 E7.90825
G1 X179.90 Y148.54 E7.91000
G1 X179.90 Y148.57 E7.91280
G1 X179.90 Y148.58 E7.91341
G1 X179.90 Y148.66 E7.91988
G1 X179.90 Y148.68 E7.92163
G1 X179.90 Y148.71 E7.92443
G1 X179.90 Y148.72 E7.92505
G1 X179.90 Y148.79 E7.93151
G1 X179.90 Y148.81 E7.93326
G1 X179.90 Y148.84 E7.93606
G1 X179.90 Y148.85 E7.93668
G1 X179.90 Y148.92 E7.94314
G1 X179.90 Y148.94 E7.94489
G1 X179.90 Y148.97 E7.94769
G1 X179.90 Y148.98 E7.94831
G1 X179.90 Y149.06 E7.95477
G1 X179.90 Y149.07 E7.95652
G1 X179.90 Y149.11 E7.95932
G1 X179.89 Y149.17 E7.96510
G1 X179.78 Y154.09 E8.39441
G1 X179.90 Y158.29 E8.76115
G1 X179.90 Y158.32 E8.76403
G1 X179.90 Y158.39 E8.76997
G1 X179.90 Y158.41 E8.77172
G1 X179.90 Y158.44 E8.77452
G1 X179.90 Y158.45 E8.77514
G1 X179.90 Y158.52 E8.78160
G1 X179.90 Y158.54 E8.78336
G1 X179.90 Y158.57 E8.78615
G1 X179.90 Y158.58 E8.78677
G1 X179.90 Y158.66 E8.79323
G1 X179.90 Y158.68 E8.79499
G1 X179.90 Y158.71 E8.79778
G1 X179.90 Y158.71 E8.79840
G1 X179.90 Y158.79 E8.80486
G1 X179.90 Y158.81 E8.80662
G1 X179.90 Y158.84 E8.80941
G1 X179.90 Y158.85 E8.81003
G1 X179.90 Y158.92 E8.81649
G1 X179.90 Y158.94 E8.81825
G1 X179.90 Y158.97 E8.82104
G1 X179.90 Y158.98 E8.82166
G1 X179.90 Y159.05 E8.82812
G1 X179.90 Y159.07 E8.82988
G1 X179.90 Y159.11 E8.83267
G1 X179.89 Y159.17 E8.83845
G1 X179.78 Y164.09 E9.26776
G1 X179.90 Y168.29 E9.63459
G1 X179.90 Y168.32 E9.63747
G1 X179.90 Y168.39 E9.64341
G1 X179.90 Y168.41 E9.64517
G1 X179.90 Y168.44 E9.64796
G1 X179.90 Y168.45 E9.64858
G1 X179.90 Y168.52 E9.65504
G1 X179.90 Y168.54 E9.65680
G1 X179.90 Y168.57 E9.65959
G1 X179.90 Y168.58 E9.66021
G1 X179.90 Y168.66 E9.66667
G1 X179.90 Y168.68 E9.66843
G1 X179.90 Y168.71 E9.67122
G1 X179.90 Y168.71 E9.67184
G1 X179.90 Y168.79 E9.67830
G1 X179.90 Y168.81 E9.68006
G1 X179.90 Y168.84 E9.68285
G1 X179.90 Y168.85 E9.68347
G1 X179.90 Y168.92 E9.68993
G1 X179.90 Y168.94 E9.69169
G1 X179.90 Y168.97 E9.69448
G1 X179.90 Y168.98 E9.69510
G1 X179.90 Y169.05 E9.70156
G1 X179.90 Y169.07 E9.70332
G1 X179.90 Y169.11 E9.70611
G1 X179.89 Y169.17 E9.71189
G1 X179.78 Y174.09 E10.14120
G1 X179.90 Y178.29 E10.50803
G1 X179.90 Y178.32 E10.51091
G1 X179.90 Y178.39 E10.51685
G1 X179.90 Y178.41 E10.51861
G1 X179.90 Y178.44 E10.52140
G1 X179.90 Y178.45 E10.52202
G1 X179.90 Y178.52 E10.52848
G1 X179.90 Y178.54 E10.53024
G1 X179.90 Y178.57 E10.53303
G1 X179.90 Y178.58 E10.53365
G1 X179.90 Y178.66 E10.54011
G1 X179.90 Y178.68 E10.54187
G1 X179.90 Y178.71 E10.54466
G1 X179.90 Y178.71 E10.54528
G1 X179.90 Y178.79 E10.55174
G1 X179.90 Y178.81 E10.55350
G1 X179.90 Y178.84 E10.55629
G1 X179.90 Y178.85 E10.55691
G1 X179.90 Y178.92 E10.56337
G1 X179.90 Y178.94 E10.56513
G1 X179.90 Y178.97 E10.56792
G1 X179.90 Y178.98 E10.56854
G1 X179.90 Y179.05 E10.57500
G1 X179.90 Y179.07 E10.57676
G1 X179.90 Y179.11 E10.57955
G1 X179.89 Y179.17 E10.58533
G1 X179.85 Y181.27 E10.76855
G1 X180.42 Y181.27 E10.81858
G1 X179.90 Y186.49 E11.27677
G1 X179.90 Y186.51 E11.27869
G1 X179.90 Y186.52 E11.27931
G1 X179.90 Y186.59 E11.28577
G1 X179.90 Y186.62 E11.28753
G1 X179.90 Y186.65 E11.29032
G1 X179.90 Y186.65 E11.29094
G1 X179.90 Y186.73 E11.29740
G1 X179.90 Y186.75 E11.29916
G1 X179.90 Y186.78 E11.30195
G1 X179.90 Y186.79 E11.30257
G1 X179.90 Y186.86 E11.30903
G1 X179.90 Y186.88 E11.31079
G1 X179.90 Y186.91 E11.31358
G1 X179.90 Y186.92 E11.31420
G1 X179.90 Y186.99 E11.32066
G1 X179.90 Y187.01 E11.32242
G1 X179.90 Y187.05 E11.32521
G1 X179.90 Y187.05 E11.32583
G1 X179.90 Y187.13 E11.33229
G1 X179.90 Y187.15 E11.33405
G1 X179.90 Y187.18 E11.33684
G1 X179.90 Y187.19 E11.33746
G1 X179.90 Y187.26 E11.34393
G1 X179.89 Y187.34 E11.35076
G1 X179.79 Y192.23 E11.77779
G1 X155.05 Y192.23 E13.93778
G1 X155.05 Y192.62 E13.97157
G1 X125.05 Y192.62 E16.59081
G1 X125.05 Y112.62 E23.57535
G0 F6000 X125.50 Y112.51
G1 F2100 X125.50 Y192.72 E30.57822
G0 F6000 X126.50 Y192.72
G1 F2100 X126.50 Y112.51 E37.58110
G0 F6000 X127.50 Y112.51
G1 F2100 X127.50 Y192.72 E44.58398
G0 F6000 X128.50 Y192.72
G1 F2100 X128.50 Y112.51 E51.58685
G0 F6000 X129.50 Y112.51
G1 F2100 X129.50 Y192.72 E58.58973
G0 F6000 X130.50 Y192.72
G1 F2100 X130.50 Y112.51 E65.59260
G0 F6000 X131.50 Y112.51
G1 F2100 X131.50 Y192.72 E72.59548
G0 F6000 X132.50 Y192.72
G1 F2100 X132.50 Y112.51 E79.59835
G0 F6000 X133.50 Y112.51
G1 F2100 X133.50 Y192.72 E86.60123
G0 F6000 X134.50 Y192.72
G1 F2100 X134.50 Y112.51 E93.60411
G0 F6000 X135.50 Y112.51
G1 F2100 X135.50 Y192.72 E100.60698
G0 F6000 X136.50 Y192.72
G1 F2100 X136.50 Y112.51 E107.60986
G0 F6000 X137.50 Y112.51
G1 F2100 X137.50 Y192.72 E114.61273
G0 F6000 X138.50 Y192.72
G1 F2100 X138.50 Y112.51 E121.61561
G0 F6000 X139.50 Y112.51
G1 F2100 X139.50 Y192.72 E128.61848
G0 F6000 X140.50 Y192.72
G1 F2100 X140.50 Y112.51 E135.62136
G0 F6000 X141.50 Y112.51
G1 F2100 X141.50 Y192.72 E142.62424
G0 F6000 X142.50 Y192.72
G1 F2100 X142.50 Y112.51 E149.62711
G0 F6000 X143.50 Y112.51
G1 F2100 X143.50 Y192.72 E156.62999
G0 F6000 X144.50 Y192.72
G1 F2100 X144.50 Y112.51 E163.63286
G0 F6000 X145.50 Y112.51
G1 F2100 X145.50 Y192.72 E170.63574
G0 F6000 X146.50 Y192.72
G1 F2100 X146.50 Y112.51 E177.63861
G0 F6000 X147.50 Y112.51
G1 F2100 X147.50 Y192.72 E184.64149
G0 F6000 X148.50 Y192.72
G1 F2100 X148.50 Y112.51 E191.64437
G0 F6000 X149.50 Y112.51
G1 F2100 X149.50 Y192.72 E198.64724
G0 F6000 X150.50 Y192.72
G1 F2100 X150.50 Y112.51 E205.65012
G0 F6000 X151.50 Y112.51
G1 F2100 X151.50 Y192.72 E212.65299
G0 F6000 X152.50 Y192.72
G1 F2100 X152.50 Y112.51 E219.65587
G0 F6000 X153.50 Y112.51
G1 F2100 X153.50 Y192.72 E226.65874
G0 F6000 X154.50 Y192.72
G1 F2100 X154.50 Y112.51 E233.66162
G0 F6000 X155.50 Y113.03
G1 F2100 X155.50 Y192.33 E240.58566
G0 F6000 X156.50 Y192.33
G1 F2100 X156.50 Y113.03 E247.50969
G0 F6000 X157.50 Y113.03
G1 F2100 X157.50 Y192.33 E254.43373
G0 F6000 X158.50 Y192.33
G1 F2100 X158.50 Y113.03 E261.35777
G0 F6000 X159.50 Y113.03
G1 F2100 X159.50 Y192.33 E268.28180
G0 F6000 X160.50 Y192.33
G1 F2100 X160.50 Y113.03 E275.20584
G0 F6000 X161.50 Y113.03
G1 F2100 X161.50 Y192.33 E282.12988
G0 F6000 X162.50 Y192.33
G1 F2100 X162.50 Y113.03 E289.05391
G0 F6000 X163.50 Y113.03
G1 F2100 X163.50 Y192.33 E295.97795
G0 F6000 X164.50 Y192.33
G1 F2100 X164.50 Y113.03 E302.90199
G0 F6000 X165.50 Y113.03
G1 F2100 X165.50 Y192.33 E309.82602
G0 F6000 X166.50 Y192.33
G1 F2100 X166.50 Y113.03 E316.75006
G0 F6000 X167.50 Y113.03
G1 F2100 X167.50 Y192.33 E323.67410
G0 F6000 X168.50 Y192.33
G1 F2100 X168.50 Y113.03 E330.59813
G0 F6000 X169.50 Y113.03
G1 F2100 X169.50 Y192.33 E337.52217
G0 F6000 X170.50 Y192.33
G1 F2100 X170.50 Y113.03 E344.44621
G0 F6000 X171.50 Y113.03
G1 F2100 X171.50 Y192.33 E351.37024
G0 F6000 X172.50 Y192.33
G1 F2100 X172.50 Y113.03 E358.29428
G0 F6000 X173.50 Y113.03
G1 F2100 X173.50 Y192.33 E365.21832
G0 F6000 X174.50 Y192.33
G1 F2100 X174.50 Y113.03 E372.14192
G0 F6000 X175.50 Y113.04
G1 F2100 X175.50 Y192.33 E379.06464
G0 F6000 X176.50 Y192.33
G1 F2100 X176.50 Y113.05 E385.98650
G0 F6000 X177.50 Y113.06
G1 F2100 X177.50 Y192.33 E392.90748
G0 F6000 X178.50 Y192.33
G1 F2100 X178.50 Y113.07 E399.82767
G0 F6000 X179.50 Y113.08
G1 F2100 X179.50 Y192.33 E406.74700
G0 F6000 X180.50 Y181.51
G1 F2100 X180.50 Y181.16 E406.77755
M106 S255
;LAYER:-1
;RAFT
G0 F6000 X180.39 Y181.24 Z0.50
;TYPE:SUPPORT
G1 F6900 X180.45 Y181.29 E406.77887
G0 F6000 X180.39 Y181.81
G1 F6900 X125.02 Y126.43 E408.08126
G0 F6000 X125.02 Y127.00
G1 F6900 X180.34 Y182.32 E409.38245
G0 F6000 X180.29 Y182.84
G1 F6900 X125.02 Y127.56 E410.68244
G0 F6000 X125.02 Y128.13
G1 F6900 X180.24 Y183.35 E411.98121
G0 F6000 X180.19 Y183.87
G1 F6900 X125.02 Y128.69 E413.27878
G0 F6000 X125.02 Y129.26
G1 F6900 X180.14 Y184.38 E414.57514
G0 F6000 X180.09 Y184.89
G1 F6900 X125.02 Y129.82 E415.87028
G0 F6000 X125.02 Y130.39
G1 F6900 X180.03 Y185.41 E417.16421
G0 F6000 X179.98 Y185.92
G1 F6900 X125.02 Y130.96 E418.45695
G0 F6000 X125.02 Y131.52
G1 F6900 X179.93 Y186.44 E419.74847
G0 F6000 X179.93 Y187.00
G1 F6900 X125.02 Y132.09 E421.03987
G0 F6000 X125.02 Y132.65
G1 F6900 X179.92 Y187.55 E422.33105
G0 F6000 X179.91 Y188.11
G1 F6900 X125.02 Y133.22 E423.62194
G0 F6000 X125.02 Y133.78
G1 F6900 X179.89 Y188.66 E424.91254
G0 F6000 X179.88 Y189.22
G1 F6900 X125.02 Y134.35 E426.20289
G0 F6000 X125.02 Y134.92
G1 F6900 X179.87 Y189.77 E427.49295
G0 F6000 X179.86 Y190.32
G1 F6900 X125.02 Y135.48 E428.78273
G0 F6000 X125.02 Y136.05
G1 F6900 X179.85 Y190.88 E430.07222
G0 F6000 X179.83 Y191.43
G1 F6900 X125.02 Y136.61 E431.36144
G0 F6000 X125.02 Y137.18
G1 F6900 X179.82 Y191.99 E432.65038
G0 F6000 X179.53 Y192.26
G1 F6900 X125.02 Y137.75 E433.93242
G0 F6000 X125.02 Y138.31
G1 F6900 X178.96 Y192.26 E435.20116
G0 F6000 X178.40 Y192.26
G1 F6900 X125.02 Y138.88 E436.45660
G0 F6000 X125.02 Y139.44
G1 F6900 X177.83 Y192.26 E437.69873
G0 F6000 X177.27 Y192.26
G1 F6900 X125.02 Y140.01 E438.92756
G0 F6000 X125.02 Y140.57
G1 F6900 X176.70 Y192.26 E440.14309
G0 F6000 X176.13 Y192.26
G1 F6900 X125.02 Y141.14 E441.34530
G0 F6000 X125.02 Y141.70
G1 F6900 X175.57 Y192.26 E442.53422
G0 F6000 X175.00 Y192.26
G1 F6900 X125.02 Y142.27 E443.70983
G0 F6000 X125.02 Y142.84
G1 F6900 X174.44 Y192.26 E444.87213
G0 F6000 X173.87 Y192.26
G1 F6900 X125.02 Y143.40 E446.02114
G0 F6000 X125.02 Y143.97
G1 F6900 X173.31 Y192.26 E447.15683
G0 F6000 X172.74 Y192.26
G1 F6900 X125.02 Y144.53 E448.27923
G0 F6000 X125.02 Y145.10
G1 F6900 X172.18 Y192.26 E449.38831
G0 F6000 X171.61 Y192.26
G1 F6900 X125.02 Y145.66 E450.48410
G0 F6000 X125.02 Y146.23
G1 F6900 X171.04 Y192.26 E451.56658
G0 F6000 X170.48 Y192.26
G1 F6900 X125.02 Y146.80 E452.63575
G0 F6000 X125.02 Y147.36
G1 F6900 X169.91 Y192.26 E453.69163
G0 F6000 X169.35 Y192.26
G1 F6900 X125.02 Y147.93 E454.73420
G0 F6000 X125.02 Y148.49
G1 F6900 X168.78 Y192.26 E455.76346
G0 F6000 X168.22 Y192.26
G1 F6900 X125.02 Y149.06 E456.77943
G0 F6000 X125.02 Y149.62
G1 F6900 X167.65 Y192.26 E457.78209
G0 F6000 X167.08 Y192.26
G1 F6900 X125.02 Y150.19 E458.77144
G0 F6000 X125.02 Y150.75
G1 F6900 X166.52 Y192.26 E459.74749
G0 F6000 X165.95 Y192.26
G1 F6900 X125.02 Y151.32 E460.71024
G0 F6000 X125.02 Y151.89
G1 F6900 X165.39 Y192.26 E461.65968
G0 F6000 X164.82 Y192.26
G1 F6900 X125.02 Y152.45 E462.59583
G0 F6000 X125.02 Y153.02
G1 F6900 X164.25 Y192.26 E463.51865
G0 F6000 X163.69 Y192.26
G1 F6900 X125.02 Y153.58 E464.42818
G0 F6000 X125.02 Y154.15
G1 F6900 X163.12 Y192.26 E465.32441
G0 F6000 X162.56 Y192.26
G1 F6900 X125.02 Y154.72 E466.20733
G0 F6000 X125.02 Y155.28
G1 F6900 X161.99 Y192.26 E467.07695
G0 F6000 X161.43 Y192.26
G1 F6900 X125.02 Y155.85 E467.93326
G0 F6000 X125.02 Y156.41
G1 F6900 X160.86 Y192.26 E468.77627
G0 F6000 X160.30 Y192.26
G1 F6900 X125.02 Y156.98 E469.60597
G0 F6000 X125.02 Y157.54
G1 F6900 X159.73 Y192.26 E470.42237
G0 F6000 X159.16 Y192.26
G1 F6900 X125.02 Y158.11 E471.22547
G0 F6000 X125.02 Y158.68
G1 F6900 X158.60 Y192.26 E472.01527
G0 F6000 X158.03 Y192.26
G1 F6900 X125.02 Y159.24 E472.79175
G0 F6000 X125.02 Y159.81
G1 F6900 X157.47 Y192.26 E473.55494
G0 F6000 X156.90 Y192.26
G1 F6900 X125.02 Y160.37 E474.30482
G0 F6000 X125.02 Y160.94
G1 F6900 X156.34 Y192.26 E475.04140
G0 F6000 X155.77 Y192.26
G1 F6900 X125.02 Y161.50 E475.76467
G0 F6000 X125.02 Y162.07
G1 F6900 X155.20 Y192.26 E476.47464
G0 F6000 X155.03 Y192.64
G1 F6900 X125.02 Y162.63 E477.18040
G0 F6000 X125.02 Y163.20
G1 F6900 X154.46 Y192.64 E477.87287
G0 F6000 X153.89 Y192.64
G1 F6900 X125.02 Y163.77 E478.55202
G0 F6000 X125.02 Y164.33
G1 F6900 X153.33 Y192.64 E479.21788
G0 F6000 X152.76 Y192.64
G1 F6900 X125.02 Y164.90 E479.87042
G0 F6000 X125.02 Y165.46
G1 F6900 X152.20 Y192.64 E480.50967
G0 F6000 X151.63 Y192.64
G1 F6900 X125.02 Y166.03 E481.13560
G0 F6000 X125.02 Y166.59
G1 F6900 X151.07 Y192.64 E481.74823
G0 F6000 X150.50 Y192.64
G1 F6900 X125.02 Y167.16 E482.34756
G0 F6000 X125.02 Y167.73
G1 F6900 X149.93 Y192.64 E482.93358
G0 F6000 X149.37 Y192.64
G1 F6900 X125.02 Y168.29 E483.50631
G0 F6000 X125.02 Y168.86
G1 F6900 X148.80 Y192.64 E484.06573
G0 F6000 X148.24 Y192.64
G1 F6900 X125.02 Y169.42 E484.61184
G0 F6000 X125.02 Y169.99
G1 F6900 X147.67 Y192.64 E485.14465
G0 F6000 X147.11 Y192.64
G1 F6900 X125.02 Y170.55 E485.66416
G0 F6000 X125.02 Y171.12
G1 F6900 X146.54 Y192.64 E486.17036
G0 F6000 X145.97 Y192.64
G1 F6900 X125.02 Y171.69 E486.66326
G0 F6000 X125.02 Y172.25
G1 F6900 X145.41 Y192.64 E487.14286
G0 F6000 X144.84 Y192.64
G1 F6900 X125.02 Y172.82 E487.60915
G0 F6000 X125.02 Y173.38
G1 F6900 X144.28 Y192.64 E488.06214
G0 F6000 X143.71 Y192.64
G1 F6900 X125.02 Y173.95 E488.50183
G0 F6000 X125.02 Y174.51
G1 F6900 X143.15 Y192.64 E488.92821
G0 F6000 X142.58 Y192.64
G1 F6900 X125.02 Y175.08 E489.34128
G0 F6000 X125.02 Y175.65
G1 F6900 X142.01 Y192.64 E489.74105
G0 F6000 X141.45 Y192.64
G1 F6900 X125.02 Y176.21 E490.12752
G0 F6000 X125.02 Y176.78
G1 F6900 X140.88 Y192.64 E490.50067
G0 F6000 X140.32 Y192.64
G1 F6900 X125.02 Y177.34 E490.86053
G0 F6000 X125.02 Y177.91
G1 F6900 X139.75 Y192.64 E491.20709
G0 F6000 X139.19 Y192.64
G1 F6900 X125.02 Y178.47 E491.54033
G0 F6000 X125.02 Y179.04
G1 F6900 X138.62 Y192.64 E491.86028
G0 F6000 X138.06 Y192.64
G1 F6900 X125.02 Y179.60 E492.16692
G0 F6000 X125.02 Y180.17
G1 F6900 X137.49 Y192.64 E492.46026
G0 F6000 X136.92 Y192.64
G1 F6900 X125.02 Y180.74 E492.74029
G0 F6000 X125.02 Y181.30
G1 F6900 X136.36 Y192.64 E493.00703
G0 F6000 X135.79 Y192.64
G1 F6900 X125.02 Y181.87 E493.26045
G0 F6000 X125.02 Y182.43
G1 F6900 X135.23 Y192.64 E493.50057
G0 F6000 X134.66 Y192.64
G1 F6900 X125.02 Y183.00 E493.72740
G0 F6000 X125.02 Y183.56
G1 F6900 X134.09 Y192.64 E493.94091
G0 F6000 X133.53 Y192.64
G1 F6900 X125.02 Y184.13 E494.14112
G0 F6000 X125.02 Y184.70
G1 F6900 X132.96 Y192.64 E494.32803
G0 F6000 X132.40 Y192.64
G1 F6900 X125.02 Y185.26 E494.50164
G0 F6000 X125.02 Y185.83
G1 F6900 X131.83 Y192.64 E494.66193
G0 F6000 X131.27 Y192.64
G1 F6900 X125.02 Y186.39 E494.80892
G0 F6000 X125.02 Y186.96
G1 F6900 X130.70 Y192.64 E494.94261
G0 F6000 X130.13 Y192.64
G1 F6900 X125.02 Y187.53 E495.06299
G0 F6000 X125.02 Y188.09
G1 F6900 X129.57 Y192.64 E495.17007
G0 F6000 X129.00 Y192.64
G1 F6900 X125.02 Y188.66 E495.26385
G0 F6000 X125.02 Y189.22
G1 F6900 X128.44 Y192.64 E495.34431
G0 F6000 X127.87 Y192.64
G1 F6900 X125.02 Y189.79 E495.41148
G0 F6000 X125.02 Y190.35
G1 F6900 X127.31 Y192.64 E495.46535
G0 F6000 X126.74 Y192.64
G1 F6900 X125.02 Y190.92 E495.50591
G0 F6000 X125.02 Y191.49
G1 F6900 X126.18 Y192.64 E495.53317
G0 F6000 X125.61 Y192.64
G1 F6900 X125.02 Y192.05 E495.54713
G0 F6000 X179.89 Y180.74
G1 F6900 X125.02 Y125.86 E496.83762
G0 F6000 X125.02 Y125.30
G1 F6900 X179.90 Y180.18 E498.12836
G0 F6000 X179.91 Y179.63
G1 F6900 X125.02 Y124.73 E499.41941
G0 F6000 X125.02 Y124.17
G1 F6900 X179.93 Y179.08 E500.71076
G0 F6000 X179.93 Y178.51
G1 F6900 X125.02 Y123.60 E502.00217
G0 F6000 X125.02 Y123.04
G1 F6900 X179.92 Y177.94 E503.29338
G0 F6000 X179.90 Y177.36
G1 F6900 X125.02 Y122.47 E504.58421
G0 F6000 X125.02 Y121.91
G1 F6900 X179.89 Y176.78 E505.87467
G0 F6000 X179.87 Y176.19
G1 F6900 X125.02 Y121.34 E507.16475
G0 F6000 X125.02 Y120.77
G1 F6900 X179.85 Y175.61 E508.45446
G0 F6000 X179.84 Y175.03
G1 F6900 X125.02 Y120.21 E509.74380
G0 F6000 X125.02 Y119.64
G1 F6900 X179.82 Y174.45 E511.03275
G0 F6000 X179.82 Y173.88
G1 F6900 X125.02 Y119.08 E512.32159
G0 F6000 X125.02 Y118.51
G1 F6900 X179.83 Y173.32 E513.61072
G0 F6000 X179.84 Y172.77
G1 F6900 X125.02 Y117.95 E514.90012
G0 F6000 X125.02 Y117.38
G1 F6900 X179.85 Y172.22 E516.18980
G0 F6000 X179.87 Y171.66
G1 F6900 X125.02 Y116.81 E517.47978
G0 F6000 X125.02 Y116.25
G1 F6900 X179.88 Y171.11 E518.77005
G0 F6000 X179.89 Y170.56
G1 F6900 X125.02 Y115.68 E520.06060
G0 F6000 X125.02 Y115.12
G1 F6900 X179.90 Y170.00 E521.35145
G0 F6000 X179.91 Y169.45
G1 F6900 X125.02 Y114.55 E522.64256
G0 F6000 X125.02 Y113.99
G1 F6900 X179.93 Y168.90 E523.93394
G0 F6000 X179.93 Y168.33
G1 F6900 X125.02 Y113.42 E525.22533
G0 F6000 X125.02 Y112.85
G1 F6900 X179.91 Y167.75 E526.51642
G0 F6000 X179.90 Y167.17
G1 F6900 X125.31 Y112.59 E527.80013
G0 F6000 X125.88 Y112.59
G1 F6900 X179.88 Y166.59 E529.07018
G0 F6000 X179.87 Y166.01
G1 F6900 X126.44 Y112.59 E530.32655
G0 F6000 X127.01 Y112.59
G1 F6900 X179.85 Y165.43 E531.56924
G0 F6000 X179.83 Y164.84
G1 F6900 X127.58 Y112.59 E532.79827
G0 F6000 X128.14 Y112.59
G1 F6900 X179.82 Y164.26 E534.01361
G0 F6000 X179.82 Y163.70
G1 F6900 X128.71 Y112.59 E535.21574
G0 F6000 X129.27 Y112.59
G1 F6900 X179.83 Y163.15 E536.40485
G0 F6000 X179.85 Y162.59
G1 F6900 X129.84 Y112.59 E537.58094
G0 F6000 X130.41 Y112.59
G1 F6900 X179.86 Y162.04 E538.74400
G0 F6000 X179.87 Y161.49
G1 F6900 X130.97 Y112.59 E539.89405
G0 F6000 X131.54 Y112.59
G1 F6900 X179.88 Y160.93 E541.03110
G0 F6000 X179.90 Y160.38
G1 F6900 X132.10 Y112.59 E542.15512
G0 F6000 X132.67 Y112.59
G1 F6900 X179.91 Y159.82 E543.26611
G0 F6000 X179.92 Y159.27
G1 F6900 X133.23 Y112.59 E544.36409
G0 F6000 X133.80 Y112.59
G1 F6900 X179.93 Y158.71 E545.44892
G0 F6000 X179.92 Y158.15
G1 F6900 X134.37 Y112.59 E546.52039
G0 F6000 X134.93 Y112.59
G1 F6900 X179.91 Y157.56 E547.57822
G0 F6000 X179.89 Y156.98
G1 F6900 X135.50 Y112.59 E548.62234
G0 F6000 X136.06 Y112.59
G1 F6900 X179.88 Y156.40 E549.65281
G0 F6000 X179.86 Y155.82
G1 F6900 X136.63 Y112.59 E550.66960
G0 F6000 X137.19 Y112.59
G1 F6900 X179.85 Y155.24 E551.67272
G0 F6000 X179.83 Y154.66
G1 F6900 X137.76 Y112.59 E552.66215
G0 F6000 X138.32 Y112.59
G1 F6900 X179.81 Y154.08 E553.63794
G0 F6000 X179.83 Y153.52
G1 F6900 X138.89 Y112.59 E554.60070
G0 F6000 X139.46 Y112.59
G1 F6900 X179.84 Y152.97 E555.55045
G0 F6000 X179.85 Y152.41
G1 F6900 X140.02 Y112.59 E556.48718
G0 F6000 X140.59 Y112.59
G1 F6900 X179.86 Y151.86 E557.41088
G0 F6000 X179.88 Y151.31
G1 F6900 X141.15 Y112.59 E558.32156
G0 F6000 X141.72 Y112.59
G1 F6900 X179.89 Y150.75 E559.21921
G0 F6000 X179.90 Y150.20
G1 F6900 X142.28 Y112.59 E560.10385
G0 F6000 X142.85 Y112.59
G1 F6900 X179.91 Y149.65 E560.97547
G0 F6000 X179.93 Y149.10
G1 F6900 X143.42 Y112.59 E561.83413
G0 F6000 X143.98 Y112.59
G1 F6900 X179.93 Y148.53 E562.67950
G0 F6000 X179.92 Y147.96
G1 F6900 X144.55 Y112.59 E563.51139
G0 F6000 X145.11 Y112.59
G1 F6900 X179.90 Y147.38 E564.32962
G0 F6000 X179.89 Y146.79
G1 F6900 X145.68 Y112.59 E565.13417
G0 F6000 X146.24 Y112.59
G1 F6900 X179.87 Y146.21 E565.92504
G0 F6000 X179.86 Y145.63
G1 F6900 X146.81 Y112.59 E566.70224
G0 F6000 X147.38 Y112.59
G1 F6900 X179.84 Y145.05 E567.46575
G0 F6000 X179.82 Y144.47
G1 F6900 X147.94 Y112.59 E568.21560
G0 F6000 X148.51 Y112.59
G1 F6900 X179.82 Y143.90 E568.95199
G0 F6000 X179.83 Y143.34
G1 F6900 X149.07 Y112.59 E569.67536
G0 F6000 X149.64 Y112.59
G1 F6900 X179.84 Y142.79 E570.38571
G0 F6000 X179.85 Y142.24
G1 F6900 X150.20 Y112.59 E571.08303
G0 F6000 X150.77 Y112.59
G1 F6900 X179.87 Y141.68 E571.76733
G0 F6000 X179.88 Y141.13
G1 F6900 X151.34 Y112.59 E572.43861
G0 F6000 X151.90 Y112.59
G1 F6900 X179.89 Y140.57 E573.09687
G0 F6000 X179.90 Y140.02
G1 F6900 X152.47 Y112.59 E573.74210
G0 F6000 X153.03 Y112.59
G1 F6900 X179.91 Y139.47 E574.37432
G0 F6000 X179.93 Y138.91
G1 F6900 X153.60 Y112.59 E574.99352
G0 F6000 X154.16 Y112.59
G1 F6900 X179.93 Y138.35 E575.59940
G0 F6000 X179.91 Y137.77
G1 F6900 X155.25 Y113.10 E576.17957
G0 F6000 X155.08 Y112.93
G1 F6900 X154.73 Y112.59 E576.18775
G0 F6000 X155.81 Y113.10
G1 F6900 X179.90 Y137.19 E576.75421
G0 F6000 X179.88 Y136.61
G1 F6900 X156.38 Y113.11 E577.30696
G0 F6000 X156.95 Y113.11
G1 F6900 X179.87 Y136.03 E577.84600
G0 F6000 X179.85 Y135.44
G1 F6900 X157.51 Y113.11 E578.37135
G0 F6000 X158.08 Y113.11
G1 F6900 X179.84 Y134.86 E578.88299
G0 F6000 X179.82 Y134.28
G1 F6900 X158.65 Y113.11 E579.38094
G0 F6000 X159.21 Y113.11
G1 F6900 X179.82 Y133.72 E579.86560
G0 F6000 X179.83 Y133.16
G1 F6900 X159.78 Y113.11 E580.33720
G0 F6000 X160.35 Y113.11
G1 F6900 X179.85 Y132.61 E580.79575
G0 F6000 X179.86 Y132.06
G1 F6900 X160.91 Y113.11 E581.24126
G0 F6000 X161.48 Y113.12
G1 F6900 X179.87 Y131.50 E581.67372
G0 F6000 X179.88 Y130.95
G1 F6900 X162.05 Y113.12 E582.09314
G0 F6000 X162.62 Y113.12
G1 F6900 X179.90 Y130.40 E582.49951
G0 F6000 X179.91 Y129.84
G1 F6900 X163.18 Y113.12 E582.89282
G0 F6000 X163.75 Y113.12
G1 F6900 X179.92 Y129.29 E583.27307
G0 F6000 X179.93 Y128.73
G1 F6900 X164.32 Y113.12 E583.64014
G0 F6000 X164.88 Y113.12
G1 F6900 X179.93 Y128.16 E583.99388
G0 F6000 X179.91 Y127.58
G1 F6900 X165.45 Y113.12 E584.33391
G0 F6000 X166.02 Y113.13
G1 F6900 X179.89 Y127.00 E584.66023
G0 F6000 X179.88 Y126.42
G1 F6900 X166.59 Y113.13 E584.97285
G0 F6000 X167.15 Y113.13
G1 F6900 X179.86 Y125.84 E585.27176
G0 F6000 X179.85 Y125.26
G1 F6900 X167.72 Y113.13 E585.55697
G0 F6000 X168.29 Y113.13
G1 F6900 X179.83 Y124.68 E585.82846
G0 F6000 X179.81 Y124.09
G1 F6900 X168.85 Y113.13 E586.08627
G0 F6000 X169.42 Y113.13
G1 F6900 X179.83 Y123.54 E586.33101
G0 F6000 X179.84 Y122.99
G1 F6900 X169.99 Y113.14 E586.56269
G0 F6000 X170.55 Y113.14
G1 F6900 X179.85 Y122.43 E586.78132
G0 F6000 X179.86 Y121.88
G1 F6900 X171.12 Y113.14 E586.98689
G0 F6000 X171.69 Y113.14
G1 F6900 X179.87 Y121.33 E587.17942
G0 F6000 X179.89 Y120.77
G1 F6900 X172.25 Y113.14 E587.35889
G0 F6000 X172.82 Y113.14
G1 F6900 X179.90 Y120.22 E587.52531
G0 F6000 X179.91 Y119.67
G1 F6900 X173.39 Y113.14 E587.67867
G0 F6000 X173.96 Y113.14
G1 F6900 X179.93 Y119.11 E587.81907
G0 F6000 X179.93 Y118.55
G1 F6900 X174.52 Y113.15 E587.94614
G0 F6000 X175.09 Y113.15
G1 F6900 X179.92 Y117.98 E588.05973
G0 F6000 X179.90 Y117.39
G1 F6900 X175.66 Y113.15 E588.15960
G0 F6000 X176.22 Y113.15
G1 F6900 X179.89 Y116.81 E588.24578
G0 F6000 X179.87 Y116.23
G1 F6900 X176.79 Y113.15 E588.31826
G0 F6000 X177.36 Y113.15
G1 F6900 X179.86 Y115.65 E588.37701
G0 F6000 X179.84 Y115.07
G1 F6900 X177.93 Y113.15 E588.42207
G0 F6000 X178.49 Y113.16
G1 F6900 X179.82 Y114.49 E588.45343
G0 F6000 X179.81 Y113.91
G1 F6900 X179.06 Y113.16 E588.47108
G0 F6000 X179.63 Y113.16
G1 F6900 X179.79 Y113.33 E588.47501
;LAYER:-1
;RAFT
G0 F6000 X179.82 Y113.22 Z0.70
;TYPE:SUPPORT
G1 F2100 X124.99 Y113.22 E590.29880
G0 F6000 X124.99 Y113.58
G1 F2100 X179.83 Y113.58 E592.12291
G0 F6000 X179.84 Y113.94
G1 F2100 X124.99 Y113.94 E593.94737
G0 F6000 X124.99 Y114.30
G1 F2100 X179.85 Y114.30 E595.77212
G0 F6000 X179.86 Y114.66
G1 F2100 X124.99 Y114.66 E597.59720
G0 F6000 X124.99 Y115.02
G1 F2100 X179.87 Y115.02 E599.42262
G0 F6000 X179.88 Y115.38
G1 F2100 X124.99 Y115.38 E601.24837
G0 F6000 X124.99 Y115.74
G1 F2100 X179.89 Y115.74 E603.07441
G0 F6000 X179.90 Y116.10
G1 F2100 X124.99 Y116.10 E604.90079
G0 F6000 X124.99 Y116.46
G1 F2100 X179.91 Y116.46 E606.72751
G0 F6000 X179.92 Y116.82
G1 F2100 X124.99 Y116.82 E608.55455
G0 F6000 X124.99 Y117.18
G1 F2100 X179.93 Y117.18 E610.38190
G0 F6000 X179.94 Y117.54
G1 F2100 X124.99 Y117.54 E612.20958
G0 F6000 X124.99 Y117.90
G1 F2100 X179.95 Y117.90 E614.03759
G0 F6000 X179.96 Y118.26
G1 F2100 X124.99 Y118.26 E615.86593
G0 F6000 X124.99 Y118.62
G1 F2100 X179.96 Y118.62 E617.69424
G0 F6000 X179.96 Y118.98
G1 F2100 X124.99 Y118.98 E619.52251
G0 F6000 X124.99 Y119.34
G1 F2100 X179.95 Y119.34 E621.35052
G0 F6000 X179.94 Y119.70
G1 F2100 X124.99 Y119.70 E623.17827
G0 F6000 X124.99 Y120.06
G1 F2100 X179.93 Y120.06 E625.00575
G0 F6000 X179.92 Y120.42
G1 F2100 X124.99 Y120.42 E626.83296
G0 F6000 X124.99 Y120.78
G1 F2100 X179.92 Y120.78 E628.65994
G0 F6000 X179.91 Y121.14
G1 F2100 X124.99 Y121.14 E630.48665
G0 F6000 X124.99 Y121.50
G1 F2100 X179.90 Y121.50 E632.31310
G0 F6000 X179.89 Y121.86
G1 F2100 X124.99 Y121.86 E634.13928
G0 F6000 X124.99 Y122.22
G1 F2100 X179.88 Y122.22 E635.96519
G0 F6000 X179.88 Y122.58
G1 F2100 X124.99 Y122.58 E637.79084
G0 F6000 X124.99 Y122.94
G1 F2100 X179.87 Y122.94 E639.61626
G0 F6000 X179.86 Y123.30
G1 F2100 X124.99 Y123.30 E641.44141
G0 F6000 X124.99 Y123.66
G1 F2100 X179.85 Y123.66 E643.26629
G0 F6000 X179.85 Y124.02
G1 F2100 X124.99 Y124.02 E645.09091
G0 F6000 X124.99 Y124.38
G1 F2100 X179.85 Y124.38 E646.91576
G0 F6000 X179.86 Y124.74
G1 F2100 X124.99 Y124.74 E648.74094
G0 F6000 X124.99 Y125.10
G1 F2100 X179.87 Y125.10 E650.56646
G0 F6000 X179.88 Y125.46
G1 F2100 X124.99 Y125.46 E652.39231
G0 F6000 X124.99 Y125.82
G1 F2100 X179.89 Y125.82 E654.21846
G0 F6000 X179.90 Y126.18
G1 F2100 X124.99 Y126.18 E656.04494
G0 F6000 X124.99 Y126.54
G1 F2100 X179.91 Y126.54 E657.87175
G0 F6000 X179.92 Y126.90
G1 F2100 X124.99 Y126.90 E659.69889
G0 F6000 X124.99 Y127.26
G1 F2100 X179.93 Y127.26 E661.52637
G0 F6000 X179.94 Y127.62
G1 F2100 X124.99 Y127.62 E663.35415
G0 F6000 X124.99 Y127.98
G1 F2100 X179.95 Y127.98 E665.18226
G0 F6000 X179.96 Y128.34
G1 F2100 X124.99 Y128.34 E667.01060
G0 F6000 X124.99 Y128.70
G1 F2100 X179.96 Y128.70 E668.83891
G0 F6000 X179.96 Y129.06
G1 F2100 X124.99 Y129.06 E670.66722
G0 F6000 X124.99 Y129.42
G1 F2100 X179.95 Y129.42 E672.49517
G0 F6000 X179.94 Y129.78
G1 F2100 X124.99 Y129.78 E674.32284
G0 F6000 X124.99 Y130.14
G1 F2100 X179.93 Y130.14 E676.15029
G0 F6000 X179.92 Y130.50
G1 F2100 X124.99 Y130.50 E677.97747
G0 F6000 X124.99 Y130.86
G1 F2100 X179.91 Y130.86 E679.80438
G0 F6000 X179.91 Y131.22
G1 F2100 X124.99 Y131.22 E681.63103
G0 F6000 X124.99 Y131.58
G1 F2100 X179.90 Y131.58 E683.45741
G0 F6000 X179.89 Y131.94
G1 F2100 X124.99 Y131.94 E685.28352
G0 F6000 X124.99 Y132.30
G1 F2100 X179.88 Y132.30 E687.10937
G0 F6000 X179.88 Y132.66
G1 F2100 X124.99 Y132.66 E688.93499
G0 F6000 X124.99 Y133.02
G1 F2100 X179.87 Y133.02 E690.76034
G0 F6000 X179.86 Y133.38
G1 F2100 X124.99 Y133.38 E692.58542
G0 F6000 X124.99 Y133.74
G1 F2100 X179.85 Y133.74 E694.41024
G0 F6000 X179.85 Y134.10
G1 F2100 X124.99 Y134.10 E696.23485
G0 F6000 X124.99 Y134.46
G1 F2100 X179.86 Y134.46 E698.05980
G0 F6000 X179.87 Y134.82
G1 F2100 X124.99 Y134.82 E699.88505
G0 F6000 X124.99 Y135.18
G1 F2100 X179.88 Y135.18 E701.71064
G0 F6000 X179.88 Y135.54
G1 F2100 X124.99 Y135.54 E703.53655
G0 F6000 X124.99 Y135.90
G1 F2100 X179.90 Y135.90 E705.36280
G0 F6000 X179.90 Y136.26
G1 F2100 X124.99 Y136.26 E707.18935
G0 F6000 X124.99 Y136.62
G1 F2100 X179.91 Y136.62 E709.01622
G0 F6000 X179.92 Y136.98
G1 F2100 X124.99 Y136.98 E710.84344
G0 F6000 X124.99 Y137.34
G1 F2100 X179.93 Y137.34 E712.67098
G0 F6000 X179.94 Y137.70
G1 F2100 X124.99 Y137.70 E714.49883
G0 F6000 X124.99 Y138.06
G1 F2100 X179.95 Y138.06 E716.32700
G0 F6000 X179.96 Y138.42
G1 F2100 X124.99 Y138.42 E718.15531
G0 F6000 X124.99 Y138.78
G1 F2100 X179.96 Y138.78 E719.98365
G0 F6000 X179.95 Y139.14
G1 F2100 X124.99 Y139.14 E721.81186
G0 F6000 X124.99 Y139.50
G1 F2100 X179.94 Y139.50 E723.63974
G0 F6000 X179.94 Y139.86
G1 F2100 X124.99 Y139.86 E725.46739
G0 F6000 X124.99 Y140.22
G1 F2100 X179.93 Y140.22 E727.29476
G0 F6000 X179.92 Y140.58
G1 F2100 X124.99 Y140.58 E729.12188
G0 F6000 X124.99 Y140.94
G1 F2100 X179.91 Y140.94 E730.94872
G0 F6000 X179.91 Y141.30
G1 F2100 X124.99 Y141.30 E732.77530
G0 F6000 X124.99 Y141.66
G1 F2100 X179.90 Y141.66 E734.60162
G0 F6000 X179.89 Y142.02
G1 F2100 X124.99 Y142.02 E736.42770
G0 F6000 X124.99 Y142.38
G1 F2100 X179.88 Y142.38 E738.25351
G0 F6000 X179.87 Y142.74
G1 F2100 X124.99 Y142.74 E740.07906
G0 F6000 X124.99 Y143.10
G1 F2100 X179.87 Y143.10 E741.90435
G0 F6000 X179.86 Y143.46
G1 F2100 X124.99 Y143.46 E743.72936
G0 F6000 X124.99 Y143.82
G1 F2100 X179.85 Y143.82 E745.55411
G0 F6000 X179.85 Y144.18
G1 F2100 X124.99 Y144.18 E747.37880
G0 F6000 X124.99 Y144.54
G1 F2100 X179.86 Y144.54 E749.20381
G0 F6000 X179.87 Y144.90
G1 F2100 X124.99 Y144.90 E751.02913
G0 F6000 X124.99 Y145.26
G1 F2100 X179.88 Y145.26 E752.85478
G0 F6000 X179.89 Y145.62
G1 F2100 X124.99 Y145.62 E754.68076
G0 F6000 X124.99 Y145.98
G1 F2100 X179.90 Y145.98 E756.50707
G0 F6000 X179.91 Y146.34
G1 F2100 X124.99 Y146.34 E758.33372
G0 F6000 X124.99 Y146.70
G1 F2100 X179.92 Y146.70 E760.16067
G0 F6000 X179.93 Y147.06
G1 F2100 X124.99 Y147.06 E761.98795
G0 F6000 X124.99 Y147.42
G1 F2100 X179.94 Y147.42 E763.81556
G0 F6000 X179.95 Y147.78
G1 F2100 X124.99 Y147.78 E765.64350
G0 F6000 X124.99 Y148.14
G1 F2100 X179.96 Y148.14 E767.47174
G0 F6000 X179.96 Y148.50
G1 F2100 X124.99 Y148.50 E769.30009
G0 F6000 X124.99 Y148.86
G1 F2100 X179.96 Y148.86 E771.12840
G0 F6000 X179.95 Y149.22
G1 F2100 X124.99 Y149.22 E772.95651
G0 F6000 X124.99 Y149.58
G1 F2100 X179.94 Y149.58 E774.78435
G0 F6000 X179.94 Y149.94
G1 F2100 X124.99 Y149.94 E776.61193
G0 F6000 X124.99 Y150.30
G1 F2100 X179.93 Y150.30 E778.43924
G0 F6000 X179.92 Y150.66
G1 F2100 X124.99 Y150.66 E780.26629
G0 F6000 X124.99 Y151.02
G1 F2100 X179.91 Y151.02 E782.09307
G0 F6000 X179.90 Y151.38
G1 F2100 X124.99 Y151.38 E783.91961
G0 F6000 X124.99 Y151.74
G1 F2100 X179.90 Y151.74 E785.74589
G0 F6000 X179.89 Y152.10
G1 F2100 X124.99 Y152.10 E787.57191
G0 F6000 X124.99 Y152.46
G1 F2100 X179.88 Y152.46 E789.39766
G0 F6000 X179.87 Y152.82
G1 F2100 X124.99 Y152.82 E791.22314
G0 F6000 X124.99 Y153.18
G1 F2100 X179.86 Y153.18 E793.04836
G0 F6000 X179.86 Y153.54
G1 F2100 X124.99 Y153.54 E794.87331
G0 F6000 X124.99 Y153.90
G1 F2100 X179.85 Y153.90 E796.69802
G0 F6000 X179.85 Y154.26
G1 F2100 X124.99 Y154.26 E798.52277
G0 F6000 X124.99 Y154.62
G1 F2100 X179.86 Y154.62 E800.34786
G0 F6000 X179.87 Y154.98
G1 F2100 X124.99 Y154.98 E802.17327
G0 F6000 X124.99 Y155.34
G1 F2100 X179.88 Y155.34 E803.99899
G0 F6000 X179.89 Y155.70
G1 F2100 X124.99 Y155.70 E805.82504
G0 F6000 X124.99 Y156.06
G1 F2100 X179.90 Y156.06 E807.65142
G0 F6000 X179.91 Y156.42
G1 F2100 X124.99 Y156.42 E809.47813
G0 F6000 X124.99 Y156.78
G1 F2100 X179.92 Y156.78 E811.30518
G0 F6000 X179.93 Y157.14
G1 F2100 X124.99 Y157.14 E813.13252
G0 F6000 X124.99 Y157.50
G1 F2100 X179.94 Y157.50 E814.96020
G0 F6000 X179.95 Y157.86
G1 F2100 X124.99 Y157.86 E816.78821
G0 F6000 X124.99 Y158.22
G1 F2100 X179.96 Y158.22 E818.61655
G0 F6000 X179.96 Y158.58
G1 F2100 X124.99 Y158.58 E820.44483
G0 F6000 X124.99 Y158.94
G1 F2100 X179.96 Y158.94 E822.27310
G0 F6000 X179.95 Y159.30
G1 F2100 X124.99 Y159.30 E824.10115
G0 F6000 X124.99 Y159.66
G1 F2100 X179.94 Y159.66 E825.92893
G0 F6000 X179.93 Y160.02
G1 F2100 X124.99 Y160.02 E827.75644
G0 F6000 X124.99 Y160.38
G1 F2100 X179.93 Y160.38 E829.58368
G0 F6000 X179.92 Y160.74
G1 F2100 X124.99 Y160.74 E831.41066
G0 F6000 X124.99 Y161.10
G1 F2100 X179.91 Y161.10 E833.23741
G0 F6000 X179.90 Y161.46
G1 F2100 X124.99 Y161.46 E835.06389
G0 F6000 X124.99 Y161.82
G1 F2100 X179.89 Y161.82 E836.89010
G0 F6000 X179.89 Y162.18
G1 F2100 X124.99 Y162.18 E838.71605
G0 F6000 X124.99 Y162.54
G1 F2100 X179.88 Y162.54 E840.54173
G0 F6000 X179.87 Y162.90
G1 F2100 X124.99 Y162.90 E842.36715
G0 F6000 X124.99 Y163.26
G1 F2100 X179.86 Y163.26 E844.19233
G0 F6000 X179.85 Y163.62
G1 F2100 X124.99 Y163.62 E846.01725
G0 F6000 X124.99 Y163.98
G1 F2100 X179.85 Y163.98 E847.84190
G0 F6000 X179.85 Y164.34
G1 F2100 X124.99 Y164.34 E849.66672
G0 F6000 X124.99 Y164.70
G1 F2100 X179.86 Y164.70 E851.49187
G0 F6000 X179.87 Y165.06
G1 F2100 X124.99 Y165.06 E853.31735
G0 F6000 X124.99 Y165.42
G1 F2100 X179.88 Y165.42 E855.14316
G0 F6000 X179.89 Y165.78
G1 F2100 X124.99 Y165.78 E856.96928
G0 F6000 X124.99 Y166.14
G1 F2100 X179.90 Y166.14 E858.79573
G0 F6000 X179.91 Y166.50
G1 F2100 X124.99 Y166.50 E860.62251
G0 F6000 X124.99 Y166.86
G1 F2100 X179.92 Y166.86 E862.44962
G0 F6000 X179.93 Y167.22
G1 F2100 X124.99 Y167.22 E864.27703
G0 F6000 X124.99 Y167.58
G1 F2100 X179.94 Y167.58 E866.10477
G0 F6000 X179.95 Y167.94
G1 F2100 X124.99 Y167.94 E867.93285
G0 F6000 X124.99 Y168.30
G1 F2100 X179.96 Y168.30 E869.76119
G0 F6000 X179.96 Y168.66
G1 F2100 X124.99 Y168.66 E871.58950
G0 F6000 X124.99 Y169.02
G1 F2100 X179.96 Y169.02 E873.41785
G0 F6000 X179.95 Y169.38
G1 F2100 X124.99 Y169.38 E875.24582
G0 F6000 X124.99 Y169.74
G1 F2100 X179.94 Y169.74 E877.07353
G0 F6000 X179.93 Y170.10
G1 F2100 X124.99 Y170.10 E878.90098
G0 F6000 X124.99 Y170.46
G1 F2100 X179.92 Y170.46 E880.72819
G0 F6000 X179.92 Y170.82
G1 F2100 X124.99 Y170.82 E882.55514
G0 F6000 X124.99 Y171.18
G1 F2100 X179.91 Y171.18 E884.38182
G0 F6000 X179.90 Y171.54
G1 F2100 X124.99 Y171.54 E886.20823
G0 F6000 X124.99 Y171.90
G1 F2100 X179.89 Y171.90 E888.03438
G0 F6000 X179.88 Y172.26
G1 F2100 X124.99 Y172.26 E889.86026
G0 F6000 X124.99 Y172.62
G1 F2100 X179.88 Y172.62 E891.68588
G0 F6000 X179.87 Y172.98
G1 F2100 X124.99 Y172.98 E893.51126
G0 F6000 X124.99 Y173.34
G1 F2100 X179.86 Y173.34 E895.33637
G0 F6000 X179.85 Y173.70
G1 F2100 X124.99 Y173.70 E897.16123
G0 F6000 X124.99 Y174.06
G1 F2100 X179.84 Y174.06 E898.98581
G0 F6000 X179.85 Y174.42
G1 F2100 X124.99 Y174.42 E900.81069
G0 F6000 X124.99 Y174.78
G1 F2100 X179.86 Y174.78 E902.63591
G0 F6000 X179.87 Y175.14
G1 F2100 X124.99 Y175.14 E904.46146
G0 F6000 X124.99 Y175.50
G1 F2100 X179.88 Y175.50 E906.28734
G0 F6000 X179.89 Y175.86
G1 F2100 X124.99 Y175.86 E908.11356
G0 F6000 X124.99 Y176.22
G1 F2100 X179.90 Y176.22 E909.94007
G0 F6000 X179.91 Y176.58
G1 F2100 X124.99 Y176.58 E911.76691
G0 F6000 X124.99 Y176.94
G1 F2100 X179.92 Y176.94 E913.59409
G0 F6000 X179.93 Y177.30
G1 F2100 X124.99 Y177.30 E915.42161
G0 F6000 X124.99 Y177.66
G1 F2100 X179.94 Y177.66 E917.24942
G0 F6000 X179.95 Y178.02
G1 F2100 X124.99 Y178.02 E919.07756
G0 F6000 X124.99 Y178.38
G1 F2100 X179.96 Y178.38 E920.90590
G0 F6000 X179.96 Y178.74
G1 F2100 X124.99 Y178.74 E922.73421
G0 F6000 X124.99 Y179.10
G1 F2100 X179.96 Y179.10 E924.56252
G0 F6000 X179.94 Y179.46
G1 F2100 X124.99 Y179.46 E926.39043
G0 F6000 X124.99 Y179.82
G1 F2100 X179.94 Y179.82 E928.21808
G0 F6000 X179.93 Y180.18
G1 F2100 X124.99 Y180.18 E930.04545
G0 F6000 X124.99 Y180.54
G1 F2100 X179.92 Y180.54 E931.87257
G0 F6000 X179.91 Y180.90
G1 F2100 X124.99 Y180.90 E933.69941
G0 F6000 X124.99 Y181.26
G1 F2100 X180.48 Y181.26 E935.54512
G0 F6000 X180.44 Y181.62
G1 F2100 X124.99 Y181.62 E937.38962
G0 F6000 X124.99 Y181.98
G1 F2100 X180.41 Y181.98 E939.23293
G0 F6000 X180.37 Y182.34
G1 F2100 X124.99 Y182.34 E941.07505
G0 F6000 X124.99 Y182.70
G1 F2100 X180.34 Y182.70 E942.91596
G0 F6000 X180.30 Y183.06
G1 F2100 X124.99 Y183.06 E944.75568
G0 F6000 X124.99 Y183.42
G1 F2100 X180.26 Y183.42 E946.59420
G0 F6000 X180.23 Y183.78
G1 F2100 X124.99 Y183.78 E948.43152
G0 F6000 X124.99 Y184.14
G1 F2100 X180.19 Y184.14 E950.26765
G0 F6000 X180.16 Y184.50
G1 F2100 X124.99 Y184.50 E952.10258
G0 F6000 X124.99 Y184.86
G1 F2100 X180.12 Y184.86 E953.93631
G0 F6000 X180.08 Y185.22
G1 F2100 X124.99 Y185.22 E955.76884
G0 F6000 X124.99 Y185.58
G1 F2100 X180.05 Y185.58 E957.60018
G0 F6000 X180.01 Y185.94
G1 F2100 X124.99 Y185.94 E959.43032
G0 F6000 X124.99 Y186.30
G1 F2100 X179.98 Y186.30 E961.25926
G0 F6000 X179.96 Y186.66
G1 F2100 X124.99 Y186.66 E963.08757
G0 F6000 X124.99 Y187.02
G1 F2100 X179.96 Y187.02 E964.91585
G0 F6000 X179.95 Y187.38
G1 F2100 X124.99 Y187.38 E966.74396
G0 F6000 X124.99 Y187.74
G1 F2100 X179.94 Y187.74 E968.57180
G0 F6000 X179.94 Y188.10
G1 F2100 X124.99 Y188.10 E970.39938
G0 F6000 X124.99 Y188.46
G1 F2100 X179.93 Y188.46 E972.22672
G0 F6000 X179.92 Y188.82
G1 F2100 X124.99 Y188.82 E974.05380
G0 F6000 X124.99 Y189.18
G1 F2100 X179.91 Y189.18 E975.88061
G0 F6000 X179.91 Y189.54
G1 F2100 X124.99 Y189.54 E977.70719
G0 F6000 X124.99 Y189.90
G1 F2100 X179.90 Y189.90 E979.53351
G0 F6000 X179.89 Y190.26
G1 F2100 X124.99 Y190.26 E981.35959
G0 F6000 X124.99 Y190.62
G1 F2100 X179.88 Y190.62 E983.18541
G0 F6000 X179.87 Y190.98
G1 F2100 X124.99 Y190.98 E985.01095
G0 F6000 X124.99 Y191.34
G1 F2100 X179.87 Y191.34 E986.83627
G0 F6000 X179.86 Y191.70
G1 F2100 X124.99 Y191.70 E988.66132
G0 F6000 X124.99 Y192.06
G1 F2100 X179.85 Y192.06 E990.48610
G0 F6000 X155.11 Y192.42
G1 F2100 X124.99 Y192.42 E991.48793
G0 F6000 X124.99 Y112.86
G1 F2100 X155.11 Y112.86 E992.48973
;LAYER:-1
;RAFT
G0 F6000 X155.34 Y113.07 Z0.90
;TYPE:SUPPORT
G1 F2100 X155.34 Y192.29 E995.12443
G0 F6000 X155.70 Y192.29
G1 F2100 X155.70 Y113.07 E997.75910
G0 F6000 X156.06 Y113.07
G1 F2100 X156.06 Y192.29 E1000.39373
G0 F6000 X156.42 Y192.29
G1 F2100 X156.42 Y113.07 E1003.02837
G0 F6000 X156.78 Y113.08
G1 F2100 X156.78 Y192.29 E1005.66297
G0 F6000 X157.14 Y192.29
G1 F2100 X157.14 Y113.08 E1008.29754
G0 F6000 X157.50 Y113.08
G1 F2100 X157.50 Y192.29 E1010.93207
G0 F6000 X157.86 Y192.29
G1 F2100 X157.86 Y113.08 E1013.56658
G0 F6000 X158.22 Y113.08
G1 F2100 X158.22 Y192.29 E1016.20104
G0 F6000 X158.58 Y192.29
G1 F2100 X158.58 Y113.08 E1018.83551
G0 F6000 X158.94 Y113.08
G1 F2100 X158.94 Y192.29 E1021.46995
G0 F6000 X159.30 Y192.29
G1 F2100 X159.30 Y113.08 E1024.10435
G0 F6000 X159.66 Y113.08
G1 F2100 X159.66 Y192.29 E1026.73872
G0 F6000 X160.02 Y192.29
G1 F2100 X160.02 Y113.08 E1029.37306
G0 F6000 X160.38 Y113.08
G1 F2100 X160.38 Y192.29 E1032.00739
G0 F6000 X160.74 Y192.29
G1 F2100 X160.74 Y113.08 E1034.64169
G0 F6000 X161.10 Y113.08
G1 F2100 X161.10 Y192.29 E1037.27596
G0 F6000 X161.46 Y192.29
G1 F2100 X161.46 Y113.09 E1039.91020
G0 F6000 X161.82 Y113.09
G1 F2100 X161.82 Y192.29 E1042.54440
G0 F6000 X162.18 Y192.29
G1 F2100 X162.18 Y113.09 E1045.17857
G0 F6000 X162.54 Y113.09
G1 F2100 X162.54 Y192.29 E1047.81274
G0 F6000 X162.90 Y192.29
G1 F2100 X162.90 Y113.09 E1050.44688
G0 F6000 X163.26 Y113.09
G1 F2100 X163.26 Y192.29 E1053.08098
G0 F6000 X163.62 Y192.29
G1 F2100 X163.62 Y113.09 E1055.71505
G0 F6000 X163.98 Y113.09
G1 F2100 X163.98 Y192.29 E1058.34909
G0 F6000 X164.34 Y192.29
G1 F2100 X164.34 Y113.09 E1060.98312
G0 F6000 X164.70 Y113.09
G1 F2100 X164.70 Y192.29 E1063.61713
G0 F6000 X165.06 Y192.29
G1 F2100 X165.06 Y113.09 E1066.25110
G0 F6000 X165.42 Y113.09
G1 F2100 X165.42 Y192.29 E1068.88503
G0 F6000 X165.78 Y192.29
G1 F2100 X165.78 Y113.10 E1071.51894
G0 F6000 X166.14 Y113.10
G1 F2100 X166.14 Y192.29 E1074.15281
G0 F6000 X166.50 Y192.29
G1 F2100 X166.50 Y113.10 E1076.78668
G0 F6000 X166.86 Y113.10
G1 F2100 X166.86 Y192.29 E1079.42051
G0 F6000 X167.22 Y192.29
G1 F2100 X167.22 Y113.10 E1082.05432
G0 F6000 X167.58 Y113.10
G1 F2100 X167.58 Y192.29 E1084.68809
G0 F6000 X167.94 Y192.29
G1 F2100 X167.94 Y113.10 E1087.32182
G0 F6000 X168.30 Y113.10
G1 F2100 X168.30 Y192.29 E1089.95556
G0 F6000 X168.66 Y192.29
G1 F2100 X168.66 Y113.10 E1092.58926
G0 F6000 X169.02 Y113.10
G1 F2100 X169.02 Y192.29 E1095.22293
G0 F6000 X169.38 Y192.29
G1 F2100 X169.38 Y113.10 E1097.85657
G0 F6000 X169.74 Y113.11
G1 F2100 X169.74 Y192.29 E1100.49018
G0 F6000 X170.10 Y192.29
G1 F2100 X170.10 Y113.11 E1103.12378
G0 F6000 X170.46 Y113.11
G1 F2100 X170.46 Y192.29 E1105.75735
G0 F6000 X170.82 Y192.29
G1 F2100 X170.82 Y113.11 E1108.39089
G0 F6000 X171.18 Y113.11
G1 F2100 X171.18 Y192.29 E1111.02439
G0 F6000 X171.54 Y192.29
G1 F2100 X171.54 Y113.11 E1113.65786
G0 F6000 X171.90 Y113.11
G1 F2100 X171.90 Y192.29 E1116.29130
G0 F6000 X172.26 Y192.29
G1 F2100 X172.26 Y113.11 E1118.92474
G0 F6000 X172.62 Y113.11
G1 F2100 X172.62 Y192.29 E1121.55814
G0 F6000 X172.98 Y192.29
G1 F2100 X172.98 Y113.11 E1124.19151
G0 F6000 X173.34 Y113.11
G1 F2100 X173.34 Y192.29 E1126.82485
G0 F6000 X173.70 Y192.29
G1 F2100 X173.70 Y113.11 E1129.45816
G0 F6000 X174.06 Y113.11
G1 F2100 X174.06 Y192.29 E1132.09146
G0 F6000 X174.42 Y192.29
G1 F2100 X174.42 Y113.11 E1134.72473
G0 F6000 X174.78 Y113.12
G1 F2100 X174.78 Y192.29 E1137.35797
G0 F6000 X175.14 Y192.29
G1 F2100 X175.14 Y113.12 E1139.99118
G0 F6000 X175.50 Y113.12
G1 F2100 X175.50 Y192.29 E1142.62435
G0 F6000 X175.86 Y192.29
G1 F2100 X175.86 Y113.12 E1145.25749
G0 F6000 X176.22 Y113.12
G1 F2100 X176.22 Y192.29 E1147.89062
G0 F6000 X176.58 Y192.29
G1 F2100 X176.58 Y113.12 E1150.52373
G0 F6000 X176.94 Y113.12
G1 F2100 X176.94 Y192.29 E1153.15680
G0 F6000 X177.30 Y192.29
G1 F2100 X177.30 Y113.12 E1155.78984
G0 F6000 X177.66 Y113.12
G1 F2100 X177.66 Y192.29 E1158.42285
G0 F6000 X178.02 Y192.29
G1 F2100 X178.02 Y113.12 E1161.05585
G0 F6000 X178.38 Y113.12
G1 F2100 X178.38 Y192.29 E1163.68882
G0 F6000 X178.74 Y192.29
G1 F2100 X178.74 Y113.12 E1166.32176
G0 F6000 X179.10 Y113.13
G1 F2100 X179.10 Y192.29 E1168.95467
G0 F6000 X179.46 Y192.29
G1 F2100 X179.46 Y113.13 E1171.58754
G0 F6000 X179.82 Y113.16
G1 F2100 X179.82 Y192.29 E1174.21918
G0 F6000 X180.18 Y184.26
G1 F2100 X180.18 Y181.21 E1174.32079
G0 F6000 X154.98 Y192.67
G1 F2100 X154.98 Y112.56 E1176.98556
G0 F6000 X154.62 Y112.56
G1 F2100 X154.62 Y192.67 E1179.65033
G0 F6000 X154.26 Y192.67
G1 F2100 X154.26 Y112.56 E1182.31510
G0 F6000 X153.90 Y112.56
G1 F2100 X153.90 Y192.67 E1184.97987
G0 F6000 X153.54 Y192.67
G1 F2100 X153.54 Y112.56 E1187.64464
G0 F6000 X153.18 Y112.56
G1 F2100 X153.18 Y192.67 E1190.30940
G0 F6000 X152.82 Y192.67
G1 F2100 X152.82 Y112.56 E1192.97417
G0 F6000 X152.46 Y112.56
G1 F2100 X152.46 Y192.67 E1195.63894
G0 F6000 X152.10 Y192.67
G1 F2100 X152.10 Y112.56 E1198.30371
G0 F6000 X151.74 Y112.56
G1 F2100 X151.74 Y192.67 E1200.96848
G0 F6000 X151.38 Y192.67
G1 F2100 X151.38 Y112.56 E1203.63325
G0 F6000 X151.02 Y112.56
G1 F2100 X151.02 Y192.67 E1206.29802
G0 F6000 X150.66 Y192.67
G1 F2100 X150.66 Y112.56 E1208.96279
G0 F6000 X150.30 Y112.56
G1 F2100 X150.30 Y192.67 E1211.62755
G0 F6000 X149.94 Y192.67
G1 F2100 X149.94 Y112.56 E1214.29232
G0 F6000 X149.58 Y112.56
G1 F2100 X149.58 Y192.67 E1216.95709
G0 F6000 X149.22 Y192.67
G1 F2100 X149.22 Y112.56 E1219.62186
G0 F6000 X148.86 Y112.56
G1 F2100 X148.86 Y192.67 E1222.28663
G0 F6000 X148.50 Y192.67
G1 F2100 X148.50 Y112.56 E1224.95140
G0 F6000 X148.14 Y112.56
G1 F2100 X148.14 Y192.67 E1227.61617
G0 F6000 X147.78 Y192.67
G1 F2100 X147.78 Y112.56 E1230.28094
G0 F6000 X147.42 Y112.56
G1 F2100 X147.42 Y192.67 E1232.94570
G0 F6000 X147.06 Y192.67
G1 F2100 X147.06 Y112.56 E1235.61047
G0 F6000 X146.70 Y112.56
G1 F2100 X146.70 Y192.67 E1238.27524
G0 F6000 X146.34 Y192.67
G1 F2100 X146.34 Y112.56 E1240.94001
G0 F6000 X145.98 Y112.56
G1 F2100 X145.98 Y192.67 E1243.60478
G0 F6000 X145.62 Y192.67
G1 F2100 X145.62 Y112.56 E1246.26955
G0 F6000 X145.26 Y112.56
G1 F2100 X145.26 Y192.67 E1248.93432
G0 F6000 X144.90 Y192.67
G1 F2100 X144.90 Y112.56 E1251.59909
G0 F6000 X144.54 Y112.56
G1 F2100 X144.54 Y192.67 E1254.26385
G0 F6000 X144.18 Y192.67
G1 F2100 X144.18 Y112.56 E1256.92862
G0 F6000 X143.82 Y112.56
G1 F2100 X143.82 Y192.67 E1259.59339
G0 F6000 X143.46 Y192.67
G1 F2100 X143.46 Y112.56 E1262.25816
G0 F6000 X143.10 Y112.56
G1 F2100 X143.10 Y192.67 E1264.92293
G0 F6000 X142.74 Y192.67
G1 F2100 X142.74 Y112.56 E1267.58770
G0 F6000 X142.38 Y112.56
G1 F2100 X142.38 Y192.67 E1270.25247
G0 F6000 X142.02 Y192.67
G1 F2100 X142.02 Y112.56 E1272.91724
G0 F6000 X141.66 Y112.56
G1 F2100 X141.66 Y192.67 E1275.58200
G0 F6000 X141.30 Y192.67
G1 F2100 X141.30 Y112.56 E1278.24677
G0 F6000 X140.94 Y112.56
G1 F2100 X140.94 Y192.67 E1280.91154
G0 F6000 X140.58 Y192.67
G1 F2100 X140.58 Y112.56 E1283.57631
G0 F6000 X140.22 Y112.56
G1 F2100 X140.22 Y192.67 E1286.24108
G0 F6000 X139.86 Y192.67
G1 F2100 X139.86 Y112.56 E1288.90585
G0 F6000 X139.50 Y112.56
G1 F2100 X139.50 Y192.67 E1291.57062
G0 F6000 X139.14 Y192.67
G1 F2100 X139.14 Y112.56 E1294.23539
G0 F6000 X138.78 Y112.56
G1 F2100 X138.78 Y192.67 E1296.90015
G0 F6000 X138.42 Y192.67
G1 F2100 X138.42 Y112.56 E1299.56492
G0 F6000 X138.06 Y112.56
G1 F2100 X138.06 Y192.67 E1302.22969
G0 F6000 X137.70 Y192.67
G1 F2100 X137.70 Y112.56 E1304.89446
G0 F6000 X137.34 Y112.56
G1 F2100 X137.34 Y192.67 E1307.55923
G0 F6000 X136.98 Y192.67
G1 F2100 X136.98 Y112.56 E1310.22400
G0 F6000 X136.62 Y112.56
G1 F2100 X136.62 Y192.67 E1312.88877
G0 F6000 X136.26 Y192.67
G1 F2100 X136.26 Y112.56 E1315.55354
G0 F6000 X135.90 Y112.56
G1 F2100 X135.90 Y192.67 E1318.21830
G0 F6000 X135.54 Y192.67
G1 F2100 X135.54 Y112.56 E1320.88307
G0 F6000 X135.18 Y112.56
G1 F2100 X135.18 Y192.67 E1323.54784
G0 F6000 X134.82 Y192.67
G1 F2100 X134.82 Y112.56 E1326.21261
G0 F6000 X134.46 Y112.56
G1 F2100 X134.46 Y192.67 E1328.87738
G0 F6000 X134.10 Y192.67
G1 F2100 X134.10 Y112.56 E1331.54215
G0 F6000 X133.74 Y112.56
G1 F2100 X133.74 Y192.67 E1334.20692
G0 F6000 X133.38 Y192.67
G1 F2100 X133.38 Y112.56 E1336.87169
G0 F6000 X133.02 Y112.56
G1 F2100 X133.02 Y192.67 E1339.53645
G0 F6000 X132.66 Y192.67
G1 F2100 X132.66 Y112.56 E1342.20122
G0 F6000 X132.30 Y112.56
G1 F2100 X132.30 Y192.67 E1344.86599
G0 F6000 X131.94 Y192.67
G1 F2100 X131.94 Y112.56 E1347.53076
G0 F6000 X131.58 Y112.56
G1 F2100 X131.58 Y192.67 E1350.19553
G0 F6000 X131.22 Y192.67
G1 F2100 X131.22 Y112.56 E1352.86030
G0 F6000 X130.86 Y112.56
G1 F2100 X130.86 Y192.67 E1355.52507
G0 F6000 X130.50 Y192.67
G1 F2100 X130.50 Y112.56 E1358.18984
G0 F6000 X130.14 Y112.56
G1 F2100 X130.14 Y192.67 E1360.85460
G0 F6000 X129.78 Y192.67
G1 F2100 X129.78 Y112.56 E1363.51937
G0 F6000 X129.42 Y112.56
G1 F2100 X129.42 Y192.67 E1366.18414
G0 F6000 X129.06 Y192.67
G1 F2100 X129.06 Y112.56 E1368.84891
G0 F6000 X128.70 Y112.56
G1 F2100 X128.70 Y192.67 E1371.51368
G0 F6000 X128.34 Y192.67
G1 F2100 X128.34 Y112.56 E1374.17845
G0 F6000 X127.98 Y112.56
G1 F2100 X127.98 Y192.67 E1376.84322
G0 F6000 X127.62 Y192.67
G1 F2100 X127.62 Y112.56 E1379.50799
G0 F6000 X127.26 Y112.56
G1 F2100 X127.26 Y192.67 E1382.17275
G0 F6000 X126.90 Y192.67
G1 F2100 X126.90 Y112.56 E1384.83752
G0 F6000 X126.54 Y112.56
G1 F2100 X126.54 Y192.67 E1387.50229
G0 F6000 X126.18 Y192.67
G1 F2100 X126.18 Y112.56 E1390.16706
G0 F6000 X125.82 Y112.56
G1 F2100 X125.82 Y192.67 E1392.83183
G0 F6000 X125.46 Y192.67
G1 F2100 X125.46 Y112.56 E1395.49660
G0 F6000 X125.10 Y112.56
G1 F2100 X125.10 Y192.67 E1398.16137
;LAYER:0
G1 F2400 E1396.96137
G0 F6000 X130.25 Y187.41 Z1.22
;TYPE:WALL-OUTER
G1 F2400 E1398.16137
G1 F2100 X130.25 Y117.82 E1399.31880
G1 X149.85 Y117.82 E1399.64475
G1 X149.85 Y187.41 E1400.80219
G1 X130.25 Y187.41 E1401.12814
G0 F6000 X130.99 Y187.27
;TYPE:FILL
G1 F2100 X130.39 Y186.67 E1401.14227
G0 F6000 X130.39 Y186.11
G1 F2100 X131.55 Y187.27 E1401.16972
G0 F6000 X132.12 Y187.27
G1 F2100 X130.39 Y185.54 E1401.21046
G0 F6000 X130.39 Y184.97
G1 F2100 X132.69 Y187.27 E1401.26452
G0 F6000 X133.25 Y187.27
G1 F2100 X130.39 Y184.41 E1401.33188
G0 F6000 X130.39 Y183.84
G1 F2100 X133.82 Y187.27 E1401.41253
G0 F6000 X134.38 Y187.27
G1 F2100 X130.39 Y183.28 E1401.50650
G0 F6000 X130.39 Y182.71
G1 F2100 X134.95 Y187.27 E1401.61377
G0 F6000 X135.51 Y187.27
G1 F2100 X130.39 Y182.15 E1401.73434
G0 F6000 X130.39 Y181.58
G1 F2100 X136.08 Y187.27 E1401.86822
G0 F6000 X136.64 Y187.27
G1 F2100 X130.39 Y181.01 E1402.01540
G0 F6000 X130.39 Y180.45
G1 F2100 X137.21 Y187.27 E1402.17587
G0 F6000 X137.78 Y187.27
G1 F2100 X130.39 Y179.88 E1402.34966
G0 F6000 X130.39 Y179.32
G1 F2100 X138.34 Y187.27 E1402.53675
G0 F6000 X138.91 Y187.27
G1 F2100 X130.39 Y178.75 E1402.73714
G0 F6000 X130.39 Y178.19
G1 F2100 X139.47 Y187.27 E1402.95084
G0 F6000 X140.04 Y187.27
G1 F2100 X130.39 Y177.62 E1403.17784
G0 F6000 X130.39 Y177.06
G1 F2100 X140.60 Y187.27 E1403.41814
G0 F6000 X141.17 Y187.27
G1 F2100 X130.39 Y176.49 E1403.67175
G0 F6000 X130.39 Y175.92
G1 F2100 X141.74 Y187.27 E1403.93868
G0 F6000 X142.30 Y187.27
G1 F2100 X130.39 Y175.36 E1404.21890
G0 F6000 X130.39 Y174.79
G1 F2100 X142.87 Y187.27 E1404.51242
G0 F6000 X143.43 Y187.27
G1 F2100 X130.39 Y174.23 E1404.81926
G0 F6000 X130.39 Y173.66
G1 F2100 X144.00 Y187.27 E1405.13939
G0 F6000 X144.56 Y187.27
G1 F2100 X130.39 Y173.10 E1405.47282
G0 F6000 X130.39 Y172.53
G1 F2100 X145.13 Y187.27 E1405.81957
G0 F6000 X145.69 Y187.27
G1 F2100 X130.39 Y171.96 E1406.17961
G0 F6000 X130.39 Y171.40
G1 F2100 X146.26 Y187.27 E1406.55295
G0 F6000 X146.83 Y187.27
G1 F2100 X130.39 Y170.83 E1406.93961
G0 F6000 X130.39 Y170.27
G1 F2100 X147.39 Y187.27 E1407.33956
G0 F6000 X147.96 Y187.27
G1 F2100 X130.39 Y169.70 E1407.75282
G0 F6000 X130.39 Y169.14
G1 F2100 X148.52 Y187.27 E1408.17939
G0 F6000 X149.09 Y187.27
G1 F2100 X130.39 Y168.57 E1408.61925
G0 F6000 X130.39 Y168.00
G1 F2100 X149.66 Y187.27 E1409.07242
G0 F6000 X149.71 Y186.76
G1 F2100 X130.39 Y167.44 E1409.52682
G0 F6000 X130.39 Y166.87
G1 F2100 X149.71 Y186.19 E1409.98122
G0 F6000 X149.71 Y185.63
G1 F2100 X130.39 Y166.31 E1410.43562
G0 F6000 X130.39 Y165.74
G1 F2100 X149.71 Y185.06 E1410.89002
G0 F6000 X149.71 Y184.50
G1 F2100 X130.39 Y165.18 E1411.34442
G0 F6000 X130.39 Y164.61
G1 F2100 X149.71 Y183.93 E1411.79882
G0 F6000 X149.71 Y183.37
G1 F2100 X130.39 Y164.04 E1412.25322
G0 F6000 X130.39 Y163.48
G1 F2100 X149.71 Y182.80 E1412.70762
G0 F6000 X149.71 Y182.23
G1 F2100 X130.39 Y162.91 E1413.16202
G0 F6000 X130.39 Y162.35
G1 F2100 X149.71 Y181.67 E1413.61642
G0 F6000 X149.71 Y181.10
G1 F2100 X130.39 Y161.78 E1414.07082
G0 F6000 X130.39 Y161.22
G1 F2100 X149.71 Y180.54 E1414.52522
G0 F6000 X149.71 Y179.97
G1 F2100 X130.39 Y160.65 E1414.97962
G0 F6000 X130.39 Y160.09
G1 F2100 X149.71 Y179.41 E1415.43402
G0 F6000 X149.71 Y178.84
G1 F2100 X130.39 Y159.52 E1415.88842
G0 F6000 X130.39 Y158.95
G1 F2100 X149.71 Y178.28 E1416.34282
G0 F6000 X149.71 Y177.71
G1 F2100 X130.39 Y158.39 E1416.79722
G0 F6000 X130.39 Y157.82
G1 F2100 X149.71 Y177.14 E1417.25162
G0 F6000 X149.71 Y176.58
G1 F2100 X130.39 Y157.26 E1417.70601
G0 F6000 X130.39 Y156.69
G1 F2100 X149.71 Y176.01 E1418.16041
G0 F6000 X149.71 Y175.45
G1 F2100 X130.39 Y156.12 E1418.61481
G0 F6000 X130.39 Y155.56
G1 F2100 X149.71 Y174.88 E1419.06921
G0 F6000 X149.71 Y174.31
G1 F2100 X130.39 Y154.99 E1419.52361
G0 F6000 X130.39 Y154.43
G1 F2100 X149.71 Y173.75 E1419.97801
G0 F6000 X149.71 Y173.18
G1 F2100 X130.39 Y153.86 E1420.43241
G0 F6000 X130.39 Y153.30
G1 F2100 X149.71 Y172.62 E1420.88681
G0 F6000 X149.71 Y172.05
G1 F2100 X130.39 Y152.73 E1421.34121
G0 F6000 X130.39 Y152.16
G1 F2100 X149.71 Y171.49 E1421.79561
G0 F6000 X149.71 Y170.92
G1 F2100 X130.39 Y151.60 E1422.25001
G0 F6000 X130.39 Y151.03
G1 F2100 X149.71 Y170.35 E1422.70441
G0 F6000 X149.71 Y169.79
G1 F2100 X130.39 Y150.47 E1423.15881
G0 F6000 X130.39 Y149.90
G1 F2100 X149.71 Y169.22 E1423.61322
G0 F6000 X149.71 Y168.66
G1 F2100 X130.39 Y149.34 E1424.06762
G0 F6000 X130.39 Y148.77
G1 F2100 X149.71 Y168.09 E1424.52202
G0 F6000 X149.71 Y167.53
G1 F2100 X130.39 Y148.21 E1424.97642
G0 F6000 X130.39 Y147.64
G1 F2100 X149.71 Y166.96 E1425.43082
G0 F6000 X149.71 Y166.40
G1 F2100 X130.39 Y147.07 E1425.88522
G0 F6000 X130.39 Y146.51
G1 F2100 X149.71 Y165.83 E1426.33962
G0 F6000 X149.71 Y165.26
G1 F2100 X130.39 Y145.94 E1426.79402
G0 F6000 X130.39 Y145.38
G1 F2100 X149.71 Y164.70 E1427.24842
G0 F6000 X149.71 Y164.13
G1 F2100 X130.39 Y144.81 E1427.70282
G0 F6000 X130.39 Y144.25
G1 F2100 X149.71 Y163.57 E1428.15722
G0 F6000 X149.71 Y163.00
G1 F2100 X130.39 Y143.68 E1428.61162
G0 F6000 X130.39 Y143.11
G1 F2100 X149.71 Y162.44 E1429.06602
G0 F6000 X149.71 Y161.87
G1 F2100 X130.39 Y142.55 E1429.52042
G0 F6000 X130.39 Y141.98
G1 F2100 X149.71 Y161.30 E1429.97482
G0 F6000 X149.71 Y160.74
G1 F2100 X130.39 Y141.42 E1430.42922
G0 F6000 X130.39 Y140.85
G1 F2100 X149.71 Y160.17 E1430.88362
G0 F6000 X149.71 Y159.61
G1 F2100 X130.39 Y140.29 E1431.33802
G0 F6000 X130.39 Y139.72
G1 F2100 X149.71 Y159.04 E1431.79242
G0 F6000 X149.71 Y158.48
G1 F2100 X130.39 Y139.16 E1432.24682
G0 F6000 X130.39 Y138.59
G1 F2100 X149.71 Y157.91 E1432.70122
G0 F6000 X149.71 Y157.34
G1 F2100 X130.39 Y138.02 E1433.15562
G0 F6000 X130.39 Y137.46
G1 F2100 X149.71 Y156.78 E1433.61002
G0 F6000 X149.71 Y156.21
G1 F2100 X130.39 Y136.89 E1434.06442
G0 F6000 X130.39 Y136.33
G1 F2100 X149.71 Y155.65 E1434.51882
G0 F6000 X149.71 Y155.08
G1 F2100 X130.39 Y135.76 E1434.97322
G0 F6000 X130.39 Y135.19
G1 F2100 X149.71 Y154.52 E1435.42762
G0 F6000 X149.71 Y153.95
G1 F2100 X130.39 Y134.63 E1435.88202
G0 F6000 X130.39 Y134.06
G1 F2100 X149.71 Y153.38 E1436.33642
G0 F6000 X149.71 Y152.82
G1 F2100 X130.39 Y133.50 E1436.79082
G0 F6000 X130.39 Y132.93
G1 F2100 X149.71 Y152.25 E1437.24522
G0 F6000 X149.71 Y151.69
G1 F2100 X130.39 Y132.37 E1437.69962
G0 F6000 X130.39 Y131.80
G1 F2100 X149.71 Y151.12 E1438.15402
G0 F6000 X149.71 Y150.56
G1 F2100 X130.39 Y131.24 E1438.60843
G0 F6000 X130.39 Y130.67
G1 F2100 X149.71 Y149.99 E1439.06283
G0 F6000 X149.71 Y149.43
G1 F2100 X130.39 Y130.10 E1439.51723
G0 F6000 X130.39 Y129.54
G1 F2100 X149.71 Y148.86 E1439.97163
G0 F6000 X149.71 Y148.29
G1 F2100 X130.39 Y128.97 E1440.42603
G0 F6000 X130.39 Y128.41
G1 F2100 X149.71 Y147.73 E1440.88043
G0 F6000 X149.71 Y147.16
G1 F2100 X130.39 Y127.84 E1441.33483
G0 F6000 X130.39 Y127.28
G1 F2100 X149.71 Y146.60 E1441.78923
G0 F6000 X149.71 Y146.03
G1 F2100 X130.39 Y126.71 E1442.24363
G0 F6000 X130.39 Y126.14
G1 F2100 X149.71 Y145.47 E1442.69803
G0 F6000 X149.71 Y144.90
G1 F2100 X130.39 Y125.58 E1443.15243
G0 F6000 X130.39 Y125.01
G1 F2100 X149.71 Y144.33 E1443.60683
G0 F6000 X149.71 Y143.77
G1 F2100 X130.39 Y124.45 E1444.06123
G0 F6000 X130.39 Y123.88
G1 F2100 X149.71 Y143.20 E1444.51563
G0 F6000 X149.71 Y142.64
G1 F2100 X130.39 Y123.31 E1444.97003
G0 F6000 X130.39 Y122.75
G1 F2100 X149.71 Y142.07 E1445.42443
G0 F6000 X149.71 Y141.50
G1 F2100 X130.39 Y122.18 E1445.87883
G0 F6000 X130.39 Y121.62
G1 F2100 X149.71 Y140.94 E1446.33323
G0 F6000 X149.71 Y140.37
G1 F2100 X130.39 Y121.05 E1446.78763
G0 F6000 X130.39 Y120.49
G1 F2100 X149.71 Y139.81 E1447.24203
G0 F6000 X149.71 Y139.24
G1 F2100 X130.39 Y119.92 E1447.69643
G0 F6000 X130.39 Y119.36
G1 F2100 X149.71 Y138.68 E1448.15083
G0 F6000 X149.71 Y138.11
G1 F2100 X130.39 Y118.79 E1448.60523
G0 F6000 X130.39 Y118.22
G1 F2100 X149.71 Y137.54 E1449.05963
G0 F6000 X149.71 Y136.98
G1 F2100 X130.68 Y117.96 E1449.50705
G0 F6000 X131.25 Y117.96
G1 F2100 X149.71 Y136.41 E1449.94115
G0 F6000 X149.71 Y135.85
G1 F2100 X131.81 Y117.96 E1450.36194
G0 F6000 X132.38 Y117.96
G1 F2100 X149.71 Y135.28 E1450.76944
G0 F6000 X149.71 Y134.72
G1 F2100 X132.95 Y117.96 E1451.16363
G0 F6000 X133.51 Y117.96
G1 F2100 X149.71 Y134.15 E1451.54451
G0 F6000 X149.71 Y133.59
G1 F2100 X134.08 Y117.96 E1451.91208
G0 F6000 X134.64 Y117.96
G1 F2100 X149.71 Y133.02 E1452.26636
G0 F6000 X149.71 Y132.45
G1 F2100 X135.21 Y117.96 E1452.60733
G0 F6000 X135.78 Y117.96
G1 F2100 X149.71 Y131.89 E1452.93499
G0 F6000 X149.71 Y131.32
G1 F2100 X136.34 Y117.96 E1453.24936
G0 F6000 X136.91 Y117.96
G1 F2100 X149.71 Y130.76 E1453.55042
G0 F6000 X149.71 Y130.19
G1 F2100 X137.47 Y117.96 E1453.83817
G0 F6000 X138.04 Y117.96
G1 F2100 X149.71 Y129.63 E1454.11263
G0 F6000 X149.71 Y129.06
G1 F2100 X138.60 Y117.96 E1454.37378
G0 F6000 X139.17 Y117.96
G1 F2100 X149.71 Y128.49 E1454.62162
G0 F6000 X149.71 Y127.93
G1 F2100 X139.73 Y117.96 E1454.85617
G0 F6000 X140.30 Y117.96
G1 F2100 X149.71 Y127.36 E1455.07741
G0 F6000 X149.71 Y126.80
G1 F2100 X140.87 Y117.96 E1455.28533
G0 F6000 X141.43 Y117.96
G1 F2100 X149.71 Y126.23 E1455.47996
G0 F6000 X149.71 Y125.67
G1 F2100 X142.00 Y117.96 E1455.66129
G0 F6000 X142.56 Y117.96
G1 F2100 X149.71 Y125.10 E1455.82931
G0 F6000 X149.71 Y124.53
G1 F2100 X143.13 Y117.96 E1455.98401
G0 F6000 X143.69 Y117.96
G1 F2100 X149.71 Y123.97 E1456.12543
G0 F6000 X149.71 Y123.40
G1 F2100 X144.26 Y117.96 E1456.25353
G0 F6000 X144.83 Y117.96
G1 F2100 X149.71 Y122.84 E1456.36832
G0 F6000 X149.71 Y122.27
G1 F2100 X145.39 Y117.96 E1456.46983
G0 F6000 X145.96 Y117.96
G1 F2100 X149.71 Y121.71 E1456.55802
G0 F6000 X149.71 Y121.14
G1 F2100 X146.52 Y117.96 E1456.63291
G0 F6000 X147.09 Y117.96
G1 F2100 X149.71 Y120.58 E1456.69450
G0 F6000 X149.71 Y120.01
G1 F2100 X147.65 Y117.96 E1456.74279
G0 F6000 X148.22 Y117.96
G1 F2100 X149.71 Y119.44 E1456.77776
G0 F6000 X149.71 Y118.88
G1 F2100 X148.78 Y117.96 E1456.79944
G0 F6000 X149.35 Y117.96
G1 F2100 X149.71 Y118.31 E1456.80781
G0 F6000 X148.85 Y118.82
G1 F2400 E1455.60781
G0 F6000 X150.83 Y186.47
;TYPE:WALL-OUTER
G1 F2400 E1456.80781
G1 F2100 X174.69 Y186.47 E1457.20461
G1 X174.69 Y186.51 E1457.20536
G1 X174.69 Y186.53 E1457.20552
G1 X174.69 Y186.58 E1457.20644
G1 X174.69 Y186.59 E1457.20661
G1 X174.69 Y186.65 E1457.20757
G1 X174.69 Y186.66 E1457.20774
G1 X174.69 Y186.71 E1457.20865
G1 X174.69 Y186.72 E1457.20882
G1 X174.69 Y186.78 E1457.20978
G1 X174.69 Y186.79 E1457.20995
G1 X174.69 Y186.85 E1457.21087
G1 X174.69 Y186.86 E1457.21103
G1 X174.69 Y186.91 E1457.21200
G1 X174.69 Y186.92 E1457.21216
G1 X174.69 Y186.98 E1457.21308
G1 X174.69 Y186.99 E1457.21325
G1 X174.69 Y187.03 E1457.21390
G1 X151.62 Y187.03 E1457.59758
G1 X150.83 Y187.02 E1457.61071
G1 X150.83 Y186.47 E1457.61985
G0 F6000 X151.25 Y186.61
;TYPE:FILL
G1 F2100 X151.67 Y186.75 E1457.62621
G1 X152.24 Y186.75 E1457.63257
G1 X152.80 Y186.75 E1457.63894
G1 X153.37 Y186.75 E1457.64531
G1 X153.94 Y186.75 E1457.65166
G1 X154.50 Y186.75 E1457.65806
G1 X155.07 Y186.75 E1457.66444
G1 X155.63 Y186.75 E1457.67081
G1 X156.20 Y186.75 E1457.67721
G1 X156.76 Y186.75 E1457.68358
G1 X157.33 Y186.75 E1457.68998
G1 X157.90 Y186.75 E1457.69640
G1 X158.46 Y186.75 E1457.70280
G1 X159.03 Y186.75 E1457.70920
G1 X159.59 Y186.75 E1457.71561
G1 X160.16 Y186.75 E1457.72205
G1 X160.72 Y186.75 E1457.72847
G1 X161.29 Y186.75 E1457.73488
G1 X161.86 Y186.75 E1457.74131
G1 X162.42 Y186.75 E1457.74773
G1 X162.99 Y186.75 E1457.75417
G1 X163.55 Y186.75 E1457.76062
G1 X164.12 Y186.75 E1457.76706
G1 X164.68 Y186.75 E1457.77350
G1 X165.25 Y186.75 E1457.77995
G1 X165.82 Y186.75 E1457.78639
G1 X166.38 Y186.75 E1457.79284
G1 X166.95 Y186.75 E1457.79928
G1 X167.51 Y186.75 E1457.80573
G1 X168.08 Y186.75 E1457.81217
G1 X168.65 Y186.75 E1457.81862
G1 X169.21 Y186.75 E1457.82509
G1 X169.78 Y186.75 E1457.83156
G1 X170.34 Y186.75 E1457.83802
G1 X170.91 Y186.75 E1457.84449
G1 X171.47 Y186.75 E1457.85097
G1 X172.04 Y186.75 E1457.85745
G1 X172.60 Y186.75 E1457.86394
G1 X173.17 Y186.75 E1457.87044
G1 X173.74 Y186.75 E1457.87692
G1 X174.30 Y186.75 E1457.88342
G1 X174.55 Y186.72 E1457.88762
G1 F2400 E1456.68762
G0 F6000 X174.69 Y178.89
;TYPE:WALL-OUTER
G1 F2400 E1457.88762
G1 F2100 X151.62 Y178.89 E1458.27131
G1 X150.83 Y178.88 E1458.28443
G1 X150.83 Y178.33 E1458.29358
G1 X173.96 Y178.33 E1458.67823
G1 X174.69 Y178.34 E1458.69038
G1 X174.69 Y178.37 E1458.69097
G1 X174.69 Y178.38 E1458.69114
G1 X174.69 Y178.44 E1458.69211
G1 X174.69 Y178.45 E1458.69227
G1 X174.69 Y178.51 E1458.69319
G1 X174.69 Y178.52 E1458.69336
G1 X174.69 Y178.57 E1458.69432
G1 X174.69 Y178.59 E1458.69449
G1 X174.69 Y178.64 E1458.69540
G1 X174.69 Y178.65 E1458.69557
G1 X174.69 Y178.71 E1458.69653
G1 X174.69 Y178.72 E1458.69670
G1 X174.69 Y178.77 E1458.69762
G1 X174.69 Y178.78 E1458.69778
G1 X174.69 Y178.84 E1458.69875
G1 X174.69 Y178.85 E1458.69891
G1 X174.69 Y178.89 E1458.69953
G0 F6000 X174.50 Y178.75
;TYPE:FILL
G1 F2100 X174.09 Y178.61 E1458.70587
G1 X173.52 Y178.61 E1458.71217
G1 X172.95 Y178.61 E1458.71849
G1 X172.39 Y178.61 E1458.72482
G1 X171.82 Y178.61 E1458.73113
G1 X171.26 Y178.61 E1458.73746
G1 X170.69 Y178.61 E1458.74379
G1 X170.12 Y178.61 E1458.75011
G1 X169.56 Y178.61 E1458.75644
G1 X168.99 Y178.61 E1458.76277
G1 X168.43 Y178.61 E1458.76910
G1 X167.86 Y178.61 E1458.77543
G1 X167.30 Y178.61 E1458.78175
G1 X166.73 Y178.61 E1458.78808
G1 X166.16 Y178.61 E1458.79441
G1 X165.60 Y178.61 E1458.80071
G1 X165.03 Y178.61 E1458.80704
G1 X164.47 Y178.61 E1458.81336
G1 X163.90 Y178.61 E1458.81969
G1 X163.34 Y178.61 E1458.82602
G1 X162.77 Y178.61 E1458.83235
G1 X162.20 Y178.61 E1458.83868
G1 X161.64 Y178.61 E1458.84500
G1 X161.07 Y178.61 E1458.85133
G1 X160.51 Y178.61 E1458.85766
G1 X159.94 Y178.61 E1458.86399
G1 X159.37 Y178.61 E1458.87032
G1 X158.81 Y178.61 E1458.87665
G1 X158.24 Y178.61 E1458.88297
G1 X157.68 Y178.61 E1458.88930
G1 X157.11 Y178.61 E1458.89563
G1 X156.54 Y178.61 E1458.90198
G1 X155.98 Y178.61 E1458.90834
G1 X155.41 Y178.61 E1458.91468
G1 X154.85 Y178.61 E1458.92103
G1 X154.28 Y178.61 E1458.92736
G1 X153.72 Y178.61 E1458.93372
G1 X153.15 Y178.61 E1458.94007
G1 X152.59 Y178.61 E1458.94643
G1 X152.02 Y178.61 E1458.95279
G1 X151.45 Y178.61 E1458.95914
G1 X151.03 Y178.47 E1458.96645
G1 F2400 E1457.76645
G0 F6000 X150.83 Y168.88
;TYPE:WALL-OUTER
G1 F2400 E1458.96645
G1 F2100 X150.83 Y168.33 E1458.97559
G1 X173.96 Y168.33 E1459.36025
G1 X174.69 Y168.34 E1459.37239
G1 X174.69 Y168.37 E1459.37299
G1 X174.69 Y168.38 E1459.37315
G1 X174.69 Y168.44 E1459.37412
G1 X174.69 Y168.45 E1459.37428
G1 X174.69 Y168.51 E1459.37520
G1 X174.69 Y168.52 E1459.37537
G1 X174.69 Y168.57 E1459.37633
G1 X174.69 Y168.59 E1459.37650
G1 X174.69 Y168.64 E1459.37741
G1 X174.69 Y168.65 E1459.37758
G1 X174.69 Y168.71 E1459.37855
G1 X174.69 Y168.72 E1459.37871
G1 X174.69 Y168.77 E1459.37963
G1 X174.69 Y168.78 E1459.37979
G1 X174.69 Y168.84 E1459.38076
G1 X174.69 Y168.85 E1459.38093
G1 X174.69 Y168.89 E1459.38154
G1 X151.62 Y168.89 E1459.76523
G1 X150.83 Y168.88 E1459.77835
G0 F6000 X151.22 Y168.47
;TYPE:FILL
G1 F2100 X151.64 Y168.61 E1459.78472
G1 X152.20 Y168.61 E1459.79109
G1 X152.77 Y168.61 E1459.79744
G1 X153.33 Y168.61 E1459.80379
G1 X153.90 Y168.61 E1459.81014
G1 X154.46 Y168.61 E1459.81649
G1 X155.03 Y168.61 E1459.82284
G1 X155.60 Y168.61 E1459.82920
G1 X156.16 Y168.61 E1459.83555
G1 X156.73 Y168.61 E1459.84190
G1 X157.29 Y168.61 E1459.84827
G1 X157.86 Y168.61 E1459.85463
G1 X158.43 Y168.61 E1459.86100
G1 X158.99 Y168.61 E1459.86733
G1 X159.56 Y168.61 E1459.87366
G1 X160.12 Y168.61 E1459.87998
G1 X160.69 Y168.61 E1459.88632
G1 X161.25 Y168.61 E1459.89266
G1 X161.82 Y168.61 E1459.89902
G1 X162.39 Y168.61 E1459.90537
G1 X162.95 Y168.61 E1459.91170
G1 X163.52 Y168.61 E1459.91803
G1 X164.08 Y168.61 E1459.92435
G1 X164.65 Y168.61 E1459.93070
G1 X165.22 Y168.61 E1459.93706
G1 X165.78 Y168.61 E1459.94339
G1 X166.35 Y168.61 E1459.94972
G1 X166.91 Y168.61 E1459.95605
G1 X167.48 Y168.61 E1459.96238
G1 X168.04 Y168.61 E1459.96871
G1 X168.61 Y168.61 E1459.97505
G1 X169.18 Y168.61 E1459.98138
G1 X169.74 Y168.61 E1459.98771
G1 X170.31 Y168.61 E1459.99404
G1 X170.87 Y168.61 E1460.00036
G1 X171.44 Y168.61 E1460.00669
G1 X172.00 Y168.61 E1460.01302
G1 X172.57 Y168.61 E1460.01935
G1 X173.14 Y168.61 E1460.02565
G1 X173.70 Y168.61 E1460.03198
G1 X174.27 Y168.61 E1460.03830
G1 X174.55 Y168.61 E1460.04302
G1 F2400 E1458.84302
G0 F6000 X174.69 Y158.89
;TYPE:WALL-OUTER
G1 F2400 E1460.04302
G1 F2100 X151.62 Y158.89 E1460.42671
G1 X150.83 Y158.88 E1460.43984
G1 X150.83 Y158.33 E1460.44898
G1 X173.96 Y158.33 E1460.83364
G1 X174.69 Y158.34 E1460.84578
G1 X174.69 Y158.37 E1460.84637
G1 X174.69 Y158.38 E1460.84654
G1 X174.69 Y158.44 E1460.84751
G1 X174.69 Y158.45 E1460.84767
G1 X174.69 Y158.51 E1460.84859
G1 X174.69 Y158.52 E1460.84876
G1 X174.69 Y158.57 E1460.84972
G1 X174.69 Y158.59 E1460.84989
G1 X174.69 Y158.64 E1460.85080
G1 X174.69 Y158.65 E1460.85097
G1 X174.69 Y158.71 E1460.85193
G1 X174.69 Y158.72 E1460.85210
G1 X174.69 Y158.77 E1460.85302
G1 X174.69 Y158.78 E1460.85318
G1 X174.69 Y158.84 E1460.85415
G1 X174.69 Y158.85 E1460.85431
G1 X174.69 Y158.89 E1460.85493
G0 F6000 X174.30 Y158.75
;TYPE:FILL
G1 F2100 X173.88 Y158.61 E1460.86127
G1 X173.32 Y158.61 E1460.86760
G1 X172.75 Y158.61 E1460.87393
G1 X172.19 Y158.61 E1460.88025
G1 X171.62 Y158.61 E1460.88659
G1 X171.06 Y158.61 E1460.89292
G1 X170.49 Y158.61 E1460.89924
G1 X169.92 Y158.61 E1460.90557
G1 X169.36 Y158.61 E1460.91192
G1 X168.79 Y158.61 E1460.91827
G1 X168.23 Y158.61 E1460.92463
G1 X167.66 Y158.61 E1460.93097
G1 X167.09 Y158.61 E1460.93733
G1 X166.53 Y158.61 E1460.94368
G1 X165.96 Y158.61 E1460.95003
G1 X165.40 Y158.61 E1460.95638
G1 X164.83 Y158.61 E1460.96275
G1 X164.26 Y158.61 E1460.96911
G1 X163.70 Y158.61 E1460.97548
G1 X163.13 Y158.61 E1460.98183
G1 X162.57 Y158.61 E1460.98819
G1 X162.00 Y158.61 E1460.99455
G1 X161.44 Y158.61 E1461.00091
G1 X160.87 Y158.61 E1461.00727
G1 X160.31 Y158.61 E1461.01361
G1 X159.74 Y158.61 E1461.01999
G1 X159.17 Y158.61 E1461.02634
G1 X158.61 Y158.61 E1461.03271
G1 X158.04 Y158.61 E1461.03909
G1 X157.48 Y158.61 E1461.04549
G1 X156.91 Y158.61 E1461.05186
G1 X156.34 Y158.61 E1461.05824
G1 X155.78 Y158.61 E1461.06461
G1 X155.21 Y158.61 E1461.07099
G1 X154.65 Y158.61 E1461.07736
G1 X154.08 Y158.61 E1461.08374
G1 X153.51 Y158.61 E1461.09009
G1 X152.95 Y158.61 E1461.09647
G1 X152.38 Y158.61 E1461.10285
G1 X151.82 Y158.61 E1461.10921
G1 X151.25 Y158.61 E1461.11559
G1 X150.97 Y158.61 E1461.12024
G1 F2400 E1459.92024
G0 F6000 X150.83 Y148.88
;TYPE:WALL-OUTER
G1 F2400 E1461.12024
G1 F2100 X150.83 Y148.33 E1461.12939
G1 X173.96 Y148.33 E1461.51404
G1 X174.69 Y148.34 E1461.52619
G1 X174.69 Y148.38 E1461.52678
G1 X174.69 Y148.38 E1461.52695
G1 X174.69 Y148.44 E1461.52792
G1 X174.69 Y148.45 E1461.52808
G1 X174.69 Y148.51 E1461.52900
G1 X174.69 Y148.52 E1461.52917
G1 X174.69 Y148.58 E1461.53013
G1 X174.69 Y148.59 E1461.53030
G1 X174.69 Y148.64 E1461.53121
G1 X174.69 Y148.65 E1461.53138
G1 X174.69 Y148.71 E1461.53234
G1 X174.69 Y148.72 E1461.53251
G1 X174.69 Y148.77 E1461.53343
G1 X174.69 Y148.78 E1461.53359
G1 X174.69 Y148.84 E1461.53456
G1 X174.69 Y148.85 E1461.53472
G1 X174.69 Y148.89 E1461.53534
G1 X151.62 Y148.89 E1461.91903
G1 X150.83 Y148.88 E1461.93215
G0 F6000 X151.02 Y148.47
;TYPE:FILL
G1 F2100 X151.44 Y148.61 E1461.93851
G1 X152.00 Y148.61 E1461.94487
G1 X152.57 Y148.61 E1461.95123
G1 X153.13 Y148.61 E1461.95758
G1 X153.70 Y148.61 E1461.96394
G1 X154.26 Y148.61 E1461.97031
G1 X154.83 Y148.61 E1461.97665
G1 X155.40 Y148.61 E1461.98301
G1 X155.96 Y148.61 E1461.98936
G1 X156.53 Y148.61 E1461.99570
G1 X157.09 Y148.61 E1462.00207
G1 X157.66 Y148.61 E1462.00838
G1 X158.22 Y148.61 E1462.01471
G1 X158.79 Y148.61 E1462.02104
G1 X159.36 Y148.61 E1462.02737
G1 X159.92 Y148.61 E1462.03370
G1 X160.49 Y148.61 E1462.04006
G1 X161.05 Y148.61 E1462.04642
G1 X161.62 Y148.61 E1462.05278
G1 X162.19 Y148.61 E1462.05913
G1 X162.75 Y148.61 E1462.06546
G1 X163.32 Y148.61 E1462.07181
G1 X163.88 Y148.61 E1462.07816
G1 X164.45 Y148.61 E1462.08451
G1 X165.01 Y148.61 E1462.09086
G1 X165.58 Y148.61 E1462.09719
G1 X166.15 Y148.61 E1462.10352
G1 X166.71 Y148.61 E1462.10985
G1 X167.28 Y148.61 E1462.11620
G1 X167.84 Y148.61 E1462.12253
G1 X168.41 Y148.61 E1462.12886
G1 X168.98 Y148.61 E1462.13521
G1 X169.54 Y148.61 E1462.14156
G1 X170.11 Y148.61 E1462.14791
G1 X170.67 Y148.61 E1462.15426
G1 X171.24 Y148.61 E1462.16061
G1 X171.81 Y148.61 E1462.16697
G1 X172.37 Y148.61 E1462.17332
G1 X172.94 Y148.61 E1462.17967
G1 X173.50 Y148.61 E1462.18604
G1 X174.07 Y148.61 E1462.19239
G1 X174.49 Y148.75 E1462.19972
G1 F2400 E1460.99972
G0 F6000 X174.69 Y138.89
;TYPE:WALL-OUTER
G1 F2400 E1462.19972
G1 F2100 X151.62 Y138.89 E1462.58341
G1 X150.83 Y138.88 E1462.59653
G1 X150.83 Y138.33 E1462.60567
G1 X173.96 Y138.33 E1462.99033
G1 X174.69 Y138.34 E1463.00247
G1 X174.69 Y138.38 E1463.00307
G1 X174.69 Y138.38 E1463.00323
G1 X174.69 Y138.44 E1463.00420
G1 X174.69 Y138.45 E1463.00437
G1 X174.69 Y138.51 E1463.00528
G1 X174.69 Y138.52 E1463.00545
G1 X174.69 Y138.58 E1463.00641
G1 X174.69 Y138.59 E1463.00658
G1 X174.69 Y138.64 E1463.00750
G1 X174.69 Y138.65 E1463.00766
G1 X174.69 Y138.71 E1463.00863
G1 X174.69 Y138.72 E1463.00879
G1 X174.69 Y138.77 E1463.00971
G1 X174.69 Y138.78 E1463.00988
G1 X174.69 Y138.84 E1463.01084
G1 X174.69 Y138.85 E1463.01101
G1 X174.69 Y138.89 E1463.01162
G0 F6000 X174.55 Y138.63
;TYPE:FILL
G1 F2100 X174.25 Y138.61 E1463.01527
G1 X173.69 Y138.61 E1463.02161
G1 X173.12 Y138.61 E1463.02797
G1 X172.55 Y138.61 E1463.03432
G1 X171.99 Y138.61 E1463.04069
G1 X171.42 Y138.61 E1463.04705
G1 X170.86 Y138.61 E1463.05342
G1 X170.29 Y138.61 E1463.05977
G1 X169.72 Y138.61 E1463.06612
G1 X169.16 Y138.61 E1463.07248
G1 X168.59 Y138.61 E1463.07882
G1 X168.03 Y138.61 E1463.08519
G1 X167.46 Y138.61 E1463.09153
G1 X166.90 Y138.61 E1463.09788
G1 X166.33 Y138.61 E1463.10423
G1 X165.76 Y138.61 E1463.11059
G1 X165.20 Y138.61 E1463.11694
G1 X164.63 Y138.61 E1463.12331
G1 X164.07 Y138.61 E1463.12966
G1 X163.50 Y138.61 E1463.13601
G1 X162.94 Y138.61 E1463.14238
G1 X162.37 Y138.61 E1463.14875
G1 X161.80 Y138.61 E1463.15510
G1 X161.24 Y138.61 E1463.16144
G1 X160.67 Y138.61 E1463.16779
G1 X160.10 Y138.61 E1463.17415
G1 X159.54 Y138.61 E1463.18050
G1 X158.97 Y138.61 E1463.18683
G1 X158.41 Y138.61 E1463.19317
G1 X157.84 Y138.61 E1463.19950
G1 X157.28 Y138.61 E1463.20583
G1 X156.71 Y138.61 E1463.21219
G1 X156.14 Y138.61 E1463.21854
G1 X155.58 Y138.61 E1463.22489
G1 X155.01 Y138.61 E1463.23124
G1 X154.45 Y138.61 E1463.23759
G1 X153.88 Y138.61 E1463.24394
G1 X153.31 Y138.61 E1463.25030
G1 X152.75 Y138.61 E1463.25665
G1 X152.18 Y138.61 E1463.26299
G1 X151.62 Y138.61 E1463.26935
G1 X151.20 Y138.47 E1463.27665
G1 F2400 E1462.07665
G0 F6000 X151.62 Y128.89
;TYPE:WALL-OUTER
G1 F2400 E1463.27665
G1 F2100 X150.83 Y128.88 E1463.28977
G1 X150.83 Y128.33 E1463.29892
G1 X173.96 Y128.33 E1463.68357
G1 X174.69 Y128.34 E1463.69571
G1 X174.69 Y128.38 E1463.69631
G1 X174.69 Y128.38 E1463.69648
G1 X174.69 Y128.44 E1463.69744
G1 X174.69 Y128.45 E1463.69761
G1 X174.69 Y128.51 E1463.69853
G1 X174.69 Y128.52 E1463.69869
G1 X174.69 Y128.58 E1463.69966
G1 X174.69 Y128.59 E1463.69983
G1 X174.69 Y128.64 E1463.70074
G1 X174.69 Y128.65 E1463.70091
G1 X174.69 Y128.71 E1463.70187
G1 X174.69 Y128.72 E1463.70204
G1 X174.69 Y128.77 E1463.70295
G1 X174.69 Y128.78 E1463.70312
G1 X174.69 Y128.84 E1463.70409
G1 X174.69 Y128.85 E1463.70425
G1 X174.69 Y128.89 E1463.70487
G1 X151.62 Y128.89 E1464.08856
G0 F6000 X151.65 Y128.74
;TYPE:FILL
G1 F2100 X151.24 Y128.61 E1464.09492
G1 X150.97 Y128.63 E1464.09930
G0 F6000 X151.95 Y128.47
G1 F2100 X152.37 Y128.61 E1464.10566
G1 X152.93 Y128.61 E1464.11201
G1 X153.50 Y128.61 E1464.11835
G1 X154.06 Y128.61 E1464.12472
G1 X154.63 Y128.61 E1464.13107
G1 X155.19 Y128.61 E1464.13744
G1 X155.76 Y128.61 E1464.14379
G1 X156.33 Y128.61 E1464.15015
G1 X156.89 Y128.61 E1464.15650
G1 X157.46 Y128.61 E1464.16285
G1 X158.02 Y128.61 E1464.16919
G1 X158.59 Y128.61 E1464.17555
G1 X159.16 Y128.61 E1464.18190
G1 X159.72 Y128.61 E1464.18823
G1 X160.29 Y128.61 E1464.19459
G1 X160.85 Y128.61 E1464.20093
G1 X161.42 Y128.61 E1464.20728
G1 X161.99 Y128.61 E1464.21363
G1 X162.55 Y128.61 E1464.21999
G1 X163.12 Y128.61 E1464.22637
G1 X163.68 Y128.61 E1464.23272
G1 X164.25 Y128.61 E1464.23908
G1 X164.81 Y128.61 E1464.24544
G1 X165.38 Y128.61 E1464.25179
G1 X165.95 Y128.61 E1464.25814
G1 X166.51 Y128.61 E1464.26450
G1 X167.08 Y128.61 E1464.27084
G1 X167.64 Y128.61 E1464.27719
G1 X168.21 Y128.61 E1464.28355
G1 X168.78 Y128.61 E1464.28988
G1 X169.34 Y128.61 E1464.29621
G1 X169.91 Y128.61 E1464.30254
G1 X170.47 Y128.61 E1464.30888
G1 X171.04 Y128.61 E1464.31521
G1 X171.60 Y128.61 E1464.32154
G1 X172.17 Y128.61 E1464.32789
G1 X172.74 Y128.61 E1464.33425
G1 X173.30 Y128.61 E1464.34059
G1 X173.87 Y128.61 E1464.34694
G1 X174.29 Y128.75 E1464.35427
G1 F2400 E1463.15427
G0 F6000 X174.69 Y118.89
;TYPE:WALL-OUTER
G1 F2400 E1464.35427
G1 F2100 X151.62 Y118.89 E1464.73796
G1 X150.83 Y118.88 E1464.75108
G1 X150.83 Y118.33 E1464.76023
G1 X173.96 Y118.33 E1465.14488
G1 X174.69 Y118.34 E1465.15702
G1 X174.69 Y118.38 E1465.15762
G1 X174.69 Y118.39 E1465.15779
G1 X174.69 Y118.44 E1465.15875
G1 X174.69 Y118.45 E1465.15892
G1 X174.69 Y118.51 E1465.15983
G1 X174.69 Y118.52 E1465.16000
G1 X174.69 Y118.58 E1465.16096
G1 X174.69 Y118.59 E1465.16113
G1 X174.69 Y118.64 E1465.16205
G1 X174.69 Y118.65 E1465.16221
G1 X174.69 Y118.71 E1465.16318
G1 X174.69 Y118.72 E1465.16335
G1 X174.69 Y118.77 E1465.16426
G1 X174.69 Y118.78 E1465.16443
G1 X174.69 Y118.84 E1465.16539
G1 X174.69 Y118.85 E1465.16556
G1 X174.69 Y118.89 E1465.16617
G0 F6000 X174.47 Y118.75
;TYPE:FILL
G1 F2100 X174.05 Y118.61 E1465.17253
G1 X173.48 Y118.61 E1465.17889
G1 X172.92 Y118.61 E1465.18524
G1 X172.35 Y118.61 E1465.19159
G1 X171.79 Y118.61 E1465.19794
G1 X171.22 Y118.61 E1465.20430
G1 X170.66 Y118.61 E1465.21062
G1 X170.09 Y118.61 E1465.21695
G1 X169.52 Y118.61 E1465.22328
G1 X168.96 Y118.61 E1465.22960
G1 X168.39 Y118.61 E1465.23596
G1 X167.83 Y118.61 E1465.24233
G1 X167.26 Y118.61 E1465.24868
G1 X166.69 Y118.61 E1465.25504
G1 X166.13 Y118.61 E1465.26140
G1 X165.56 Y118.61 E1465.26776
G1 X165.00 Y118.61 E1465.27412
G1 X164.43 Y118.61 E1465.28046
G1 X163.87 Y118.61 E1465.28682
G1 X163.30 Y118.61 E1465.29317
G1 X162.73 Y118.61 E1465.29951
G1 X162.17 Y118.61 E1465.30585
G1 X161.60 Y118.61 E1465.31220
G1 X161.04 Y118.61 E1465.31853
G1 X160.47 Y118.61 E1465.32486
G1 X159.90 Y118.61 E1465.33119
G1 X159.34 Y118.61 E1465.33754
G1 X158.77 Y118.61 E1465.34389
G1 X158.21 Y118.61 E1465.35024
G1 X157.64 Y118.61 E1465.35659
G1 X157.07 Y118.61 E1465.36294
G1 X156.51 Y118.61 E1465.36930
G1 X155.94 Y118.61 E1465.37565
G1 X155.38 Y118.61 E1465.38199
G1 X154.81 Y118.61 E1465.38835
G1 X154.25 Y118.61 E1465.39470
G1 X153.68 Y118.61 E1465.40105
G1 X153.11 Y118.61 E1465.40741
G1 X152.55 Y118.61 E1465.41377
G1 X151.98 Y118.61 E1465.42013
G1 X151.42 Y118.61 E1465.42648
G1 X151.00 Y118.47 E1465.43378
;LAYER:1
G0 F6000 X150.83 Y118.33 Z1.25
;TYPE:WALL-OUTER
G1 F3240 X174.68 Y118.33 E1466.42514
G1 X174.68 Y118.37 E1466.42656
G1 X174.68 Y118.39 E1466.42760
G1 X174.68 Y118.43 E1466.42930
G1 X174.68 Y118.46 E1466.43034
G1 X174.68 Y118.50 E1466.43209
G1 X174.68 Y118.52 E1466.43313
G1 X174.68 Y118.56 E1466.43483
G1 X174.68 Y118.59 E1466.43588
G1 X174.68 Y118.63 E1466.43762
G1 X174.68 Y118.66 E1466.43866
G1 X174.68 Y118.70 E1466.44037
G1 X174.68 Y118.72 E1466.44141
G1 X174.68 Y118.77 E1466.44315
G1 X174.68 Y118.79 E1466.44419
G1 X174.68 Y118.83 E1466.44590
G1 X174.68 Y118.86 E1466.44694
G1 X174.68 Y118.89 E1466.44831
G1 X150.83 Y118.89 E1467.43971
G1 X150.83 Y118.33 E1467.46287
G0 F6000 X150.97 Y118.58
;TYPE:FILL
G1 F3240 X151.22 Y118.61 E1467.46901
G1 X151.79 Y118.61 E1467.48530
G1 X152.35 Y118.61 E1467.50157
G1 X152.92 Y118.61 E1467.51787
G1 X153.48 Y118.61 E1467.53416
G1 X154.05 Y118.61 E1467.55049
G1 X154.62 Y118.61 E1467.56678
G1 X155.18 Y118.61 E1467.58308
G1 X155.75 Y118.61 E1467.59941
G1 X156.31 Y118.61 E1467.61570
G1 X156.88 Y118.61 E1467.63200
G1 X157.44 Y118.61 E1467.64832
G1 X158.01 Y118.61 E1467.66462
G1 X158.57 Y118.61 E1467.68091
G1 X159.14 Y118.61 E1467.69724
G1 X159.71 Y118.61 E1467.71353
G1 X160.27 Y118.61 E1467.72983
G1 X160.84 Y118.61 E1467.74613
G1 X161.40 Y118.61 E1467.76239
G1 X161.97 Y118.61 E1467.77869
G1 X162.53 Y118.61 E1467.79498
G1 X163.10 Y118.61 E1467.81131
G1 X163.67 Y118.61 E1467.82760
G1 X164.23 Y118.61 E1467.84390
G1 X164.80 Y118.61 E1467.86023
G1 X165.36 Y118.61 E1467.87652
G1 X165.93 Y118.61 E1467.89282
G1 X166.49 Y118.61 E1467.90914
G1 X167.06 Y118.61 E1467.92544
G1 X167.63 Y118.61 E1467.94173
G1 X168.19 Y118.61 E1467.95806
G1 X168.76 Y118.61 E1467.97435
G1 X169.32 Y118.61 E1467.99065
G1 X169.89 Y118.61 E1468.00695
G1 X170.45 Y118.61 E1468.02321
G1 X171.02 Y118.61 E1468.03951
G1 X171.59 Y118.61 E1468.05580
G1 X172.15 Y118.61 E1468.07207
G1 X172.72 Y118.61 E1468.08837
G1 X173.28 Y118.61 E1468.10466
G1 X173.85 Y118.61 E1468.12099
G1 X174.27 Y118.47 E1468.13946
G1 F2400 E1466.93946
G0 F6000 X149.85 Y117.82
;TYPE:WALL-OUTER
G1 F2400 E1468.13946
G1 F3240 X149.85 Y187.41 E1471.03305
G1 X130.25 Y187.41 E1471.84792
G1 X130.25 Y117.82 E1474.74151
G1 X149.85 Y117.82 E1475.55639
G0 F6000 X149.71 Y118.14
;TYPE:FILL
G1 F3240 X130.39 Y137.46 E1476.69233
G0 F6000 X130.39 Y138.03
G1 F3240 X149.71 Y118.71 E1477.82830
G0 F6000 X149.71 Y119.28
G1 F3240 X130.39 Y138.59 E1478.96424
G0 F6000 X130.39 Y139.16
G1 F3240 X149.71 Y119.84 E1480.10018
G0 F6000 X149.71 Y120.41
G1 F3240 X130.39 Y139.73 E1481.23615
G0 F6000 X130.39 Y140.29
G1 F3240 X149.71 Y120.97 E1482.37210
G0 F6000 X149.71 Y121.54
G1 F3240 X130.39 Y140.86 E1483.50804
G0 F6000 X130.39 Y141.42
G1 F3240 X149.71 Y122.10 E1484.64401
G0 F6000 X149.71 Y122.67
G1 F3240 X130.39 Y141.99 E1485.77995
G0 F6000 X130.39 Y142.56
G1 F3240 X149.71 Y123.23 E1486.91589
G0 F6000 X149.71 Y123.80
G1 F3240 X130.39 Y143.12 E1488.05187
G0 F6000 X130.39 Y143.69
G1 F3240 X149.71 Y124.37 E1489.18781
G0 F6000 X149.71 Y124.93
G1 F3240 X130.39 Y144.25 E1490.32375
G0 F6000 X130.39 Y144.82
G1 F3240 X149.71 Y125.50 E1491.45969
G0 F6000 X149.71 Y126.06
G1 F3240 X130.39 Y145.38 E1492.59563
G0 F6000 X130.39 Y145.95
G1 F3240 X149.71 Y126.63 E1493.73158
G0 F6000 X149.71 Y127.19
G1 F3240 X130.39 Y146.51 E1494.86752
G0 F6000 X130.39 Y147.08
G1 F3240 X149.71 Y127.76 E1496.00349
G0 F6000 X149.71 Y128.33
G1 F3240 X130.39 Y147.65 E1497.13943
G0 F6000 X130.39 Y148.21
G1 F3240 X149.71 Y128.89 E1498.27537
G0 F6000 X149.71 Y129.46
G1 F3240 X130.39 Y148.78 E1499.41134
G0 F6000 X130.39 Y149.34
G1 F3240 X149.71 Y130.02 E1500.54729
G0 F6000 X149.71 Y130.59
G1 F3240 X130.39 Y149.91 E1501.68323
G0 F6000 X130.39 Y150.47
G1 F3240 X149.71 Y131.15 E1502.81920
G0 F6000 X149.71 Y131.72
G1 F3240 X130.39 Y151.04 E1503.95514
G0 F6000 X130.39 Y151.61
G1 F3240 X149.71 Y132.29 E1505.09108
G0 F6000 X149.71 Y132.85
G1 F3240 X130.39 Y152.17 E1506.22705
G0 F6000 X130.39 Y152.74
G1 F3240 X149.71 Y133.42 E1507.36300
G0 F6000 X149.71 Y133.98
G1 F3240 X130.39 Y153.30 E1508.49894
G0 F6000 X130.39 Y153.87
G1 F3240 X149.71 Y134.55 E1509.63491
G0 F6000 X149.71 Y135.11
G1 F3240 X130.39 Y154.43 E1510.77085
G0 F6000 X130.39 Y155.00
G1 F3240 X149.71 Y135.68 E1511.90679
G0 F6000 X149.71 Y136.25
G1 F3240 X130.39 Y155.57 E1513.04274
G0 F6000 X130.39 Y156.13
G1 F3240 X149.71 Y136.81 E1514.17871
G0 F6000 X149.71 Y137.38
G1 F3240 X130.39 Y156.70 E1515.31465
G0 F6000 X130.39 Y157.26
G1 F3240 X149.71 Y137.94 E1516.45059
G0 F6000 X149.71 Y138.51
G1 F3240 X130.39 Y157.83 E1517.58656
G0 F6000 X130.39 Y158.39
G1 F3240 X149.71 Y139.07 E1518.72250
G0 F6000 X149.71 Y139.64
G1 F3240 X130.39 Y158.96 E1519.85845
G0 F6000 X130.39 Y159.53
G1 F3240 X149.71 Y140.21 E1520.99442
G0 F6000 X149.71 Y140.77
G1 F3240 X130.39 Y160.09 E1522.13036
G0 F6000 X130.39 Y160.66
G1 F3240 X149.71 Y141.34 E1523.26630
G0 F6000 X149.71 Y141.90
G1 F3240 X130.39 Y161.22 E1524.40227
G0 F6000 X130.39 Y161.79
G1 F3240 X149.71 Y142.47 E1525.53821
G0 F6000 X149.71 Y143.03
G1 F3240 X130.39 Y162.35 E1526.67416
G0 F6000 X130.39 Y162.92
G1 F3240 X149.71 Y143.60 E1527.81013
G0 F6000 X149.71 Y144.16
G1 F3240 X130.39 Y163.49 E1528.94607
G0 F6000 X130.39 Y164.05
G1 F3240 X149.71 Y144.73 E1530.08201
G0 F6000 X149.71 Y145.30
G1 F3240 X130.39 Y164.62 E1531.21795
G0 F6000 X130.39 Y165.18
G1 F3240 X149.71 Y145.86 E1532.35390
G0 F6000 X149.71 Y146.43
G1 F3240 X130.39 Y165.75 E1533.48984
G0 F6000 X130.39 Y166.31
G1 F3240 X149.71 Y146.99 E1534.62578
G0 F6000 X149.71 Y147.56
G1 F3240 X130.39 Y166.88 E1535.76175
G0 F6000 X130.39 Y167.44
G1 F3240 X149.71 Y148.12 E1536.89769
G0 F6000 X149.71 Y148.69
G1 F3240 X130.39 Y168.01 E1538.03363
G0 F6000 X130.39 Y168.58
G1 F3240 X149.71 Y149.26 E1539.16961
G0 F6000 X149.71 Y149.82
G1 F3240 X130.39 Y169.14 E1540.30555
G0 F6000 X130.39 Y169.71
G1 F3240 X149.71 Y150.39 E1541.44149
G0 F6000 X149.71 Y150.95
G1 F3240 X130.39 Y170.27 E1542.57746
G0 F6000 X130.39 Y170.84
G1 F3240 X149.71 Y151.52 E1543.71340
G0 F6000 X149.71 Y152.09
G1 F3240 X130.39 Y171.41 E1544.84935
G0 F6000 X130.39 Y171.97
G1 F3240 X149.71 Y152.65 E1545.98532
G0 F6000 X149.71 Y153.22
G1 F3240 X130.39 Y172.54 E1547.12126
G0 F6000 X130.39 Y173.10
G1 F3240 X149.71 Y153.78 E1548.25720
G0 F6000 X149.71 Y154.35
G1 F3240 X130.39 Y173.67 E1549.39317
G0 F6000 X130.39 Y174.23
G1 F3240 X149.71 Y154.91 E1550.52911
G0 F6000 X149.71 Y155.48
G1 F3240 X130.39 Y174.80 E1551.66506
G0 F6000 X130.39 Y175.37
G1 F3240 X149.71 Y156.04 E1552.80100
G0 F6000 X149.71 Y156.61
G1 F3240 X130.39 Y175.93 E1553.93694
G0 F6000 X130.39 Y176.50
G1 F3240 X149.71 Y157.18 E1555.07288
G0 F6000 X149.71 Y157.74
G1 F3240 X130.39 Y177.06 E1556.20882
G0 F6000 X130.39 Y177.63
G1 F3240 X149.71 Y158.31 E1557.34480
G0 F6000 X149.71 Y158.87
G1 F3240 X130.39 Y178.19 E1558.48074
G0 F6000 X130.39 Y178.76
G1 F3240 X149.71 Y159.44 E1559.61668
G0 F6000 X149.71 Y160.00
G1 F3240 X130.39 Y179.32 E1560.75265
G0 F6000 X130.39 Y179.89
G1 F3240 X149.71 Y160.57 E1561.88859
G0 F6000 X149.71 Y161.14
G1 F3240 X130.39 Y180.46 E1563.02453
G0 F6000 X130.39 Y181.02
G1 F3240 X149.71 Y161.70 E1564.16051
G0 F6000 X149.71 Y162.27
G1 F3240 X130.39 Y181.59 E1565.29645
G0 F6000 X130.39 Y182.15
G1 F3240 X149.71 Y162.83 E1566.43239
G0 F6000 X149.71 Y163.40
G1 F3240 X130.39 Y182.72 E1567.56836
G0 F6000 X130.39 Y183.28
G1 F3240 X149.71 Y163.96 E1568.70430
G0 F6000 X149.71 Y164.53
G1 F3240 X130.39 Y183.85 E1569.84024
G0 F6000 X130.39 Y184.42
G1 F3240 X149.71 Y165.09 E1570.97622
G0 F6000 X149.71 Y165.66
G1 F3240 X130.39 Y184.98 E1572.11216
G0 F6000 X130.39 Y185.55
G1 F3240 X149.71 Y166.23 E1573.24810
G0 F6000 X149.71 Y166.79
G1 F3240 X130.39 Y186.11 E1574.38404
G0 F6000 X130.39 Y186.68
G1 F3240 X149.71 Y167.36 E1575.52001
G0 F6000 X149.71 Y167.92
G1 F3240 X130.39 Y187.24 E1576.65596
G0 F6000 X130.92 Y187.27
G1 F3240 X149.71 Y168.49 E1577.76038
G0 F6000 X149.71 Y169.06
G1 F3240 X131.49 Y187.27 E1578.83156
G0 F6000 X132.06 Y187.27
G1 F3240 X149.71 Y169.62 E1579.86946
G0 F6000 X149.71 Y170.19
G1 F3240 X132.62 Y187.27 E1580.87411
G0 F6000 X133.19 Y187.27
G1 F3240 X149.71 Y170.75 E1581.84551
G0 F6000 X149.71 Y171.32
G1 F3240 X133.75 Y187.27 E1582.78363
G0 F6000 X134.32 Y187.27
G1 F3240 X149.71 Y171.88 E1583.68851
G0 F6000 X149.71 Y172.45
G1 F3240 X134.88 Y187.27 E1584.56013
G0 F6000 X135.45 Y187.27
G1 F3240 X149.71 Y173.01 E1585.39848
G0 F6000 X149.71 Y173.58
G1 F3240 X136.01 Y187.27 E1586.20357
G0 F6000 X136.58 Y187.27
G1 F3240 X149.71 Y174.15 E1586.97542
G0 F6000 X149.71 Y174.71
G1 F3240 X137.15 Y187.27 E1587.71399
G0 F6000 X137.71 Y187.27
G1 F3240 X149.71 Y175.28 E1588.41930
G0 F6000 X149.71 Y175.84
G1 F3240 X138.28 Y187.27 E1589.09134
G0 F6000 X138.84 Y187.27
G1 F3240 X149.71 Y176.41 E1589.73014
G0 F6000 X149.71 Y176.97
G1 F3240 X139.41 Y187.27 E1590.33568
G0 F6000 X139.97 Y187.27
G1 F3240 X149.71 Y177.54 E1590.90794
G0 F6000 X149.71 Y178.11
G1 F3240 X140.54 Y187.27 E1591.44695
G0 F6000 X141.10 Y187.27
G1 F3240 X149.71 Y178.67 E1591.95272
G0 F6000 X149.71 Y179.24
G1 F3240 X141.67 Y187.27 E1592.42521
G0 F6000 X142.24 Y187.27
G1 F3240 X149.71 Y179.80 E1592.86444
G0 F6000 X149.71 Y180.37
G1 F3240 X142.80 Y187.27 E1593.27040
G0 F6000 X143.37 Y187.27
G1 F3240 X149.71 Y180.94 E1593.64311
G0 F6000 X149.71 Y181.50
G1 F3240 X143.93 Y187.27 E1593.98257
G0 F6000 X144.50 Y187.27
G1 F3240 X149.71 Y182.07 E1594.28875
G0 F6000 X149.71 Y182.63
G1 F3240 X145.06 Y187.27 E1594.56168
G0 F6000 X145.63 Y187.27
G1 F3240 X149.71 Y183.20 E1594.80136
G0 F6000 X149.71 Y183.76
G1 F3240 X146.20 Y187.27 E1595.00777
G0 F6000 X146.76 Y187.27
G1 F3240 X149.71 Y184.33 E1595.18092
G0 F6000 X149.71 Y184.89
G1 F3240 X147.33 Y187.27 E1595.32083
G0 F6000 X147.89 Y187.27
G1 F3240 X149.71 Y185.46 E1595.42746
G0 F6000 X149.71 Y186.03
G1 F3240 X148.46 Y187.27 E1595.50083
G0 F6000 X149.03 Y187.27
G1 F3240 X149.71 Y186.59 E1595.54093
G0 F6000 X149.71 Y187.16
G1 F3240 X149.59 Y187.27 E1595.54778
G0 F6000 X149.59 Y187.12
G0 X130.55 Y136.90
G0 X130.39 Y136.90
G1 F3240 X149.33 Y117.96 E1596.66153
G0 F6000 X148.76 Y117.96
G1 F3240 X130.39 Y136.33 E1597.74203
G0 F6000 X130.39 Y135.77
G1 F3240 X148.20 Y117.96 E1598.78924
G0 F6000 X147.63 Y117.96
G1 F3240 X130.39 Y135.20 E1599.80321
G0 F6000 X130.39 Y134.63
G1 F3240 X147.07 Y117.96 E1600.78390
G0 F6000 X146.50 Y117.96
G1 F3240 X130.39 Y134.07 E1601.73135
G0 F6000 X130.39 Y133.50
G1 F3240 X145.94 Y117.96 E1602.64554
G0 F6000 X145.37 Y117.96
G1 F3240 X130.39 Y132.94 E1603.52645
G0 F6000 X130.39 Y132.37
G1 F3240 X144.80 Y117.96 E1604.37412
G0 F6000 X144.24 Y117.96
G1 F3240 X130.39 Y131.81 E1605.18853
G0 F6000 X130.39 Y131.24
G1 F3240 X143.67 Y117.96 E1605.96967
G0 F6000 X143.11 Y117.96
G1 F3240 X130.39 Y130.68 E1606.71755
G0 F6000 X130.39 Y130.11
G1 F3240 X142.54 Y117.96 E1607.43219
G0 F6000 X141.98 Y117.96
G1 F3240 X130.39 Y129.54 E1608.11355
G0 F6000 X130.39 Y128.98
G1 F3240 X141.41 Y117.96 E1608.76166
G0 F6000 X140.84 Y117.96
G1 F3240 X130.39 Y128.41 E1609.37652
G0 F6000 X130.39 Y127.85
G1 F3240 X140.28 Y117.96 E1609.95810
G0 F6000 X139.71 Y117.96
G1 F3240 X130.39 Y127.28 E1610.50644
G0 F6000 X130.39 Y126.72
G1 F3240 X139.15 Y117.96 E1611.02152
G0 F6000 X138.58 Y117.96
G1 F3240 X130.39 Y126.15 E1611.50333
G0 F6000 X130.39 Y125.58
G1 F3240 X138.02 Y117.96 E1611.95185
G0 F6000 X137.45 Y117.96
G1 F3240 X130.39 Y125.02 E1612.36713
G0 F6000 X130.39 Y124.45
G1 F3240 X136.88 Y117.96 E1612.74916
G0 F6000 X136.32 Y117.96
G1 F3240 X130.39 Y123.89 E1613.09791
G0 F6000 X130.39 Y123.32
G1 F3240 X135.75 Y117.96 E1613.41341
G0 F6000 X135.19 Y117.96
G1 F3240 X130.39 Y122.76 E1613.69566
G0 F6000 X130.39 Y122.19
G1 F3240 X134.62 Y117.96 E1613.94463
G0 F6000 X134.06 Y117.96
G1 F3240 X130.39 Y121.62 E1614.16036
G0 F6000 X130.39 Y121.06
G1 F3240 X133.49 Y117.96 E1614.34283
G0 F6000 X132.93 Y117.96
G1 F3240 X130.39 Y120.49 E1614.49202
G0 F6000 X130.39 Y119.93
G1 F3240 X132.36 Y117.96 E1614.60797
G0 F6000 X131.79 Y117.96
G1 F3240 X130.39 Y119.36 E1614.69067
G0 F6000 X130.39 Y118.80
G1 F3240 X131.23 Y117.96 E1614.74009
G0 F6000 X130.66 Y117.96
G1 F3240 X130.39 Y118.23 E1614.75625
G0 F6000 X131.25 Y118.82
G1 F2400 E1613.55625
G0 F6000 X150.83 Y128.33
;TYPE:WALL-OUTER
G1 F2400 E1614.75625
G1 F3240 X174.68 Y128.33 E1615.74761
G1 X174.68 Y128.37 E1615.74903
G1 X174.68 Y128.39 E1615.75007
G1 X174.68 Y128.43 E1615.75177
G1 X174.68 Y128.46 E1615.75281
G1 X174.68 Y128.50 E1615.75456
G1 X174.68 Y128.52 E1615.75560
G1 X174.68 Y128.56 E1615.75731
G1 X174.68 Y128.59 E1615.75835
G1 X174.68 Y128.63 E1615.76009
G1 X174.68 Y128.66 E1615.76113
G1 X174.68 Y128.70 E1615.76284
G1 X174.68 Y128.72 E1615.76388
G1 X174.68 Y128.76 E1615.76562
G1 X174.68 Y128.79 E1615.76667
G1 X174.68 Y128.83 E1615.76837
G1 X174.68 Y128.86 E1615.76941
G1 X174.68 Y128.89 E1615.77078
G1 X150.83 Y128.89 E1616.76218
G1 X150.83 Y128.33 E1616.78534
G0 F6000 X150.98 Y128.75
;TYPE:FILL
G1 F3240 X151.40 Y128.61 E1616.80161
G1 X151.97 Y128.61 E1616.81790
G1 X152.53 Y128.61 E1616.83411
G1 X153.10 Y128.61 E1616.85035
G1 X153.67 Y128.61 E1616.86664
G1 X154.23 Y128.61 E1616.88285
G1 X154.80 Y128.61 E1616.89909
G1 X155.36 Y128.61 E1616.91539
G1 X155.93 Y128.61 E1616.93159
G1 X156.49 Y128.61 E1616.94783
G1 X157.06 Y128.61 E1616.96407
G1 X157.62 Y128.61 E1616.98027
G1 X158.19 Y128.61 E1616.99651
G1 X158.76 Y128.61 E1617.01275
G1 X159.32 Y128.61 E1617.02896
G1 X159.89 Y128.61 E1617.04519
G1 X160.45 Y128.61 E1617.06143
G1 X161.02 Y128.61 E1617.07764
G1 X161.59 Y128.61 E1617.09387
G1 X162.15 Y128.61 E1617.11011
G1 X162.72 Y128.61 E1617.12641
G1 X163.28 Y128.61 E1617.14262
G1 X163.85 Y128.61 E1617.15885
G1 X164.41 Y128.61 E1617.17515
G1 X164.98 Y128.61 E1617.19136
G1 X165.54 Y128.61 E1617.20759
G1 X166.11 Y128.61 E1617.22389
G1 X166.68 Y128.61 E1617.24010
G1 X167.24 Y128.61 E1617.25633
G1 X167.81 Y128.61 E1617.27257
G1 X168.37 Y128.61 E1617.28878
G1 X168.94 Y128.61 E1617.30501
G1 X169.50 Y128.61 E1617.32125
G1 X170.07 Y128.61 E1617.33746
G1 X170.64 Y128.61 E1617.35370
G1 X171.20 Y128.61 E1617.36993
G1 X171.77 Y128.61 E1617.38623
G1 X172.33 Y128.61 E1617.40244
G1 X172.90 Y128.61 E1617.41867
G1 X173.47 Y128.61 E1617.43497
G1 X174.03 Y128.61 E1617.45118
G1 X174.45 Y128.47 E1617.46964
G1 F2400 E1616.26964
G0 F6000 X174.68 Y138.33
;TYPE:WALL-OUTER
G1 F2400 E1617.46964
G1 F3240 X174.68 Y138.37 E1617.47105
G1 X174.68 Y138.39 E1617.47209
G1 X174.68 Y138.43 E1617.47380
G1 X174.68 Y138.46 E1617.47484
G1 X174.68 Y138.50 E1617.47658
G1 X174.68 Y138.52 E1617.47762
G1 X174.68 Y138.56 E1617.47933
G1 X174.68 Y138.59 E1617.48037
G1 X174.68 Y138.63 E1617.48211
G1 X174.68 Y138.66 E1617.48315
G1 X174.68 Y138.70 E1617.48486
G1 X174.68 Y138.72 E1617.48590
G1 X174.68 Y138.76 E1617.48765
G1 X174.68 Y138.79 E1617.48869
G1 X174.68 Y138.83 E1617.49039
G1 X174.68 Y138.86 E1617.49143
G1 X174.68 Y138.89 E1617.49280
G1 X150.83 Y138.89 E1618.48421
G1 X150.83 Y138.33 E1618.50736
G1 X174.68 Y138.33 E1619.49872
G0 F6000 X174.54 Y138.57
;TYPE:FILL
G1 F3240 X174.21 Y138.61 E1619.50932
G1 X173.65 Y138.61 E1619.52561
G1 X173.08 Y138.61 E1619.54185
G1 X172.52 Y138.61 E1619.55806
G1 X171.95 Y138.61 E1619.57435
G1 X171.38 Y138.61 E1619.59059
G1 X170.82 Y138.61 E1619.60680
G1 X170.25 Y138.61 E1619.62309
G1 X169.69 Y138.61 E1619.63933
G1 X169.12 Y138.61 E1619.65554
G1 X168.56 Y138.61 E1619.67184
G1 X167.99 Y138.61 E1619.68807
G1 X167.42 Y138.61 E1619.70431
G1 X166.86 Y138.61 E1619.72052
G1 X166.29 Y138.61 E1619.73675
G1 X165.73 Y138.61 E1619.75299
G1 X165.16 Y138.61 E1619.76920
G1 X164.60 Y138.61 E1619.78544
G1 X164.03 Y138.61 E1619.80167
G1 X163.47 Y138.61 E1619.81788
G1 X162.90 Y138.61 E1619.83418
G1 X162.33 Y138.61 E1619.85041
G1 X161.77 Y138.61 E1619.86662
G1 X161.20 Y138.61 E1619.88292
G1 X160.64 Y138.61 E1619.89915
G1 X160.07 Y138.61 E1619.91536
G1 X159.50 Y138.61 E1619.93166
G1 X158.94 Y138.61 E1619.94789
G1 X158.37 Y138.61 E1619.96413
G1 X157.81 Y138.61 E1619.98034
G1 X157.24 Y138.61 E1619.99657
G1 X156.68 Y138.61 E1620.01281
G1 X156.11 Y138.61 E1620.02902
G1 X155.54 Y138.61 E1620.04526
G1 X154.98 Y138.61 E1620.06149
G1 X154.41 Y138.61 E1620.07770
G1 X153.85 Y138.61 E1620.09394
G1 X153.28 Y138.61 E1620.11017
G1 X152.72 Y138.61 E1620.12638
G1 X152.15 Y138.61 E1620.14268
G1 X151.59 Y138.61 E1620.15892
G1 X151.16 Y138.75 E1620.17735
G1 F2400 E1618.97735
G0 F6000 X150.83 Y148.33
;TYPE:WALL-OUTER
G1 F2400 E1620.17735
G1 F3240 X174.68 Y148.33 E1621.16871
G1 X174.68 Y148.37 E1621.17012
G1 X174.68 Y148.39 E1621.17116
G1 X174.68 Y148.43 E1621.17287
G1 X174.68 Y148.46 E1621.17391
G1 X174.68 Y148.50 E1621.17565
G1 X174.68 Y148.52 E1621.17669
G1 X174.68 Y148.56 E1621.17840
G1 X174.68 Y148.59 E1621.17944
G1 X174.68 Y148.63 E1621.18119
G1 X174.68 Y148.66 E1621.18223
G1 X174.68 Y148.70 E1621.18393
G1 X174.68 Y148.72 E1621.18497
G1 X174.68 Y148.76 E1621.18672
G1 X174.68 Y148.79 E1621.18776
G1 X174.68 Y148.83 E1621.18946
G1 X174.68 Y148.86 E1621.19050
G1 X174.68 Y148.89 E1621.19188
G1 X150.83 Y148.89 E1622.18328
G1 X150.83 Y148.33 E1622.20644
G0 F6000 X151.06 Y148.47
;TYPE:FILL
G1 F3240 X151.16 Y148.65 E1622.21150
G1 X151.77 Y148.61 E1622.22781
G1 X152.33 Y148.61 E1622.24407
G1 X152.90 Y148.61 E1622.26037
G1 X153.47 Y148.61 E1622.27666
G1 X154.03 Y148.61 E1622.29293
G1 X154.60 Y148.61 E1622.30923
G1 X155.16 Y148.61 E1622.32552
G1 X155.73 Y148.61 E1622.34179
G1 X156.29 Y148.61 E1622.35808
G1 X156.86 Y148.61 E1622.37438
G1 X157.43 Y148.61 E1622.39068
G1 X157.99 Y148.61 E1622.40694
G1 X158.56 Y148.61 E1622.42324
G1 X159.12 Y148.61 E1622.43953
G1 X159.69 Y148.61 E1622.45580
G1 X160.25 Y148.61 E1622.47210
G1 X160.82 Y148.61 E1622.48839
G1 X161.38 Y148.61 E1622.50466
G1 X161.95 Y148.61 E1622.52095
G1 X162.52 Y148.61 E1622.53725
G1 X163.08 Y148.61 E1622.55352
G1 X163.65 Y148.61 E1622.56981
G1 X164.21 Y148.61 E1622.58611
G1 X164.78 Y148.61 E1622.60237
G1 X165.34 Y148.61 E1622.61867
G1 X165.91 Y148.61 E1622.63497
G1 X166.48 Y148.61 E1622.65126
G1 X167.04 Y148.61 E1622.66753
G1 X167.61 Y148.61 E1622.68382
G1 X168.17 Y148.61 E1622.70012
G1 X168.74 Y148.61 E1622.71639
G1 X169.30 Y148.61 E1622.73268
G1 X169.87 Y148.61 E1622.74898
G1 X170.44 Y148.61 E1622.76524
G1 X171.00 Y148.61 E1622.78154
G1 X171.57 Y148.61 E1622.79784
G1 X172.13 Y148.61 E1622.81410
G1 X172.70 Y148.61 E1622.83040
G1 X173.26 Y148.61 E1622.84669
G1 X173.83 Y148.61 E1622.86296
G1 X174.25 Y148.47 E1622.88143
G1 F2400 E1621.68143
G0 F6000 X174.68 Y158.33
;TYPE:WALL-OUTER
G1 F2400 E1622.88143
G1 F3240 X174.68 Y158.37 E1622.88285
G1 X174.68 Y158.39 E1622.88389
G1 X174.68 Y158.43 E1622.88559
G1 X174.68 Y158.46 E1622.88663
G1 X174.68 Y158.50 E1622.88838
G1 X174.68 Y158.52 E1622.88942
G1 X174.68 Y158.56 E1622.89112
G1 X174.68 Y158.59 E1622.89216
G1 X174.68 Y158.63 E1622.89391
G1 X174.68 Y158.66 E1622.89495
G1 X174.68 Y158.70 E1622.89666
G1 X174.68 Y158.72 E1622.89770
G1 X174.68 Y158.76 E1622.89944
G1 X174.68 Y158.79 E1622.90048
G1 X174.68 Y158.83 E1622.90219
G1 X174.68 Y158.85 E1622.90323
G1 X174.68 Y158.89 E1622.90460
G1 X150.83 Y158.89 E1623.89600
G1 X150.83 Y158.33 E1623.91916
G1 X174.68 Y158.33 E1624.91052
G0 F6000 X174.44 Y158.47
;TYPE:FILL
G1 F3240 X174.01 Y158.61 E1624.92681
G1 X173.45 Y158.61 E1624.94302
G1 X172.88 Y158.61 E1624.95931
G1 X172.32 Y158.61 E1624.97555
G1 X171.75 Y158.61 E1624.99176
G1 X171.19 Y158.61 E1625.00805
G1 X170.62 Y158.61 E1625.02429
G1 X170.05 Y158.61 E1625.04053
G1 X169.49 Y158.61 E1625.05674
G1 X168.92 Y158.61 E1625.07297
G1 X168.36 Y158.61 E1625.08921
G1 X167.79 Y158.61 E1625.10542
G1 X167.22 Y158.61 E1625.12165
G1 X166.66 Y158.61 E1625.13789
G1 X166.09 Y158.61 E1625.15410
G1 X165.53 Y158.61 E1625.17039
G1 X164.96 Y158.61 E1625.18663
G1 X164.40 Y158.61 E1625.20284
G1 X163.83 Y158.61 E1625.21913
G1 X163.26 Y158.61 E1625.23537
G1 X162.70 Y158.61 E1625.25158
G1 X162.13 Y158.61 E1625.26787
G1 X161.57 Y158.61 E1625.28420
G1 X161.00 Y158.61 E1625.30050
G1 X160.44 Y158.61 E1625.31679
G1 X159.87 Y158.61 E1625.33312
G1 X159.31 Y158.61 E1625.34941
G1 X158.74 Y158.61 E1625.36571
G1 X158.18 Y158.61 E1625.38198
G1 X157.61 Y158.61 E1625.39827
G1 X157.04 Y158.61 E1625.41457
G1 X156.48 Y158.61 E1625.43083
G1 X155.91 Y158.61 E1625.44713
G1 X155.35 Y158.61 E1625.46342
G1 X154.78 Y158.61 E1625.47972
G1 X154.22 Y158.61 E1625.49605
G1 X153.65 Y158.61 E1625.51234
G1 X153.08 Y158.61 E1625.52864
G1 X152.52 Y158.61 E1625.54496
G1 X151.95 Y158.61 E1625.56126
G1 X151.39 Y158.61 E1625.57755
G1 X150.97 Y158.74 E1625.59561
G1 F2400 E1624.39561
G0 F6000 X150.83 Y168.33
;TYPE:WALL-OUTER
G1 F2400 E1625.59561
G1 F3240 X174.68 Y168.33 E1626.58697
G1 X174.68 Y168.37 E1626.58838
G1 X174.68 Y168.39 E1626.58942
G1 X174.68 Y168.43 E1626.59113
G1 X174.68 Y168.46 E1626.59217
G1 X174.68 Y168.50 E1626.59391
G1 X174.68 Y168.52 E1626.59495
G1 X174.68 Y168.56 E1626.59666
G1 X174.68 Y168.59 E1626.59770
G1 X174.68 Y168.63 E1626.59944
G1 X174.68 Y168.66 E1626.60049
G1 X174.68 Y168.70 E1626.60219
G1 X174.68 Y168.72 E1626.60323
G1 X174.68 Y168.76 E1626.60498
G1 X174.68 Y168.79 E1626.60602
G1 X174.68 Y168.83 E1626.60772
G1 X174.68 Y168.85 E1626.60876
G1 X174.68 Y168.89 E1626.61014
G1 X150.83 Y168.89 E1627.60154
G1 X150.83 Y168.33 E1627.62469
G0 F6000 X151.15 Y168.75
;TYPE:FILL
G1 F3240 X151.57 Y168.61 E1627.64096
G1 X152.13 Y168.61 E1627.65720
G1 X152.70 Y168.61 E1627.67349
G1 X153.26 Y168.61 E1627.68970
G1 X153.83 Y168.61 E1627.70594
G1 X154.40 Y168.61 E1627.72217
G1 X154.96 Y168.61 E1627.73838
G1 X155.53 Y168.61 E1627.75462
G1 X156.09 Y168.61 E1627.77086
G1 X156.66 Y168.61 E1627.78706
G1 X157.22 Y168.61 E1627.80330
G1 X157.79 Y168.61 E1627.81954
G1 X158.36 Y168.61 E1627.83583
G1 X158.92 Y168.61 E1627.85204
G1 X159.49 Y168.61 E1627.86828
G1 X160.05 Y168.61 E1627.88457
G1 X160.62 Y168.61 E1627.90078
G1 X161.19 Y168.61 E1627.91702
G1 X161.75 Y168.61 E1627.93331
G1 X162.32 Y168.61 E1627.94952
G1 X162.88 Y168.61 E1627.96576
G1 X163.45 Y168.61 E1627.98200
G1 X164.01 Y168.61 E1627.99820
G1 X164.58 Y168.61 E1628.01444
G1 X165.15 Y168.61 E1628.03068
G1 X165.71 Y168.61 E1628.04689
G1 X166.28 Y168.61 E1628.06312
G1 X166.84 Y168.61 E1628.07936
G1 X167.41 Y168.61 E1628.09557
G1 X167.97 Y168.61 E1628.11180
G1 X168.54 Y168.61 E1628.12804
G1 X169.10 Y168.61 E1628.14434
G1 X169.67 Y168.61 E1628.16054
G1 X170.24 Y168.61 E1628.17678
G1 X170.80 Y168.61 E1628.19308
G1 X171.37 Y168.61 E1628.20928
G1 X171.93 Y168.61 E1628.22552
G1 X172.50 Y168.61 E1628.24182
G1 X173.06 Y168.61 E1628.25803
G1 X173.63 Y168.61 E1628.27426
G1 X174.20 Y168.61 E1628.29050
G1 X174.54 Y168.55 E1628.30488
G1 F2400 E1627.10488
G0 F6000 X174.68 Y178.33
;TYPE:WALL-OUTER
G1 F2400 E1628.30488
G1 F3240 X174.68 Y178.37 E1628.30629
G1 X174.68 Y178.39 E1628.30733
G1 X174.68 Y178.43 E1628.30904
G1 X174.68 Y178.46 E1628.31008
G1 X174.68 Y178.50 E1628.31183
G1 X174.68 Y178.52 E1628.31287
G1 X174.68 Y178.56 E1628.31457
G1 X174.68 Y178.59 E1628.31561
G1 X174.68 Y178.63 E1628.31736
G1 X174.68 Y178.66 E1628.31840
G1 X174.68 Y178.70 E1628.32010
G1 X174.68 Y178.72 E1628.32114
G1 X174.68 Y178.76 E1628.32289
G1 X174.68 Y178.79 E1628.32393
G1 X174.68 Y178.83 E1628.32564
G1 X174.68 Y178.85 E1628.32668
G1 X174.68 Y178.89 E1628.32805
G1 X150.83 Y178.89 E1629.31945
G1 X150.83 Y178.33 E1629.34261
G1 X174.68 Y178.33 E1630.33397
G0 F6000 X174.23 Y178.47
;TYPE:FILL
G1 F3240 X173.81 Y178.61 E1630.35026
G1 X173.25 Y178.61 E1630.36647
G1 X172.68 Y178.61 E1630.38270
G1 X172.12 Y178.61 E1630.39894
G1 X171.55 Y178.61 E1630.41515
G1 X170.98 Y178.61 E1630.43138
G1 X170.42 Y178.61 E1630.44762
G1 X169.85 Y178.61 E1630.46383
G1 X169.29 Y178.61 E1630.48012
G1 X168.72 Y178.61 E1630.49636
G1 X168.16 Y178.61 E1630.51257
G1 X167.59 Y178.61 E1630.52886
G1 X167.02 Y178.61 E1630.54510
G1 X166.46 Y178.61 E1630.56131
G1 X165.89 Y178.61 E1630.57761
G1 X165.33 Y178.61 E1630.59384
G1 X164.76 Y178.61 E1630.61008
G1 X164.20 Y178.61 E1630.62629
G1 X163.63 Y178.61 E1630.64252
G1 X163.06 Y178.61 E1630.65876
G1 X162.50 Y178.61 E1630.67497
G1 X161.93 Y178.61 E1630.69121
G1 X161.37 Y178.61 E1630.70744
G1 X160.80 Y178.61 E1630.72365
G1 X160.24 Y178.61 E1630.73989
G1 X159.67 Y178.61 E1630.75612
G1 X159.10 Y178.61 E1630.77233
G1 X158.54 Y178.61 E1630.78863
G1 X157.97 Y178.61 E1630.80486
G1 X157.41 Y178.61 E1630.82107
G1 X156.84 Y178.61 E1630.83737
G1 X156.28 Y178.61 E1630.85360
G1 X155.71 Y178.61 E1630.86981
G1 X155.15 Y178.61 E1630.88611
G1 X154.58 Y178.61 E1630.90234
G1 X154.01 Y178.61 E1630.91858
G1 X153.45 Y178.61 E1630.93479
G1 X152.88 Y178.61 E1630.95103
G1 X152.32 Y178.61 E1630.96726
G1 X151.75 Y178.61 E1630.98347
G1 X151.19 Y178.61 E1630.99971
G1 X150.97 Y178.54 E1631.00903
G1 F2400 E1629.80903
G0 F6000 X150.83 Y186.47
;TYPE:WALL-OUTER
G1 F2400 E1631.00903
G1 F3240 X174.68 Y186.47 E1632.00039
G1 X174.68 Y186.50 E1632.00180
G1 X174.68 Y186.53 E1632.00284
G1 X174.68 Y186.57 E1632.00459
G1 X174.68 Y186.60 E1632.00563
G1 X174.68 Y186.64 E1632.00734
