;-- START GCODE --
;Sliced for Type A Machines Series 1
;Sliced at: Tue 14-04-2015 01:32:30
;Basic settings: Layer height: 0.25 Walls: 0.4 Fill: 8
;Print Speed: 115 Support: 0
;Retraction Speed: 40 Retraction Distance: 1.2
;Print time: #P_TIME#
;Filament used: #F_AMNT#m #F_WGHT#g
;Filament cost: #F_COST#
M106 S255	 ;start with the fan on
G21        ;metric values
G90        ;absolute positioning
M106 S255    ;start with the fan on
G28     ;move to endstops
G29		;allows for auto-levelling
G1 X150 Y5  Z15.0 F6000 ;center and move the platform down 15mm
M109 S220 ;Heat To temp
G92 E0                  ;zero the extruded length
G1 F200 E30              ;extrude 30mm of feed stock
G92 E0                  ;zero the extruded length again
G1 X175 Y25  Z0 F6000 ;remove bugger
G1 X220 F6000 ;remove bugger
G1 X150 Y150  Z15 F6000 ;recenter and begin
G1 F6000

;Layer count: 436
;LAYER:-2
;RAFT
M106 S255
;LAYER:-1
;RAFT
;LAYER:-1
;RAFT
;LAYER:-1
;RAFT
;LAYER:0
;LAYER:1
G1 F2400 E-1.20000
G0 F6000 X150.83 Y118.33 Z1.25
;TYPE:WALL-OUTER
G1 F2400 E0.00000
G1 F3240 X174.74 Y118.33 E0.99385
G1 X174.74 Y118.38 E0.99564
G1 X174.74 Y118.45 E0.99868
G1 X174.74 Y118.51 E1.00117
G1 X174.74 Y118.58 E1.00421
G1 X174.74 Y118.64 E1.00670
G1 X174.74 Y118.71 E1.00974
G1 X174.74 Y118.77 E1.01223
G1 X174.74 Y118.85 E1.01527
G1 X174.74 Y118.89 E1.01701
G1 X150.83 Y118.89 E2.01091
G1 X150.83 Y118.33 E2.03394
G0 F6000 X151.08 Y118.47
;TYPE:FILL
G1 F3240 X151.17 Y118.66 E2.04007
G1 X151.79 Y118.61 E2.05619
G1 X152.35 Y118.61 E2.07231
G1 X152.92 Y118.61 E2.08840
G1 X153.48 Y118.61 E2.10452
G1 X154.05 Y118.61 E2.12064
G1 X154.62 Y118.61 E2.13676
G1 X155.18 Y118.61 E2.15285
G1 X155.75 Y118.61 E2.16897
G1 X156.31 Y118.61 E2.18508
G1 X156.88 Y118.61 E2.20118
G1 X157.44 Y118.61 E2.21729
G1 X158.01 Y118.61 E2.23341
G1 X158.57 Y118.61 E2.24950
G1 X159.14 Y118.61 E2.26562
G1 X159.71 Y118.61 E2.28174
G1 X160.27 Y118.61 E2.29783
G1 X160.84 Y118.61 E2.31395
G1 X161.40 Y118.61 E2.33007
G1 X161.97 Y118.61 E2.34616
G1 X162.53 Y118.61 E2.36228
G1 X163.10 Y118.61 E2.37840
G1 X163.67 Y118.61 E2.39449
G1 X164.23 Y118.61 E2.41061
G1 X164.80 Y118.61 E2.42673
G1 X165.36 Y118.61 E2.44288
G1 X165.93 Y118.61 E2.45900
G1 X166.50 Y118.61 E2.47512
G1 X167.06 Y118.61 E2.49127
G1 X167.62 Y118.61 E2.50747
G1 X168.19 Y118.61 E2.52371
G1 X168.76 Y118.61 E2.53995
G1 X169.32 Y118.61 E2.55613
G1 X169.89 Y118.61 E2.57233
G1 X170.45 Y118.61 E2.58857
G1 X171.02 Y118.61 E2.60475
G1 X171.59 Y118.61 E2.62096
G1 X172.15 Y118.61 E2.63719
G1 X172.72 Y118.61 E2.65337
G1 X173.28 Y118.61 E2.66958
G1 X173.85 Y118.61 E2.68582
G1 X174.27 Y118.47 E2.70428
G1 F2400 E1.50428
G0 F6000 X174.74 Y128.33
;TYPE:WALL-OUTER
G1 F2400 E2.70428
G1 F3240 X174.74 Y128.38 E2.70606
G1 X174.74 Y128.45 E2.70910
G1 X174.74 Y128.51 E2.71159
G1 X174.74 Y128.58 E2.71463
G1 X174.74 Y128.64 E2.71712
G1 X174.74 Y128.71 E2.72016
G1 X174.74 Y128.77 E2.72265
G1 X174.74 Y128.85 E2.72569
G1 X174.74 Y128.89 E2.72744
G1 X150.83 Y128.89 E3.72133
G1 X150.83 Y128.33 E3.74436
G1 X174.74 Y128.33 E4.73822
G0 F6000 X174.45 Y128.47
;TYPE:FILL
G1 F3240 X174.03 Y128.61 E4.75451
G1 X173.47 Y128.61 E4.77072
G1 X172.90 Y128.61 E4.78701
G1 X172.33 Y128.61 E4.80325
G1 X171.77 Y128.61 E4.81946
G1 X171.20 Y128.61 E4.83575
G1 X170.64 Y128.61 E4.85199
G1 X170.07 Y128.61 E4.86823
G1 X169.50 Y128.61 E4.88443
G1 X168.94 Y128.61 E4.90067
G1 X168.37 Y128.61 E4.91688
G1 X167.81 Y128.61 E4.93306
G1 X167.24 Y128.61 E4.94929
G1 X166.68 Y128.61 E4.96550
G1 X166.11 Y128.61 E4.98168
G1 X165.54 Y128.61 E4.99792
G1 X164.98 Y128.61 E5.01415
G1 X164.41 Y128.61 E5.03036
G1 X163.85 Y128.61 E5.04660
G1 X163.28 Y128.61 E5.06284
G1 X162.72 Y128.61 E5.07904
G1 X162.15 Y128.61 E5.09519
G1 X161.59 Y128.61 E5.11131
G1 X161.02 Y128.61 E5.12743
G1 X160.46 Y128.61 E5.14352
G1 X159.89 Y128.61 E5.15964
G1 X159.32 Y128.61 E5.17576
G1 X158.76 Y128.61 E5.19185
G1 X158.19 Y128.61 E5.20797
G1 X157.63 Y128.61 E5.22409
G1 X157.06 Y128.61 E5.24018
G1 X156.50 Y128.61 E5.25630
G1 X155.93 Y128.61 E5.27242
G1 X155.36 Y128.61 E5.28851
G1 X154.80 Y128.61 E5.30463
G1 X154.23 Y128.61 E5.32075
G1 X153.67 Y128.61 E5.33684
G1 X153.10 Y128.61 E5.35296
G1 X152.53 Y128.61 E5.36908
G1 X151.97 Y128.61 E5.38517
G1 X151.40 Y128.61 E5.40128
G1 X150.98 Y128.75 E5.41966
G1 F2400 E4.21966
G0 F6000 X150.83 Y138.33
;TYPE:WALL-OUTER
G1 F2400 E5.41966
G1 F3240 X174.74 Y138.33 E6.41352
G1 X174.74 Y138.38 E6.41531
G1 X174.74 Y138.45 E6.41834
G1 X174.74 Y138.51 E6.42084
G1 X174.74 Y138.58 E6.42387
G1 X174.74 Y138.64 E6.42637
G1 X174.74 Y138.71 E6.42940
G1 X174.74 Y138.77 E6.43190
G1 X174.74 Y138.85 E6.43493
G1 X174.74 Y138.89 E6.43668
G1 X150.83 Y138.89 E7.43058
G1 X150.83 Y138.33 E7.45361
G0 F6000 X151.17 Y138.75
;TYPE:FILL
G1 F3240 X151.59 Y138.61 E7.46974
G1 X152.15 Y138.61 E7.48586
G1 X152.72 Y138.61 E7.50197
G1 X153.28 Y138.61 E7.51807
G1 X153.85 Y138.61 E7.53418
G1 X154.41 Y138.61 E7.55030
G1 X154.98 Y138.61 E7.56639
G1 X155.55 Y138.61 E7.58251
G1 X156.11 Y138.61 E7.59863
G1 X156.68 Y138.61 E7.61472
G1 X157.24 Y138.61 E7.63084
G1 X157.81 Y138.61 E7.64696
G1 X158.37 Y138.61 E7.66305
G1 X158.94 Y138.61 E7.67917
G1 X159.51 Y138.61 E7.69529
G1 X160.07 Y138.61 E7.71144
G1 X160.64 Y138.61 E7.72756
G1 X161.20 Y138.61 E7.74368
G1 X161.77 Y138.61 E7.75980
G1 X162.33 Y138.61 E7.77589
G1 X162.90 Y138.61 E7.79204
G1 X163.47 Y138.61 E7.80827
G1 X164.03 Y138.61 E7.82445
G1 X164.60 Y138.61 E7.84066
G1 X165.16 Y138.61 E7.85690
G1 X165.73 Y138.61 E7.87307
G1 X166.29 Y138.61 E7.88928
G1 X166.86 Y138.61 E7.90552
G1 X167.43 Y138.61 E7.92170
G1 X167.99 Y138.61 E7.93791
G1 X168.56 Y138.61 E7.95414
G1 X169.12 Y138.61 E7.97044
G1 X169.69 Y138.61 E7.98665
G1 X170.25 Y138.61 E8.00288
G1 X170.82 Y138.61 E8.01918
G1 X171.38 Y138.61 E8.03539
G1 X171.95 Y138.61 E8.05162
G1 X172.52 Y138.61 E8.06792
G1 X173.08 Y138.61 E8.08413
G1 X173.65 Y138.61 E8.10036
G1 X174.21 Y138.61 E8.11666
G1 X174.60 Y138.51 E8.13322
G1 F2400 E6.93322
G0 F6000 X174.74 Y148.33
;TYPE:WALL-OUTER
G1 F2400 E8.13322
G1 F3240 X174.74 Y148.38 E8.13501
G1 X174.74 Y148.45 E8.13804
G1 X174.74 Y148.51 E8.14054
G1 X174.74 Y148.58 E8.14357
G1 X174.74 Y148.64 E8.14607
G1 X174.74 Y148.71 E8.14910
G1 X174.74 Y148.77 E8.15160
G1 X174.74 Y148.85 E8.15463
G1 X174.74 Y148.89 E8.15638
G1 X150.83 Y148.89 E9.15027
G1 X150.83 Y148.33 E9.17331
G1 X174.74 Y148.33 E10.16716
G0 F6000 X174.60 Y148.69
;TYPE:FILL
G1 F3240 X174.40 Y148.61 E10.17053
G1 X173.83 Y148.61 E10.18683
G1 X173.26 Y148.61 E10.20309
G1 X172.70 Y148.61 E10.21939
G1 X172.13 Y148.61 E10.23569
G1 X171.57 Y148.61 E10.25195
G1 X171.00 Y148.61 E10.26825
G1 X170.44 Y148.61 E10.28454
G1 X169.87 Y148.61 E10.30081
G1 X169.30 Y148.61 E10.31711
G1 X168.74 Y148.61 E10.33340
G1 X168.17 Y148.61 E10.34961
G1 X167.61 Y148.61 E10.36585
G1 X167.04 Y148.61 E10.38208
G1 X166.48 Y148.61 E10.39829
G1 X165.91 Y148.61 E10.41453
G1 X165.34 Y148.61 E10.43076
G1 X164.78 Y148.61 E10.44697
G1 X164.21 Y148.61 E10.46321
G1 X163.65 Y148.61 E10.47945
G1 X163.08 Y148.61 E10.49565
G1 X162.52 Y148.61 E10.51180
G1 X161.95 Y148.61 E10.52798
G1 X161.38 Y148.61 E10.54416
G1 X160.82 Y148.61 E10.56031
G1 X160.25 Y148.61 E10.57649
G1 X159.69 Y148.61 E10.59266
G1 X159.12 Y148.61 E10.60881
G1 X158.56 Y148.61 E10.62499
G1 X157.99 Y148.61 E10.64117
G1 X157.43 Y148.61 E10.65735
G1 X156.86 Y148.61 E10.67356
G1 X156.29 Y148.61 E10.68968
G1 X155.73 Y148.61 E10.70579
G1 X155.16 Y148.61 E10.72188
G1 X154.60 Y148.61 E10.73800
G1 X154.03 Y148.61 E10.75412
G1 X153.47 Y148.61 E10.77021
G1 X152.90 Y148.61 E10.78633
G1 X152.33 Y148.61 E10.80245
G1 X151.77 Y148.61 E10.81854
G1 X151.20 Y148.61 E10.83466
G1 X150.97 Y148.56 E10.84449
G1 F2400 E9.64449
G0 F6000 X150.83 Y158.33
;TYPE:WALL-OUTER
G1 F2400 E10.84449
G1 F3240 X174.74 Y158.33 E11.83834
G1 X174.74 Y158.37 E11.84013
G1 X174.74 Y158.45 E11.84317
G1 X174.74 Y158.51 E11.84566
G1 X174.74 Y158.58 E11.84870
G1 X174.74 Y158.64 E11.85119
G1 X174.74 Y158.71 E11.85423
G1 X174.74 Y158.77 E11.85672
G1 X174.74 Y158.85 E11.85976
G1 X174.74 Y158.89 E11.86150
G1 X150.83 Y158.88 E12.85540
G1 X150.83 Y158.33 E12.87843
G0 F6000 X150.97 Y158.74
;TYPE:FILL
G1 F3240 X151.39 Y158.61 E12.89432
G1 X151.95 Y158.61 E12.91041
G1 X152.52 Y158.61 E12.92653
G1 X153.09 Y158.61 E12.94265
G1 X153.65 Y158.61 E12.95874
G1 X154.22 Y158.61 E12.97486
G1 X154.78 Y158.61 E12.99098
G1 X155.35 Y158.61 E13.00713
G1 X155.91 Y158.61 E13.02330
G1 X156.48 Y158.61 E13.03948
G1 X157.04 Y158.61 E13.05563
G1 X157.61 Y158.61 E13.07181
G1 X158.18 Y158.61 E13.08799
G1 X158.74 Y158.61 E13.10414
G1 X159.31 Y158.61 E13.12035
G1 X159.87 Y158.61 E13.13658
G1 X160.44 Y158.61 E13.15282
G1 X161.00 Y158.61 E13.16903
G1 X161.57 Y158.61 E13.18526
G1 X162.13 Y158.61 E13.20150
G1 X162.70 Y158.61 E13.21771
G1 X163.26 Y158.61 E13.23392
G1 X163.83 Y158.61 E13.25015
G1 X164.40 Y158.61 E13.26639
G1 X164.96 Y158.61 E13.28257
G1 X165.53 Y158.61 E13.29878
G1 X166.09 Y158.61 E13.31501
G1 X166.66 Y158.61 E13.33122
G1 X167.22 Y158.61 E13.34746
G1 X167.79 Y158.61 E13.36369
G1 X168.36 Y158.61 E13.37990
G1 X168.92 Y158.61 E13.39614
G1 X169.49 Y158.61 E13.41238
G1 X170.05 Y158.61 E13.42858
G1 X170.62 Y158.61 E13.44482
G1 X171.19 Y158.61 E13.46112
G1 X171.75 Y158.61 E13.47744
G1 X172.32 Y158.61 E13.49374
G1 X172.88 Y158.61 E13.51003
G1 X173.45 Y158.61 E13.52636
G1 X174.01 Y158.61 E13.54265
G1 X174.44 Y158.47 E13.56113
G1 F2400 E12.36113
G0 F6000 X174.74 Y168.33
;TYPE:WALL-OUTER
G1 F2400 E13.56113
G1 F3240 X174.74 Y168.37 E13.56291
G1 X174.74 Y168.45 E13.56595
G1 X174.74 Y168.51 E13.56844
G1 X174.74 Y168.58 E13.57148
G1 X174.74 Y168.64 E13.57397
G1 X174.74 Y168.71 E13.57701
G1 X174.74 Y168.77 E13.57950
G1 X174.74 Y168.85 E13.58254
G1 X174.74 Y168.89 E13.58429
G1 X150.83 Y168.88 E14.57818
G1 X150.83 Y168.33 E14.60122
G1 X174.74 Y168.33 E15.59507
G0 F6000 X174.60 Y168.49
;TYPE:FILL
G1 F3240 X174.20 Y168.61 E15.61019
G1 X173.63 Y168.61 E15.62649
G1 X173.06 Y168.61 E15.64278
G1 X172.50 Y168.61 E15.65908
G1 X171.93 Y168.61 E15.67540
G1 X171.37 Y168.61 E15.69170
G1 X170.80 Y168.61 E15.70799
G1 X170.24 Y168.61 E15.72426
G1 X169.67 Y168.61 E15.74050
G1 X169.10 Y168.61 E15.75671
G1 X168.54 Y168.61 E15.77300
G1 X167.97 Y168.61 E15.78924
G1 X167.41 Y168.61 E15.80547
G1 X166.84 Y168.61 E15.82168
G1 X166.28 Y168.61 E15.83792
G1 X165.71 Y168.61 E15.85413
G1 X165.15 Y168.61 E15.87031
G1 X164.58 Y168.61 E15.88654
G1 X164.01 Y168.61 E15.90275
G1 X163.45 Y168.61 E15.91893
G1 X162.88 Y168.61 E15.93517
G1 X162.32 Y168.61 E15.95137
G1 X161.75 Y168.61 E15.96752
G1 X161.19 Y168.61 E15.98370
G1 X160.62 Y168.61 E15.99988
G1 X160.05 Y168.61 E16.01606
G1 X159.49 Y168.61 E16.03226
G1 X158.92 Y168.61 E16.04844
G1 X158.36 Y168.61 E16.06453
G1 X157.79 Y168.61 E16.08065
G1 X157.23 Y168.61 E16.09677
G1 X156.66 Y168.61 E16.11289
G1 X156.09 Y168.61 E16.12898
G1 X155.53 Y168.61 E16.14510
G1 X154.96 Y168.61 E16.16122
G1 X154.40 Y168.61 E16.17725
G1 X153.83 Y168.61 E16.19337
G1 X153.27 Y168.61 E16.20940
G1 X152.70 Y168.61 E16.22546
G1 X152.13 Y168.61 E16.24158
G1 X151.57 Y168.61 E16.25761
G1 X151.15 Y168.74 E16.27598
G1 F2400 E15.07598
G0 F6000 X150.83 Y178.33
;TYPE:WALL-OUTER
G1 F2400 E16.27598
G1 F3240 X174.74 Y178.33 E17.26983
G1 X174.74 Y178.37 E17.27162
G1 X174.74 Y178.45 E17.27466
G1 X174.74 Y178.51 E17.27715
G1 X174.74 Y178.58 E17.28019
G1 X174.74 Y178.64 E17.28268
G1 X174.74 Y178.71 E17.28572
G1 X174.74 Y178.77 E17.28821
G1 X174.74 Y178.85 E17.29125
G1 X174.74 Y178.89 E17.29300
G1 X150.83 Y178.88 E18.28689
G1 X150.83 Y178.33 E18.30992
G0 F6000 X150.97 Y178.54
;TYPE:FILL
G1 F3240 X151.19 Y178.61 E18.31392
G1 X151.75 Y178.61 E18.33004
G1 X152.32 Y178.61 E18.34610
G1 X152.88 Y178.61 E18.36213
G1 X153.45 Y178.61 E18.37825
G1 X154.01 Y178.61 E18.39431
G1 X154.58 Y178.61 E18.41034
G1 X155.15 Y178.61 E18.42646
G1 X155.71 Y178.61 E18.44258
G1 X156.28 Y178.61 E18.45867
G1 X156.84 Y178.61 E18.47479
G1 X157.41 Y178.61 E18.49091
G1 X157.97 Y178.61 E18.50700
G1 X158.54 Y178.61 E18.52312
G1 X159.11 Y178.61 E18.53924
G1 X159.67 Y178.61 E18.55533
G1 X160.24 Y178.61 E18.57145
G1 X160.80 Y178.61 E18.58757
G1 X161.37 Y178.61 E18.60366
G1 X161.93 Y178.61 E18.61978
G1 X162.50 Y178.61 E18.63590
G1 X163.06 Y178.61 E18.65199
G1 X163.63 Y178.61 E18.66811
G1 X164.20 Y178.61 E18.68423
G1 X164.76 Y178.61 E18.70032
G1 X165.33 Y178.61 E18.71647
G1 X165.89 Y178.61 E18.73270
G1 X166.46 Y178.61 E18.74894
G1 X167.02 Y178.61 E18.76515
G1 X167.59 Y178.61 E18.78138
G1 X168.16 Y178.61 E18.79762
G1 X168.72 Y178.61 E18.81383
G1 X169.29 Y178.61 E18.83007
G1 X169.85 Y178.61 E18.84630
G1 X170.42 Y178.61 E18.86251
G1 X170.98 Y178.61 E18.87875
G1 X171.55 Y178.61 E18.89498
G1 X172.12 Y178.61 E18.91119
G1 X172.68 Y178.61 E18.92743
G1 X173.25 Y178.61 E18.94367
G1 X173.81 Y178.61 E18.95987
G1 X174.38 Y178.61 E18.97611
G1 X174.60 Y178.67 E18.98564
G1 F2400 E17.78564
G0 F6000 X174.74 Y186.47
;TYPE:WALL-OUTER
G1 F2400 E18.98564
G1 F3240 X174.74 Y186.51 E18.98742
G1 X174.74 Y186.59 E18.99046
G1 X174.74 Y186.65 E18.99295
G1 X174.74 Y186.72 E18.99599
G1 X174.74 Y186.78 E18.99848
G1 X174.74 Y186.85 E19.00152
G1 X174.74 Y186.91 E19.00401
G1 X174.74 Y186.99 E19.00705
G1 X174.74 Y187.03 E19.00884
G1 X150.83 Y187.03 E20.00273
G1 X150.83 Y186.47 E20.02581
G1 X174.74 Y186.47 E21.01966
G0 F6000 X174.58 Y186.61
;TYPE:FILL
G1 F3240 X174.16 Y186.75 E21.03601
G1 X173.59 Y186.75 E21.05231
G1 X173.03 Y186.75 E21.06863
G1 X172.46 Y186.75 E21.08493
G1 X171.90 Y186.75 E21.10122
G1 X171.33 Y186.75 E21.11749
G1 X170.76 Y186.75 E21.13379
G1 X170.20 Y186.75 E21.15008
G1 X169.63 Y186.75 E21.16629
G1 X169.07 Y186.75 E21.18253
G1 X168.50 Y186.75 E21.19876
G1 X167.94 Y186.75 E21.21497
G1 X167.37 Y186.75 E21.23121
G1 X166.80 Y186.75 E21.24744
G1 X166.24 Y186.75 E21.26365
G1 X165.67 Y186.75 E21.27995
G1 X165.11 Y186.75 E21.29618
G1 X164.54 Y186.75 E21.31239
G1 X163.98 Y186.75 E21.32863
G1 X163.41 Y186.75 E21.34487
G1 X162.84 Y186.75 E21.36107
G1 X162.28 Y186.75 E21.37731
G1 X161.71 Y186.75 E21.39355
G1 X161.15 Y186.75 E21.40976
G1 X160.58 Y186.75 E21.42599
G1 X160.02 Y186.75 E21.44220
G1 X159.45 Y186.75 E21.45838
G1 X158.89 Y186.75 E21.47453
G1 X158.32 Y186.75 E21.49071
G1 X157.75 Y186.75 E21.50688
G1 X157.19 Y186.75 E21.52303
G1 X156.62 Y186.75 E21.53921
G1 X156.06 Y186.75 E21.55539
G1 X155.49 Y186.75 E21.57148
G1 X154.93 Y186.75 E21.58760
G1 X154.36 Y186.75 E21.60372
G1 X153.79 Y186.75 E21.61981
G1 X153.23 Y186.75 E21.63593
G1 X152.66 Y186.75 E21.65205
G1 X152.10 Y186.75 E21.66814
G1 X151.53 Y186.75 E21.68426
G1 X151.11 Y186.88 E21.70264
;LAYER:2
G0 F6000 X150.83 Y187.02 Z1.50
;TYPE:WALL-OUTER
G1 F4440 X150.83 Y186.47 E21.72563
G1 X174.72 Y186.47 E22.71886
G1 X174.72 Y186.51 E22.72065
G1 X174.72 Y186.59 E22.72385
G1 X174.72 Y186.65 E22.72618
G1 X174.72 Y186.72 E22.72938
G1 X174.72 Y186.78 E22.73171
G1 X174.72 Y186.86 E22.73491
G1 X174.72 Y186.91 E22.73724
G1 X174.72 Y186.99 E22.74044
G1 X174.72 Y187.03 E22.74206
G1 X150.83 Y187.02 E23.73533
G0 F6000 X151.25 Y186.61
;TYPE:FILL
G1 F4440 X151.67 Y186.75 E23.75136
G1 X152.24 Y186.75 E23.76736
G1 X152.80 Y186.75 E23.78339
G1 X153.37 Y186.75 E23.79939
G1 X153.94 Y186.75 E23.81539
G1 X154.50 Y186.75 E23.83143
G1 X155.07 Y186.75 E23.84751
G1 X155.63 Y186.75 E23.86355
G1 X156.20 Y186.75 E23.87961
G1 X156.76 Y186.75 E23.89567
G1 X157.33 Y186.75 E23.91170
G1 X157.90 Y186.75 E23.92776
G1 X158.46 Y186.75 E23.94382
G1 X159.03 Y186.75 E23.95991
G1 X159.59 Y186.75 E23.97603
G1 X160.16 Y186.75 E23.99215
G1 X160.72 Y186.75 E24.00827
G1 X161.29 Y186.75 E24.02436
G1 X161.86 Y186.75 E24.04048
G1 X162.42 Y186.75 E24.05660
G1 X162.99 Y186.75 E24.07272
G1 X163.55 Y186.75 E24.08881
G1 X164.12 Y186.75 E24.10493
G1 X164.69 Y186.75 E24.12104
G1 X165.25 Y186.75 E24.13714
G1 X165.82 Y186.75 E24.15325
G1 X166.38 Y186.75 E24.16937
G1 X166.95 Y186.75 E24.18555
G1 X167.51 Y186.75 E24.20173
G1 X168.08 Y186.75 E24.21794
G1 X168.65 Y186.75 E24.23412
G1 X169.21 Y186.75 E24.25029
G1 X169.78 Y186.75 E24.26647
G1 X170.34 Y186.75 E24.28262
G1 X170.91 Y186.75 E24.29886
G1 X171.47 Y186.75 E24.31509
G1 X172.04 Y186.75 E24.33130
G1 X172.60 Y186.75 E24.34754
G1 X173.17 Y186.75 E24.36378
G1 X173.74 Y186.75 E24.37998
G1 X174.30 Y186.75 E24.39622
G1 X174.58 Y186.75 E24.40790
G1 F2400 E23.20790
G0 F6000 X149.85 Y187.41
;TYPE:WALL-OUTER
G1 F2400 E24.40790
G1 F4440 X130.25 Y187.41 E25.22278
G1 X130.25 Y117.82 E28.11637
G1 X149.85 Y117.82 E28.93124
G1 X149.85 Y187.41 E31.82462
G0 F6000 X149.65 Y187.27
;TYPE:FILL
G1 F4440 X130.39 Y168.00 E32.95730
G0 F6000 X130.39 Y168.57
G1 F4440 X149.09 Y187.27 E34.05673
G0 F6000 X148.52 Y187.27
G1 F4440 X130.39 Y169.14 E35.12291
G0 F6000 X130.39 Y169.70
G1 F4440 X147.95 Y187.27 E36.15581
G0 F6000 X147.39 Y187.27
G1 F4440 X130.39 Y170.27 E37.15547
G0 F6000 X130.39 Y170.83
G1 F4440 X146.82 Y187.27 E38.12190
G0 F6000 X146.26 Y187.27
G1 F4440 X130.39 Y171.40 E39.05505
G0 F6000 X130.39 Y171.96
G1 F4440 X145.69 Y187.27 E39.95499
G0 F6000 X145.13 Y187.27
G1 F4440 X130.39 Y172.53 E40.82164
G0 F6000 X130.39 Y173.10
G1 F4440 X144.56 Y187.27 E41.65502
G0 F6000 X144.00 Y187.27
G1 F4440 X130.39 Y173.66 E42.45518
G0 F6000 X130.39 Y174.23
G1 F4440 X143.43 Y187.27 E43.22208
G0 F6000 X142.86 Y187.27
G1 F4440 X130.39 Y174.79 E43.95571
G0 F6000 X130.39 Y175.36
G1 F4440 X142.30 Y187.27 E44.65609
G0 F6000 X141.73 Y187.27
G1 F4440 X130.39 Y175.92 E45.32322
G0 F6000 X130.39 Y176.49
G1 F4440 X141.17 Y187.27 E45.95713
G0 F6000 X140.60 Y187.27
G1 F4440 X130.39 Y177.06 E46.55777
G0 F6000 X130.39 Y177.62
G1 F4440 X140.04 Y187.27 E47.12515
G0 F6000 X139.47 Y187.27
G1 F4440 X130.39 Y178.19 E47.65928
G0 F6000 X130.39 Y178.75
G1 F4440 X138.91 Y187.27 E48.16014
G0 F6000 X138.34 Y187.27
G1 F4440 X130.39 Y179.32 E48.62780
G0 F6000 X130.39 Y179.88
G1 F4440 X137.77 Y187.27 E49.06219
G0 F6000 X137.21 Y187.27
G1 F4440 X130.39 Y180.45 E49.46333
G0 F6000 X130.39 Y181.01
G1 F4440 X136.64 Y187.27 E49.83121
G0 F6000 X136.08 Y187.27
G1 F4440 X130.39 Y181.58 E50.16582
G0 F6000 X130.39 Y182.15
G1 F4440 X135.51 Y187.27 E50.46718
G0 F6000 X134.95 Y187.27
G1 F4440 X130.39 Y182.71 E50.73532
G0 F6000 X130.39 Y183.28
G1 F4440 X134.38 Y187.27 E50.97018
G0 F6000 X133.81 Y187.27
G1 F4440 X130.39 Y183.84 E51.17177
G0 F6000 X130.39 Y184.41
G1 F4440 X133.25 Y187.27 E51.34013
G0 F6000 X132.69 Y187.27
G1 F4440 X130.39 Y184.97 E51.47527
G0 F6000 X130.39 Y185.54
G1 F4440 X132.12 Y187.27 E51.57714
G0 F6000 X131.55 Y187.27
G1 F4440 X130.39 Y186.11 E51.64575
G0 F6000 X130.39 Y186.67
G1 F4440 X130.99 Y187.27 E51.68109
G0 F6000 X130.99 Y187.11
G0 X149.55 Y186.76
G0 X149.71 Y186.76
G1 F4440 X130.39 Y167.44 E52.81709
G0 F6000 X130.39 Y166.87
G1 F4440 X149.71 Y186.19 E53.95309
G0 F6000 X149.71 Y185.63
G1 F4440 X130.39 Y166.31 E55.08909
G0 F6000 X130.39 Y165.74
G1 F4440 X149.71 Y185.06 E56.22509
G0 F6000 X149.71 Y184.50
G1 F4440 X130.39 Y165.18 E57.36109
G0 F6000 X130.39 Y164.61
G1 F4440 X149.71 Y183.93 E58.49709
G0 F6000 X149.71 Y183.37
G1 F4440 X130.39 Y164.04 E59.63309
G0 F6000 X130.39 Y163.48
G1 F4440 X149.71 Y182.80 E60.76909
G0 F6000 X149.71 Y182.23
G1 F4440 X130.39 Y162.91 E61.90509
G0 F6000 X130.39 Y162.35
G1 F4440 X149.71 Y181.67 E63.04110
G0 F6000 X149.71 Y181.10
G1 F4440 X130.39 Y161.78 E64.17710
G0 F6000 X130.39 Y161.22
G1 F4440 X149.71 Y180.54 E65.31310
G0 F6000 X149.71 Y179.97
G1 F4440 X130.39 Y160.65 E66.44910
G0 F6000 X130.39 Y160.09
G1 F4440 X149.71 Y179.41 E67.58510
G0 F6000 X149.71 Y178.84
G1 F4440 X130.39 Y159.52 E68.72110
G0 F6000 X130.39 Y158.95
G1 F4440 X149.71 Y178.28 E69.85710
G0 F6000 X149.71 Y177.71
G1 F4440 X130.39 Y158.39 E70.99310
G0 F6000 X130.39 Y157.82
G1 F4440 X149.71 Y177.14 E72.12910
G0 F6000 X149.71 Y176.58
G1 F4440 X130.39 Y157.26 E73.26507
G0 F6000 X130.39 Y156.69
G1 F4440 X149.71 Y176.01 E74.40107
G0 F6000 X149.71 Y175.45
G1 F4440 X130.39 Y156.12 E75.53707
G0 F6000 X130.39 Y155.56
G1 F4440 X149.71 Y174.88 E76.67307
G0 F6000 X149.71 Y174.31
G1 F4440 X130.39 Y154.99 E77.80908
G0 F6000 X130.39 Y154.43
G1 F4440 X149.71 Y173.75 E78.94508
G0 F6000 X149.71 Y173.18
G1 F4440 X130.39 Y153.86 E80.08108
G0 F6000 X130.39 Y153.30
G1 F4440 X149.71 Y172.62 E81.21708
G0 F6000 X149.71 Y172.05
G1 F4440 X130.39 Y152.73 E82.35308
G0 F6000 X130.39 Y152.16
G1 F4440 X149.71 Y171.49 E83.48908
G0 F6000 X149.71 Y170.92
G1 F4440 X130.39 Y151.60 E84.62508
G0 F6000 X130.39 Y151.03
G1 F4440 X149.71 Y170.35 E85.76108
G0 F6000 X149.71 Y169.79
G1 F4440 X130.39 Y150.47 E86.89708
G0 F6000 X130.39 Y149.90
G1 F4440 X149.71 Y169.22 E88.03308
G0 F6000 X149.71 Y168.66
G1 F4440 X130.39 Y149.34 E89.16908
G0 F6000 X130.39 Y148.77
G1 F4440 X149.71 Y168.09 E90.30508
G0 F6000 X149.71 Y167.53
G1 F4440 X130.39 Y148.21 E91.44108
G0 F6000 X130.39 Y147.64
G1 F4440 X149.71 Y166.96 E92.57709
G0 F6000 X149.71 Y166.40
G1 F4440 X130.39 Y147.07 E93.71309
G0 F6000 X130.39 Y146.51
G1 F4440 X149.71 Y165.83 E94.84909
G0 F6000 X149.71 Y165.26
G1 F4440 X130.39 Y145.94 E95.98509
G0 F6000 X130.39 Y145.38
G1 F4440 X149.71 Y164.70 E97.12109
G0 F6000 X149.71 Y164.13
G1 F4440 X130.39 Y144.81 E98.25709
G0 F6000 X130.39 Y144.25
G1 F4440 X149.71 Y163.57 E99.39309
G0 F6000 X149.71 Y163.00
G1 F4440 X130.39 Y143.68 E100.52909
G0 F6000 X130.39 Y143.11
G1 F4440 X149.71 Y162.44 E101.66509
G0 F6000 X149.71 Y161.87
G1 F4440 X130.39 Y142.55 E102.80109
G0 F6000 X130.39 Y141.98
G1 F4440 X149.71 Y161.30 E103.93709
G0 F6000 X149.71 Y160.74
G1 F4440 X130.39 Y141.42 E105.07309
G0 F6000 X130.39 Y140.85
G1 F4440 X149.71 Y160.17 E106.20909
G0 F6000 X149.71 Y159.61
G1 F4440 X130.39 Y140.29 E107.34510
G0 F6000 X130.39 Y139.72
G1 F4440 X149.71 Y159.04 E108.48110
G0 F6000 X149.71 Y158.48
G1 F4440 X130.39 Y139.16 E109.61710
G0 F6000 X130.39 Y138.59
G1 F4440 X149.71 Y157.91 E110.75310
G0 F6000 X149.71 Y157.34
G1 F4440 X130.39 Y138.02 E111.88910
G0 F6000 X130.39 Y137.46
G1 F4440 X149.71 Y156.78 E113.02510
G0 F6000 X149.71 Y156.21
G1 F4440 X130.39 Y136.89 E114.16110
G0 F6000 X130.39 Y136.33
G1 F4440 X149.71 Y155.65 E115.29710
G0 F6000 X149.71 Y155.08
G1 F4440 X130.39 Y135.76 E116.43310
G0 F6000 X130.39 Y135.19
G1 F4440 X149.71 Y154.52 E117.56910
G0 F6000 X149.71 Y153.95
G1 F4440 X130.39 Y134.63 E118.70510
G0 F6000 X130.39 Y134.06
G1 F4440 X149.71 Y153.38 E119.84110
G0 F6000 X149.71 Y152.82
G1 F4440 X130.39 Y133.50 E120.97710
G0 F6000 X130.39 Y132.93
G1 F4440 X149.71 Y152.25 E122.11311
G0 F6000 X149.71 Y151.69
G1 F4440 X130.39 Y132.37 E123.24911
G0 F6000 X130.39 Y131.80
G1 F4440 X149.71 Y151.12 E124.38511
G0 F6000 X149.71 Y150.56
G1 F4440 X130.39 Y131.24 E125.52111
G0 F6000 X130.39 Y130.67
G1 F4440 X149.71 Y149.99 E126.65711
G0 F6000 X149.71 Y149.43
G1 F4440 X130.39 Y130.10 E127.79311
G0 F6000 X130.39 Y129.54
G1 F4440 X149.71 Y148.86 E128.92911
G0 F6000 X149.71 Y148.29
G1 F4440 X130.39 Y128.97 E130.06511
G0 F6000 X130.39 Y128.41
G1 F4440 X149.71 Y147.73 E131.20111
G0 F6000 X149.71 Y147.16
G1 F4440 X130.39 Y127.84 E132.33711
G0 F6000 X130.39 Y127.28
G1 F4440 X149.71 Y146.60 E133.47311
G0 F6000 X149.71 Y146.03
G1 F4440 X130.39 Y126.71 E134.60911
G0 F6000 X130.39 Y126.14
G1 F4440 X149.71 Y145.47 E135.74511
G0 F6000 X149.71 Y144.90
G1 F4440 X130.39 Y125.58 E136.88111
G0 F6000 X130.39 Y125.01
G1 F4440 X149.71 Y144.33 E138.01712
G0 F6000 X149.71 Y143.77
G1 F4440 X130.39 Y124.45 E139.15312
G0 F6000 X130.39 Y123.88
G1 F4440 X149.71 Y143.20 E140.28912
G0 F6000 X149.71 Y142.64
G1 F4440 X130.39 Y123.31 E141.42512
G0 F6000 X130.39 Y122.75
G1 F4440 X149.71 Y142.07 E142.56112
G0 F6000 X149.71 Y141.50
G1 F4440 X130.39 Y122.18 E143.69712
G0 F6000 X130.39 Y121.62
G1 F4440 X149.71 Y140.94 E144.83312
G0 F6000 X149.71 Y140.37
G1 F4440 X130.39 Y121.05 E145.96912
G0 F6000 X130.39 Y120.49
G1 F4440 X149.71 Y139.81 E147.10512
G0 F6000 X149.71 Y139.24
G1 F4440 X130.39 Y119.92 E148.24112
G0 F6000 X130.39 Y119.36
G1 F4440 X149.71 Y138.68 E149.37712
G0 F6000 X149.71 Y138.11
G1 F4440 X130.39 Y118.79 E150.51312
G0 F6000 X130.39 Y118.22
G1 F4440 X149.71 Y137.54 E151.64912
G0 F6000 X149.71 Y136.98
G1 F4440 X130.68 Y117.96 E152.76766
G0 F6000 X131.25 Y117.96
G1 F4440 X149.71 Y136.41 E153.85292
G0 F6000 X149.71 Y135.85
G1 F4440 X131.81 Y117.96 E154.90490
G0 F6000 X132.38 Y117.96
G1 F4440 X149.71 Y135.28 E155.92364
G0 F6000 X149.71 Y134.72
G1 F4440 X132.95 Y117.96 E156.90912
G0 F6000 X133.51 Y117.96
G1 F4440 X149.71 Y134.15 E157.86132
G0 F6000 X149.71 Y133.59
G1 F4440 X134.08 Y117.96 E158.78025
G0 F6000 X134.64 Y117.96
G1 F4440 X149.71 Y133.02 E159.66595
G0 F6000 X149.71 Y132.45
G1 F4440 X135.21 Y117.96 E160.51838
G0 F6000 X135.78 Y117.96
G1 F4440 X149.71 Y131.89 E161.33753
G0 F6000 X149.71 Y131.32
G1 F4440 X136.34 Y117.96 E162.12346
G0 F6000 X136.91 Y117.96
G1 F4440 X149.71 Y130.76 E162.87611
G0 F6000 X149.71 Y130.19
G1 F4440 X137.47 Y117.96 E163.59548
G0 F6000 X138.04 Y117.96
G1 F4440 X149.71 Y129.63 E164.28163
G0 F6000 X149.71 Y129.06
G1 F4440 X138.60 Y117.96 E164.93450
G0 F6000 X139.17 Y117.96
G1 F4440 X149.71 Y128.49 E165.55409
G0 F6000 X149.71 Y127.93
G1 F4440 X139.73 Y117.96 E166.14047
G0 F6000 X140.30 Y117.96
G1 F4440 X149.71 Y127.36 E166.69356
G0 F6000 X149.71 Y126.80
G1 F4440 X140.87 Y117.96 E167.21338
G0 F6000 X141.43 Y117.96
G1 F4440 X149.71 Y126.23 E167.69995
G0 F6000 X149.71 Y125.67
G1 F4440 X142.00 Y117.96 E168.15327
G0 F6000 X142.56 Y117.96
G1 F4440 X149.71 Y125.10 E168.57331
G0 F6000 X149.71 Y124.53
G1 F4440 X143.13 Y117.96 E168.96007
G0 F6000 X143.69 Y117.96
G1 F4440 X149.71 Y123.97 E169.31361
G0 F6000 X149.71 Y123.40
G1 F4440 X144.26 Y117.96 E169.63387
G0 F6000 X144.83 Y117.96
G1 F4440 X149.71 Y122.84 E169.92086
G0 F6000 X149.71 Y122.27
G1 F4440 X145.39 Y117.96 E170.17462
G0 F6000 X145.96 Y117.96
G1 F4440 X149.71 Y121.71 E170.39511
G0 F6000 X149.71 Y121.14
G1 F4440 X146.52 Y117.96 E170.58231
G0 F6000 X147.09 Y117.96
G1 F4440 X149.71 Y120.58 E170.73630
G0 F6000 X149.71 Y120.01
G1 F4440 X147.65 Y117.96 E170.85701
G0 F6000 X148.22 Y117.96
G1 F4440 X149.71 Y119.44 E170.94444
G0 F6000 X149.71 Y118.88
G1 F4440 X148.78 Y117.96 E170.99865
G0 F6000 X149.35 Y117.96
G1 F4440 X149.71 Y118.31 E171.01958
G0 F6000 X148.85 Y118.82
G1 F2400 E169.81958
G0 F6000 X150.83 Y178.33
;TYPE:WALL-OUTER
G1 F2400 E171.01958
G1 F4440 X174.72 Y178.33 E172.01281
G1 X174.72 Y178.37 E172.01460
G1 X174.72 Y178.45 E172.01776
G1 X174.72 Y178.51 E172.02013
G1 X174.72 Y178.58 E172.02329
G1 X174.72 Y178.64 E172.02566
G1 X174.72 Y178.72 E172.02882
G1 X174.72 Y178.77 E172.03119
G1 X174.72 Y178.85 E172.03435
G1 X174.72 Y178.89 E172.03597
G1 X150.83 Y178.88 E173.02924
G1 X150.83 Y178.33 E173.05219
G0 F6000 X151.03 Y178.47
;TYPE:FILL
G1 F4440 X151.45 Y178.61 E173.06809
G1 X152.02 Y178.61 E173.08404
G1 X152.59 Y178.61 E173.09998
G1 X153.15 Y178.61 E173.11589
G1 X153.72 Y178.61 E173.13184
G1 X154.28 Y178.61 E173.14778
G1 X154.85 Y178.61 E173.16375
G1 X155.41 Y178.61 E173.17975
G1 X155.98 Y178.61 E173.19575
G1 X156.54 Y178.61 E173.21176
G1 X157.11 Y178.61 E173.22773
G1 X157.68 Y178.61 E173.24373
G1 X158.24 Y178.61 E173.25973
G1 X158.81 Y178.61 E173.27573
G1 X159.37 Y178.61 E173.29177
G1 X159.94 Y178.61 E173.30777
G1 X160.50 Y178.61 E173.32377
G1 X161.07 Y178.61 E173.33980
G1 X161.64 Y178.61 E173.35589
G1 X162.20 Y178.61 E173.37192
G1 X162.77 Y178.61 E173.38798
G1 X163.33 Y178.61 E173.40404
G1 X163.90 Y178.61 E173.42007
G1 X164.47 Y178.61 E173.43613
G1 X165.03 Y178.61 E173.45225
G1 X165.60 Y178.61 E173.46837
G1 X166.16 Y178.61 E173.48446
G1 X166.73 Y178.61 E173.50058
G1 X167.29 Y178.61 E173.51670
G1 X167.86 Y178.61 E173.53279
G1 X168.43 Y178.61 E173.54891
G1 X168.99 Y178.61 E173.56503
G1 X169.56 Y178.61 E173.58115
G1 X170.12 Y178.61 E173.59724
G1 X170.69 Y178.61 E173.61336
G1 X171.25 Y178.61 E173.62948
G1 X171.82 Y178.61 E173.64566
G1 X172.39 Y178.61 E173.66183
G1 X172.95 Y178.61 E173.67798
G1 X173.52 Y178.61 E173.69416
G1 X174.08 Y178.61 E173.71034
G1 X174.50 Y178.75 E173.72876
G1 F2400 E172.52876
G0 F6000 X174.72 Y168.89
;TYPE:WALL-OUTER
G1 F2400 E173.72876
G1 F4440 X150.83 Y168.88 E174.72203
G1 X150.83 Y168.33 E174.74498
G1 X174.72 Y168.33 E175.73821
G1 X174.72 Y168.37 E175.74000
G1 X174.72 Y168.45 E175.74316
G1 X174.72 Y168.51 E175.74553
G1 X174.72 Y168.58 E175.74869
G1 X174.72 Y168.64 E175.75106
G1 X174.72 Y168.72 E175.75422
G1 X174.72 Y168.77 E175.75659
G1 X174.72 Y168.85 E175.75975
G1 X174.72 Y168.89 E175.76137
G0 F6000 X174.58 Y168.64
;TYPE:FILL
G1 F4440 X174.26 Y168.61 E175.77148
G1 X173.70 Y168.61 E175.78757
G1 X173.13 Y168.61 E175.80369
G1 X172.57 Y168.61 E175.81981
G1 X172.00 Y168.61 E175.83593
G1 X171.44 Y168.61 E175.85208
G1 X170.87 Y168.61 E175.86822
G1 X170.31 Y168.61 E175.88432
G1 X169.74 Y168.61 E175.90043
G1 X169.17 Y168.61 E175.91655
G1 X168.61 Y168.61 E175.93264
G1 X168.04 Y168.61 E175.94876
G1 X167.48 Y168.61 E175.96488
G1 X166.91 Y168.61 E175.98100
G1 X166.34 Y168.61 E175.99703
G1 X165.78 Y168.61 E176.01309
G1 X165.21 Y168.61 E176.02921
G1 X164.65 Y168.61 E176.04524
G1 X164.08 Y168.61 E176.06131
G1 X163.52 Y168.61 E176.07731
G1 X162.95 Y168.61 E176.09331
G1 X162.38 Y168.61 E176.10934
G1 X161.82 Y168.61 E176.12534
G1 X161.25 Y168.61 E176.14134
G1 X160.69 Y168.61 E176.15734
G1 X160.12 Y168.61 E176.17335
G1 X159.56 Y168.61 E176.18932
G1 X158.99 Y168.61 E176.20532
G1 X158.42 Y168.61 E176.22132
G1 X157.86 Y168.61 E176.23732
G1 X157.29 Y168.61 E176.25324
G1 X156.73 Y168.61 E176.26918
G1 X156.16 Y168.61 E176.28518
G1 X155.60 Y168.61 E176.30110
G1 X155.03 Y168.61 E176.31704
G1 X154.46 Y168.61 E176.33298
G1 X153.90 Y168.61 E176.34887
G1 X153.33 Y168.61 E176.36478
G1 X152.77 Y168.61 E176.38066
G1 X152.20 Y168.61 E176.39655
G1 X151.64 Y168.61 E176.41246
G1 X151.22 Y168.47 E176.43076
G1 F2400 E175.23076
G0 F6000 X150.83 Y158.88
;TYPE:WALL-OUTER
G1 F2400 E176.43076
G1 F4440 X150.83 Y158.33 E176.45371
G1 X174.72 Y158.33 E177.44694
G1 X174.72 Y158.37 E177.44873
G1 X174.72 Y158.45 E177.45189
G1 X174.72 Y158.51 E177.45426
G1 X174.72 Y158.58 E177.45742
G1 X174.72 Y158.64 E177.45979
G1 X174.72 Y158.72 E177.46295
G1 X174.72 Y158.77 E177.46532
G1 X174.72 Y158.85 E177.46848
G1 X174.72 Y158.89 E177.47010
G1 X150.83 Y158.88 E178.46338
G0 F6000 X151.10 Y158.74
;TYPE:FILL
G1 F4440 X151.19 Y158.54 E178.47118
G1 X151.82 Y158.61 E178.48712
G1 X152.38 Y158.61 E178.50304
G1 X152.95 Y158.61 E178.51898
G1 X153.51 Y158.61 E178.53492
G1 X154.08 Y158.61 E178.55084
G1 X154.65 Y158.61 E178.56684
G1 X155.21 Y158.61 E178.58284
G1 X155.78 Y158.61 E178.59884
G1 X156.34 Y158.61 E178.61487
G1 X156.91 Y158.61 E178.63087
G1 X157.47 Y158.61 E178.64688
G1 X158.04 Y158.61 E178.66294
G1 X158.61 Y158.61 E178.67900
G1 X159.17 Y158.61 E178.69503
G1 X159.74 Y158.61 E178.71109
G1 X160.30 Y158.61 E178.72715
G1 X160.87 Y158.61 E178.74318
G1 X161.44 Y158.61 E178.75930
G1 X162.00 Y158.61 E178.77542
G1 X162.57 Y158.61 E178.79148
G1 X163.13 Y158.61 E178.80754
G1 X163.70 Y158.61 E178.82354
G1 X164.26 Y158.61 E178.83957
G1 X164.83 Y158.61 E178.85569
G1 X165.40 Y158.61 E178.87175
G1 X165.96 Y158.61 E178.88778
G1 X166.53 Y158.61 E178.90390
G1 X167.09 Y158.61 E178.91996
G1 X167.66 Y158.61 E178.93600
G1 X168.22 Y158.61 E178.95212
G1 X168.79 Y158.61 E178.96823
G1 X169.36 Y158.61 E178.98435
G1 X169.92 Y158.61 E179.00047
G1 X170.49 Y158.61 E179.01656
G1 X171.05 Y158.61 E179.03268
G1 X171.62 Y158.61 E179.04880
G1 X172.19 Y158.61 E179.06492
G1 X172.75 Y158.61 E179.08104
G1 X173.32 Y158.61 E179.09713
G1 X173.88 Y158.61 E179.11325
G1 X174.30 Y158.75 E179.13167
G1 F2400 E177.93167
G0 F6000 X174.72 Y148.89
;TYPE:WALL-OUTER
G1 F2400 E179.13167
G1 F4440 X150.83 Y148.88 E180.12494
G1 X150.83 Y148.33 E180.14789
G1 X174.72 Y148.33 E181.14112
G1 X174.72 Y148.38 E181.14291
G1 X174.72 Y148.45 E181.14607
G1 X174.72 Y148.51 E181.14844
G1 X174.72 Y148.58 E181.15160
G1 X174.72 Y148.64 E181.15397
G1 X174.72 Y148.72 E181.15713
G1 X174.72 Y148.77 E181.15950
G1 X174.72 Y148.85 E181.16266
G1 X174.72 Y148.89 E181.16428
G0 F6000 X174.49 Y148.75
;TYPE:FILL
G1 F4440 X174.06 Y148.61 E181.18054
G1 X173.50 Y148.61 E181.19677
G1 X172.93 Y148.61 E181.21298
G1 X172.37 Y148.61 E181.22922
G1 X171.80 Y148.61 E181.24546
G1 X171.24 Y148.61 E181.26166
G1 X170.67 Y148.61 E181.27784
G1 X170.10 Y148.61 E181.29402
G1 X169.54 Y148.61 E181.31017
G1 X168.97 Y148.61 E181.32635
G1 X168.41 Y148.61 E181.34252
G1 X167.84 Y148.61 E181.35864
G1 X167.28 Y148.61 E181.37476
G1 X166.71 Y148.61 E181.39085
G1 X166.15 Y148.61 E181.40697
G1 X165.58 Y148.61 E181.42309
G1 X165.01 Y148.61 E181.43921
G1 X164.45 Y148.61 E181.45533
G1 X163.88 Y148.61 E181.47142
G1 X163.32 Y148.61 E181.48754
G1 X162.75 Y148.61 E181.50366
G1 X162.19 Y148.61 E181.51969
G1 X161.62 Y148.61 E181.53575
G1 X161.05 Y148.61 E181.55181
G1 X160.49 Y148.61 E181.56784
G1 X159.92 Y148.61 E181.58393
G1 X159.36 Y148.61 E181.59996
G1 X158.79 Y148.61 E181.61597
G1 X158.22 Y148.61 E181.63197
G1 X157.66 Y148.61 E181.64797
G1 X157.09 Y148.61 E181.66394
G1 X156.53 Y148.61 E181.67994
G1 X155.96 Y148.61 E181.69594
G1 X155.40 Y148.61 E181.71195
G1 X154.83 Y148.61 E181.72792
G1 X154.26 Y148.61 E181.74392
G1 X153.70 Y148.61 E181.75992
G1 X153.13 Y148.61 E181.77584
G1 X152.57 Y148.61 E181.79178
G1 X152.00 Y148.61 E181.80772
G1 X151.44 Y148.61 E181.82364
G1 X151.02 Y148.47 E181.84195
G1 F2400 E180.64195
G0 F6000 X150.83 Y138.88
;TYPE:WALL-OUTER
G1 F2400 E181.84195
G1 F4440 X150.83 Y138.33 E181.86490
G1 X174.72 Y138.33 E182.85813
G1 X174.72 Y138.38 E182.85992
G1 X174.72 Y138.45 E182.86308
G1 X174.72 Y138.51 E182.86545
G1 X174.72 Y138.58 E182.86861
G1 X174.72 Y138.64 E182.87098
G1 X174.72 Y138.72 E182.87414
G1 X174.72 Y138.77 E182.87651
G1 X174.72 Y138.85 E182.87967
G1 X174.72 Y138.89 E182.88129
G1 X150.83 Y138.88 E183.87456
G0 F6000 X151.20 Y138.47
;TYPE:FILL
G1 F4440 X151.62 Y138.61 E183.89049
G1 X152.18 Y138.61 E183.90637
G1 X152.75 Y138.61 E183.92228
G1 X153.31 Y138.61 E183.93817
G1 X153.88 Y138.61 E183.95405
G1 X154.45 Y138.61 E183.96999
G1 X155.01 Y138.61 E183.98591
G1 X155.58 Y138.61 E184.00185
G1 X156.14 Y138.61 E184.01779
G1 X156.71 Y138.61 E184.03371
G1 X157.28 Y138.61 E184.04971
G1 X157.84 Y138.61 E184.06571
G1 X158.41 Y138.61 E184.08171
G1 X158.97 Y138.61 E184.09769
G1 X159.54 Y138.61 E184.11369
G1 X160.10 Y138.61 E184.12969
G1 X160.67 Y138.61 E184.14569
G1 X161.24 Y138.61 E184.16169
G1 X161.80 Y138.61 E184.17772
G1 X162.37 Y138.61 E184.19373
G1 X162.93 Y138.61 E184.20984
G1 X163.50 Y138.61 E184.22591
G1 X164.06 Y138.61 E184.24194
G1 X164.63 Y138.61 E184.25806
G1 X165.20 Y138.61 E184.27412
G1 X165.76 Y138.61 E184.29015
G1 X166.33 Y138.61 E184.30627
G1 X166.89 Y138.61 E184.32239
G1 X167.46 Y138.61 E184.33851
G1 X168.02 Y138.61 E184.35460
G1 X168.59 Y138.61 E184.37072
G1 X169.16 Y138.61 E184.38683
G1 X169.72 Y138.61 E184.40295
G1 X170.29 Y138.61 E184.41907
G1 X170.85 Y138.61 E184.43522
G1 X171.42 Y138.61 E184.45134
G1 X171.99 Y138.61 E184.46758
G1 X172.55 Y138.61 E184.48379
G1 X173.12 Y138.61 E184.50002
G1 X173.68 Y138.61 E184.51626
G1 X174.25 Y138.61 E184.53244
G1 X174.58 Y138.66 E184.54653
G1 F2400 E183.34653
G0 F6000 X174.72 Y128.89
;TYPE:WALL-OUTER
G1 F2400 E184.54653
G1 F4440 X150.83 Y128.88 E185.53980
G1 X150.83 Y128.33 E185.56275
G1 X174.72 Y128.33 E186.55598
G1 X174.72 Y128.38 E186.55777
G1 X174.72 Y128.45 E186.56093
G1 X174.72 Y128.51 E186.56330
G1 X174.72 Y128.58 E186.56646
G1 X174.72 Y128.64 E186.56883
G1 X174.72 Y128.72 E186.57199
G1 X174.72 Y128.77 E186.57436
G1 X174.72 Y128.85 E186.57752
G1 X174.72 Y128.89 E186.57915
G0 F6000 X174.29 Y128.75
;TYPE:FILL
G1 F4440 X173.86 Y128.61 E186.59544
G1 X173.30 Y128.61 E186.61164
G1 X172.73 Y128.61 E186.62782
G1 X172.17 Y128.61 E186.64406
G1 X171.60 Y128.61 E186.66027
G1 X171.04 Y128.61 E186.67639
G1 X170.47 Y128.61 E186.69250
G1 X169.90 Y128.61 E186.70862
G1 X169.34 Y128.61 E186.72477
G1 X168.77 Y128.61 E186.74092
G1 X168.21 Y128.61 E186.75701
G1 X167.64 Y128.61 E186.77313
G1 X167.07 Y128.61 E186.78925
G1 X166.51 Y128.61 E186.80534
G1 X165.94 Y128.61 E186.82146
G1 X165.38 Y128.61 E186.83758
G1 X164.81 Y128.61 E186.85370
G1 X164.25 Y128.61 E186.86973
G1 X163.68 Y128.61 E186.88579
G1 X163.12 Y128.61 E186.90191
G1 X162.55 Y128.61 E186.91794
G1 X161.98 Y128.61 E186.93394
G1 X161.42 Y128.61 E186.94994
G1 X160.85 Y128.61 E186.96594
G1 X160.29 Y128.61 E186.98198
G1 X159.72 Y128.61 E186.99801
G1 X159.16 Y128.61 E187.01404
G1 X158.59 Y128.61 E187.03004
G1 X158.02 Y128.61 E187.04604
G1 X157.46 Y128.61 E187.06207
G1 X156.89 Y128.61 E187.07807
G1 X156.33 Y128.61 E187.09402
G1 X155.76 Y128.61 E187.11002
G1 X155.19 Y128.61 E187.12593
G1 X154.63 Y128.61 E187.14188
G1 X154.06 Y128.61 E187.15788
G1 X153.50 Y128.61 E187.17376
G1 X152.93 Y128.61 E187.18968
G1 X152.37 Y128.61 E187.20556
G1 X151.80 Y128.61 E187.22144
G1 X151.24 Y128.61 E187.23736
G1 X150.97 Y128.63 E187.24832
G1 F2400 E186.04832
G0 F6000 X150.83 Y118.88
;TYPE:WALL-OUTER
G1 F2400 E187.24832
G1 F4440 X150.83 Y118.33 E187.27127
G1 X174.72 Y118.33 E188.26450
G1 X174.72 Y118.38 E188.26629
G1 X174.72 Y118.45 E188.26945
G1 X174.72 Y118.51 E188.27182
G1 X174.72 Y118.58 E188.27498
G1 X174.72 Y118.64 E188.27735
G1 X174.72 Y118.72 E188.28051
G1 X174.72 Y118.77 E188.28288
G1 X174.72 Y118.85 E188.28604
G1 X174.72 Y118.89 E188.28766
G1 X150.83 Y118.88 E189.28094
G0 F6000 X151.00 Y118.47
;TYPE:FILL
G1 F4440 X151.42 Y118.61 E189.29682
G1 X151.98 Y118.61 E189.31271
G1 X152.55 Y118.61 E189.32859
G1 X153.11 Y118.61 E189.34451
G1 X153.68 Y118.61 E189.36039
G1 X154.25 Y118.61 E189.37633
G1 X154.81 Y118.61 E189.39225
G1 X155.38 Y118.61 E189.40825
G1 X155.94 Y118.61 E189.42419
G1 X156.51 Y118.61 E189.44011
G1 X157.07 Y118.61 E189.45611
G1 X157.64 Y118.61 E189.47211
G1 X158.21 Y118.61 E189.48811
G1 X158.77 Y118.61 E189.50408
G1 X159.34 Y118.61 E189.52009
G1 X159.90 Y118.61 E189.53609
G1 X160.47 Y118.61 E189.55209
G1 X161.03 Y118.61 E189.56809
G1 X161.60 Y118.61 E189.58409
G1 X162.17 Y118.61 E189.60012
G1 X162.73 Y118.61 E189.61612
G1 X163.30 Y118.61 E189.63218
G1 X163.86 Y118.61 E189.64822
G1 X164.43 Y118.61 E189.66434
G1 X165.00 Y118.61 E189.68040
G1 X165.56 Y118.61 E189.69643
G1 X166.13 Y118.61 E189.71258
G1 X166.69 Y118.61 E189.72867
G1 X167.26 Y118.61 E189.74479
G1 X167.82 Y118.61 E189.76090
G1 X168.39 Y118.61 E189.77700
G1 X168.96 Y118.61 E189.79314
G1 X169.52 Y118.61 E189.80923
G1 X170.09 Y118.61 E189.82535
G1 X170.65 Y118.61 E189.84147
G1 X171.22 Y118.61 E189.85756
G1 X171.78 Y118.61 E189.87380
G1 X172.35 Y118.61 E189.88998
G1 X172.91 Y118.61 E189.90618
G1 X173.48 Y118.61 E189.92242
G1 X174.05 Y118.61 E189.93866
G1 X174.47 Y118.75 E189.95708
;LAYER:3
G0 F6000 X174.71 Y118.77 Z1.75
;TYPE:WALL-OUTER
G1 F5640 X174.71 Y118.84 E189.96020
G1 X174.71 Y118.89 E189.96203
G1 X151.37 Y118.89 E190.93239
G1 X150.83 Y118.88 E190.95468
G1 X150.83 Y118.33 E190.97763
G1 X174.22 Y118.33 E191.94978
G1 X174.71 Y118.34 E191.97023
G1 X174.71 Y118.37 E191.97165
G1 X174.71 Y118.45 E191.97477
G1 X174.71 Y118.50 E191.97718
G1 X174.71 Y118.58 E191.98030
G1 X174.71 Y118.64 E191.98271
G1 X174.71 Y118.71 E191.98583
G1 X174.71 Y118.77 E191.98824
G0 F6000 X174.27 Y118.47
;TYPE:FILL
G1 F5640 X173.85 Y118.61 E192.00430
G1 X173.28 Y118.61 E192.02030
G1 X172.72 Y118.61 E192.03633
G1 X172.15 Y118.61 E192.05233
G1 X171.58 Y118.61 E192.06833
G1 X171.02 Y118.61 E192.08437
G1 X170.45 Y118.61 E192.10037
G1 X169.89 Y118.61 E192.11637
G1 X169.32 Y118.61 E192.13240
G1 X168.76 Y118.61 E192.14846
G1 X168.19 Y118.61 E192.16458
G1 X167.62 Y118.61 E192.18070
G1 X167.06 Y118.61 E192.19673
G1 X166.49 Y118.61 E192.21276
G1 X165.93 Y118.61 E192.22876
G1 X165.36 Y118.61 E192.24477
G1 X164.80 Y118.61 E192.26080
G1 X164.23 Y118.61 E192.27686
G1 X163.66 Y118.61 E192.29298
G1 X163.10 Y118.61 E192.30901
G1 X162.53 Y118.61 E192.32507
G1 X161.97 Y118.61 E192.34119
G1 X161.40 Y118.61 E192.35722
G1 X160.84 Y118.61 E192.37328
G1 X160.27 Y118.61 E192.38937
G1 X159.71 Y118.61 E192.40549
G1 X159.14 Y118.61 E192.42161
G1 X158.57 Y118.61 E192.43770
G1 X158.01 Y118.61 E192.45382
G1 X157.44 Y118.61 E192.46991
G1 X156.88 Y118.61 E192.48603
G1 X156.31 Y118.61 E192.50215
G1 X155.75 Y118.61 E192.51824
G1 X155.18 Y118.61 E192.53436
G1 X154.62 Y118.61 E192.55045
G1 X154.05 Y118.61 E192.56657
G1 X153.48 Y118.61 E192.58269
G1 X152.92 Y118.61 E192.59881
G1 X152.35 Y118.61 E192.61490
G1 X151.79 Y118.61 E192.63102
G1 X151.22 Y118.61 E192.64714
G1 X150.97 Y118.58 E192.65758
G1 F2400 E191.45758
G0 F6000 X150.83 Y128.33
;TYPE:WALL-OUTER
G1 F2400 E192.65758
G1 F5640 X174.22 Y128.33 E193.62973
G1 X174.71 Y128.34 E193.65019
G1 X174.71 Y128.37 E193.65160
G1 X174.71 Y128.45 E193.65472
G1 X174.71 Y128.50 E193.65713
G1 X174.71 Y128.58 E193.66025
G1 X174.71 Y128.64 E193.66266
G1 X174.71 Y128.71 E193.66578
G1 X174.71 Y128.77 E193.66819
G1 X174.71 Y128.84 E193.67131
G1 X174.71 Y128.89 E193.67314
G1 X151.37 Y128.89 E194.64350
G1 X150.83 Y128.88 E194.66579
G1 X150.83 Y128.33 E194.68874
G0 F6000 X150.98 Y128.75
;TYPE:FILL
G1 F5640 X151.40 Y128.61 E194.70487
G1 X151.97 Y128.61 E194.72099
G1 X152.53 Y128.61 E194.73708
G1 X153.10 Y128.61 E194.75320
G1 X153.67 Y128.61 E194.76931
G1 X154.23 Y128.61 E194.78540
G1 X154.80 Y128.61 E194.80152
G1 X155.36 Y128.61 E194.81764
G1 X155.93 Y128.61 E194.83373
G1 X156.50 Y128.61 E194.84985
G1 X157.06 Y128.61 E194.86594
G1 X157.63 Y128.61 E194.88206
G1 X158.19 Y128.61 E194.89818
G1 X158.76 Y128.61 E194.91427
G1 X159.32 Y128.61 E194.93039
G1 X159.89 Y128.61 E194.94648
G1 X160.45 Y128.61 E194.96260
G1 X161.02 Y128.61 E194.97863
G1 X161.59 Y128.61 E194.99475
G1 X162.15 Y128.61 E195.01081
G1 X162.72 Y128.61 E195.02684
G1 X163.28 Y128.61 E195.04296
G1 X163.85 Y128.61 E195.05902
G1 X164.41 Y128.61 E195.07508
G1 X164.98 Y128.61 E195.09112
G1 X165.54 Y128.61 E195.10712
G1 X166.11 Y128.61 E195.12312
G1 X166.68 Y128.61 E195.13915
G1 X167.24 Y128.61 E195.15518
G1 X167.81 Y128.61 E195.17130
G1 X168.37 Y128.61 E195.18736
G1 X168.94 Y128.61 E195.20339
G1 X169.50 Y128.61 E195.21951
G1 X170.07 Y128.61 E195.23557
G1 X170.63 Y128.61 E195.25161
G1 X171.20 Y128.61 E195.26767
G1 X171.77 Y128.61 E195.28373
G1 X172.33 Y128.61 E195.29976
G1 X172.90 Y128.61 E195.31582
G1 X173.46 Y128.61 E195.33188
G1 X174.03 Y128.61 E195.34791
G1 X174.45 Y128.47 E195.36628
G1 F2400 E194.16628
G0 F6000 X174.22 Y138.33
;TYPE:WALL-OUTER
G1 F2400 E195.36628
G1 F5640 X174.71 Y138.34 E195.38673
G1 X174.71 Y138.37 E195.38815
G1 X174.71 Y138.45 E195.39127
G1 X174.71 Y138.50 E195.39368
G1 X174.71 Y138.58 E195.39680
G1 X174.71 Y138.64 E195.39921
G1 X174.71 Y138.71 E195.40233
G1 X174.71 Y138.77 E195.40474
G1 X174.71 Y138.84 E195.40786
G1 X174.71 Y138.89 E195.40969
G1 X151.37 Y138.89 E196.38005
G1 X150.83 Y138.88 E196.40234
G1 X150.83 Y138.33 E196.42529
G1 X174.22 Y138.33 E197.39744
G0 F6000 X174.07 Y138.47
;TYPE:FILL
G1 F5640 X173.65 Y138.61 E197.41355
G1 X173.08 Y138.61 E197.42956
G1 X172.51 Y138.61 E197.44559
G1 X171.95 Y138.61 E197.46165
G1 X171.38 Y138.61 E197.47771
G1 X170.82 Y138.61 E197.49374
G1 X170.25 Y138.61 E197.50980
G1 X169.69 Y138.61 E197.52586
G1 X169.12 Y138.61 E197.54189
G1 X168.56 Y138.61 E197.55795
G1 X167.99 Y138.61 E197.57407
G1 X167.42 Y138.61 E197.59010
G1 X166.86 Y138.61 E197.60616
G1 X166.29 Y138.61 E197.62220
G1 X165.73 Y138.61 E197.63820
G1 X165.16 Y138.61 E197.65423
G1 X164.60 Y138.61 E197.67029
G1 X164.03 Y138.61 E197.68641
G1 X163.47 Y138.61 E197.70244
G1 X162.90 Y138.61 E197.71850
G1 X162.33 Y138.61 E197.73462
G1 X161.77 Y138.61 E197.75065
G1 X161.20 Y138.61 E197.76671
G1 X160.64 Y138.61 E197.78283
G1 X160.07 Y138.61 E197.79892
G1 X159.50 Y138.61 E197.81504
G1 X158.94 Y138.61 E197.83116
G1 X158.37 Y138.61 E197.84725
G1 X157.81 Y138.61 E197.86337
G1 X157.24 Y138.61 E197.87946
G1 X156.68 Y138.61 E197.89558
G1 X156.11 Y138.61 E197.91170
G1 X155.55 Y138.61 E197.92779
G1 X154.98 Y138.61 E197.94391
G1 X154.41 Y138.61 E197.96000
G1 X153.85 Y138.61 E197.97612
G1 X153.28 Y138.61 E197.99224
G1 X152.72 Y138.61 E198.00833
G1 X152.15 Y138.61 E198.02445
G1 X151.59 Y138.61 E198.04057
G1 X151.17 Y138.75 E198.05895
G0 F6000 X151.17 Y138.59
G0 X174.36 Y138.59
G0 X174.36 Y138.75
G1 F5640 X174.57 Y138.54 E198.07124
G1 F2400 E196.87124
G0 F6000 X174.71 Y148.34
;TYPE:WALL-OUTER
G1 F2400 E198.07124
G1 F5640 X174.71 Y148.37 E198.07265
G1 X174.71 Y148.45 E198.07577
G1 X174.71 Y148.50 E198.07818
G1 X174.71 Y148.58 E198.08130
G1 X174.71 Y148.64 E198.08371
G1 X174.71 Y148.71 E198.08683
G1 X174.71 Y148.77 E198.08924
G1 X174.71 Y148.84 E198.09236
G1 X174.71 Y148.89 E198.09419
G1 X151.37 Y148.89 E199.06455
G1 X150.83 Y148.88 E199.08684
G1 X150.83 Y148.33 E199.10979
G1 X174.22 Y148.33 E200.08194
G1 X174.71 Y148.34 E200.10240
G0 F6000 X174.25 Y148.47
;TYPE:FILL
G1 F5640 X173.83 Y148.61 E200.11846
G1 X173.26 Y148.61 E200.13446
G1 X172.70 Y148.61 E200.15049
G1 X172.13 Y148.61 E200.16649
G1 X171.56 Y148.61 E200.18249
G1 X171.00 Y148.61 E200.19849
G1 X170.43 Y148.61 E200.21447
G1 X169.87 Y148.61 E200.23050
G1 X169.30 Y148.61 E200.24656
G1 X168.74 Y148.61 E200.26262
G1 X168.17 Y148.61 E200.27865
G1 X167.61 Y148.61 E200.29471
G1 X167.04 Y148.61 E200.31077
G1 X166.47 Y148.61 E200.32680
G1 X165.91 Y148.61 E200.34283
G1 X165.34 Y148.61 E200.35884
G1 X164.78 Y148.61 E200.37484
G1 X164.21 Y148.61 E200.39087
G1 X163.65 Y148.61 E200.40687
G1 X163.08 Y148.61 E200.42287
G1 X162.52 Y148.61 E200.43890
G1 X161.95 Y148.61 E200.45496
G1 X161.38 Y148.61 E200.47108
G1 X160.82 Y148.61 E200.48712
G1 X160.25 Y148.61 E200.50318
G1 X159.69 Y148.61 E200.51930
G1 X159.12 Y148.61 E200.53533
G1 X158.56 Y148.61 E200.55136
G1 X157.99 Y148.61 E200.56742
G1 X157.43 Y148.61 E200.58354
G1 X156.86 Y148.61 E200.59966
G1 X156.29 Y148.61 E200.61569
G1 X155.73 Y148.61 E200.63175
G1 X155.16 Y148.61 E200.64787
G1 X154.60 Y148.61 E200.66390
G1 X154.03 Y148.61 E200.68002
G1 X153.47 Y148.61 E200.69611
G1 X152.90 Y148.61 E200.71223
G1 X152.33 Y148.61 E200.72835
G1 X151.77 Y148.61 E200.74444
G1 X151.20 Y148.61 E200.76056
G1 X150.97 Y148.56 E200.77038
G1 F2400 E199.57038
G0 F6000 X150.83 Y158.33
;TYPE:WALL-OUTER
G1 F2400 E200.77038
G1 F5640 X174.22 Y158.33 E201.74254
G1 X174.71 Y158.34 E201.76299
G1 X174.71 Y158.37 E201.76441
G1 X174.71 Y158.44 E201.76753
G1 X174.71 Y158.50 E201.76994
G1 X174.71 Y158.58 E201.77306
G1 X174.71 Y158.64 E201.77547
G1 X174.71 Y158.71 E201.77859
G1 X174.71 Y158.77 E201.78100
G1 X174.71 Y158.84 E201.78412
G1 X174.71 Y158.89 E201.78595
G1 X151.37 Y158.89 E202.75631
G1 X150.83 Y158.88 E202.77860
G1 X150.83 Y158.33 E202.80154
G0 F6000 X150.97 Y158.74
;TYPE:FILL
G1 F5640 X151.39 Y158.61 E202.81743
G1 X151.95 Y158.61 E202.83352
G1 X152.52 Y158.61 E202.84964
G1 X153.09 Y158.61 E202.86576
G1 X153.65 Y158.61 E202.88185
G1 X154.22 Y158.61 E202.89791
G1 X154.78 Y158.61 E202.91394
G1 X155.35 Y158.61 E202.93006
G1 X155.91 Y158.61 E202.94615
G1 X156.48 Y158.61 E202.96227
G1 X157.04 Y158.61 E202.97831
G1 X157.61 Y158.61 E202.99442
G1 X158.18 Y158.61 E203.01048
G1 X158.74 Y158.61 E203.02652
G1 X159.31 Y158.61 E203.04264
G1 X159.87 Y158.61 E203.05873
G1 X160.44 Y158.61 E203.07485
G1 X161.00 Y158.61 E203.09094
G1 X161.57 Y158.61 E203.10706
G1 X162.13 Y158.61 E203.12317
G1 X162.70 Y158.61 E203.13926
G1 X163.26 Y158.61 E203.15530
G1 X163.83 Y158.61 E203.17142
G1 X164.40 Y158.61 E203.18753
G1 X164.96 Y158.61 E203.20360
G1 X165.53 Y158.61 E203.21963
G1 X166.09 Y158.61 E203.23563
G1 X166.66 Y158.61 E203.25166
G1 X167.22 Y158.61 E203.26772
G1 X167.79 Y158.61 E203.28375
G1 X168.35 Y158.61 E203.29987
G1 X168.92 Y158.61 E203.31593
G1 X169.49 Y158.61 E203.33196
G1 X170.05 Y158.61 E203.34802
G1 X170.62 Y158.61 E203.36406
G1 X171.18 Y158.61 E203.38018
G1 X171.75 Y158.61 E203.39627
G1 X172.31 Y158.61 E203.41233
G1 X172.88 Y158.61 E203.42839
G1 X173.44 Y158.61 E203.44442
G1 X174.01 Y158.61 E203.46048
G1 X174.43 Y158.47 E203.47885
G1 F2400 E202.27885
G0 F6000 X174.22 Y168.33
;TYPE:WALL-OUTER
G1 F2400 E203.47885
G1 F5640 X174.71 Y168.34 E203.49930
G1 X174.71 Y168.37 E203.50072
G1 X174.71 Y168.44 E203.50383
G1 X174.71 Y168.50 E203.50625
G1 X174.71 Y168.58 E203.50936
G1 X174.71 Y168.64 E203.51178
G1 X174.71 Y168.71 E203.51489
G1 X174.71 Y168.77 E203.51731
G1 X174.71 Y168.84 E203.52042
G1 X174.71 Y168.89 E203.52225
G1 X151.37 Y168.89 E204.49262
G1 X150.83 Y168.88 E204.51490
G1 X150.83 Y168.33 E204.53785
G1 X174.22 Y168.33 E205.51001
G0 F6000 X174.05 Y168.47
;TYPE:FILL
G1 F5640 X173.63 Y168.61 E205.52604
G1 X173.06 Y168.61 E205.54210
G1 X172.50 Y168.61 E205.55816
G1 X171.93 Y168.61 E205.57419
G1 X171.37 Y168.61 E205.59026
G1 X170.80 Y168.61 E205.60632
G1 X170.23 Y168.61 E205.62235
G1 X169.67 Y168.61 E205.63838
G1 X169.10 Y168.61 E205.65444
G1 X168.54 Y168.61 E205.67050
G1 X167.97 Y168.61 E205.68653
G1 X167.41 Y168.61 E205.70259
G1 X166.84 Y168.61 E205.71871
G1 X166.28 Y168.61 E205.73474
G1 X165.71 Y168.61 E205.75078
G1 X165.14 Y168.61 E205.76678
G1 X164.58 Y168.61 E205.78278
G1 X164.01 Y168.61 E205.79881
G1 X163.45 Y168.61 E205.81487
G1 X162.88 Y168.61 E205.83099
G1 X162.32 Y168.61 E205.84702
G1 X161.75 Y168.61 E205.86305
G1 X161.19 Y168.61 E205.87911
G1 X160.62 Y168.61 E205.89523
G1 X160.05 Y168.61 E205.91135
G1 X159.49 Y168.61 E205.92744
G1 X158.92 Y168.61 E205.94356
G1 X158.36 Y168.61 E205.95959
G1 X157.79 Y168.61 E205.97565
G1 X157.23 Y168.61 E205.99169
G1 X156.66 Y168.61 E206.00775
G1 X156.09 Y168.61 E206.02386
G1 X155.53 Y168.61 E206.03990
G1 X154.96 Y168.61 E206.05596
G1 X154.40 Y168.61 E206.07199
G1 X153.83 Y168.61 E206.08811
G1 X153.27 Y168.61 E206.10414
G1 X152.70 Y168.61 E206.12020
G1 X152.13 Y168.61 E206.13632
G1 X151.57 Y168.61 E206.15235
G1 X151.15 Y168.74 E206.17072
G0 F6000 X151.15 Y168.59
G0 X174.34 Y168.59
G0 X174.34 Y168.75
G1 F5640 X174.57 Y168.52 E206.18409
G1 F2400 E204.98409
G0 F6000 X174.71 Y178.34
;TYPE:WALL-OUTER
G1 F2400 E206.18409
G1 F5640 X174.71 Y178.37 E206.18551
G1 X174.71 Y178.44 E206.18863
G1 X174.71 Y178.50 E206.19104
G1 X174.71 Y178.58 E206.19416
G1 X174.71 Y178.64 E206.19657
G1 X174.71 Y178.71 E206.19969
G1 X174.71 Y178.77 E206.20210
G1 X174.71 Y178.84 E206.20522
G1 X174.71 Y178.89 E206.20705
G1 X151.37 Y178.89 E207.17741
G1 X150.83 Y178.88 E207.19970
G1 X150.83 Y178.33 E207.22265
G1 X174.22 Y178.33 E208.19480
G1 X174.71 Y178.34 E208.21525
G0 F6000 X174.23 Y178.47
;TYPE:FILL
G1 F5640 X173.81 Y178.61 E208.23137
G1 X173.25 Y178.61 E208.24743
G1 X172.68 Y178.61 E208.26346
G1 X172.11 Y178.61 E208.27952
G1 X171.55 Y178.61 E208.29558
G1 X170.98 Y178.61 E208.31159
G1 X170.42 Y178.61 E208.32762
G1 X169.85 Y178.61 E208.34368
G1 X169.29 Y178.61 E208.35971
G1 X168.72 Y178.61 E208.37571
G1 X168.16 Y178.61 E208.39174
G1 X167.59 Y178.61 E208.40774
G1 X167.02 Y178.61 E208.42375
G1 X166.46 Y178.61 E208.43978
G1 X165.89 Y178.61 E208.45578
G1 X165.33 Y178.61 E208.47178
G1 X164.76 Y178.61 E208.48775
G1 X164.20 Y178.61 E208.50379
G1 X163.63 Y178.61 E208.51979
G1 X163.06 Y178.61 E208.53579
G1 X162.50 Y178.61 E208.55182
G1 X161.93 Y178.61 E208.56782
G1 X161.37 Y178.61 E208.58382
G1 X160.80 Y178.61 E208.59986
G1 X160.24 Y178.61 E208.61589
G1 X159.67 Y178.61 E208.63195
G1 X159.10 Y178.61 E208.64801
G1 X158.54 Y178.61 E208.66404
G1 X157.97 Y178.61 E208.68010
G1 X157.41 Y178.61 E208.69616
G1 X156.84 Y178.61 E208.71216
G1 X156.28 Y178.61 E208.72819
G1 X155.71 Y178.61 E208.74425
G1 X155.15 Y178.61 E208.76029
G1 X154.58 Y178.61 E208.77635
G1 X154.01 Y178.61 E208.79238
G1 X153.45 Y178.61 E208.80844
G1 X152.88 Y178.61 E208.82450
G1 X152.32 Y178.61 E208.84053
G1 X151.75 Y178.61 E208.85659
G1 X151.19 Y178.61 E208.87265
G1 X150.97 Y178.54 E208.88200
G1 F2400 E207.68200
G0 F6000 X150.83 Y186.47
;TYPE:WALL-OUTER
G1 F2400 E208.88200
G1 F5640 X174.22 Y186.47 E209.85415
G1 X174.71 Y186.47 E209.87461
G1 X174.71 Y186.51 E209.87602
G1 X174.71 Y186.59 E209.87918
G1 X174.71 Y186.64 E209.88155
G1 X174.71 Y186.72 E209.88471
G1 X174.71 Y186.78 E209.88708
G1 X174.71 Y186.85 E209.89024
G1 X174.71 Y186.91 E209.89261
G1 X174.71 Y186.98 E209.89577
G1 X174.71 Y187.03 E209.89760
G1 X151.37 Y187.03 E210.86797
G1 X150.83 Y187.02 E210.89025
G1 X150.83 Y186.47 E210.91324
G0 F6000 X151.11 Y186.88
;TYPE:FILL
G1 F5640 X151.53 Y186.75 E210.92937
G1 X152.10 Y186.75 E210.94549
G1 X152.66 Y186.75 E210.96158
G1 X153.23 Y186.75 E210.97770
G1 X153.79 Y186.75 E210.99382
G1 X154.36 Y186.75 E211.00991
G1 X154.93 Y186.75 E211.02603
G1 X155.49 Y186.75 E211.04215
G1 X156.06 Y186.75 E211.05824
G1 X156.62 Y186.75 E211.07433
G1 X157.19 Y186.75 E211.09045
G1 X157.75 Y186.75 E211.10657
G1 X158.32 Y186.75 E211.12266
G1 X158.88 Y186.75 E211.13878
G1 X159.45 Y186.75 E211.15490
G1 X160.02 Y186.75 E211.17099
G1 X160.58 Y186.75 E211.18702
G1 X161.15 Y186.75 E211.20314
G1 X161.71 Y186.75 E211.21926
G1 X162.28 Y186.75 E211.23535
G1 X162.84 Y186.75 E211.25147
G1 X163.41 Y186.75 E211.26759
G1 X163.97 Y186.75 E211.28368
G1 X164.54 Y186.75 E211.29980
G1 X165.11 Y186.75 E211.31591
G1 X165.67 Y186.75 E211.33201
G1 X166.24 Y186.75 E211.34812
G1 X166.80 Y186.75 E211.36422
G1 X167.37 Y186.75 E211.38033
G1 X167.94 Y186.75 E211.39645
G1 X168.50 Y186.75 E211.41254
G1 X169.07 Y186.75 E211.42866
G1 X169.63 Y186.75 E211.44478
G1 X170.20 Y186.75 E211.46087
G1 X170.76 Y186.75 E211.47696
G1 X171.33 Y186.75 E211.49308
G1 X171.89 Y186.75 E211.50920
G1 X172.46 Y186.75 E211.52529
G1 X173.03 Y186.75 E211.54141
G1 X173.59 Y186.75 E211.55753
G1 X174.16 Y186.75 E211.57362
G1 X174.57 Y186.62 E211.59160
G1 F2400 E210.39160
G0 F6000 X149.85 Y187.41
;TYPE:WALL-OUTER
G1 F2400 E211.59160
G1 F5640 X130.25 Y187.41 E212.40647
G1 X130.25 Y117.82 E215.30006
G1 X149.85 Y117.82 E216.11493
G1 X149.85 Y187.41 E219.00852
G0 F6000 X149.59 Y187.27
;TYPE:FILL
G1 F5640 X149.71 Y187.16 E219.01537
G0 F6000 X149.71 Y186.59
G1 F5640 X149.03 Y187.27 E219.05547
G0 F6000 X148.46 Y187.27
G1 F5640 X149.71 Y186.03 E219.12885
G0 F6000 X149.71 Y185.46
G1 F5640 X147.89 Y187.27 E219.23548
G0 F6000 X147.33 Y187.27
G1 F5640 X149.71 Y184.89 E219.37538
G0 F6000 X149.71 Y184.33
G1 F5640 X146.76 Y187.27 E219.54854
G0 F6000 X146.20 Y187.27
G1 F5640 X149.71 Y183.76 E219.75494
G0 F6000 X149.71 Y183.20
G1 F5640 X145.63 Y187.27 E219.99462
G0 F6000 X145.06 Y187.27
G1 F5640 X149.71 Y182.63 E220.26756
G0 F6000 X149.71 Y182.07
G1 F5640 X144.50 Y187.27 E220.57374
G0 F6000 X143.93 Y187.27
G1 F5640 X149.71 Y181.50 E220.91320
G0 F6000 X149.71 Y180.94
G1 F5640 X143.37 Y187.27 E221.28591
G0 F6000 X142.80 Y187.27
G1 F5640 X149.71 Y180.37 E221.69186
G0 F6000 X149.71 Y179.80
G1 F5640 X142.24 Y187.27 E222.13110
G0 F6000 X141.67 Y187.27
G1 F5640 X149.71 Y179.24 E222.60359
G0 F6000 X149.71 Y178.67
G1 F5640 X141.10 Y187.27 E223.10935
G0 F6000 X140.54 Y187.27
G1 F5640 X149.71 Y178.11 E223.64837
G0 F6000 X149.71 Y177.54
G1 F5640 X139.97 Y187.27 E224.22063
G0 F6000 X139.41 Y187.27
G1 F5640 X149.71 Y176.97 E224.82617
G0 F6000 X149.71 Y176.41
G1 F5640 X138.84 Y187.27 E225.46496
G0 F6000 X138.28 Y187.27
G1 F5640 X149.71 Y175.84 E226.13700
G0 F6000 X149.71 Y175.28
G1 F5640 X137.71 Y187.27 E226.84232
G0 F6000 X137.15 Y187.27
G1 F5640 X149.71 Y174.71 E227.58089
G0 F6000 X149.71 Y174.15
G1 F5640 X136.58 Y187.27 E228.35274
G0 F6000 X136.01 Y187.27
G1 F5640 X149.71 Y173.58 E229.15783
G0 F6000 X149.71 Y173.01
G1 F5640 X135.45 Y187.27 E229.99618
G0 F6000 X134.88 Y187.27
G1 F5640 X149.71 Y172.45 E230.86780
G0 F6000 X149.71 Y171.88
G1 F5640 X134.32 Y187.27 E231.77267
G0 F6000 X133.75 Y187.27
G1 F5640 X149.71 Y171.32 E232.71080
G0 F6000 X149.71 Y170.75
G1 F5640 X133.19 Y187.27 E233.68220
G0 F6000 X132.62 Y187.27
G1 F5640 X149.71 Y170.19 E234.68685
G0 F6000 X149.71 Y169.62
G1 F5640 X132.06 Y187.27 E235.72475
G0 F6000 X131.49 Y187.27
G1 F5640 X149.71 Y169.06 E236.79592
G0 F6000 X149.71 Y168.49
G1 F5640 X130.92 Y187.27 E237.90035
G0 F6000 X130.39 Y187.24
G1 F5640 X149.71 Y167.92 E239.03629
G0 F6000 X149.71 Y167.36
G1 F5640 X130.39 Y186.68 E240.17226
G0 F6000 X130.39 Y186.11
G1 F5640 X149.71 Y166.79 E241.30821
G0 F6000 X149.71 Y166.23
G1 F5640 X130.39 Y185.55 E242.44415
G0 F6000 X130.39 Y184.98
G1 F5640 X149.71 Y165.66 E243.58009
G0 F6000 X149.71 Y165.09
G1 F5640 X130.39 Y184.42 E244.71606
G0 F6000 X130.39 Y183.85
G1 F5640 X149.71 Y164.53 E245.85200
G0 F6000 X149.71 Y163.96
G1 F5640 X130.39 Y183.28 E246.98795
G0 F6000 X130.39 Y182.72
G1 F5640 X149.71 Y163.40 E248.12392
G0 F6000 X149.71 Y162.83
G1 F5640 X130.39 Y182.15 E249.25986
G0 F6000 X130.39 Y181.59
G1 F5640 X149.71 Y162.27 E250.39580
G0 F6000 X149.71 Y161.70
G1 F5640 X130.39 Y181.02 E251.53177
G0 F6000 X130.39 Y180.46
G1 F5640 X149.71 Y161.14 E252.66771
G0 F6000 X149.71 Y160.57
G1 F5640 X130.39 Y179.89 E253.80366
G0 F6000 X130.39 Y179.32
G1 F5640 X149.71 Y160.00 E254.93963
G0 F6000 X149.71 Y159.44
G1 F5640 X130.39 Y178.76 E256.07557
G0 F6000 X130.39 Y178.19
G1 F5640 X149.71 Y158.87 E257.21151
G0 F6000 X149.71 Y158.31
G1 F5640 X130.39 Y177.63 E258.34748
G0 F6000 X130.39 Y177.06
G1 F5640 X149.71 Y157.74 E259.48342
G0 F6000 X149.71 Y157.18
G1 F5640 X130.39 Y176.50 E260.61937
G0 F6000 X130.39 Y175.93
G1 F5640 X149.71 Y156.61 E261.75531
G0 F6000 X149.71 Y156.04
G1 F5640 X130.39 Y175.37 E262.89125
G0 F6000 X130.39 Y174.80
G1 F5640 X149.71 Y155.48 E264.02719
G0 F6000 X149.71 Y154.91
G1 F5640 X130.39 Y174.23 E265.16313
G0 F6000 X130.39 Y173.67
G1 F5640 X149.71 Y154.35 E266.29911
G0 F6000 X149.71 Y153.78
G1 F5640 X130.39 Y173.10 E267.43505
G0 F6000 X130.39 Y172.54
G1 F5640 X149.71 Y153.22 E268.57099
G0 F6000 X149.71 Y152.65
G1 F5640 X130.39 Y171.97 E269.70696
G0 F6000 X130.39 Y171.41
G1 F5640 X149.71 Y152.09 E270.84290
G0 F6000 X149.71 Y151.52
G1 F5640 X130.39 Y170.84 E271.97884
G0 F6000 X130.39 Y170.27
G1 F5640 X149.71 Y150.95 E273.11482
G0 F6000 X149.71 Y150.39
G1 F5640 X130.39 Y169.71 E274.25076
G0 F6000 X130.39 Y169.14
G1 F5640 X149.71 Y149.82 E275.38670
G0 F6000 X149.71 Y149.26
G1 F5640 X130.39 Y168.58 E276.52267
G0 F6000 X130.39 Y168.01
G1 F5640 X149.71 Y148.69 E277.65861
G0 F6000 X149.71 Y148.12
G1 F5640 X130.39 Y167.44 E278.79456
G0 F6000 X130.39 Y166.88
G1 F5640 X149.71 Y147.56 E279.93053
G0 F6000 X149.71 Y146.99
G1 F5640 X130.39 Y166.31 E281.06647
G0 F6000 X130.39 Y165.75
G1 F5640 X149.71 Y146.43 E282.20241
G0 F6000 X149.71 Y145.86
G1 F5640 X130.39 Y165.18 E283.33835
G0 F6000 X130.39 Y164.62
G1 F5640 X149.71 Y145.30 E284.47429
G0 F6000 X149.71 Y144.73
G1 F5640 X130.39 Y164.05 E285.61024
G0 F6000 X130.39 Y163.49
G1 F5640 X149.71 Y144.16 E286.74618
G0 F6000 X149.71 Y143.60
G1 F5640 X130.39 Y162.92 E287.88215
G0 F6000 X130.39 Y162.35
G1 F5640 X149.71 Y143.03 E289.01809
G0 F6000 X149.71 Y142.47
G1 F5640 X130.39 Y161.79 E290.15403
G0 F6000 X130.39 Y161.22
G1 F5640 X149.71 Y141.90 E291.29000
G0 F6000 X149.71 Y141.34
G1 F5640 X130.39 Y160.66 E292.42595
G0 F6000 X130.39 Y160.09
G1 F5640 X149.71 Y140.77 E293.56189
G0 F6000 X149.71 Y140.21
G1 F5640 X130.39 Y159.53 E294.69786
G0 F6000 X130.39 Y158.96
G1 F5640 X149.71 Y139.64 E295.83380
G0 F6000 X149.71 Y139.07
G1 F5640 X130.39 Y158.39 E296.96974
G0 F6000 X130.39 Y157.83
G1 F5640 X149.71 Y138.51 E298.10572
G0 F6000 X149.71 Y137.94
G1 F5640 X130.39 Y157.26 E299.24166
G0 F6000 X130.39 Y156.70
G1 F5640 X149.71 Y137.38 E300.37760
G0 F6000 X149.71 Y136.81
G1 F5640 X130.39 Y156.13 E301.51357
G0 F6000 X130.39 Y155.57
G1 F5640 X149.71 Y136.25 E302.64951
G0 F6000 X149.71 Y135.68
G1 F5640 X130.39 Y155.00 E303.78545
G0 F6000 X130.39 Y154.43
G1 F5640 X149.71 Y135.11 E304.92140
G0 F6000 X149.71 Y134.55
G1 F5640 X130.39 Y153.87 E306.05737
G0 F6000 X130.39 Y153.30
G1 F5640 X149.71 Y133.98 E307.19331
G0 F6000 X149.71 Y133.42
G1 F5640 X130.39 Y152.74 E308.32925
G0 F6000 X130.39 Y152.17
G1 F5640 X149.71 Y132.85 E309.46522
G0 F6000 X149.71 Y132.29
G1 F5640 X130.39 Y151.61 E310.60117
G0 F6000 X130.39 Y151.04
G1 F5640 X149.71 Y131.72 E311.73711
G0 F6000 X149.71 Y131.15
G1 F5640 X130.39 Y150.47 E312.87308
G0 F6000 X130.39 Y149.91
G1 F5640 X149.71 Y130.59 E314.00902
G0 F6000 X149.71 Y130.02
G1 F5640 X130.39 Y149.34 E315.14496
G0 F6000 X130.39 Y148.78
G1 F5640 X149.71 Y129.46 E316.28093
G0 F6000 X149.71 Y128.89
G1 F5640 X130.39 Y148.21 E317.41688
G0 F6000 X130.39 Y147.65
G1 F5640 X149.71 Y128.33 E318.55282
G0 F6000 X149.71 Y127.76
G1 F5640 X130.39 Y147.08 E319.68879
G0 F6000 X130.39 Y146.51
G1 F5640 X149.71 Y127.19 E320.82473
G0 F6000 X149.71 Y126.63
G1 F5640 X130.39 Y145.95 E321.96067
G0 F6000 X130.39 Y145.38
G1 F5640 X149.71 Y126.06 E323.09661
G0 F6000 X149.71 Y125.50
G1 F5640 X130.39 Y144.82 E324.23256
G0 F6000 X130.39 Y144.25
G1 F5640 X149.71 Y124.93 E325.36850
G0 F6000 X149.71 Y124.37
G1 F5640 X130.39 Y143.69 E326.50444
G0 F6000 X130.39 Y143.12
G1 F5640 X149.71 Y123.80 E327.64041
G0 F6000 X149.71 Y123.23
G1 F5640 X130.39 Y142.56 E328.77635
G0 F6000 X130.39 Y141.99
G1 F5640 X149.71 Y122.67 E329.91230
G0 F6000 X149.71 Y122.10
G1 F5640 X130.39 Y141.42 E331.04827
G0 F6000 X130.39 Y140.86
G1 F5640 X149.71 Y121.54 E332.18421
G0 F6000 X149.71 Y120.97
G1 F5640 X130.39 Y140.29 E333.32015
G0 F6000 X130.39 Y139.73
G1 F5640 X149.71 Y120.41 E334.45612
G0 F6000 X149.71 Y119.84
G1 F5640 X130.39 Y139.16 E335.59206
G0 F6000 X130.39 Y138.59
G1 F5640 X149.71 Y119.28 E336.72801
G0 F6000 X149.71 Y118.71
G1 F5640 X130.39 Y138.03 E337.86398
G0 F6000 X130.39 Y137.46
G1 F5640 X149.71 Y118.14 E338.99992
G0 F6000 X149.33 Y117.96
G1 F5640 X130.39 Y136.90 E340.11367
G0 F6000 X130.39 Y136.33
G1 F5640 X148.76 Y117.96 E341.19416
G0 F6000 X148.20 Y117.96
G1 F5640 X130.39 Y135.77 E342.24138
G0 F6000 X130.39 Y135.20
G1 F5640 X147.63 Y117.96 E343.25535
G0 F6000 X147.07 Y117.96
G1 F5640 X130.39 Y134.63 E344.23604
G0 F6000 X130.39 Y134.07
G1 F5640 X146.50 Y117.96 E345.18348
G0 F6000 X145.94 Y117.96
G1 F5640 X130.39 Y133.50 E346.09768
G0 F6000 X130.39 Y132.94
G1 F5640 X145.37 Y117.96 E346.97859
G0 F6000 X144.80 Y117.96
G1 F5640 X130.39 Y132.37 E347.82625
G0 F6000 X130.39 Y131.81
G1 F5640 X144.24 Y117.96 E348.64067
G0 F6000 X143.67 Y117.96
G1 F5640 X130.39 Y131.24 E349.42181
G0 F6000 X130.39 Y130.68
G1 F5640 X143.11 Y117.96 E350.16969
G0 F6000 X142.54 Y117.96
G1 F5640 X130.39 Y130.11 E350.88433
G0 F6000 X130.39 Y129.54
G1 F5640 X141.98 Y117.96 E351.56569
G0 F6000 X141.41 Y117.96
G1 F5640 X130.39 Y128.98 E352.21380
G0 F6000 X130.39 Y128.41
G1 F5640 X140.84 Y117.96 E352.82866
G0 F6000 X140.28 Y117.96
G1 F5640 X130.39 Y127.85 E353.41024
G0 F6000 X130.39 Y127.28
G1 F5640 X139.71 Y117.96 E353.95858
G0 F6000 X139.15 Y117.96
G1 F5640 X130.39 Y126.72 E354.47366
G0 F6000 X130.39 Y126.15
G1 F5640 X138.58 Y117.96 E354.95547
G0 F6000 X138.02 Y117.96
G1 F5640 X130.39 Y125.58 E355.40399
G0 F6000 X130.39 Y125.02
G1 F5640 X137.45 Y117.96 E355.81927
G0 F6000 X136.88 Y117.96
G1 F5640 X130.39 Y124.45 E356.20130
G0 F6000 X130.39 Y123.89
G1 F5640 X136.32 Y117.96 E356.55005
G0 F6000 X135.75 Y117.96
G1 F5640 X130.39 Y123.32 E356.86555
G0 F6000 X130.39 Y122.76
G1 F5640 X135.19 Y117.96 E357.14780
G0 F6000 X134.62 Y117.96
G1 F5640 X130.39 Y122.19 E357.39677
G0 F6000 X130.39 Y121.62
G1 F5640 X134.06 Y117.96 E357.61249
G0 F6000 X133.49 Y117.96
G1 F5640 X130.39 Y121.06 E357.79497
G0 F6000 X130.39 Y120.49
G1 F5640 X132.93 Y117.96 E357.94416
G0 F6000 X132.36 Y117.96
G1 F5640 X130.39 Y119.93 E358.06011
G0 F6000 X130.39 Y119.36
G1 F5640 X131.79 Y117.96 E358.14281
G0 F6000 X131.23 Y117.96
G1 F5640 X130.39 Y118.80 E358.19222
G0 F6000 X130.39 Y118.23
G1 F5640 X130.66 Y117.96 E358.20839
G0 F6000 X131.25 Y118.82
;LAYER:4
G0 X130.25 Y117.82 Z2.00
;TYPE:WALL-OUTER
G1 F6900 X149.85 Y117.82 E359.02327
G1 X149.85 Y187.41 E361.91686
G1 X130.25 Y187.41 E362.73173
G1 X130.25 Y117.82 E365.62532
G0 F6000 X130.39 Y118.22
;TYPE:FILL
G1 F6900 X149.71 Y137.54 E366.76132
G0 F6000 X149.71 Y136.98
G1 F6900 X130.68 Y117.96 E367.87986
G0 F6000 X131.25 Y117.96
G1 F6900 X149.71 Y136.41 E368.96512
G0 F6000 X149.71 Y135.85
G1 F6900 X131.81 Y117.96 E370.01710
G0 F6000 X132.38 Y117.96
G1 F6900 X149.71 Y135.28 E371.03583
G0 F6000 X149.71 Y134.72
G1 F6900 X132.95 Y117.96 E372.02131
G0 F6000 X133.51 Y117.96
G1 F6900 X149.71 Y134.15 E372.97352
G0 F6000 X149.71 Y133.59
G1 F6900 X134.08 Y117.96 E373.89244
G0 F6000 X134.64 Y117.96
G1 F6900 X149.71 Y133.02 E374.77815
G0 F6000 X149.71 Y132.45
G1 F6900 X135.21 Y117.96 E375.63058
G0 F6000 X135.78 Y117.96
G1 F6900 X149.71 Y131.89 E376.44972
G0 F6000 X149.71 Y131.32
G1 F6900 X136.34 Y117.96 E377.23565
G0 F6000 X136.91 Y117.96
G1 F6900 X149.71 Y130.76 E377.98830
G0 F6000 X149.71 Y130.19
G1 F6900 X137.47 Y117.96 E378.70767
G0 F6000 X138.04 Y117.96
G1 F6900 X149.71 Y129.63 E379.39382
G0 F6000 X149.71 Y129.06
G1 F6900 X138.60 Y117.96 E380.04670
G0 F6000 X139.17 Y117.96
G1 F6900 X149.71 Y128.49 E380.66629
G0 F6000 X149.71 Y127.93
G1 F6900 X139.73 Y117.96 E381.25266
G0 F6000 X140.30 Y117.96
G1 F6900 X149.71 Y127.36 E381.80576
G0 F6000 X149.71 Y126.80
G1 F6900 X140.87 Y117.96 E382.32558
G0 F6000 X141.43 Y117.96
G1 F6900 X149.71 Y126.23 E382.81215
G0 F6000 X149.71 Y125.67
G1 F6900 X142.00 Y117.96 E383.26546
G0 F6000 X142.56 Y117.96
G1 F6900 X149.71 Y125.10 E383.68550
G0 F6000 X149.71 Y124.53
G1 F6900 X143.13 Y117.96 E384.07226
G0 F6000 X143.69 Y117.96
G1 F6900 X149.71 Y123.97 E384.42581
G0 F6000 X149.71 Y123.40
G1 F6900 X144.26 Y117.96 E384.74607
G0 F6000 X144.83 Y117.96
G1 F6900 X149.71 Y122.84 E385.03305
G0 F6000 X149.71 Y122.27
G1 F6900 X145.39 Y117.96 E385.28682
G0 F6000 X145.96 Y117.96
G1 F6900 X149.71 Y121.71 E385.50730
G0 F6000 X149.71 Y121.14
G1 F6900 X146.52 Y117.96 E385.69451
G0 F6000 X147.09 Y117.96
G1 F6900 X149.71 Y120.58 E385.84850
G0 F6000 X149.71 Y120.01
G1 F6900 X147.65 Y117.96 E385.96921
G0 F6000 X148.22 Y117.96
G1 F6900 X149.71 Y119.44 E386.05664
G0 F6000 X149.71 Y118.88
G1 F6900 X148.78 Y117.96 E386.11085
G0 F6000 X149.35 Y117.96
G1 F6900 X149.71 Y118.31 E386.13178
G0 F6000 X149.55 Y118.31
G0 X130.55 Y118.79
G0 X130.39 Y118.79
G1 F6900 X149.71 Y138.11 E387.26778
G0 F6000 X149.71 Y138.68
G1 F6900 X130.39 Y119.36 E388.40378
G0 F6000 X130.39 Y119.92
G1 F6900 X149.71 Y139.24 E389.53978
G0 F6000 X149.71 Y139.81
G1 F6900 X130.39 Y120.49 E390.67578
G0 F6000 X130.39 Y121.05
G1 F6900 X149.71 Y140.37 E391.81178
G0 F6000 X149.71 Y140.94
G1 F6900 X130.39 Y121.62 E392.94778
G0 F6000 X130.39 Y122.18
G1 F6900 X149.71 Y141.50 E394.08378
G0 F6000 X149.71 Y142.07
G1 F6900 X130.39 Y122.75 E395.21978
G0 F6000 X130.39 Y123.31
G1 F6900 X149.71 Y142.64 E396.35578
G0 F6000 X149.71 Y143.20
G1 F6900 X130.39 Y123.88 E397.49178
G0 F6000 X130.39 Y124.45
G1 F6900 X149.71 Y143.77 E398.62778
G0 F6000 X149.71 Y144.33
G1 F6900 X130.39 Y125.01 E399.76379
G0 F6000 X130.39 Y125.58
G1 F6900 X149.71 Y144.90 E400.89979
G0 F6000 X149.71 Y145.47
G1 F6900 X130.39 Y126.14 E402.03579
G0 F6000 X130.39 Y126.71
G1 F6900 X149.71 Y146.03 E403.17179
G0 F6000 X149.71 Y146.60
G1 F6900 X130.39 Y127.28 E404.30779
G0 F6000 X130.39 Y127.84
G1 F6900 X149.71 Y147.16 E405.44379
G0 F6000 X149.71 Y147.73
G1 F6900 X130.39 Y128.41 E406.57979
G0 F6000 X130.39 Y128.97
G1 F6900 X149.71 Y148.29 E407.71579
G0 F6000 X149.71 Y148.86
G1 F6900 X130.39 Y129.54 E408.85179
G0 F6000 X130.39 Y130.10
G1 F6900 X149.71 Y149.43 E409.98779
G0 F6000 X149.71 Y149.99
G1 F6900 X130.39 Y130.67 E411.12379
G0 F6000 X130.39 Y131.24
G1 F6900 X149.71 Y150.56 E412.25979
G0 F6000 X149.71 Y151.12
G1 F6900 X130.39 Y131.80 E413.39579
G0 F6000 X130.39 Y132.37
G1 F6900 X149.71 Y151.69 E414.53180
G0 F6000 X149.71 Y152.25
G1 F6900 X130.39 Y132.93 E415.66780
G0 F6000 X130.39 Y133.50
G1 F6900 X149.71 Y152.82 E416.80380
G0 F6000 X149.71 Y153.38
G1 F6900 X130.39 Y134.06 E417.93980
G0 F6000 X130.39 Y134.63
G1 F6900 X149.71 Y153.95 E419.07580
G0 F6000 X149.71 Y154.52
G1 F6900 X130.39 Y135.19 E420.21180
G0 F6000 X130.39 Y135.76
G1 F6900 X149.71 Y155.08 E421.34780
G0 F6000 X149.71 Y155.65
G1 F6900 X130.39 Y136.33 E422.48380
G0 F6000 X130.39 Y136.89
G1 F6900 X149.71 Y156.21 E423.61980
G0 F6000 X149.71 Y156.78
G1 F6900 X130.39 Y137.46 E424.75580
G0 F6000 X130.39 Y138.02
G1 F6900 X149.71 Y157.34 E425.89180
G0 F6000 X149.71 Y157.91
G1 F6900 X130.39 Y138.59 E427.02780
G0 F6000 X130.39 Y139.16
G1 F6900 X149.71 Y158.48 E428.16380
G0 F6000 X149.71 Y159.04
G1 F6900 X130.39 Y139.72 E429.29981
G0 F6000 X130.39 Y140.29
G1 F6900 X149.71 Y159.61 E430.43581
G0 F6000 X149.71 Y160.17
G1 F6900 X130.39 Y140.85 E431.57181
G0 F6000 X130.39 Y141.42
G1 F6900 X149.71 Y160.74 E432.70781
G0 F6000 X149.71 Y161.30
G1 F6900 X130.39 Y141.98 E433.84381
G0 F6000 X130.39 Y142.55
G1 F6900 X149.71 Y161.87 E434.97981
G0 F6000 X149.71 Y162.44
G1 F6900 X130.39 Y143.11 E436.11581
G0 F6000 X130.39 Y143.68
G1 F6900 X149.71 Y163.00 E437.25181
G0 F6000 X149.71 Y163.57
G1 F6900 X130.39 Y144.25 E438.38781
G0 F6000 X130.39 Y144.81
G1 F6900 X149.71 Y164.13 E439.52381
G0 F6000 X149.71 Y164.70
G1 F6900 X130.39 Y145.38 E440.65981
G0 F6000 X130.39 Y145.94
G1 F6900 X149.71 Y165.26 E441.79581
G0 F6000 X149.71 Y165.83
G1 F6900 X130.39 Y146.51 E442.93181
G0 F6000 X130.39 Y147.07
G1 F6900 X149.71 Y166.40 E444.06782
G0 F6000 X149.71 Y166.96
G1 F6900 X130.39 Y147.64 E445.20382
G0 F6000 X130.39 Y148.21
G1 F6900 X149.71 Y167.53 E446.33982
G0 F6000 X149.71 Y168.09
G1 F6900 X130.39 Y148.77 E447.47582
G0 F6000 X130.39 Y149.34
G1 F6900 X149.71 Y168.66 E448.61182
G0 F6000 X149.71 Y169.22
G1 F6900 X130.39 Y149.90 E449.74782
G0 F6000 X130.39 Y150.47
G1 F6900 X149.71 Y169.79 E450.88382
G0 F6000 X149.71 Y170.35
G1 F6900 X130.39 Y151.03 E452.01982
G0 F6000 X130.39 Y151.60
G1 F6900 X149.71 Y170.92 E453.15582
G0 F6000 X149.71 Y171.49
G1 F6900 X130.39 Y152.16 E454.29182
G0 F6000 X130.39 Y152.73
G1 F6900 X149.71 Y172.05 E455.42782
G0 F6000 X149.71 Y172.62
G1 F6900 X130.39 Y153.30 E456.56382
G0 F6000 X130.39 Y153.86
G1 F6900 X149.71 Y173.18 E457.69982
G0 F6000 X149.71 Y173.75
G1 F6900 X130.39 Y154.43 E458.83582
G0 F6000 X130.39 Y154.99
G1 F6900 X149.71 Y174.31 E459.97183
G0 F6000 X149.71 Y174.88
G1 F6900 X130.39 Y155.56 E461.10783
G0 F6000 X130.39 Y156.12
G1 F6900 X149.71 Y175.45 E462.24383
G0 F6000 X149.71 Y176.01
G1 F6900 X130.39 Y156.69 E463.37983
G0 F6000 X130.39 Y157.26
G1 F6900 X149.71 Y176.58 E464.51580
G0 F6000 X149.71 Y177.14
G1 F6900 X130.39 Y157.82 E465.65180
G0 F6000 X130.39 Y158.39
G1 F6900 X149.71 Y177.71 E466.78780
G0 F6000 X149.71 Y178.28
G1 F6900 X130.39 Y158.95 E467.92380
G0 F6000 X130.39 Y159.52
G1 F6900 X149.71 Y178.84 E469.05980
G0 F6000 X149.71 Y179.41
G1 F6900 X130.39 Y160.09 E470.19580
G0 F6000 X130.39 Y160.65
G1 F6900 X149.71 Y179.97 E471.33180
G0 F6000 X149.71 Y180.54
G1 F6900 X130.39 Y161.22 E472.46780
G0 F6000 X130.39 Y161.78
G1 F6900 X149.71 Y181.10 E473.60381
G0 F6000 X149.71 Y181.67
G1 F6900 X130.39 Y162.35 E474.73981
G0 F6000 X130.39 Y162.91
G1 F6900 X149.71 Y182.23 E475.87581
G0 F6000 X149.71 Y182.80
G1 F6900 X130.39 Y163.48 E477.01181
G0 F6000 X130.39 Y164.04
G1 F6900 X149.71 Y183.37 E478.14781
G0 F6000 X149.71 Y183.93
G1 F6900 X130.39 Y164.61 E479.28381
G0 F6000 X130.39 Y165.18
G1 F6900 X149.71 Y184.50 E480.41981
G0 F6000 X149.71 Y185.06
G1 F6900 X130.39 Y165.74 E481.55581
G0 F6000 X130.39 Y166.31
G1 F6900 X149.71 Y185.63 E482.69181
G0 F6000 X149.71 Y186.19
G1 F6900 X130.39 Y166.87 E483.82781
G0 F6000 X130.39 Y167.44
G1 F6900 X149.71 Y186.76 E484.96381
G0 F6000 X149.66 Y187.27
G1 F6900 X130.39 Y168.00 E486.09673
G0 F6000 X130.39 Y168.57
G1 F6900 X149.09 Y187.27 E487.19639
G0 F6000 X148.52 Y187.27
G1 F6900 X130.39 Y169.14 E488.26281
G0 F6000 X130.39 Y169.70
G1 F6900 X147.96 Y187.27 E489.29594
G0 F6000 X147.39 Y187.27
G1 F6900 X130.39 Y170.27 E490.29583
G0 F6000 X130.39 Y170.83
G1 F6900 X146.83 Y187.27 E491.26247
G0 F6000 X146.26 Y187.27
G1 F6900 X130.39 Y171.40 E492.19583
G0 F6000 X130.39 Y171.96
G1 F6900 X145.69 Y187.27 E493.09594
G0 F6000 X145.13 Y187.27
G1 F6900 X130.39 Y172.53 E493.96280
G0 F6000 X130.39 Y173.10
G1 F6900 X144.56 Y187.27 E494.79638
G0 F6000 X144.00 Y187.27
G1 F6900 X130.39 Y173.66 E495.59672
G0 F6000 X130.39 Y174.23
G1 F6900 X143.43 Y187.27 E496.36380
G0 F6000 X142.87 Y187.27
G1 F6900 X130.39 Y174.79 E497.09761
G0 F6000 X130.39 Y175.36
G1 F6900 X142.30 Y187.27 E497.79816
G0 F6000 X141.74 Y187.27
G1 F6900 X130.39 Y175.92 E498.46547
G0 F6000 X130.39 Y176.49
G1 F6900 X141.17 Y187.27 E499.09950
G0 F6000 X140.60 Y187.27
G1 F6900 X130.39 Y177.06 E499.70025
G0 F6000 X130.39 Y177.62
G1 F6900 X140.04 Y187.27 E500.26775
G0 F6000 X139.47 Y187.27
G1 F6900 X130.39 Y178.19 E500.80200
G0 F6000 X130.39 Y178.75
G1 F6900 X138.91 Y187.27 E501.30297
G0 F6000 X138.34 Y187.27
G1 F6900 X130.39 Y179.32 E501.77070
G0 F6000 X130.39 Y179.88
G1 F6900 X137.78 Y187.27 E502.20517
G0 F6000 X137.21 Y187.27
G1 F6900 X130.39 Y180.45 E502.60637
G0 F6000 X130.39 Y181.01
G1 F6900 X136.64 Y187.27 E502.97431
G0 F6000 X136.08 Y187.27
G1 F6900 X130.39 Y181.58 E503.30901
G0 F6000 X130.39 Y182.15
G1 F6900 X135.51 Y187.27 E503.61043
G0 F6000 X134.95 Y187.27
G1 F6900 X130.39 Y182.71 E503.87860
G0 F6000 X130.39 Y183.28
G1 F6900 X134.38 Y187.27 E504.11352
G0 F6000 X133.82 Y187.27
G1 F6900 X130.39 Y183.84 E504.31516
G0 F6000 X130.39 Y184.41
G1 F6900 X133.25 Y187.27 E504.48355
G0 F6000 X132.69 Y187.27
G1 F6900 X130.39 Y184.97 E504.61870
G0 F6000 X130.39 Y185.54
G1 F6900 X132.12 Y187.27 E504.72056
G0 F6000 X131.55 Y187.27
G1 F6900 X130.39 Y186.11 E504.78918
G0 F6000 X130.39 Y186.67
G1 F6900 X130.99 Y187.27 E504.82451
G0 F6000 X131.25 Y186.41
G1 F2400 E503.62451
G0 F6000 X150.83 Y118.88
;TYPE:WALL-OUTER
G1 F2400 E504.82451
G1 F6900 X150.83 Y118.33 E504.84738
G1 X173.96 Y118.33 E505.80901
G1 X174.69 Y118.34 E505.83936
G1 X174.69 Y118.38 E505.84086
G1 X174.69 Y118.39 E505.84128
G1 X174.69 Y118.44 E505.84369
G1 X174.69 Y118.45 E505.84411
G1 X174.69 Y118.51 E505.84639
G1 X174.69 Y118.52 E505.84681
G1 X174.69 Y118.58 E505.84922
G1 X174.69 Y118.59 E505.84964
G1 X174.69 Y118.64 E505.85193
G1 X174.69 Y118.65 E505.85235
G1 X174.69 Y118.71 E505.85476
G1 X174.69 Y118.72 E505.85518
G1 X174.69 Y118.77 E505.85746
G1 X174.69 Y118.78 E505.85788
G1 X174.69 Y118.84 E505.86029
G1 X174.69 Y118.85 E505.86071
G1 X174.69 Y118.89 E505.86225
G1 X151.62 Y118.89 E506.82147
G1 X150.83 Y118.88 E506.85428
G0 F6000 X151.00 Y118.47
;TYPE:FILL
G1 F6900 X151.42 Y118.61 E506.87016
G1 X151.98 Y118.61 E506.88605
G1 X152.55 Y118.61 E506.90193
G1 X153.11 Y118.61 E506.91785
G1 X153.68 Y118.61 E506.93373
G1 X154.25 Y118.61 E506.94961
G1 X154.81 Y118.61 E506.96550
G1 X155.38 Y118.61 E506.98138
G1 X155.94 Y118.61 E506.99724
G1 X156.51 Y118.61 E507.01312
G1 X157.07 Y118.61 E507.02900
G1 X157.64 Y118.61 E507.04489
G1 X158.21 Y118.61 E507.06077
G1 X158.77 Y118.61 E507.07663
G1 X159.34 Y118.61 E507.09251
G1 X159.90 Y118.61 E507.10840
G1 X160.47 Y118.61 E507.12422
G1 X161.04 Y118.61 E507.14005
G1 X161.60 Y118.61 E507.15587
G1 X162.17 Y118.61 E507.17173
G1 X162.73 Y118.61 E507.18758
G1 X163.30 Y118.61 E507.20343
G1 X163.87 Y118.61 E507.21932
G1 X164.43 Y118.61 E507.23520
G1 X165.00 Y118.61 E507.25106
G1 X165.56 Y118.61 E507.26697
G1 X166.13 Y118.61 E507.28285
G1 X166.69 Y118.61 E507.29877
G1 X167.26 Y118.61 E507.31465
G1 X167.83 Y118.61 E507.33054
G1 X168.39 Y118.61 E507.34645
G1 X168.96 Y118.61 E507.36236
G1 X169.52 Y118.61 E507.37816
G1 X170.09 Y118.61 E507.39398
G1 X170.66 Y118.61 E507.40981
G1 X171.22 Y118.61 E507.42561
G1 X171.79 Y118.61 E507.44152
G1 X172.35 Y118.61 E507.45737
G1 X172.92 Y118.61 E507.47326
G1 X173.48 Y118.61 E507.48914
G1 X174.05 Y118.61 E507.50503
G1 X174.47 Y118.75 E507.52330
G1 F2400 E506.32330
G0 F6000 X174.69 Y128.34
;TYPE:WALL-OUTER
G1 F2400 E507.52330
G1 F6900 X174.69 Y128.38 E507.52480
G1 X174.69 Y128.38 E507.52522
G1 X174.69 Y128.44 E507.52763
G1 X174.69 Y128.45 E507.52804
G1 X174.69 Y128.51 E507.53033
G1 X174.69 Y128.52 E507.53075
G1 X174.69 Y128.58 E507.53316
G1 X174.69 Y128.59 E507.53358
G1 X174.69 Y128.64 E507.53587
G1 X174.69 Y128.65 E507.53628
G1 X174.69 Y128.71 E507.53870
G1 X174.69 Y128.72 E507.53911
G1 X174.69 Y128.77 E507.54140
G1 X174.69 Y128.78 E507.54182
G1 X174.69 Y128.84 E507.54423
G1 X174.69 Y128.85 E507.54465
G1 X174.69 Y128.89 E507.54619
G1 X151.62 Y128.89 E508.50541
G1 X150.83 Y128.88 E508.53821
G1 X150.83 Y128.33 E508.56108
G1 X173.96 Y128.33 E509.52271
G1 X174.69 Y128.34 E509.55306
G0 F6000 X174.29 Y128.75
;TYPE:FILL
G1 F6900 X173.87 Y128.61 E509.56900
G1 X173.30 Y128.61 E509.58488
G1 X172.74 Y128.61 E509.60074
G1 X172.17 Y128.61 E509.61662
G1 X171.60 Y128.61 E509.63251
G1 X171.04 Y128.61 E509.64833
G1 X170.47 Y128.61 E509.66416
G1 X169.91 Y128.61 E509.68001
G1 X169.34 Y128.61 E509.69584
G1 X168.78 Y128.61 E509.71166
G1 X168.21 Y128.61 E509.72749
G1 X167.64 Y128.61 E509.74337
G1 X167.08 Y128.61 E509.75925
G1 X166.51 Y128.61 E509.77511
G1 X165.95 Y128.61 E509.79099
G1 X165.38 Y128.61 E509.80688
G1 X164.81 Y128.61 E509.82276
G1 X164.25 Y128.61 E509.83864
G1 X163.68 Y128.61 E509.85456
G1 X163.12 Y128.61 E509.87044
G1 X162.55 Y128.61 E509.88639
G1 X161.99 Y128.61 E509.90227
G1 X161.42 Y128.61 E509.91815
G1 X160.85 Y128.61 E509.93404
G1 X160.29 Y128.61 E509.94989
G1 X159.72 Y128.61 E509.96578
G1 X159.16 Y128.61 E509.98160
G1 X158.59 Y128.61 E509.99748
G1 X158.02 Y128.61 E510.01337
G1 X157.46 Y128.61 E510.02922
G1 X156.89 Y128.61 E510.04511
G1 X156.33 Y128.61 E510.06099
G1 X155.76 Y128.61 E510.07688
G1 X155.19 Y128.61 E510.09276
G1 X154.63 Y128.61 E510.10867
G1 X154.06 Y128.61 E510.12456
G1 X153.50 Y128.61 E510.14047
G1 X152.93 Y128.61 E510.15633
G1 X152.37 Y128.61 E510.17221
G1 X151.80 Y128.61 E510.18809
G1 X151.24 Y128.61 E510.20395
G1 X150.97 Y128.63 E510.21491
G1 F2400 E509.01491
G0 F6000 X150.83 Y138.33
;TYPE:WALL-OUTER
G1 F2400 E510.21491
G1 F6900 X173.96 Y138.33 E511.17655
G1 X174.69 Y138.34 E511.20690
G1 X174.69 Y138.38 E511.20840
G1 X174.69 Y138.38 E511.20881
G1 X174.69 Y138.44 E511.21123
G1 X174.69 Y138.45 E511.21164
G1 X174.69 Y138.51 E511.21393
G1 X174.69 Y138.52 E511.21435
G1 X174.69 Y138.58 E511.21676
G1 X174.69 Y138.59 E511.21718
G1 X174.69 Y138.64 E511.21947
G1 X174.69 Y138.65 E511.21988
G1 X174.69 Y138.71 E511.22230
G1 X174.69 Y138.72 E511.22271
G1 X174.69 Y138.77 E511.22500
G1 X174.69 Y138.78 E511.22542
G1 X174.69 Y138.84 E511.22783
G1 X174.69 Y138.85 E511.22825
G1 X174.69 Y138.89 E511.22979
G1 X151.62 Y138.89 E512.18901
G1 X150.83 Y138.88 E512.22181
G1 X150.83 Y138.33 E512.24468
G0 F6000 X151.20 Y138.47
;TYPE:FILL
G1 F6900 X151.62 Y138.61 E512.26057
G1 X152.18 Y138.61 E512.27645
G1 X152.75 Y138.61 E512.29231
G1 X153.31 Y138.61 E512.30819
G1 X153.88 Y138.61 E512.32407
G1 X154.45 Y138.61 E512.33996
G1 X155.01 Y138.61 E512.35584
G1 X155.58 Y138.61 E512.37170
G1 X156.14 Y138.61 E512.38758
G1 X156.71 Y138.61 E512.40347
G1 X157.28 Y138.61 E512.41935
G1 X157.84 Y138.61 E512.43517
G1 X158.41 Y138.61 E512.45100
G1 X158.97 Y138.61 E512.46685
G1 X159.54 Y138.61 E512.48268
G1 X160.10 Y138.61 E512.49856
G1 X160.67 Y138.61 E512.51445
G1 X161.24 Y138.61 E512.53033
G1 X161.80 Y138.61 E512.54619
G1 X162.37 Y138.61 E512.56207
G1 X162.94 Y138.61 E512.57798
G1 X163.50 Y138.61 E512.59390
G1 X164.07 Y138.61 E512.60978
G1 X164.63 Y138.61 E512.62566
G1 X165.20 Y138.61 E512.64158
G1 X165.76 Y138.61 E512.65746
G1 X166.33 Y138.61 E512.67335
G1 X166.90 Y138.61 E512.68923
G1 X167.46 Y138.61 E512.70511
G1 X168.03 Y138.61 E512.72097
G1 X168.59 Y138.61 E512.73688
G1 X169.16 Y138.61 E512.75274
G1 X169.72 Y138.61 E512.76862
G1 X170.29 Y138.61 E512.78451
G1 X170.86 Y138.61 E512.80039
G1 X171.42 Y138.61 E512.81630
G1 X171.99 Y138.61 E512.83222
G1 X172.55 Y138.61 E512.84813
G1 X173.12 Y138.61 E512.86401
G1 X173.69 Y138.61 E512.87990
G1 X174.25 Y138.61 E512.89575
G1 X174.55 Y138.63 E512.90838
G1 F2400 E511.70838
G0 F6000 X174.69 Y148.34
;TYPE:WALL-OUTER
G1 F2400 E512.90838
G1 F6900 X174.69 Y148.38 E512.90987
G1 X174.69 Y148.38 E512.91029
G1 X174.69 Y148.44 E512.91270
G1 X174.69 Y148.45 E512.91312
G1 X174.69 Y148.51 E512.91541
G1 X174.69 Y148.52 E512.91583
G1 X174.69 Y148.58 E512.91824
G1 X174.69 Y148.59 E512.91866
G1 X174.69 Y148.64 E512.92094
G1 X174.69 Y148.65 E512.92136
G1 X174.69 Y148.71 E512.92377
G1 X174.69 Y148.72 E512.92419
G1 X174.69 Y148.77 E512.92648
G1 X174.69 Y148.78 E512.92690
G1 X174.69 Y148.84 E512.92931
G1 X174.69 Y148.85 E512.92973
G1 X174.69 Y148.89 E512.93126
G1 X151.62 Y148.89 E513.89049
G1 X150.83 Y148.88 E513.92329
G1 X150.83 Y148.33 E513.94616
G1 X173.96 Y148.33 E514.90779
G1 X174.69 Y148.34 E514.93814
G0 F6000 X174.49 Y148.75
;TYPE:FILL
G1 F6900 X174.07 Y148.61 E514.95408
G1 X173.50 Y148.61 E514.96996
G1 X172.94 Y148.61 E514.98587
G1 X172.37 Y148.61 E515.00176
G1 X171.81 Y148.61 E515.01764
G1 X171.24 Y148.61 E515.03353
G1 X170.67 Y148.61 E515.04941
G1 X170.11 Y148.61 E515.06529
G1 X169.54 Y148.61 E515.08115
G1 X168.98 Y148.61 E515.09703
G1 X168.41 Y148.61 E515.11292
G1 X167.84 Y148.61 E515.12874
G1 X167.28 Y148.61 E515.14457
G1 X166.71 Y148.61 E515.16042
G1 X166.15 Y148.61 E515.17625
G1 X165.58 Y148.61 E515.19207
G1 X165.01 Y148.61 E515.20790
G1 X164.45 Y148.61 E515.22378
G1 X163.88 Y148.61 E515.23966
G1 X163.32 Y148.61 E515.25552
G1 X162.75 Y148.61 E515.27140
G1 X162.19 Y148.61 E515.28723
G1 X161.62 Y148.61 E515.30311
G1 X161.05 Y148.61 E515.31900
G1 X160.49 Y148.61 E515.33491
G1 X159.92 Y148.61 E515.35079
G1 X159.36 Y148.61 E515.36662
G1 X158.79 Y148.61 E515.38244
G1 X158.22 Y148.61 E515.39827
G1 X157.66 Y148.61 E515.41409
G1 X157.09 Y148.61 E515.42989
G1 X156.53 Y148.61 E515.44580
G1 X155.96 Y148.61 E515.46166
G1 X155.40 Y148.61 E515.47754
G1 X154.83 Y148.61 E515.49343
G1 X154.26 Y148.61 E515.50928
G1 X153.70 Y148.61 E515.52519
G1 X153.13 Y148.61 E515.54111
G1 X152.57 Y148.61 E515.55699
G1 X152.00 Y148.61 E515.57288
G1 X151.44 Y148.61 E515.58879
G1 X151.02 Y148.47 E515.60705
G1 F2400 E514.40705
G0 F6000 X150.83 Y158.33
;TYPE:WALL-OUTER
G1 F2400 E515.60705
G1 F6900 X173.96 Y158.33 E516.56869
G1 X174.69 Y158.34 E516.59904
G1 X174.69 Y158.37 E516.60054
G1 X174.69 Y158.38 E516.60095
G1 X174.69 Y158.44 E516.60336
G1 X174.69 Y158.45 E516.60378
G1 X174.69 Y158.51 E516.60607
G1 X174.69 Y158.52 E516.60649
G1 X174.69 Y158.57 E516.60890
G1 X174.69 Y158.59 E516.60932
G1 X174.69 Y158.64 E516.61160
G1 X174.69 Y158.65 E516.61202
G1 X174.69 Y158.71 E516.61443
G1 X174.69 Y158.72 E516.61485
G1 X174.69 Y158.77 E516.61714
G1 X174.69 Y158.78 E516.61756
G1 X174.69 Y158.84 E516.61997
G1 X174.69 Y158.85 E516.62039
G1 X174.69 Y158.89 E516.62192
G1 X151.62 Y158.89 E517.58115
G1 X150.83 Y158.88 E517.61395
G1 X150.83 Y158.33 E517.63682
G0 F6000 X150.97 Y158.61
;TYPE:FILL
G1 F6900 X151.25 Y158.61 E517.64462
G1 X151.82 Y158.61 E517.66056
G1 X152.38 Y158.61 E517.67647
G1 X152.95 Y158.61 E517.69242
G1 X153.51 Y158.61 E517.70836
G1 X154.08 Y158.61 E517.72424
G1 X154.65 Y158.61 E517.74019
G1 X155.21 Y158.61 E517.75610
G1 X155.78 Y158.61 E517.77207
G1 X156.34 Y158.61 E517.78799
G1 X156.91 Y158.61 E517.80393
G1 X157.48 Y158.61 E517.81987
G1 X158.04 Y158.61 E517.83587
G1 X158.61 Y158.61 E517.85182
G1 X159.17 Y158.61 E517.86773
G1 X159.74 Y158.61 E517.88361
G1 X160.31 Y158.61 E517.89956
G1 X160.87 Y158.61 E517.91541
G1 X161.44 Y158.61 E517.93132
G1 X162.00 Y158.61 E517.94721
G1 X162.57 Y158.61 E517.96312
G1 X163.13 Y158.61 E517.97901
G1 X163.70 Y158.61 E517.99489
G1 X164.26 Y158.61 E518.01080
G1 X164.83 Y158.61 E518.02672
G1 X165.40 Y158.61 E518.04263
G1 X165.96 Y158.61 E518.05851
G1 X166.53 Y158.61 E518.07440
G1 X167.09 Y158.61 E518.09025
G1 X167.66 Y158.61 E518.10617
G1 X168.23 Y158.61 E518.12202
G1 X168.79 Y158.61 E518.13791
G1 X169.36 Y158.61 E518.15379
G1 X169.92 Y158.61 E518.16967
G1 X170.49 Y158.61 E518.18550
G1 X171.06 Y158.61 E518.20129
G1 X171.62 Y158.61 E518.21712
G1 X172.19 Y158.61 E518.23297
G1 X172.75 Y158.61 E518.24877
G1 X173.32 Y158.61 E518.26459
G1 X173.88 Y158.61 E518.28042
G1 X174.30 Y158.75 E518.29868
G1 F2400 E517.09868
G0 F6000 X173.96 Y168.33
;TYPE:WALL-OUTER
G1 F2400 E518.29868
G1 F6900 X174.69 Y168.34 E518.32903
G1 X174.69 Y168.37 E518.33053
G1 X174.69 Y168.38 E518.33095
G1 X174.69 Y168.44 E518.33336
G1 X174.69 Y168.45 E518.33378
G1 X174.69 Y168.51 E518.33606
G1 X174.69 Y168.52 E518.33648
G1 X174.69 Y168.57 E518.33889
G1 X174.69 Y168.59 E518.33931
G1 X174.69 Y168.64 E518.34160
G1 X174.69 Y168.65 E518.34202
G1 X174.69 Y168.71 E518.34443
G1 X174.69 Y168.72 E518.34485
G1 X174.69 Y168.77 E518.34713
G1 X174.69 Y168.78 E518.34755
G1 X174.69 Y168.84 E518.34996
G1 X174.69 Y168.85 E518.35038
G1 X174.69 Y168.89 E518.35192
G1 X151.62 Y168.89 E519.31114
G1 X150.83 Y168.88 E519.34395
G1 X150.83 Y168.33 E519.36681
G1 X173.96 Y168.33 E520.32845
G0 F6000 X173.85 Y168.48
;TYPE:FILL
G1 F6900 X174.27 Y168.61 E520.34424
G1 X174.55 Y168.61 E520.35605
G0 F6000 X173.56 Y168.75
G1 F6900 X173.14 Y168.61 E520.37189
G1 X172.57 Y168.61 E520.38766
G1 X172.00 Y168.61 E520.40348
G1 X171.44 Y168.61 E520.41931
G1 X170.87 Y168.61 E520.43513
G1 X170.31 Y168.61 E520.45093
G1 X169.74 Y168.61 E520.46676
G1 X169.18 Y168.61 E520.48258
G1 X168.61 Y168.61 E520.49841
G1 X168.04 Y168.61 E520.51426
G1 X167.48 Y168.61 E520.53009
G1 X166.91 Y168.61 E520.54591
G1 X166.35 Y168.61 E520.56174
G1 X165.78 Y168.61 E520.57756
G1 X165.22 Y168.61 E520.59339
G1 X164.65 Y168.61 E520.60927
G1 X164.08 Y168.61 E520.62515
G1 X163.52 Y168.61 E520.64095
G1 X162.95 Y168.61 E520.65678
G1 X162.39 Y168.61 E520.67260
G1 X161.82 Y168.61 E520.68849
G1 X161.25 Y168.61 E520.70437
G1 X160.69 Y168.61 E520.72022
G1 X160.12 Y168.61 E520.73608
G1 X159.56 Y168.61 E520.75187
G1 X158.99 Y168.61 E520.76770
G1 X158.43 Y168.61 E520.78352
G1 X157.86 Y168.61 E520.79944
G1 X157.29 Y168.61 E520.81535
G1 X156.73 Y168.61 E520.83127
G1 X156.16 Y168.61 E520.84715
G1 X155.60 Y168.61 E520.86303
G1 X155.03 Y168.61 E520.87892
G1 X154.46 Y168.61 E520.89480
G1 X153.90 Y168.61 E520.91068
G1 X153.33 Y168.61 E520.92654
G1 X152.77 Y168.61 E520.94242
G1 X152.20 Y168.61 E520.95831
G1 X151.64 Y168.61 E520.97422
G1 X151.22 Y168.47 E520.99252
G1 F2400 E519.79252
G0 F6000 X150.83 Y178.33
;TYPE:WALL-OUTER
G1 F2400 E520.99252
G1 F6900 X173.96 Y178.33 E521.95416
G1 X174.69 Y178.34 E521.98451
G1 X174.69 Y178.37 E521.98601
G1 X174.69 Y178.38 E521.98642
G1 X174.69 Y178.44 E521.98884
G1 X174.69 Y178.45 E521.98925
G1 X174.69 Y178.51 E521.99154
G1 X174.69 Y178.52 E521.99196
G1 X174.69 Y178.57 E521.99437
G1 X174.69 Y178.59 E521.99479
G1 X174.69 Y178.64 E521.99708
G1 X174.69 Y178.65 E521.99749
G1 X174.69 Y178.71 E521.99990
G1 X174.69 Y178.72 E522.00032
G1 X174.69 Y178.77 E522.00261
G1 X174.69 Y178.78 E522.00303
G1 X174.69 Y178.84 E522.00544
G1 X174.69 Y178.85 E522.00586
G1 X174.69 Y178.89 E522.00740
G1 X151.62 Y178.89 E522.96662
G1 X150.83 Y178.88 E522.99942
G1 X150.83 Y178.33 E523.02229
G0 F6000 X151.03 Y178.47
;TYPE:FILL
G1 F6900 X151.45 Y178.61 E523.03818
G1 X152.02 Y178.61 E523.05406
G1 X152.59 Y178.61 E523.06994
G1 X153.15 Y178.61 E523.08586
G1 X153.72 Y178.61 E523.10174
G1 X154.28 Y178.61 E523.11763
G1 X154.85 Y178.61 E523.13345
G1 X155.41 Y178.61 E523.14933
G1 X155.98 Y178.61 E523.16519
G1 X156.54 Y178.61 E523.18107
G1 X157.11 Y178.61 E523.19696
G1 X157.68 Y178.61 E523.21278
G1 X158.24 Y178.61 E523.22861
G1 X158.81 Y178.61 E523.24441
G1 X159.37 Y178.61 E523.26023
G1 X159.94 Y178.61 E523.27606
G1 X160.51 Y178.61 E523.29188
G1 X161.07 Y178.61 E523.30771
G1 X161.64 Y178.61 E523.32353
G1 X162.20 Y178.61 E523.33933
G1 X162.77 Y178.61 E523.35515
G1 X163.34 Y178.61 E523.37098
G1 X163.90 Y178.61 E523.38680
G1 X164.47 Y178.61 E523.40263
G1 X165.03 Y178.61 E523.41842
G1 X165.60 Y178.61 E523.43425
G1 X166.16 Y178.61 E523.45002
G1 X166.73 Y178.61 E523.46584
G1 X167.30 Y178.61 E523.48167
G1 X167.86 Y178.61 E523.49746
G1 X168.43 Y178.61 E523.51329
G1 X168.99 Y178.61 E523.52911
G1 X169.56 Y178.61 E523.54494
G1 X170.12 Y178.61 E523.56076
G1 X170.69 Y178.61 E523.57656
G1 X171.26 Y178.61 E523.59238
G1 X171.82 Y178.61 E523.60821
G1 X172.39 Y178.61 E523.62397
G1 X172.95 Y178.61 E523.63980
G1 X173.52 Y178.61 E523.65560
G1 X174.09 Y178.61 E523.67136
G1 X174.50 Y178.75 E523.68963
G1 F2400 E522.48963
G0 F6000 X174.69 Y186.47
;TYPE:WALL-OUTER
G1 F2400 E523.68963
G1 F6900 X174.69 Y186.51 E523.69150
G1 X174.69 Y186.53 E523.69191
G1 X174.69 Y186.58 E523.69420
G1 X174.69 Y186.59 E523.69462
G1 X174.69 Y186.65 E523.69703
G1 X174.69 Y186.66 E523.69745
G1 X174.69 Y186.71 E523.69974
G1 X174.69 Y186.72 E523.70015
G1 X174.69 Y186.78 E523.70257
G1 X174.69 Y186.79 E523.70298
G1 X174.69 Y186.85 E523.70527
G1 X174.69 Y186.86 E523.70569
G1 X174.69 Y186.91 E523.70810
G1 X174.69 Y186.92 E523.70852
G1 X174.69 Y186.98 E523.71080
G1 X174.69 Y186.99 E523.71122
G1 X174.69 Y187.03 E523.71284
G1 X151.62 Y187.03 E524.67207
G1 X150.83 Y187.02 E524.70487
G1 X150.83 Y186.47 E524.72774
G1 X174.69 Y186.47 E525.71972
G0 F6000 X174.55 Y186.72
;TYPE:FILL
G1 F6900 X174.30 Y186.75 E525.72590
G1 X173.74 Y186.75 E525.74214
G1 X173.17 Y186.75 E525.75835
G1 X172.60 Y186.75 E525.77458
G1 X172.04 Y186.75 E525.79082
G1 X171.47 Y186.75 E525.80703
G1 X170.91 Y186.75 E525.82321
G1 X170.34 Y186.75 E525.83938
G1 X169.78 Y186.75 E525.85553
G1 X169.21 Y186.75 E525.87171
G1 X168.65 Y186.75 E525.88789
G1 X168.08 Y186.75 E525.90401
G1 X167.51 Y186.75 E525.92013
G1 X166.95 Y186.75 E525.93625
G1 X166.38 Y186.75 E525.95234
G1 X165.82 Y186.75 E525.96846
G1 X165.25 Y186.75 E525.98458
G1 X164.68 Y186.75 E526.00069
G1 X164.12 Y186.75 E526.01679
G1 X163.55 Y186.75 E526.03290
G1 X162.99 Y186.75 E526.04902
G1 X162.42 Y186.75 E526.06511
G1 X161.86 Y186.75 E526.08117
G1 X161.29 Y186.75 E526.09723
G1 X160.72 Y186.75 E526.11327
G1 X160.16 Y186.75 E526.12933
G1 X159.59 Y186.75 E526.14542
G1 X159.03 Y186.75 E526.16145
G1 X158.46 Y186.75 E526.17745
G1 X157.90 Y186.75 E526.19345
G1 X157.33 Y186.75 E526.20948
G1 X156.76 Y186.75 E526.22548
G1 X156.20 Y186.75 E526.24143
G1 X155.63 Y186.75 E526.25743
G1 X155.07 Y186.75 E526.27334
G1 X154.50 Y186.75 E526.28928
G1 X153.94 Y186.75 E526.30529
G1 X153.37 Y186.75 E526.32117
G1 X152.80 Y186.75 E526.33708
G1 X152.24 Y186.75 E526.35303
G1 X151.67 Y186.75 E526.36891
G1 X151.25 Y186.61 E526.38719
;LAYER:5
G0 F6000 X150.83 Y186.47 Z2.25
;TYPE:WALL-OUTER
G1 F6900 X174.68 Y186.47 E527.37855
G1 X174.68 Y186.50 E527.37996
G1 X174.68 Y186.53 E527.38100
G1 X174.68 Y186.57 E527.38275
G1 X174.68 Y186.60 E527.38379
G1 X174.68 Y186.64 E527.38549
G1 X174.68 Y186.66 E527.38653
G1 X174.68 Y186.70 E527.38828
G1 X174.68 Y186.73 E527.38932
G1 X174.68 Y186.77 E527.39102
G1 X174.68 Y186.79 E527.39206
G1 X174.68 Y186.84 E527.39381
G1 X174.68 Y186.86 E527.39485
G1 X174.68 Y186.90 E527.39656
G1 X174.68 Y186.93 E527.39760
G1 X174.68 Y186.97 E527.39934
G1 X174.68 Y187.00 E527.40038
G1 X174.68 Y187.03 E527.40176
G1 X150.83 Y187.03 E528.39316
G1 X150.83 Y186.47 E528.41636
G0 F6000 X151.25 Y186.61
;TYPE:FILL
G1 F6900 X151.53 Y186.89 E528.43264
G0 F6000 X151.53 Y186.73
G0 X159.59 Y186.73
G0 X159.59 Y186.89
G1 F6900 X159.87 Y186.61 E528.44896
G0 F6000 X159.87 Y186.77
G0 X165.40 Y186.77
G0 X165.40 Y186.61
G1 F6900 X165.67 Y186.89 E528.46525
G0 F6000 X165.67 Y186.73
G0 X173.74 Y186.73
G0 X173.74 Y186.89
G1 F6900 X174.01 Y186.61 E528.48156
G1 F2400 E527.28156
G0 F6000 X149.85 Y187.41
;TYPE:WALL-OUTER
G1 F2400 E528.48156
G1 F6900 X130.25 Y187.41 E529.29643
G1 X130.25 Y117.82 E532.19002
G1 X149.85 Y117.82 E533.00490
G1 X149.85 Y187.41 E535.89849
G0 F6000 X149.59 Y187.27
;TYPE:FILL
G1 F6900 X149.71 Y187.16 E535.90534
G0 F6000 X149.71 Y186.59
G1 F6900 X149.03 Y187.27 E535.94544
G0 F6000 X148.46 Y187.27
G1 F6900 X149.71 Y186.03 E536.01881
G0 F6000 X149.71 Y185.46
G1 F6900 X147.89 Y187.27 E536.12544
G0 F6000 X147.33 Y187.27
G1 F6900 X149.71 Y184.89 E536.26535
G0 F6000 X149.71 Y184.33
G1 F6900 X146.76 Y187.27 E536.43850
G0 F6000 X146.20 Y187.27
G1 F6900 X149.71 Y183.76 E536.64491
G0 F6000 X149.71 Y183.20
G1 F6900 X145.63 Y187.27 E536.88459
G0 F6000 X145.06 Y187.27
G1 F6900 X149.71 Y182.63 E537.15752
G0 F6000 X149.71 Y182.07
G1 F6900 X144.50 Y187.27 E537.46370
G0 F6000 X143.93 Y187.27
G1 F6900 X149.71 Y181.50 E537.80316
G0 F6000 X149.71 Y180.94
G1 F6900 X143.37 Y187.27 E538.17587
G0 F6000 X142.80 Y187.27
G1 F6900 X149.71 Y180.37 E538.58183
G0 F6000 X149.71 Y179.80
G1 F6900 X142.24 Y187.27 E539.02106
G0 F6000 X141.67 Y187.27
G1 F6900 X149.71 Y179.24 E539.49355
G0 F6000 X149.71 Y178.67
G1 F6900 X141.10 Y187.27 E539.99932
G0 F6000 X140.54 Y187.27
G1 F6900 X149.71 Y178.11 E540.53833
G0 F6000 X149.71 Y177.54
G1 F6900 X139.97 Y187.27 E541.11059
G0 F6000 X139.41 Y187.27
G1 F6900 X149.71 Y176.97 E541.71613
G0 F6000 X149.71 Y176.41
G1 F6900 X138.84 Y187.27 E542.35493
G0 F6000 X138.28 Y187.27
G1 F6900 X149.71 Y175.84 E543.02697
G0 F6000 X149.71 Y175.28
G1 F6900 X137.71 Y187.27 E543.73228
G0 F6000 X137.15 Y187.27
G1 F6900 X149.71 Y174.71 E544.47085
G0 F6000 X149.71 Y174.15
G1 F6900 X136.58 Y187.27 E545.24270
G0 F6000 X136.01 Y187.27
G1 F6900 X149.71 Y173.58 E546.04779
G0 F6000 X149.71 Y173.01
G1 F6900 X135.45 Y187.27 E546.88614
G0 F6000 X134.88 Y187.27
G1 F6900 X149.71 Y172.45 E547.75776
G0 F6000 X149.71 Y171.88
G1 F6900 X134.32 Y187.27 E548.66264
G0 F6000 X133.75 Y187.27
G1 F6900 X149.71 Y171.32 E549.60076
G0 F6000 X149.71 Y170.75
G1 F6900 X133.19 Y187.27 E550.57216
G0 F6000 X132.62 Y187.27
G1 F6900 X149.71 Y170.19 E551.57681
G0 F6000 X149.71 Y169.62
G1 F6900 X132.06 Y187.27 E552.61471
G0 F6000 X131.49 Y187.27
G1 F6900 X149.71 Y169.06 E553.68589
G0 F6000 X149.71 Y168.49
G1 F6900 X130.92 Y187.27 E554.79031
G0 F6000 X130.39 Y187.24
G1 F6900 X149.71 Y167.92 E555.92626
G0 F6000 X149.71 Y167.36
G1 F6900 X130.39 Y186.68 E557.06223
G0 F6000 X130.39 Y186.11
G1 F6900 X149.71 Y166.79 E558.19817
G0 F6000 X149.71 Y166.23
G1 F6900 X130.39 Y185.55 E559.33411
G0 F6000 X130.39 Y184.98
G1 F6900 X149.71 Y165.66 E560.47005
G0 F6000 X149.71 Y165.09
G1 F6900 X130.39 Y184.42 E561.60603
G0 F6000 X130.39 Y183.85
G1 F6900 X149.71 Y164.53 E562.74197
G0 F6000 X149.71 Y163.96
G1 F6900 X130.39 Y183.28 E563.87791
G0 F6000 X130.39 Y182.72
G1 F6900 X149.71 Y163.40 E565.01388
G0 F6000 X149.71 Y162.83
G1 F6900 X130.39 Y182.15 E566.14982
G0 F6000 X130.39 Y181.59
G1 F6900 X149.71 Y162.27 E567.28576
G0 F6000 X149.71 Y161.70
G1 F6900 X130.39 Y181.02 E568.42174
G0 F6000 X130.39 Y180.46
G1 F6900 X149.71 Y161.14 E569.55768
G0 F6000 X149.71 Y160.57
G1 F6900 X130.39 Y179.89 E570.69362
G0 F6000 X130.39 Y179.32
G1 F6900 X149.71 Y160.00 E571.82959
G0 F6000 X149.71 Y159.44
G1 F6900 X130.39 Y178.76 E572.96553
G0 F6000 X130.39 Y178.19
G1 F6900 X149.71 Y158.87 E574.10147
G0 F6000 X149.71 Y158.31
G1 F6900 X130.39 Y177.63 E575.23745
G0 F6000 X130.39 Y177.06
G1 F6900 X149.71 Y157.74 E576.37339
G0 F6000 X149.71 Y157.18
G1 F6900 X130.39 Y176.50 E577.50933
G0 F6000 X130.39 Y175.93
G1 F6900 X149.71 Y156.61 E578.64527
G0 F6000 X149.71 Y156.04
G1 F6900 X130.39 Y175.37 E579.78121
G0 F6000 X130.39 Y174.80
G1 F6900 X149.71 Y155.48 E580.91716
G0 F6000 X149.71 Y154.91
G1 F6900 X130.39 Y174.23 E582.05310
G0 F6000 X130.39 Y173.67
G1 F6900 X149.71 Y154.35 E583.18907
G0 F6000 X149.71 Y153.78
G1 F6900 X130.39 Y173.10 E584.32501
G0 F6000 X130.39 Y172.54
G1 F6900 X149.71 Y153.22 E585.46095
G0 F6000 X149.71 Y152.65
G1 F6900 X130.39 Y171.97 E586.59692
G0 F6000 X130.39 Y171.41
G1 F6900 X149.71 Y152.09 E587.73287
G0 F6000 X149.71 Y151.52
G1 F6900 X130.39 Y170.84 E588.86881
G0 F6000 X130.39 Y170.27
G1 F6900 X149.71 Y150.95 E590.00478
G0 F6000 X149.71 Y150.39
G1 F6900 X130.39 Y169.71 E591.14072
G0 F6000 X130.39 Y169.14
G1 F6900 X149.71 Y149.82 E592.27666
G0 F6000 X149.71 Y149.26
G1 F6900 X130.39 Y168.58 E593.41264
G0 F6000 X130.39 Y168.01
G1 F6900 X149.71 Y148.69 E594.54858
G0 F6000 X149.71 Y148.12
G1 F6900 X130.39 Y167.44 E595.68452
G0 F6000 X130.39 Y166.88
G1 F6900 X149.71 Y147.56 E596.82049
G0 F6000 X149.71 Y146.99
G1 F6900 X130.39 Y166.31 E597.95643
G0 F6000 X130.39 Y165.75
G1 F6900 X149.71 Y146.43 E599.09237
G0 F6000 X149.71 Y145.86
G1 F6900 X130.39 Y165.18 E600.22832
G0 F6000 X130.39 Y164.62
G1 F6900 X149.71 Y145.30 E601.36426
G0 F6000 X149.71 Y144.73
G1 F6900 X130.39 Y164.05 E602.50020
G0 F6000 X130.39 Y163.49
G1 F6900 X149.71 Y144.16 E603.63614
G0 F6000 X149.71 Y143.60
G1 F6900 X130.39 Y162.92 E604.77211
G0 F6000 X130.39 Y162.35
G1 F6900 X149.71 Y143.03 E605.90806
G0 F6000 X149.71 Y142.47
G1 F6900 X130.39 Y161.79 E607.04400
G0 F6000 X130.39 Y161.22
G1 F6900 X149.71 Y141.90 E608.17997
G0 F6000 X149.71 Y141.34
G1 F6900 X130.39 Y160.66 E609.31591
G0 F6000 X130.39 Y160.09
G1 F6900 X149.71 Y140.77 E610.45185
G0 F6000 X149.71 Y140.21
G1 F6900 X130.39 Y159.53 E611.58782
G0 F6000 X130.39 Y158.96
G1 F6900 X149.71 Y139.64 E612.72377
G0 F6000 X149.71 Y139.07
G1 F6900 X130.39 Y158.39 E613.85971
G0 F6000 X130.39 Y157.83
G1 F6900 X149.71 Y138.51 E614.99568
G0 F6000 X149.71 Y137.94
G1 F6900 X130.39 Y157.26 E616.13162
G0 F6000 X130.39 Y156.70
G1 F6900 X149.71 Y137.38 E617.26756
G0 F6000 X149.71 Y136.81
G1 F6900 X130.39 Y156.13 E618.40353
G0 F6000 X130.39 Y155.57
G1 F6900 X149.71 Y136.25 E619.53948
G0 F6000 X149.71 Y135.68
G1 F6900 X130.39 Y155.00 E620.67542
G0 F6000 X130.39 Y154.43
G1 F6900 X149.71 Y135.11 E621.81136
G0 F6000 X149.71 Y134.55
G1 F6900 X130.39 Y153.87 E622.94733
G0 F6000 X130.39 Y153.30
G1 F6900 X149.71 Y133.98 E624.08327
G0 F6000 X149.71 Y133.42
G1 F6900 X130.39 Y152.74 E625.21922
G0 F6000 X130.39 Y152.17
G1 F6900 X149.71 Y132.85 E626.35519
G0 F6000 X149.71 Y132.29
G1 F6900 X130.39 Y151.61 E627.49113
G0 F6000 X130.39 Y151.04
G1 F6900 X149.71 Y131.72 E628.62707
G0 F6000 X149.71 Y131.15
G1 F6900 X130.39 Y150.47 E629.76304
G0 F6000 X130.39 Y149.91
G1 F6900 X149.71 Y130.59 E630.89898
G0 F6000 X149.71 Y130.02
G1 F6900 X130.39 Y149.34 E632.03493
G0 F6000 X130.39 Y148.78
G1 F6900 X149.71 Y129.46 E633.17090
G0 F6000 X149.71 Y128.89
G1 F6900 X130.39 Y148.21 E634.30684
G0 F6000 X130.39 Y147.65
G1 F6900 X149.71 Y128.33 E635.44278
G0 F6000 X149.71 Y127.76
G1 F6900 X130.39 Y147.08 E636.57875
G0 F6000 X130.39 Y146.51
G1 F6900 X149.71 Y127.19 E637.71469
G0 F6000 X149.71 Y126.63
G1 F6900 X130.39 Y145.95 E638.85064
G0 F6000 X130.39 Y145.38
G1 F6900 X149.71 Y126.06 E639.98658
G0 F6000 X149.71 Y125.50
G1 F6900 X130.39 Y144.82 E641.12252
G0 F6000 X130.39 Y144.25
G1 F6900 X149.71 Y124.93 E642.25846
G0 F6000 X149.71 Y124.37
G1 F6900 X130.39 Y143.69 E643.39440
G0 F6000 X130.39 Y143.12
G1 F6900 X149.71 Y123.80 E644.53038
G0 F6000 X149.71 Y123.23
G1 F6900 X130.39 Y142.56 E645.66632
G0 F6000 X130.39 Y141.99
G1 F6900 X149.71 Y122.67 E646.80226
G0 F6000 X149.71 Y122.10
G1 F6900 X130.39 Y141.42 E647.93823
G0 F6000 X130.39 Y140.86
G1 F6900 X149.71 Y121.54 E649.07417
G0 F6000 X149.71 Y120.97
G1 F6900 X130.39 Y140.29 E650.21012
G0 F6000 X130.39 Y139.73
G1 F6900 X149.71 Y120.41 E651.34609
G0 F6000 X149.71 Y119.84
G1 F6900 X130.39 Y139.16 E652.48203
G0 F6000 X130.39 Y138.59
G1 F6900 X149.71 Y119.28 E653.61797
G0 F6000 X149.71 Y118.71
G1 F6900 X130.39 Y138.03 E654.75394
G0 F6000 X130.39 Y137.46
G1 F6900 X149.71 Y118.14 E655.88988
G0 F6000 X149.33 Y117.96
G1 F6900 X130.39 Y136.90 E657.00363
G0 F6000 X130.39 Y136.33
G1 F6900 X148.76 Y117.96 E658.08413
G0 F6000 X148.20 Y117.96
G1 F6900 X130.39 Y135.77 E659.13135
G0 F6000 X130.39 Y135.20
G1 F6900 X147.63 Y117.96 E660.14532
G0 F6000 X147.07 Y117.96
G1 F6900 X130.39 Y134.63 E661.12601
G0 F6000 X130.39 Y134.07
G1 F6900 X146.50 Y117.96 E662.07345
G0 F6000 X145.94 Y117.96
G1 F6900 X130.39 Y133.50 E662.98764
G0 F6000 X130.39 Y132.94
G1 F6900 X145.37 Y117.96 E663.86855
G0 F6000 X144.80 Y117.96
G1 F6900 X130.39 Y132.37 E664.71622
G0 F6000 X130.39 Y131.81
G1 F6900 X144.24 Y117.96 E665.53063
G0 F6000 X143.67 Y117.96
G1 F6900 X130.39 Y131.24 E666.31177
G0 F6000 X130.39 Y130.68
G1 F6900 X143.11 Y117.96 E667.05966
G0 F6000 X142.54 Y117.96
G1 F6900 X130.39 Y130.11 E667.77429
G0 F6000 X130.39 Y129.54
G1 F6900 X141.98 Y117.96 E668.45565
G0 F6000 X141.41 Y117.96
G1 F6900 X130.39 Y128.98 E669.10376
G0 F6000 X130.39 Y128.41
G1 F6900 X140.84 Y117.96 E669.71862
G0 F6000 X140.28 Y117.96
G1 F6900 X130.39 Y127.85 E670.30021
G0 F6000 X130.39 Y127.28
G1 F6900 X139.71 Y117.96 E670.84854
G0 F6000 X139.15 Y117.96
G1 F6900 X130.39 Y126.72 E671.36362
G0 F6000 X130.39 Y126.15
G1 F6900 X138.58 Y117.96 E671.84543
G0 F6000 X138.02 Y117.96
G1 F6900 X130.39 Y125.58 E672.29396
G0 F6000 X130.39 Y125.02
G1 F6900 X137.45 Y117.96 E672.70923
G0 F6000 X136.88 Y117.96
G1 F6900 X130.39 Y124.45 E673.09126
G0 F6000 X130.39 Y123.89
G1 F6900 X136.32 Y117.96 E673.44001
G0 F6000 X135.75 Y117.96
G1 F6900 X130.39 Y123.32 E673.75551
G0 F6000 X130.39 Y122.76
G1 F6900 X135.19 Y117.96 E674.03776
G0 F6000 X134.62 Y117.96
G1 F6900 X130.39 Y122.19 E674.28673
G0 F6000 X130.39 Y121.62
G1 F6900 X134.06 Y117.96 E674.50246
G0 F6000 X133.49 Y117.96
G1 F6900 X130.39 Y121.06 E674.68493
G0 F6000 X130.39 Y120.49
G1 F6900 X132.93 Y117.96 E674.83413
G0 F6000 X132.36 Y117.96
G1 F6900 X130.39 Y119.93 E674.95007
G0 F6000 X130.39 Y119.36
G1 F6900 X131.79 Y117.96 E675.03277
G0 F6000 X131.23 Y117.96
G1 F6900 X130.39 Y118.80 E675.08219
G0 F6000 X130.39 Y118.23
G1 F6900 X130.66 Y117.96 E675.09836
G0 F6000 X131.25 Y118.82
G1 F2400 E673.89836
G0 F6000 X150.83 Y178.33
;TYPE:WALL-OUTER
G1 F2400 E675.09836
G1 F6900 X174.68 Y178.33 E676.08972
G1 X174.68 Y178.37 E676.09113
G1 X174.68 Y178.39 E676.09217
G1 X174.68 Y178.43 E676.09388
G1 X174.68 Y178.46 E676.09492
G1 X174.68 Y178.50 E676.09666
G1 X174.68 Y178.52 E676.09770
G1 X174.68 Y178.56 E676.09941
G1 X174.68 Y178.59 E676.10045
G1 X174.68 Y178.63 E676.10219
G1 X174.68 Y178.66 E676.10324
G1 X174.68 Y178.70 E676.10494
G1 X174.68 Y178.72 E676.10598
G1 X174.68 Y178.76 E676.10773
