;-- START GCODE --
;Sliced for Type A Machines Series 1
;Sliced at: Thu 23-04-2015 02:01:24
;Basic settings: Layer height: 0.15 Walls: 0.8 Fill: 12
;Print Speed: 100 Support: 0
;Retraction Speed: 40 Retraction Distance: 1.2
;Print time: #P_TIME#
;Filament used: #F_AMNT#m #F_WGHT#g
;Filament cost: #F_COST#
M106 S255	 ;start with the fan on
G21        ;metric values
G90        ;absolute positioning
M106 S255    ;start with the fan on
G28     ;move to endstops
G29		;allows for auto-levelling
G1 X150 Y5  Z15.0 F12000 ;center and move the platform down 15mm
M109 S220 ;Heat To temp
G92 E0                  ;zero the extruded length
G1 F200 E30              ;extrude 30mm of feed stock
G92 E0                  ;zero the extruded length again
G1 X175 Y25  Z0 F12000 ;remove bugger
G1 X220 F12000 ;remove bugger
G1 X150 Y150  Z15 F12000 ;recenter and begin
G1 F12000

;Layer count: 294
;LAYER:0
M106 S255
G0 F12000 X77.83 Y85.14 Z0.25
;TYPE:SKIRT
G1 F1800 X90.74 Y73.13 E0.73334
G1 X134.04 Y119.70 E3.37739
G1 X181.34 Y119.70 E5.34352
G1 X227.17 Y85.13 E7.73039
G1 X237.79 Y99.21 E8.46374
G1 X210.62 Y119.70 E9.87820
G1 X211.38 Y119.70 E9.90946
G1 X215.49 Y118.07 E10.09355
G1 X242.40 Y107.42 E11.29656
G1 X248.89 Y123.82 E12.02994
G1 X235.06 Y129.29 E12.64854
G1 X235.06 Y176.30 E14.60286
G1 X248.71 Y181.81 E15.21464
G1 X242.10 Y198.16 E15.94791
G1 X232.55 Y194.31 E16.37618
G1 X241.17 Y199.95 E16.80457
G1 X231.52 Y214.71 E17.53790
G1 X208.22 Y199.47 E18.69529
G1 X227.18 Y219.86 E19.85266
G1 X214.26 Y231.87 E20.58601
G1 X170.96 Y185.30 E23.23008
G1 X123.66 Y185.30 E25.19621
G1 X77.83 Y219.87 E27.58311
G1 X67.21 Y205.79 E28.31646
G1 X94.38 Y185.30 E29.73094
G1 X93.62 Y185.30 E29.76221
G1 X89.51 Y186.93 E29.94630
G1 X62.60 Y197.58 E31.14928
G1 X56.11 Y181.18 E31.88267
G1 X73.56 Y174.27 E32.66306
G1 X73.56 Y130.16 E34.49707
G1 X56.30 Y123.19 E35.27106
G1 X62.90 Y106.84 E36.00433
G1 X72.45 Y110.69 E36.43257
G1 X63.83 Y105.05 E36.86092
G1 X73.48 Y90.29 E37.59426
G1 X96.78 Y105.53 E38.75162
G1 X77.83 Y85.14 E39.90896
G0 F12000 X78.39 Y85.16
G1 F1800 X90.72 Y73.69 E40.60906
G1 X133.87 Y120.10 E43.24373
G1 X181.47 Y120.10 E45.22266
G1 X227.09 Y85.69 E47.59849
G1 X237.23 Y99.13 E48.29856
G1 X209.43 Y120.10 E49.74606
G1 X211.45 Y120.10 E49.83004
G1 X242.17 Y107.94 E51.20375
G1 X248.37 Y123.59 E51.90384
G1 X234.66 Y129.02 E52.51707
G1 X234.66 Y176.57 E54.49389
G1 X248.19 Y182.03 E55.10029
G1 X241.88 Y197.64 E55.80032
G1 X228.92 Y192.41 E56.38134
G1 X240.62 Y200.06 E56.96254
G1 X231.40 Y214.15 E57.66262
G1 X205.69 Y197.34 E58.93982
G1 X226.61 Y219.84 E60.21704
G1 X214.28 Y231.31 E60.91714
G1 X171.13 Y184.90 E63.55183
G1 X123.53 Y184.90 E65.53077
G1 X77.91 Y219.31 E67.90662
G1 X67.77 Y205.87 E68.60669
G1 X95.57 Y184.90 E70.05424
G1 X93.55 Y184.90 E70.13827
G1 X89.36 Y186.56 E70.32566
G1 X89.36 Y186.56 E70.32571
G1 X62.83 Y197.06 E71.51206
G1 X56.63 Y181.41 E72.21220
G1 X73.96 Y174.54 E72.98722
G1 X73.96 Y129.89 E74.84375
G1 X56.81 Y122.97 E75.61236
G1 X63.12 Y107.36 E76.31239
G1 X76.08 Y112.59 E76.89335
G1 X64.38 Y104.94 E77.47450
G1 X73.60 Y90.85 E78.17458
G1 X99.31 Y107.66 E79.45175
G1 X78.39 Y85.16 E80.72894
G0 F12000 X78.95 Y85.18
G1 F1800 X90.70 Y74.26 E81.39577
G1 X133.70 Y120.50 E84.02105
G1 X181.60 Y120.50 E86.01279
G1 X227.01 Y86.25 E88.37754
G1 X236.66 Y99.05 E89.04434
G1 X208.24 Y120.50 E90.52487
G1 X211.53 Y120.50 E90.66173
G1 X241.95 Y108.45 E92.02198
G1 X247.85 Y123.37 E92.68881
G1 X234.26 Y128.75 E93.29672
G1 X234.26 Y176.84 E95.29606
G1 X247.66 Y182.25 E95.89704
G1 X241.66 Y197.12 E96.56383
G1 X225.29 Y190.52 E97.29767
G1 X240.07 Y200.18 E98.03167
G1 X231.29 Y213.60 E98.69848
G1 X203.17 Y195.21 E100.09537
G1 X226.04 Y219.82 E101.49223
G1 X214.30 Y230.74 E102.15906
G1 X171.30 Y184.50 E104.78437
G1 X123.40 Y184.50 E106.77611
G1 X77.99 Y218.75 E109.14089
G1 X68.33 Y205.95 E109.80768
G1 X96.77 Y184.50 E111.28827
G1 X93.47 Y184.50 E111.42518
G1 X89.21 Y186.19 E111.61575
G1 X63.05 Y196.55 E112.78542
G1 X57.15 Y181.63 E113.45230
G1 X74.36 Y174.82 E114.22199
G1 X74.36 Y129.62 E116.10107
G1 X57.34 Y122.75 E116.86425
G1 X63.34 Y107.88 E117.53104
G1 X79.71 Y114.48 E118.26484
G1 X64.93 Y104.82 E118.99880
G1 X73.71 Y91.40 E119.66561
G1 X101.83 Y109.79 E121.06245
G1 X78.95 Y85.18 E122.45925
G0 F12000 X79.52 Y85.20
G1 F1800 X90.68 Y74.82 E123.09281
G1 X133.52 Y120.90 E125.70867
G1 X181.74 Y120.90 E127.71322
G1 X226.93 Y86.81 E130.06694
G1 X236.10 Y98.98 E130.70045
G1 X207.04 Y120.90 E132.21400
G1 X211.60 Y120.90 E132.40366
G1 X241.72 Y108.97 E133.75044
G1 X247.34 Y123.14 E134.38397
G1 X233.86 Y128.48 E134.98656
G1 X233.86 Y177.11 E137.00844
G1 X247.14 Y182.47 E137.60400
G1 X241.44 Y196.60 E138.23748
G1 X221.66 Y188.62 E139.12429
G1 X239.51 Y200.29 E140.01125
G1 X231.17 Y213.05 E140.64478
G1 X200.64 Y193.08 E142.16160
G1 X225.48 Y219.80 E143.67840
G1 X214.32 Y230.18 E144.31195
G1 X171.48 Y184.10 E146.92785
G1 X123.26 Y184.10 E148.93240
G1 X78.07 Y218.19 E151.28614
G1 X68.89 Y206.02 E151.91966
G1 X97.96 Y184.10 E153.43326
G1 X93.39 Y184.10 E153.62301
G1 X89.06 Y185.81 E153.81671
G1 X89.06 Y185.81 E153.81675
G1 X63.28 Y196.03 E154.96983
G1 X57.66 Y181.86 E155.60340
G1 X74.76 Y175.09 E156.36778
G1 X74.76 Y129.35 E158.26938
G1 X57.86 Y122.53 E159.02715
G1 X63.56 Y108.40 E159.66063
G1 X83.34 Y116.38 E160.54739
G1 X65.49 Y104.70 E161.43429
G1 X73.83 Y91.95 E162.06782
G1 X104.36 Y111.92 E163.58458
G1 X79.52 Y85.20 E165.10132
G0 F12000 X80.09 Y85.22
G1 F1800 X90.66 Y75.39 E165.70160
G1 X133.35 Y121.30 E168.30808
G1 X181.87 Y121.30 E170.32543
G1 X226.85 Y87.37 E172.66808
G1 X235.54 Y98.90 E173.26834
G1 X205.85 Y121.30 E174.81495
G1 X211.68 Y121.30 E175.05750
G1 X241.50 Y109.49 E176.39082
G1 X246.82 Y122.92 E176.99111
G1 X233.46 Y128.21 E177.58838
G1 X233.46 Y177.38 E179.63276
G1 X246.62 Y182.69 E180.22293
G1 X241.22 Y196.08 E180.82319
G1 X218.03 Y186.72 E181.86283
G1 X238.96 Y200.41 E182.90255
G1 X231.06 Y212.49 E183.50287
G1 X198.11 Y190.95 E185.13941
G1 X224.91 Y219.78 E186.77591
G1 X214.34 Y229.61 E187.37619
G1 X171.65 Y183.70 E189.98270
G1 X123.13 Y183.70 E192.00006
G1 X78.14 Y217.63 E194.34273
G1 X69.45 Y206.10 E194.94299
G1 X99.15 Y183.70 E196.48962
G1 X93.32 Y183.70 E196.73217
G1 X88.92 Y185.44 E196.92905
G1 X88.92 Y185.44 E196.92909
G1 X63.50 Y195.51 E198.06555
G1 X58.18 Y182.08 E198.66589
G1 X75.16 Y175.36 E199.42495
G1 X75.16 Y129.08 E201.34905
G1 X58.38 Y122.31 E202.10142
G1 X63.78 Y108.92 E202.70168
G1 X86.97 Y118.28 E203.74127
G1 X66.04 Y104.59 E204.78093
G1 X73.94 Y92.51 E205.38125
G1 X106.89 Y114.05 E207.01773
G1 X80.09 Y85.22 E208.65417
G0 F12000 X80.65 Y85.24
G1 F1800 X90.64 Y75.95 E209.22122
G1 X133.17 Y121.70 E211.81831
G1 X182.01 Y121.70 E213.84851
G1 X226.78 Y87.93 E216.18005
G1 X234.99 Y98.82 E216.74709
G1 X204.65 Y121.70 E218.32671
G1 X211.76 Y121.70 E218.62206
G1 X241.27 Y110.01 E219.94193
G1 X246.30 Y122.69 E220.50896
G1 X233.06 Y127.94 E221.10091
G1 X233.06 Y177.65 E223.16782
G1 X246.10 Y182.91 E223.75256
G1 X241.00 Y195.56 E224.31955
G1 X214.40 Y184.83 E225.51202
G1 X238.41 Y200.53 E226.70462
G1 X230.94 Y211.94 E227.27168
G1 X195.58 Y188.82 E229.02800
G1 X224.35 Y219.76 E230.78431
G1 X214.36 Y229.05 E231.35136
G1 X171.83 Y183.30 E233.94848
G1 X122.99 Y183.30 E235.97868
G1 X78.22 Y217.07 E238.31024
G1 X70.02 Y206.18 E238.87729
G1 X100.35 Y183.30 E240.45697
G1 X93.24 Y183.30 E240.75236
G1 X88.77 Y185.07 E240.95241
G1 X88.77 Y185.07 E240.95245
G1 X63.73 Y194.99 E242.07231
G1 X58.70 Y182.31 E242.63938
G1 X75.56 Y175.63 E243.39312
G1 X75.56 Y128.81 E245.33975
G1 X58.90 Y122.09 E246.08670
G1 X64.00 Y109.44 E246.65369
G1 X90.60 Y120.17 E247.84609
G1 X66.59 Y104.47 E249.03861
G1 X74.06 Y93.06 E249.60567
G1 X109.42 Y116.18 E251.36196
G1 X80.65 Y85.24 E253.11825
G0 F12000 X81.22 Y85.26
G1 F1800 X90.62 Y76.52 E253.65205
G1 X133.00 Y122.10 E256.23979
G1 X182.14 Y122.10 E258.28279
G1 X226.70 Y88.49 E260.60326
G1 X234.43 Y98.74 E261.13700
G1 X203.46 Y122.10 E262.74969
G1 X211.83 Y122.10 E263.09788
G1 X241.05 Y110.53 E264.40429
G1 X245.78 Y122.47 E264.93804
G1 X232.66 Y127.66 E265.52462
G1 X232.66 Y177.92 E267.61411
G1 X245.58 Y183.13 E268.19343
G1 X240.78 Y195.04 E268.72719
G1 X210.77 Y182.93 E270.07247
G1 X237.85 Y200.64 E271.41787
G1 X230.82 Y211.39 E271.95166
G1 X193.06 Y186.69 E273.82763
G1 X223.78 Y219.74 E275.70362
G1 X214.38 Y228.48 E276.23742
G1 X172.00 Y182.90 E278.82519
G1 X122.86 Y182.90 E280.86819
G1 X78.30 Y216.51 E283.18869
G1 X70.58 Y206.26 E283.72242
G1 X101.54 Y182.90 E285.33514
G1 X93.17 Y182.90 E285.68333
G1 X63.95 Y194.47 E286.98976
G1 X59.22 Y182.53 E287.52351
G1 X75.96 Y175.90 E288.27189
G1 X75.96 Y128.54 E290.24106
G1 X59.42 Y121.87 E290.98258
G1 X64.22 Y109.96 E291.51634
G1 X94.23 Y122.07 E292.86155
G1 X67.15 Y104.36 E294.20688
G1 X74.18 Y93.61 E294.74066
G1 X111.94 Y118.31 E296.61661
G1 X81.22 Y85.26 E298.49257
G0 F12000 X81.78 Y85.28
G1 F1800 X90.60 Y77.08 E298.99307
G1 X132.83 Y122.50 E301.57140
G1 X182.27 Y122.50 E303.62717
G1 X226.62 Y89.05 E305.93659
G1 X233.87 Y98.66 E306.43711
G1 X202.26 Y122.50 E308.08281
G1 X211.91 Y122.50 E308.48385
G1 X240.82 Y111.05 E309.77680
G1 X245.26 Y122.24 E310.27732
G1 X232.26 Y127.39 E310.85857
G1 X232.26 Y178.19 E312.97055
G1 X245.06 Y183.36 E313.54446
G1 X240.55 Y194.52 E314.04491
G1 X210.76 Y182.50 E315.38040
G1 X209.38 Y182.50 E315.43819
G1 X237.30 Y200.76 E316.82526
G1 X230.71 Y210.83 E317.32577
G1 X190.53 Y184.56 E319.32162
G1 X223.22 Y219.72 E321.31742
G1 X214.40 Y227.92 E321.81792
G1 X172.17 Y182.50 E324.39628
G1 X122.73 Y182.50 E326.45205
G1 X78.38 Y215.95 E328.76150
G1 X71.14 Y206.34 E329.26202
G1 X102.74 Y182.50 E330.90774
G1 X93.09 Y182.50 E331.30878
G1 X64.17 Y193.95 E332.60174
G1 X59.74 Y182.76 E333.10226
G1 X76.36 Y176.18 E333.84531
G1 X76.36 Y128.27 E335.83701
G1 X59.94 Y121.64 E336.57314
G1 X64.45 Y110.48 E337.07365
G1 X94.23 Y122.50 E338.40912
G1 X95.62 Y122.50 E338.46687
G1 X67.70 Y104.24 E339.85388
G1 X74.29 Y94.17 E340.35440
G1 X114.47 Y120.44 E342.35018
G1 X81.78 Y85.28 E344.34593
G0 F12000 X82.35 Y85.31
G1 F1800 X90.58 Y77.65 E344.81319
G1 X132.65 Y122.90 E347.38213
G1 X182.41 Y122.90 E349.45079
G1 X226.54 Y89.61 E351.74914
G1 X233.31 Y98.58 E352.21638
G1 X201.07 Y122.90 E353.89515
G1 X211.99 Y122.90 E354.34906
G1 X240.60 Y111.57 E355.62852
G1 X244.74 Y122.02 E356.09578
G1 X231.86 Y127.12 E356.67172
G1 X231.86 Y178.46 E358.80623
G1 X244.54 Y183.58 E359.37475
G1 X240.33 Y194.00 E359.84194
G1 X210.84 Y182.10 E361.16402
G1 X208.03 Y182.10 E361.28089
G1 X236.74 Y200.87 E362.70715
G1 X230.59 Y210.28 E363.17439
G1 X188.00 Y182.43 E365.29006
G1 X222.65 Y219.69 E367.40571
G1 X214.43 Y227.35 E367.87297
G1 X172.35 Y182.10 E370.44195
G1 X122.59 Y182.10 E372.51060
G1 X78.46 Y215.39 E374.80898
G1 X71.69 Y206.42 E375.27622
G1 X103.93 Y182.10 E376.95501
G1 X93.01 Y182.10 E377.40893
G1 X64.40 Y193.43 E378.68840
G1 X60.26 Y182.98 E379.15566
G1 X76.76 Y176.45 E379.89339
G1 X76.76 Y128.00 E381.90762
G1 X60.46 Y121.42 E382.63833
G1 X64.67 Y111.00 E383.10556
G1 X94.16 Y122.90 E384.42762
G1 X96.97 Y122.90 E384.54445
G1 X68.26 Y104.13 E385.97066
G1 X74.41 Y94.72 E386.43789
G1 X117.00 Y122.57 E388.55352
G1 X82.35 Y85.31 E390.66911
G0 F12000 X82.91 Y85.33
G1 F1800 X90.56 Y78.21 E391.10313
G1 X132.48 Y123.30 E393.66269
G1 X182.54 Y123.30 E395.74415
G1 X226.46 Y90.17 E398.03140
G1 X232.75 Y98.50 E398.46539
G1 X199.88 Y123.30 E400.17717
G1 X212.06 Y123.30 E400.68389
G1 X240.38 Y112.09 E401.94989
G1 X244.22 Y121.80 E402.38393
G1 X231.46 Y126.85 E402.95454
G1 X231.46 Y178.73 E405.11158
G1 X244.02 Y183.80 E405.67467
G1 X240.11 Y193.48 E406.10862
G1 X210.92 Y181.70 E407.41731
G1 X206.69 Y181.70 E407.59325
G1 X236.19 Y200.99 E409.05875
G1 X230.48 Y209.72 E409.49273
G1 X187.62 Y181.70 E411.62175
G1 X186.78 Y181.70 E411.65667
G1 X222.09 Y219.68 E413.81259
G1 X214.44 Y226.79 E414.24661
G1 X172.52 Y181.70 E416.80620
G1 X122.46 Y181.70 E418.88766
G1 X78.54 Y214.83 E421.17494
G1 X72.25 Y206.50 E421.60893
G1 X105.12 Y181.70 E423.32073
G1 X92.94 Y181.70 E423.82745
G1 X64.62 Y192.91 E425.09347
G1 X60.78 Y183.21 E425.52751
G1 X77.16 Y176.72 E426.25990
G1 X77.16 Y127.73 E428.29666
G1 X60.98 Y121.20 E429.02195
G1 X64.89 Y111.52 E429.45594
G1 X94.08 Y123.30 E430.76461
G1 X98.31 Y123.30 E430.94051
G1 X68.81 Y104.01 E432.40595
G1 X74.52 Y95.28 E432.83993
G1 X117.38 Y123.30 E434.96892
G1 X118.22 Y123.30 E435.00380
G1 X82.91 Y85.33 E437.15967
G0 F12000 X83.48 Y85.34
G1 F1800 X90.53 Y78.78 E437.56042
G1 X132.30 Y123.70 E440.11056
G1 X182.68 Y123.70 E442.20479
G1 X226.38 Y90.73 E444.48100
G1 X232.19 Y98.43 E444.88173
G1 X198.68 Y123.70 E446.62658
G1 X212.14 Y123.70 E447.18614
G1 X240.15 Y112.61 E448.43873
G1 X243.70 Y121.57 E448.83949
G1 X231.06 Y126.58 E449.40477
G1 X231.06 Y179.00 E451.58435
G1 X243.50 Y184.02 E452.14202
G1 X239.89 Y192.96 E452.54270
G1 X211.00 Y181.30 E453.83801
G1 X205.35 Y181.30 E454.07295
G1 X235.64 Y201.11 E455.57760
G1 X230.36 Y209.17 E455.97834
G1 X187.74 Y181.30 E458.09570
G1 X185.86 Y181.30 E458.17369
G1 X221.52 Y219.66 E460.35115
G1 X214.47 Y226.22 E460.75190
G1 X172.70 Y181.30 E463.30208
G1 X122.33 Y181.30 E465.39630
G1 X78.62 Y214.27 E467.67254
G1 X72.81 Y206.57 E468.07327
G1 X106.32 Y181.30 E469.81815
G1 X92.86 Y181.30 E470.37771
G1 X64.85 Y192.39 E471.63030
G1 X61.30 Y183.43 E472.03107
G1 X77.56 Y176.99 E472.75814
G1 X77.56 Y127.46 E474.81744
G1 X61.50 Y120.98 E475.53735
G1 X65.11 Y112.04 E475.93804
G1 X94.00 Y123.70 E477.23334
G1 X99.65 Y123.70 E477.46824
G1 X69.36 Y103.89 E478.97284
G1 X74.64 Y95.83 E479.37357
G1 X117.26 Y123.70 E481.49091
G1 X119.14 Y123.70 E481.56891
G1 X83.48 Y85.34 E483.74633
G0 F12000 X84.04 Y85.37
G1 F1800 X90.51 Y79.34 E484.11384
G1 X132.13 Y124.10 E486.65460
G1 X182.81 Y124.10 E488.76167
G1 X226.31 Y91.29 E491.02684
G1 X231.62 Y98.35 E491.39433
G1 X197.49 Y124.10 E493.17219
G1 X212.22 Y124.10 E493.78464
G1 X239.93 Y113.13 E495.02367
G1 X243.18 Y121.34 E495.39112
G1 X230.66 Y126.30 E495.95105
G1 X230.66 Y179.27 E498.15312
G1 X242.98 Y184.24 E498.70541
G1 X239.67 Y192.44 E499.07288
G1 X211.08 Y180.90 E500.35476
G1 X204.01 Y180.90 E500.64870
G1 X235.08 Y201.22 E502.19245
G1 X230.24 Y208.62 E502.55994
G1 X187.85 Y180.90 E504.66566
G1 X184.94 Y180.90 E504.78677
G1 X220.96 Y219.63 E506.98578
G1 X214.49 Y225.66 E507.35329
G1 X172.87 Y180.90 E509.89409
G1 X122.19 Y180.90 E512.00116
G1 X78.69 Y213.71 E514.26635
G1 X73.38 Y206.65 E514.63384
G1 X107.51 Y180.90 E516.41173
G1 X92.78 Y180.90 E517.02417
G1 X65.07 Y191.87 E518.26322
G1 X61.82 Y183.66 E518.63067
G1 X77.96 Y177.26 E519.35238
G1 X77.96 Y127.19 E521.43422
G1 X62.02 Y120.76 E522.14870
G1 X65.33 Y112.56 E522.51617
G1 X93.92 Y124.10 E523.79804
G1 X100.99 Y124.10 E524.09197
G1 X69.92 Y103.78 E525.63571
G1 X74.76 Y96.38 E526.00320
G1 X117.15 Y124.10 E528.10889
G1 X120.06 Y124.10 E528.23000
G1 X84.04 Y85.37 E530.42898
G0 F12000 X84.61 Y85.39
G1 F1800 X90.49 Y79.91 E530.76319
G1 X131.95 Y124.50 E533.29454
G1 X182.94 Y124.50 E535.41442
G1 X226.23 Y91.85 E537.66848
G1 X231.06 Y98.27 E538.00269
G1 X196.29 Y124.50 E539.81359
G1 X212.29 Y124.50 E540.47883
G1 X239.70 Y113.65 E541.70445
G1 X242.66 Y121.12 E542.03866
G1 X230.26 Y126.03 E542.59325
G1 X230.26 Y179.54 E544.81790
G1 X242.46 Y184.46 E545.36476
G1 X239.45 Y191.91 E545.69892
G1 X211.15 Y180.50 E546.96739
G1 X202.66 Y180.50 E547.32041
G1 X234.53 Y201.34 E548.90336
G1 X230.13 Y208.06 E549.23755
G1 X187.97 Y180.50 E551.33158
G1 X184.02 Y180.50 E551.49584
G1 X220.39 Y219.61 E553.71639
G1 X214.51 Y225.09 E554.05061
G1 X173.05 Y180.50 E556.58198
G1 X122.06 Y180.50 E558.70186
G1 X78.77 Y213.15 E560.95595
G1 X73.94 Y206.73 E561.29016
G1 X108.71 Y180.50 E563.10108
G1 X92.71 Y180.50 E563.76632
G1 X65.30 Y191.35 E564.99195
G1 X62.34 Y183.88 E565.32617
G1 X78.36 Y177.53 E566.04256
G1 X78.36 Y126.92 E568.14689
G1 X62.54 Y120.54 E568.85594
G1 X65.55 Y113.08 E569.19014
G1 X93.85 Y124.50 E570.45859
G1 X102.34 Y124.50 E570.81161
G1 X70.47 Y103.66 E572.39454
G1 X74.87 Y96.94 E572.72873
G1 X117.03 Y124.50 E574.82274
G1 X120.98 Y124.50 E574.98700
G1 X84.61 Y85.39 E577.20752
G0 F12000 X85.17 Y85.41
G1 F1800 X90.47 Y80.48 E577.50849
G1 X131.78 Y124.90 E580.03045
G1 X183.08 Y124.90 E582.16318
G1 X226.15 Y92.41 E584.40620
G1 X230.50 Y98.19 E584.70716
G1 X195.10 Y124.90 E586.55107
G1 X212.37 Y124.90 E587.26912
G1 X239.48 Y114.17 E588.48127
G1 X242.14 Y120.90 E588.78223
G1 X229.86 Y125.76 E589.33150
G1 X229.86 Y179.81 E591.57868
G1 X241.94 Y184.68 E592.12012
G1 X239.23 Y191.40 E592.42104
G1 X211.23 Y180.10 E593.67615
G1 X201.32 Y180.10 E594.08820
G1 X233.97 Y201.45 E595.71035
G1 X230.01 Y207.51 E596.01130
G1 X188.09 Y180.10 E598.09367
G1 X183.10 Y180.10 E598.30109
G1 X219.83 Y219.59 E600.54320
G1 X214.53 Y224.52 E600.84417
G1 X173.22 Y180.10 E603.36616
G1 X121.92 Y180.10 E605.49889
G1 X78.85 Y212.59 E607.74194
G1 X74.50 Y206.81 E608.04290
G1 X109.90 Y180.10 E609.88683
G1 X92.63 Y180.10 E610.60488
G1 X65.52 Y190.83 E611.81705
G1 X62.86 Y184.10 E612.11800
G1 X78.76 Y177.81 E612.82908
G1 X78.76 Y126.65 E614.95594
G1 X63.06 Y120.32 E615.65962
G1 X65.77 Y113.61 E615.96056
G1 X93.77 Y124.90 E617.21566
G1 X103.68 Y124.90 E617.62771
G1 X71.03 Y103.55 E619.24983
G1 X74.99 Y97.49 E619.55078
G1 X116.91 Y124.90 E621.63313
G1 X121.90 Y124.90 E621.84055
G1 X85.17 Y85.41 E624.08263
G0 F12000 X85.74 Y85.43
G1 F1800 X90.45 Y81.04 E624.35036
G1 X131.60 Y125.30 E626.86294
G1 X183.21 Y125.30 E629.00851
G1 X226.07 Y92.97 E631.24042
G1 X229.94 Y98.11 E631.50811
G1 X193.90 Y125.30 E633.38508
G1 X212.44 Y125.30 E634.15593
G1 X239.25 Y114.69 E635.35471
G1 X241.62 Y120.67 E635.62240
G1 X229.46 Y125.49 E636.16636
G1 X229.46 Y179.70 E638.42023
G1 X228.52 Y179.70 E638.45944
G1 X241.42 Y184.90 E639.03777
G1 X239.01 Y190.87 E639.30543
G1 X211.31 Y179.70 E640.54710
G1 X199.98 Y179.70 E641.01827
G1 X233.42 Y201.57 E642.67964
G1 X229.90 Y206.96 E642.94733
G1 X188.21 Y179.70 E645.01799
G1 X182.19 Y179.70 E645.26856
G1 X219.26 Y219.57 E647.53224
G1 X214.55 Y223.96 E647.79997
G1 X173.40 Y179.70 E650.31258
G1 X121.79 Y179.70 E652.45815
G1 X78.93 Y212.03 E654.69009
G1 X75.06 Y206.89 E654.95777
G1 X111.10 Y179.70 E656.83478
G1 X92.56 Y179.70 E657.60562
G1 X65.75 Y190.31 E658.80442
G1 X63.38 Y184.33 E659.07211
G1 X79.16 Y178.08 E659.77787
G1 X79.16 Y126.38 E661.92726
G1 X63.58 Y120.10 E662.62551
G1 X65.99 Y114.13 E662.89318
G1 X93.69 Y125.30 E664.13483
G1 X105.02 Y125.30 E664.60600
G1 X71.58 Y103.43 E666.26735
G1 X75.10 Y98.04 E666.53504
G1 X116.79 Y125.30 E668.60568
G1 X122.81 Y125.30 E668.85621
G1 X85.74 Y85.43 E671.11983
G0 F12000 X86.30 Y85.45
G1 F1800 X90.43 Y81.61 E671.35428
G1 X131.43 Y125.70 E673.85748
G1 X183.34 Y125.70 E676.01581
G1 X225.99 Y93.53 E678.23669
G1 X229.38 Y98.03 E678.47107
G1 X192.71 Y125.70 E680.38108
G1 X212.52 Y125.70 E681.20472
G1 X239.03 Y115.20 E682.39008
G1 X241.10 Y120.45 E682.62453
G1 X227.84 Y125.70 E683.21773
G1 X229.06 Y125.70 E683.26849
G1 X229.06 Y179.30 E685.49688
G1 X226.46 Y179.30 E685.60510
G1 X240.90 Y185.12 E686.25243
G1 X238.78 Y190.35 E686.48687
G1 X211.39 Y179.30 E687.71510
G1 X198.63 Y179.30 E688.24531
G1 X232.87 Y201.69 E689.94585
G1 X229.78 Y206.40 E690.18026
G1 X188.33 Y179.30 E692.23927
G1 X181.27 Y179.30 E692.53287
G1 X218.70 Y219.55 E694.81806
G1 X214.57 Y223.39 E695.05251
G1 X173.57 Y179.30 E697.55574
G1 X121.66 Y179.30 E699.71407
G1 X79.01 Y211.47 E701.93497
G1 X75.62 Y206.97 E702.16935
G1 X112.29 Y179.30 E704.07939
G1 X92.48 Y179.30 E704.90303
G1 X65.97 Y189.80 E706.08841
G1 X63.90 Y184.55 E706.32285
G1 X79.56 Y178.35 E707.02325
G1 X79.56 Y126.11 E709.19514
G1 X64.11 Y119.88 E709.88796
G1 X66.22 Y114.65 E710.12241
G1 X93.61 Y125.70 E711.35062
G1 X106.36 Y125.70 E711.88083
G1 X72.13 Y103.31 E713.58135
G1 X75.22 Y98.60 E713.81575
G1 X116.67 Y125.70 E715.87474
G1 X123.73 Y125.70 E716.16835
G1 X86.30 Y85.45 E718.45350
G0 F12000 X86.87 Y85.47
G1 F1800 X90.41 Y82.17 E718.65468
G1 X131.26 Y126.10 E721.14847
G1 X183.48 Y126.10 E723.31965
G1 X225.91 Y94.09 E725.52945
G1 X228.82 Y97.95 E725.73061
G1 X191.51 Y126.10 E727.67363
G1 X212.60 Y126.10 E728.55012
G1 X238.80 Y115.72 E729.72198
G1 X240.59 Y120.22 E729.92317
G1 X225.74 Y126.10 E730.58697
G1 X228.66 Y126.10 E730.70833
G1 X228.66 Y178.90 E732.90346
G1 X224.40 Y178.90 E733.08074
G1 X240.37 Y185.35 E733.79711
G1 X238.56 Y189.83 E733.99824
G1 X211.47 Y178.90 E735.21310
G1 X197.29 Y178.90 E735.80235
G1 X232.31 Y201.80 E737.54208
G1 X229.66 Y205.85 E737.74324
G1 X188.45 Y178.90 E739.79056
G1 X180.35 Y178.90 E740.12736
G1 X218.13 Y219.53 E742.43411
G1 X214.59 Y222.83 E742.63529
G1 X173.74 Y178.90 E745.12911
G1 X121.52 Y178.90 E747.30029
G1 X79.09 Y210.91 E749.51012
G1 X76.18 Y207.04 E749.71127
G1 X113.49 Y178.90 E751.65432
G1 X92.40 Y178.90 E752.53081
G1 X66.20 Y189.28 E753.70269
G1 X64.42 Y184.78 E753.90388
G1 X79.96 Y178.62 E754.59894
G1 X79.96 Y126.10 E756.78259
G1 X80.60 Y126.10 E756.80941
G1 X64.63 Y119.65 E757.52572
G1 X66.44 Y115.17 E757.72689
G1 X93.53 Y126.10 E758.94173
G1 X107.71 Y126.10 E759.53097
G1 X72.69 Y103.20 E761.27068
G1 X75.33 Y99.15 E761.47185
G1 X116.55 Y126.10 E763.51914
G1 X124.65 Y126.10 E763.85594
G1 X86.87 Y85.47 E766.16266
G0 F12000 X87.43 Y85.49
G1 F1800 X90.39 Y82.74 E766.33057
G1 X131.08 Y126.50 E768.81497
G1 X183.61 Y126.50 E770.99900
G1 X225.83 Y94.65 E773.19769
G1 X228.26 Y97.88 E773.36560
G1 X190.32 Y126.50 E775.34169
G1 X212.67 Y126.50 E776.27106
G1 X238.58 Y116.24 E777.42947
G1 X240.07 Y120.00 E777.59742
G1 X223.64 Y126.50 E778.33173
G1 X228.26 Y126.50 E778.52360
G1 X228.26 Y178.50 E780.68547
G1 X222.34 Y178.50 E780.93176
G1 X239.85 Y185.57 E781.71718
G1 X238.34 Y189.31 E781.88505
G1 X211.54 Y178.50 E783.08650
G1 X195.95 Y178.50 E783.73482
G1 X231.76 Y201.92 E785.51372
G1 X229.55 Y205.30 E785.68162
G1 X188.57 Y178.50 E787.71729
G1 X179.43 Y178.50 E788.09721
G1 X217.57 Y219.51 E790.42548
G1 X214.61 Y222.26 E790.59340
G1 X173.92 Y178.50 E793.07783
G1 X121.39 Y178.50 E795.26185
G1 X79.17 Y210.35 E797.46057
G1 X76.74 Y207.12 E797.62848
G1 X114.68 Y178.50 E799.60463
G1 X92.33 Y178.50 E800.53404
G1 X66.42 Y188.76 E801.69247
G1 X64.93 Y185.00 E801.86041
G1 X81.36 Y178.50 E802.59478
G1 X80.36 Y178.50 E802.63627
G1 X80.36 Y126.50 E804.79814
G1 X82.67 Y126.50 E804.89401
G1 X65.15 Y119.43 E805.67941
G1 X66.66 Y115.69 E805.84728
G1 X93.46 Y126.50 E807.04872
G1 X109.05 Y126.50 E807.69704
G1 X73.24 Y103.08 E809.47592
G1 X75.45 Y99.70 E809.64382
G1 X116.43 Y126.50 E811.67947
G1 X125.57 Y126.50 E812.05938
G1 X87.43 Y85.49 E814.38763
G0 F12000 X88.00 Y85.51
G1 F1800 X90.37 Y83.30 E814.52230
G1 X130.91 Y126.90 E816.99732
G1 X183.75 Y126.90 E819.19411
G1 X225.75 Y95.21 E821.38177
G1 X227.70 Y97.80 E821.51640
G1 X189.12 Y126.90 E823.52553
G1 X212.75 Y126.90 E824.50775
G1 X238.35 Y116.76 E825.65270
G1 X239.55 Y119.77 E825.78739
G1 X221.55 Y126.90 E826.59227
G1 X227.86 Y126.90 E826.85469
G1 X227.86 Y178.10 E828.98330
G1 X220.28 Y178.10 E829.29860
G1 X239.33 Y185.79 E830.15301
G1 X238.12 Y188.79 E830.28765
G1 X211.62 Y178.10 E831.47570
G1 X194.61 Y178.10 E832.18310
G1 X231.21 Y202.03 E834.00124
G1 X229.43 Y204.74 E834.13588
G1 X188.69 Y178.10 E836.15983
G1 X178.51 Y178.10 E836.58290
G1 X217.00 Y219.49 E838.93274
G1 X214.63 Y221.70 E839.06742
G1 X174.09 Y178.10 E841.54246
G1 X121.25 Y178.10 E843.73925
G1 X79.25 Y209.79 E845.92694
G1 X77.30 Y207.20 E846.06157
G1 X115.88 Y178.10 E848.07073
G1 X92.25 Y178.10 E849.05294
G1 X66.65 Y188.24 E850.19791
G1 X65.45 Y185.23 E850.33260
G1 X83.45 Y178.10 E851.13753
G1 X80.76 Y178.10 E851.24958
G1 X80.76 Y126.90 E853.37818
G1 X84.73 Y126.90 E853.54311
G1 X65.67 Y119.21 E854.39755
G1 X66.88 Y116.21 E854.53218
G1 X93.38 Y126.90 E855.72022
G1 X110.39 Y126.90 E856.42762
G1 X73.79 Y102.97 E858.24573
G1 X75.57 Y100.26 E858.38037
G1 X116.31 Y126.90 E860.40431
G1 X126.49 Y126.90 E860.82737
G1 X88.00 Y85.51 E863.17719
G0 F12000 X88.56 Y85.53
G1 F1800 X90.35 Y83.87 E863.27862
G1 X130.73 Y127.30 E865.74425
G1 X183.88 Y127.30 E867.95388
G1 X225.68 Y95.77 E870.13047
G1 X227.14 Y97.72 E870.23185
G1 X187.93 Y127.30 E872.27402
G1 X212.82 Y127.30 E873.30903
G1 X238.13 Y117.28 E874.44053
G1 X239.03 Y119.55 E874.54196
G1 X219.45 Y127.30 E875.41740
G1 X227.46 Y127.30 E875.75038
G1 X227.46 Y177.70 E877.84572
G1 X218.21 Y177.70 E878.23008
G1 X238.81 Y186.01 E879.15353
G1 X237.90 Y188.27 E879.25489
G1 X211.70 Y177.70 E880.42957
G1 X193.26 Y177.70 E881.19601
G1 X230.65 Y202.15 E883.05334
G1 X229.32 Y204.19 E883.15474
G1 X188.81 Y177.70 E885.16703
G1 X177.59 Y177.70 E885.63326
G1 X216.44 Y219.47 E888.00466
G1 X214.65 Y221.13 E888.10609
G1 X174.27 Y177.70 E890.57175
G1 X121.12 Y177.70 E892.78139
G1 X79.32 Y209.23 E894.95800
G1 X77.86 Y207.28 E895.05938
G1 X117.07 Y177.70 E897.10157
G1 X92.17 Y177.70 E898.13659
G1 X66.87 Y187.72 E899.26810
G1 X65.97 Y185.45 E899.36953
G1 X85.55 Y177.70 E900.24499
G1 X81.16 Y177.70 E900.42754
G1 X81.16 Y127.30 E902.52289
G1 X86.79 Y127.30 E902.75683
G1 X66.19 Y118.99 E903.68026
G1 X67.10 Y116.73 E903.78162
G1 X93.30 Y127.30 E904.95629
G1 X111.74 Y127.30 E905.72273
G1 X74.35 Y102.85 E907.58004
G1 X75.68 Y100.81 E907.68143
G1 X116.19 Y127.30 E909.69371
G1 X127.41 Y127.30 E910.15993
G1 X88.56 Y85.53 E912.53130
G0 F12000 X89.69 Y85.57
;TYPE:WALL-INNER
G1 F1800 X90.31 Y85.00 E912.56619
G1 X130.39 Y128.10 E915.01308
G1 X184.15 Y128.10 E917.24829
G1 X225.52 Y96.89 E919.40275
G1 X226.02 Y97.56 E919.43763
G1 X186.63 Y127.28 E921.48933
G1 X186.90 Y128.10 E921.52524
G1 X212.98 Y128.10 E922.60940
G1 X237.68 Y118.32 E923.71396
G1 X237.99 Y119.10 E923.74884
G1 X217.72 Y127.12 E924.65523
G1 X217.91 Y128.10 E924.69650
G1 X226.66 Y128.10 E925.06045
G1 X226.66 Y176.90 E927.08927
G1 X216.69 Y176.90 E927.50373
G1 X216.50 Y177.87 E927.54485
G1 X237.77 Y186.45 E928.49840
G1 X237.46 Y187.23 E928.53328
G1 X211.85 Y176.90 E929.68121
G1 X192.15 Y176.90 E930.50049
G1 X191.89 Y177.76 E930.53768
G1 X229.55 Y202.38 E932.40825
G1 X229.09 Y203.08 E932.44314
G1 X189.05 Y176.90 E934.43210
G1 X176.74 Y176.90 E934.94360
G1 X176.43 Y177.62 E934.97629
G1 X215.31 Y219.43 E937.34982
G1 X214.69 Y220.00 E937.38470
G1 X174.61 Y176.90 E939.83162
G1 X120.85 Y176.90 E942.06683
G1 X79.48 Y208.11 E944.22132
G1 X78.98 Y207.44 E944.25620
G1 X118.37 Y177.72 E946.30793
G1 X118.10 Y176.90 E946.34383
G1 X92.02 Y176.90 E947.42799
G1 X67.32 Y186.68 E948.53257
G1 X67.01 Y185.90 E948.56745
G1 X87.28 Y177.87 E949.47385
G1 X87.09 Y176.90 E949.51512
G1 X81.96 Y176.90 E949.72865
G1 X81.96 Y128.10 E951.75748
G1 X88.31 Y128.10 E952.02152
G1 X88.50 Y127.13 E952.06264
G1 X67.23 Y118.55 E953.01616
G1 X67.54 Y117.77 E953.05108
G1 X93.15 Y128.10 E954.19899
G1 X112.85 Y128.10 E955.01827
G1 X113.11 Y127.24 E955.05546
G1 X75.45 Y102.62 E956.92600
G1 X75.91 Y101.92 E956.96090
G1 X115.95 Y128.10 E958.94983
G1 X128.26 Y128.10 E959.46133
G1 X128.57 Y127.38 E959.49403
G1 X89.69 Y85.57 E961.86752
G0 F12000 X89.13 Y85.55
;TYPE:WALL-OUTER
G1 F1800 X90.33 Y84.43 E961.93571
G1 X130.56 Y127.70 E964.39198
G1 X184.01 Y127.70 E966.61438
G1 X225.60 Y96.33 E968.77993
G1 X226.58 Y97.64 E968.84806
G1 X187.10 Y127.43 E970.90439
G1 X187.19 Y127.70 E970.91636
G1 X212.90 Y127.70 E971.98538
G1 X237.91 Y117.80 E973.10340
G1 X238.51 Y119.32 E973.17154
G1 X218.17 Y127.38 E974.08078
G1 X218.24 Y127.70 E974.09454
G1 X227.06 Y127.70 E974.46136
G1 X227.06 Y177.30 E976.52344
G1 X217.02 Y177.30 E976.94082
G1 X216.96 Y177.62 E976.95454
G1 X238.29 Y186.23 E977.91102
G1 X237.68 Y187.75 E977.97916
G1 X211.78 Y177.30 E979.14049
G1 X192.44 Y177.30 E979.94418
G1 X192.36 Y177.59 E979.95658
G1 X230.10 Y202.26 E981.83136
G1 X229.20 Y203.64 E981.89953
G1 X188.93 Y177.30 E983.90017
G1 X177.01 Y177.30 E984.39583
G1 X176.90 Y177.54 E984.40672
G1 X215.87 Y219.45 E986.78604
G1 X214.67 Y220.57 E986.85423
G1 X174.44 Y177.30 E989.31053
G1 X120.98 Y177.30 E991.53293
G1 X79.40 Y208.67 E993.69850
G1 X78.42 Y207.36 E993.76663
G1 X117.90 Y177.57 E995.82299
G1 X117.81 Y177.30 E995.83496
G1 X92.10 Y177.30 E996.90398
G1 X67.09 Y187.20 E998.02202
G1 X66.49 Y185.68 E998.09016
G1 X86.83 Y177.62 E998.99942
G1 X86.76 Y177.30 E999.01317
G1 X81.56 Y177.30 E999.22957
G1 X81.56 Y127.70 E1001.29166
G1 X87.98 Y127.70 E1001.55861
G1 X88.04 Y127.38 E1001.57233
G1 X66.71 Y118.77 E1002.52880
G1 X67.32 Y117.25 E1002.59694
G1 X93.22 Y127.70 E1003.75825
G1 X112.56 Y127.70 E1004.56194
G1 X112.64 Y127.41 E1004.57434
G1 X74.90 Y102.74 E1006.44910
G1 X75.80 Y101.36 E1006.51727
G1 X116.07 Y127.70 E1008.51789
G1 X127.99 Y127.70 E1009.01355
G1 X128.10 Y127.46 E1009.02444
G1 X89.13 Y85.55 E1011.40372
G0 F12000 X90.15 Y85.34
;TYPE:FILL
G1 F1800 X94.24 Y89.43 E1011.64411
G0 F12000 X90.83 Y86.58
G1 F1800 X101.73 Y97.49 E1012.28517
G0 F12000 X98.33 Y94.65
G1 F1800 X109.23 Y105.55 E1012.92599
G0 F12000 X105.83 Y102.71
G1 F1800 X116.72 Y113.61 E1013.56663
G0 F12000 X113.32 Y110.78
G1 F1800 X124.22 Y121.67 E1014.20707
G0 F12000 X120.82 Y118.84
G1 F1800 X178.74 Y176.76 E1017.61225
G0 F12000 X179.30 Y176.76
G1 F1800 X130.78 Y128.24 E1020.46492
G0 F12000 X131.35 Y128.24
G1 F1800 X179.87 Y176.76 E1023.31759
G0 F12000 X180.44 Y176.76
G1 F1800 X131.92 Y128.24 E1026.17026
G0 F12000 X132.48 Y128.24
G1 F1800 X181.00 Y176.76 E1029.02294
G0 F12000 X181.57 Y176.76
G1 F1800 X133.05 Y128.24 E1031.87561
G0 F12000 X133.61 Y128.24
G1 F1800 X182.13 Y176.76 E1034.72828
G0 F12000 X182.70 Y176.76
G1 F1800 X134.18 Y128.24 E1037.58098
G0 F12000 X134.75 Y128.24
G1 F1800 X183.26 Y176.76 E1040.43366
G0 F12000 X183.83 Y176.76
G1 F1800 X135.31 Y128.24 E1043.28633
G0 F12000 X135.88 Y128.24
G1 F1800 X184.40 Y176.76 E1046.13903
G0 F12000 X184.96 Y176.76
G1 F1800 X136.44 Y128.24 E1048.99170
G0 F12000 X137.01 Y128.24
G1 F1800 X185.53 Y176.76 E1051.84438
G0 F12000 X186.09 Y176.76
G1 F1800 X137.57 Y128.24 E1054.69708
G0 F12000 X138.14 Y128.24
G1 F1800 X186.66 Y176.76 E1057.54975
G0 F12000 X187.22 Y176.76
G1 F1800 X138.71 Y128.24 E1060.40242
G0 F12000 X139.27 Y128.24
G1 F1800 X187.79 Y176.76 E1063.25509
G0 F12000 X188.35 Y176.76
G1 F1800 X139.84 Y128.24 E1066.10777
G0 F12000 X140.40 Y128.24
G1 F1800 X188.92 Y176.76 E1068.96044
G0 F12000 X190.24 Y177.51
G1 F1800 X140.97 Y128.24 E1071.85744
G0 F12000 X141.53 Y128.24
G1 F1800 X191.87 Y178.58 E1074.81730
G0 F12000 X191.84 Y177.42
G1 F1800 X142.66 Y128.24 E1077.70878
G0 F12000 X143.23 Y128.24
G1 F1800 X191.97 Y176.98 E1080.57468
G0 F12000 X192.31 Y176.76
G1 F1800 X143.80 Y128.24 E1083.42735
G0 F12000 X144.36 Y128.24
G1 F1800 X192.88 Y176.76 E1086.28003
G0 F12000 X193.45 Y176.76
G1 F1800 X144.93 Y128.24 E1089.13273
G0 F12000 X145.49 Y128.24
G1 F1800 X194.01 Y176.76 E1091.98540
G0 F12000 X194.58 Y176.76
G1 F1800 X146.06 Y128.24 E1094.83807
G0 F12000 X146.62 Y128.24
G1 F1800 X195.14 Y176.76 E1097.69078
G0 F12000 X195.71 Y176.76
G1 F1800 X147.19 Y128.24 E1100.54345
G0 F12000 X147.76 Y128.24
G1 F1800 X196.27 Y176.76 E1103.39612
G0 F12000 X196.84 Y176.76
G1 F1800 X148.32 Y128.24 E1106.24879
G0 F12000 X148.89 Y128.24
G1 F1800 X197.41 Y176.76 E1109.10147
G0 F12000 X197.97 Y176.76
G1 F1800 X149.45 Y128.24 E1111.95414
G0 F12000 X150.02 Y128.24
G1 F1800 X198.54 Y176.76 E1114.80681
G0 F12000 X199.10 Y176.76
G1 F1800 X150.58 Y128.24 E1117.65948
G0 F12000 X151.15 Y128.24
G1 F1800 X199.67 Y176.76 E1120.51216
G0 F12000 X200.23 Y176.76
G1 F1800 X151.72 Y128.24 E1123.36483
G0 F12000 X152.28 Y128.24
G1 F1800 X200.80 Y176.76 E1126.21750
G0 F12000 X201.37 Y176.76
G1 F1800 X152.85 Y128.24 E1129.07017
G0 F12000 X153.41 Y128.24
G1 F1800 X201.93 Y176.76 E1131.92284
G0 F12000 X202.50 Y176.76
G1 F1800 X153.98 Y128.24 E1134.77552
G0 F12000 X154.54 Y128.24
G1 F1800 X203.06 Y176.76 E1137.62819
G0 F12000 X203.63 Y176.76
G1 F1800 X155.11 Y128.24 E1140.48086
G0 F12000 X155.68 Y128.24
G1 F1800 X204.19 Y176.76 E1143.33356
G0 F12000 X204.76 Y176.76
G1 F1800 X156.24 Y128.24 E1146.18624
G0 F12000 X156.81 Y128.24
G1 F1800 X205.32 Y176.76 E1149.03891
G0 F12000 X205.89 Y176.76
G1 F1800 X157.37 Y128.24 E1151.89161
G0 F12000 X157.94 Y128.24
G1 F1800 X206.46 Y176.76 E1154.74428
G0 F12000 X207.02 Y176.76
G1 F1800 X158.50 Y128.24 E1157.59696
G0 F12000 X159.07 Y128.24
G1 F1800 X207.59 Y176.76 E1160.44963
G0 F12000 X208.15 Y176.76
G1 F1800 X159.63 Y128.24 E1163.30230
G0 F12000 X160.20 Y128.24
G1 F1800 X208.72 Y176.76 E1166.15497
G0 F12000 X209.28 Y176.76
G1 F1800 X160.77 Y128.24 E1169.00765
G0 F12000 X161.33 Y128.24
G1 F1800 X209.85 Y176.76 E1171.86032
G0 F12000 X210.42 Y176.76
G1 F1800 X161.90 Y128.24 E1174.71299
G0 F12000 X162.46 Y128.24
G1 F1800 X210.98 Y176.76 E1177.56566
G0 F12000 X211.55 Y176.76
G1 F1800 X163.03 Y128.24 E1180.41834
G0 F12000 X163.59 Y128.24
G1 F1800 X212.27 Y176.92 E1183.28042
G0 F12000 X213.22 Y177.30
G1 F1800 X164.16 Y128.24 E1186.16501
G0 F12000 X164.73 Y128.24
G1 F1800 X214.17 Y177.68 E1189.07210
G0 F12000 X215.12 Y178.07
G1 F1800 X165.29 Y128.24 E1192.00168
G0 F12000 X165.86 Y128.24
G1 F1800 X216.07 Y178.45 E1194.95378
G0 F12000 X216.40 Y177.65
G1 F1800 X166.99 Y128.24 E1197.85901
G0 F12000 X166.42 Y128.24
G1 F1800 X217.01 Y178.83 E1200.83360
G0 F12000 X216.95 Y178.20
G1 F1800 X217.96 Y179.21 E1200.89298
G0 F12000 X217.90 Y178.59
G1 F1800 X218.91 Y179.60 E1200.95240
G0 F12000 X218.85 Y178.97
G1 F1800 X219.86 Y179.98 E1201.01178
G0 F12000 X219.80 Y179.35
G1 F1800 X220.81 Y180.36 E1201.07119
G0 F12000 X220.75 Y179.73
G1 F1800 X221.76 Y180.74 E1201.13061
G0 F12000 X221.69 Y180.12
G1 F1800 X222.71 Y181.13 E1201.19002
G0 F12000 X222.64 Y180.50
G1 F1800 X223.65 Y181.51 E1201.24944
G0 F12000 X223.59 Y180.88
G1 F1800 X224.60 Y181.89 E1201.30888
G0 F12000 X224.54 Y181.26
G1 F1800 X225.55 Y182.28 E1201.36826
G0 F12000 X225.49 Y181.65
G1 F1800 X226.50 Y182.66 E1201.42771
G0 F12000 X226.44 Y182.03
G1 F1800 X227.45 Y183.04 E1201.48712
G0 F12000 X227.38 Y182.41
G1 F1800 X228.40 Y183.42 E1201.54650
G0 F12000 X228.33 Y182.79
G1 F1800 X229.34 Y183.81 E1201.60592
G0 F12000 X229.28 Y183.18
G1 F1800 X230.29 Y184.19 E1201.66536
G0 F12000 X230.23 Y183.56
G1 F1800 X231.24 Y184.57 E1201.72480
G0 F12000 X231.18 Y183.94
G1 F1800 X232.19 Y184.95 E1201.78427
G0 F12000 X232.13 Y184.33
G1 F1800 X233.14 Y185.34 E1201.84369
G0 F12000 X233.07 Y184.71
G1 F1800 X234.09 Y185.72 E1201.90307
G0 F12000 X234.02 Y185.09
G1 F1800 X235.03 Y186.10 E1201.96249
G0 F12000 X234.97 Y185.47
G1 F1800 X235.98 Y186.49 E1202.02193
G0 F12000 X235.92 Y185.86
G1 F1800 X236.93 Y186.87 E1202.08137
G0 F12000 X237.47 Y186.84
G1 F1800 X236.87 Y186.24 E1202.11647
G0 F12000 X216.55 Y177.84
G0 X216.73 Y176.94
G0 X226.26 Y176.76
G1 F1800 X177.74 Y128.24 E1204.96920
G0 F12000 X177.17 Y128.24
G1 F1800 X225.69 Y176.76 E1207.82194
G0 F12000 X225.12 Y176.76
G1 F1800 X176.61 Y128.24 E1210.67467
G0 F12000 X176.04 Y128.24
G1 F1800 X224.56 Y176.76 E1213.52740
G0 F12000 X223.99 Y176.76
G1 F1800 X175.47 Y128.24 E1216.38013
G0 F12000 X174.91 Y128.24
G1 F1800 X223.43 Y176.76 E1219.23286
G0 F12000 X222.86 Y176.76
G1 F1800 X174.34 Y128.24 E1222.08559
G0 F12000 X173.78 Y128.24
G1 F1800 X222.30 Y176.76 E1224.93832
G0 F12000 X221.73 Y176.76
G1 F1800 X173.21 Y128.24 E1227.79105
G0 F12000 X172.65 Y128.24
G1 F1800 X221.16 Y176.76 E1230.64379
G0 F12000 X220.60 Y176.76
G1 F1800 X172.08 Y128.24 E1233.49652
G0 F12000 X171.51 Y128.24
G1 F1800 X220.03 Y176.76 E1236.34922
G0 F12000 X219.47 Y176.76
G1 F1800 X170.95 Y128.24 E1239.20195
G0 F12000 X170.38 Y128.24
G1 F1800 X218.90 Y176.76 E1242.05468
G0 F12000 X218.34 Y176.76
G1 F1800 X169.82 Y128.24 E1244.90738
G0 F12000 X169.25 Y128.24
G1 F1800 X217.77 Y176.76 E1247.76011
G0 F12000 X217.21 Y176.76
G1 F1800 X168.69 Y128.24 E1250.61285
G0 F12000 X168.12 Y128.24
G1 F1800 X216.64 Y176.76 E1253.46555
G0 F12000 X216.49 Y177.18
G1 F1800 X167.56 Y128.24 E1256.34291
G0 F12000 X178.30 Y128.24
G1 F1800 X226.52 Y176.45 E1259.17774
G0 F12000 X226.52 Y175.89
G1 F1800 X178.87 Y128.24 E1261.97932
G0 F12000 X179.43 Y128.24
G1 F1800 X226.52 Y175.32 E1264.74765
G0 F12000 X226.52 Y174.76
G1 F1800 X180.00 Y128.24 E1267.48270
G0 F12000 X180.57 Y128.24
G1 F1800 X226.52 Y174.19 E1270.18450
G0 F12000 X226.52 Y173.63
G1 F1800 X181.13 Y128.24 E1272.85305
G0 F12000 X181.70 Y128.24
G1 F1800 X226.52 Y173.06 E1275.48833
G0 F12000 X226.52 Y172.50
G1 F1800 X182.26 Y128.24 E1278.09035
G0 F12000 X182.83 Y128.24
G1 F1800 X226.52 Y171.93 E1280.65913
G0 F12000 X226.52 Y171.36
G1 F1800 X183.39 Y128.24 E1283.19462
G0 F12000 X183.96 Y128.24
G1 F1800 X226.52 Y170.80 E1285.69687
G0 F12000 X226.52 Y170.23
G1 F1800 X184.38 Y128.10 E1288.17422
G0 F12000 X184.71 Y127.85
G1 F1800 X226.52 Y169.67 E1290.63260
G0 F12000 X226.52 Y169.10
G1 F1800 X185.03 Y127.61 E1293.07206
G0 F12000 X185.35 Y127.37
G1 F1800 X226.52 Y168.53 E1295.49252
G0 F12000 X226.52 Y167.97
G1 F1800 X185.67 Y127.12 E1297.89402
G0 F12000 X186.00 Y126.88
G1 F1800 X186.62 Y127.22 E1297.92491
G1 X186.48 Y126.52 E1297.94833
G1 X187.20 Y126.67 E1297.97179
G1 X187.12 Y126.03 E1297.99517
G1 X187.84 Y126.19 E1298.01863
G1 X187.77 Y125.54 E1298.04201
G1 X188.49 Y125.70 E1298.06548
G1 X188.41 Y125.06 E1298.08879
G1 X189.13 Y125.21 E1298.11225
G1 X189.06 Y124.57 E1298.13570
G1 X189.78 Y124.73 E1298.15912
G1 X189.70 Y124.08 E1298.18251
G1 X190.43 Y124.24 E1298.20592
G1 X190.35 Y123.60 E1298.22937
G1 X191.07 Y123.75 E1298.25276
G1 X190.99 Y123.11 E1298.27614
G1 X191.71 Y123.27 E1298.29952
G1 X191.64 Y122.62 E1298.32297
G1 X192.36 Y122.78 E1298.34643
G1 X192.28 Y122.14 E1298.36981
G1 X193.00 Y122.29 E1298.39327
G1 X192.93 Y121.65 E1298.41672
G1 X193.65 Y121.81 E1298.44018
G1 X193.57 Y121.17 E1298.46357
G1 X194.29 Y121.32 E1298.48702
G1 X194.22 Y120.68 E1298.51048
G1 X194.94 Y120.83 E1298.53389
G1 X194.86 Y120.19 E1298.55735
G1 X195.58 Y120.35 E1298.58076
G1 X195.51 Y119.71 E1298.60411
G1 X196.23 Y119.86 E1298.62745
G1 X196.15 Y119.22 E1298.65083
G1 X196.87 Y119.37 E1298.67418
G1 X196.80 Y118.73 E1298.69752
G1 X197.52 Y118.89 E1298.72087
G1 X197.44 Y118.25 E1298.74425
G1 X198.16 Y118.40 E1298.76760
G1 X198.09 Y117.76 E1298.79101
G1 X198.81 Y117.92 E1298.81439
G1 X198.73 Y117.27 E1298.83777
G1 X199.45 Y117.43 E1298.86115
G1 X199.38 Y116.79 E1298.88450
G1 X200.10 Y116.94 E1298.90788
G1 X200.02 Y116.30 E1298.93123
G1 X200.74 Y116.45 E1298.95460
G1 X200.67 Y115.81 E1298.97795
G1 X201.39 Y115.97 E1299.00133
G1 X201.31 Y115.33 E1299.02467
G1 X202.03 Y115.48 E1299.04801
G1 X201.96 Y114.84 E1299.07136
G1 X202.68 Y115.00 E1299.09471
G1 X202.60 Y114.36 E1299.11805
G1 X203.32 Y114.51 E1299.14139
G1 X203.25 Y113.87 E1299.16473
G1 X203.97 Y114.02 E1299.18808
G1 X203.89 Y113.38 E1299.21143
G1 X204.61 Y113.54 E1299.23480
G1 X204.54 Y112.89 E1299.25815
G1 X205.26 Y113.05 E1299.28153
G1 X205.18 Y112.41 E1299.30487
G1 X205.90 Y112.56 E1299.32825
G1 X205.83 Y111.92 E1299.35159
G1 X206.55 Y112.08 E1299.37506
G1 X206.47 Y111.44 E1299.39844
G1 X207.19 Y111.59 E1299.42190
G1 X207.12 Y110.95 E1299.44535
G1 X207.84 Y111.11 E1299.46881
G1 X207.76 Y110.46 E1299.49212
G1 X208.48 Y110.62 E1299.51558
G1 X208.41 Y109.98 E1299.53896
G1 X209.13 Y110.13 E1299.56243
G1 X209.05 Y109.49 E1299.58581
G1 X209.77 Y109.64 E1299.60922
G1 X209.69 Y109.00 E1299.63268
G1 X210.42 Y109.16 E1299.65609
G1 X210.34 Y108.52 E1299.67948
G1 X211.06 Y108.67 E1299.70286
G1 X210.99 Y108.03 E1299.72631
G1 X211.71 Y108.19 E1299.74970
G1 X211.63 Y107.54 E1299.77315
G1 X212.35 Y107.70 E1299.79660
G1 X212.28 Y107.06 E1299.82005
G1 X213.00 Y107.21 E1299.84352
G1 X212.92 Y106.57 E1299.86697
G1 X213.64 Y106.73 E1299.89042
G1 X213.56 Y106.08 E1299.91380
G1 X214.29 Y106.24 E1299.93727
G1 X214.21 Y105.60 E1299.96065
G1 X214.93 Y105.75 E1299.98411
G1 X214.85 Y105.11 E1300.00756
G1 X215.58 Y105.27 E1300.03098
G1 X215.50 Y104.62 E1300.05443
G1 X216.22 Y104.78 E1300.07784
G1 X216.14 Y104.14 E1300.10130
G1 X216.87 Y104.29 E1300.12468
G1 X216.79 Y103.65 E1300.14813
G1 X217.51 Y103.81 E1300.17151
G1 X217.43 Y103.17 E1300.19496
G1 X218.16 Y103.32 E1300.21842
G1 X218.08 Y102.68 E1300.24188
G1 X218.80 Y102.83 E1300.26525
G1 X218.72 Y102.19 E1300.28864
G1 X219.44 Y102.35 E1300.31210
G1 X219.37 Y101.71 E1300.33548
G1 X220.09 Y101.86 E1300.35886
G1 X220.01 Y101.22 E1300.38232
G1 X220.74 Y101.38 E1300.40573
G1 X220.66 Y100.73 E1300.42919
G1 X221.38 Y100.89 E1300.45260
G1 X221.30 Y100.25 E1300.47605
G1 X222.02 Y100.40 E1300.49944
G1 X221.95 Y99.76 E1300.52289
G1 X222.67 Y99.92 E1300.54627
G1 X222.59 Y99.27 E1300.56972
G1 X223.31 Y99.43 E1300.59318
G1 X223.24 Y98.79 E1300.61663
G1 X223.96 Y98.94 E1300.64001
G1 X223.88 Y98.30 E1300.66346
G1 X224.60 Y98.46 E1300.68692
G1 X224.53 Y97.81 E1300.71031
G1 X225.25 Y97.97 E1300.73368
G1 X225.17 Y97.33 E1300.75714
G1 X225.73 Y97.61 E1300.78317
G0 F12000 X186.67 Y127.30
G0 X186.93 Y128.06
G0 X212.98 Y128.10
G0 X234.34 Y119.79
G1 F1800 X234.57 Y120.30 E1300.80845
G1 X233.73 Y120.03 E1300.83372
G1 X233.76 Y120.62 E1300.85905
G1 X232.92 Y120.35 E1300.88434
G1 X232.95 Y120.94 E1300.90961
G1 X232.11 Y120.67 E1300.93490
G1 X232.14 Y121.26 E1300.96017
G1 X231.30 Y120.99 E1300.98535
G1 X231.33 Y121.58 E1301.01057
G1 X230.49 Y121.31 E1301.03584
G1 X230.52 Y121.91 E1301.06115
G1 X229.68 Y121.64 E1301.08645
G1 X229.71 Y122.23 E1301.11177
G1 X228.87 Y121.96 E1301.13698
G1 X228.90 Y122.55 E1301.16223
G1 X228.06 Y122.28 E1301.18753
G1 X228.09 Y122.87 E1301.21284
G1 X227.25 Y122.60 E1301.23815
G1 X227.28 Y123.19 E1301.26348
G1 X226.44 Y122.92 E1301.28868
G1 X226.47 Y123.51 E1301.31401
G1 X225.63 Y123.24 E1301.33921
G1 X225.65 Y123.83 E1301.36448
G1 X224.82 Y123.56 E1301.38968
G1 X224.84 Y124.15 E1301.41502
G1 X224.01 Y123.88 E1301.44031
G1 X224.03 Y124.47 E1301.46558
G1 X223.20 Y124.20 E1301.49085
G1 X223.22 Y124.79 E1301.51611
G1 X222.39 Y124.52 E1301.54141
G1 X222.41 Y125.11 E1301.56674
G1 X221.58 Y124.84 E1301.59207
G1 X221.60 Y125.44 E1301.61734
G1 X220.77 Y125.17 E1301.64263
G1 X220.79 Y125.76 E1301.66790
G1 X219.96 Y125.49 E1301.69317
G1 X219.98 Y126.08 E1301.71844
G1 X219.15 Y125.81 E1301.74373
G1 X219.17 Y126.40 E1301.76900
G1 X218.34 Y126.13 E1301.79430
G1 X218.36 Y126.72 E1301.81963
G1 X217.52 Y126.45 E1301.84492
G1 X217.75 Y126.96 E1301.86824
G0 F12000 X217.63 Y127.40
G1 F1800 X216.92 Y126.69 E1301.91010
G0 F12000 X216.51 Y126.85
G1 F1800 X217.76 Y128.10 E1301.98371
G0 F12000 X217.90 Y128.24
G1 F1800 X226.52 Y136.86 E1302.49033
G0 F12000 X226.52 Y136.29
G1 F1800 X218.47 Y128.24 E1302.96370
G0 F12000 X219.03 Y128.24
G1 F1800 X226.52 Y135.72 E1303.40382
G0 F12000 X226.52 Y135.16
G1 F1800 X219.60 Y128.24 E1303.81066
G0 F12000 X220.16 Y128.24
G1 F1800 X226.52 Y134.59 E1304.18425
G0 F12000 X226.52 Y134.03
G1 F1800 X220.73 Y128.24 E1304.52459
G0 F12000 X221.29 Y128.24
G1 F1800 X226.52 Y133.46 E1304.83165
G0 F12000 X226.52 Y132.90
G1 F1800 X221.86 Y128.24 E1305.10547
G0 F12000 X222.43 Y128.24
G1 F1800 X226.52 Y132.33 E1305.34603
G0 F12000 X226.52 Y131.76
G1 F1800 X222.99 Y128.24 E1305.55332
G0 F12000 X223.56 Y128.24
G1 F1800 X226.52 Y131.20 E1305.72735
G0 F12000 X226.52 Y130.63
G1 F1800 X224.12 Y128.24 E1305.86814
G0 F12000 X224.69 Y128.24
G1 F1800 X226.52 Y130.07 E1305.97565
G0 F12000 X226.52 Y129.50
G1 F1800 X225.25 Y128.24 E1306.04991
G0 F12000 X225.82 Y128.24
G1 F1800 X226.52 Y128.94 E1306.09092
G0 F12000 X226.52 Y128.37
G1 F1800 X226.39 Y128.24 E1306.09865
G0 F12000 X226.52 Y137.42
G1 F1800 X216.11 Y127.01 E1306.71081
G0 F12000 X215.70 Y127.17
G1 F1800 X226.52 Y137.99 E1307.34681
G0 F12000 X226.52 Y138.55
G1 F1800 X215.30 Y127.33 E1308.00662
G0 F12000 X214.89 Y127.49
G1 F1800 X226.52 Y139.12 E1308.69024
G0 F12000 X226.52 Y139.69
G1 F1800 X214.49 Y127.65 E1309.39771
G0 F12000 X214.08 Y127.81
G1 F1800 X226.52 Y140.25 E1310.12901
G0 F12000 X226.52 Y140.82
G1 F1800 X213.67 Y127.97 E1310.88416
G0 F12000 X213.27 Y128.13
G1 F1800 X226.52 Y141.38 E1311.66312
G0 F12000 X226.52 Y141.95
G1 F1800 X212.81 Y128.24 E1312.46916
G0 F12000 X212.24 Y128.24
G1 F1800 X226.52 Y142.51 E1313.30844
G0 F12000 X226.52 Y143.08
G1 F1800 X211.68 Y128.24 E1314.18098
G0 F12000 X211.11 Y128.24
G1 F1800 X226.52 Y143.65 E1315.08679
G0 F12000 X226.52 Y144.21
G1 F1800 X210.55 Y128.24 E1316.02586
G0 F12000 X209.98 Y128.24
G1 F1800 X226.52 Y144.78 E1316.99817
G0 F12000 X226.52 Y145.34
G1 F1800 X209.41 Y128.24 E1318.00376
G0 F12000 X208.85 Y128.24
G1 F1800 X226.52 Y145.91 E1319.04260
G0 F12000 X226.52 Y146.47
G1 F1800 X208.28 Y128.24 E1320.11472
G0 F12000 X207.72 Y128.24
G1 F1800 X226.52 Y147.04 E1321.22009
G0 F12000 X226.52 Y147.60
G1 F1800 X207.15 Y128.24 E1322.35873
G0 F12000 X206.59 Y128.24
G1 F1800 X226.52 Y148.17 E1323.53063
G0 F12000 X226.52 Y148.74
G1 F1800 X206.02 Y128.24 E1324.73577
G0 F12000 X205.46 Y128.24
G1 F1800 X226.52 Y149.30 E1325.97420
G0 F12000 X226.52 Y149.87
G1 F1800 X204.89 Y128.24 E1327.24587
G0 F12000 X204.32 Y128.24
G1 F1800 X226.52 Y150.43 E1328.55079
G0 F12000 X226.52 Y151.00
G1 F1800 X203.76 Y128.24 E1329.88899
G0 F12000 X203.19 Y128.24
G1 F1800 X226.52 Y151.56 E1331.26044
G0 F12000 X226.52 Y152.13
G1 F1800 X202.63 Y128.24 E1332.66514
G0 F12000 X202.06 Y128.24
G1 F1800 X226.52 Y152.70 E1334.10312
G0 F12000 X226.52 Y153.26
G1 F1800 X201.50 Y128.24 E1335.57435
G0 F12000 X200.93 Y128.24
G1 F1800 X226.52 Y153.83 E1337.07882
G0 F12000 X226.52 Y154.39
G1 F1800 X200.36 Y128.24 E1338.61658
G0 F12000 X199.80 Y128.24
G1 F1800 X226.52 Y154.96 E1340.18758
G0 F12000 X226.52 Y155.52
G1 F1800 X199.23 Y128.24 E1341.79187
G0 F12000 X198.67 Y128.24
G1 F1800 X226.52 Y156.09 E1343.42940
G0 F12000 X226.52 Y156.66
G1 F1800 X198.10 Y128.24 E1345.10018
G0 F12000 X197.53 Y128.24
G1 F1800 X226.52 Y157.22 E1346.80424
G0 F12000 X226.52 Y157.79
G1 F1800 X196.97 Y128.24 E1348.54155
G0 F12000 X196.40 Y128.24
G1 F1800 X226.52 Y158.35 E1350.31214
G0 F12000 X226.52 Y158.92
G1 F1800 X195.84 Y128.24 E1352.11597
G0 F12000 X195.27 Y128.24
G1 F1800 X226.52 Y159.48 E1353.95306
G0 F12000 X226.52 Y160.05
G1 F1800 X194.71 Y128.24 E1355.82342
G0 F12000 X194.14 Y128.24
G1 F1800 X226.52 Y160.62 E1357.72704
G0 F12000 X226.52 Y161.18
G1 F1800 X193.58 Y128.24 E1359.66390
G0 F12000 X193.01 Y128.24
G1 F1800 X226.52 Y161.75 E1361.63404
G0 F12000 X226.52 Y162.31
G1 F1800 X192.44 Y128.24 E1363.63743
G0 F12000 X191.88 Y128.24
G1 F1800 X226.52 Y162.88 E1365.67408
G0 F12000 X226.52 Y163.44
G1 F1800 X191.31 Y128.24 E1367.74399
G0 F12000 X190.75 Y128.24
G1 F1800 X226.52 Y164.01 E1369.84716
G0 F12000 X226.52 Y164.57
G1 F1800 X190.18 Y128.24 E1371.98358
G0 F12000 X189.62 Y128.24
G1 F1800 X226.52 Y165.14 E1374.15328
G0 F12000 X226.52 Y165.71
G1 F1800 X189.05 Y128.24 E1376.35622
G0 F12000 X188.48 Y128.24
G1 F1800 X226.52 Y166.27 E1378.59245
G0 F12000 X226.52 Y166.84
G1 F1800 X187.92 Y128.24 E1380.86192
G0 F12000 X187.35 Y128.24
G1 F1800 X226.52 Y167.40 E1383.16464
G0 F12000 X216.73 Y176.94
G0 X216.55 Y177.84
G0 X211.85 Y176.90
G0 X192.18 Y176.94
G0 X191.94 Y177.74
G0 X211.19 Y190.55
G1 F1800 X213.13 Y192.48 E1383.27815
G0 F12000 X212.83 Y191.62
G1 F1800 X214.76 Y193.55 E1383.39165
G0 F12000 X214.46 Y192.69
G1 F1800 X216.40 Y194.62 E1383.50519
G0 F12000 X216.10 Y193.75
G1 F1800 X218.03 Y195.69 E1383.61872
G0 F12000 X217.73 Y194.82
G1 F1800 X219.66 Y196.75 E1383.73226
G0 F12000 X219.37 Y195.89
G1 F1800 X221.30 Y197.82 E1383.84580
G0 F12000 X221.00 Y196.96
G1 F1800 X222.93 Y198.89 E1383.95936
G0 F12000 X222.64 Y198.03
G1 F1800 X224.57 Y199.96 E1384.07295
G0 F12000 X224.27 Y199.10
G1 F1800 X226.20 Y201.03 E1384.18661
G0 F12000 X225.91 Y200.17
G1 F1800 X227.84 Y202.10 E1384.30023
G0 F12000 X227.54 Y201.24
G1 F1800 X229.10 Y202.80 E1384.39207
G0 F12000 X229.33 Y202.46
G1 F1800 X229.18 Y202.31 E1384.40101
G0 F12000 X211.49 Y191.41
G1 F1800 X209.56 Y189.48 E1384.51448
G0 F12000 X209.86 Y190.34
G1 F1800 X207.93 Y188.41 E1384.62796
G0 F12000 X208.22 Y189.27
G1 F1800 X206.29 Y187.34 E1384.74141
G0 F12000 X206.59 Y188.20
G1 F1800 X204.66 Y186.27 E1384.85485
G0 F12000 X204.95 Y187.13
G1 F1800 X203.02 Y185.20 E1384.96827
G0 F12000 X203.32 Y186.06
G1 F1800 X201.39 Y184.13 E1385.08169
G0 F12000 X201.68 Y185.00
G1 F1800 X199.75 Y183.07 E1385.19508
G0 F12000 X200.05 Y183.93
G1 F1800 X198.12 Y182.00 E1385.30847
G0 F12000 X198.41 Y182.86
G1 F1800 X196.49 Y180.93 E1385.42186
G0 F12000 X196.78 Y181.79
G1 F1800 X194.85 Y179.86 E1385.53521
G0 F12000 X195.14 Y180.72
G1 F1800 X193.22 Y178.79 E1385.64857
G0 F12000 X193.51 Y179.65
G1 F1800 X142.10 Y128.24 E1388.67128
G0 F12000 X130.39 Y128.08
G0 X128.57 Y127.72
G1 F1800 X177.61 Y176.76 E1391.55435
G0 F12000 X177.04 Y176.76
G1 F1800 X128.40 Y128.12 E1394.41426
G0 F12000 X127.96 Y128.24
G1 F1800 X176.60 Y176.88 E1397.27422
G0 F12000 X176.43 Y177.28
G1 F1800 X127.39 Y128.24 E1400.15732
G0 F12000 X126.83 Y128.24
G1 F1800 X176.70 Y178.11 E1403.08955
G0 F12000 X176.47 Y177.61
G0 X176.77 Y176.93
G0 X178.17 Y176.76
G1 F1800 X128.32 Y126.91 E1406.02059
G0 F12000 X128.53 Y127.39
G0 X128.23 Y128.07
G0 X126.26 Y128.24
G1 F1800 X184.19 Y186.17 E1409.42671
G0 F12000 X180.80 Y183.34
G1 F1800 X191.69 Y194.23 E1410.06689
G0 F12000 X188.29 Y191.40
G1 F1800 X199.18 Y202.29 E1410.70729
G0 F12000 X195.78 Y199.46
G1 F1800 X206.68 Y210.35 E1411.34788
G0 F12000 X203.27 Y207.52
G1 F1800 X214.17 Y218.41 E1411.98867
G0 F12000 X214.85 Y219.66
G1 F1800 X210.76 Y215.57 E1412.22897
G0 F12000 X174.21 Y176.76
G1 F1800 X125.69 Y128.24 E1415.08164
G0 F12000 X125.13 Y128.24
G1 F1800 X173.65 Y176.76 E1417.93434
G0 F12000 X173.08 Y176.76
G1 F1800 X124.56 Y128.24 E1420.78702
G0 F12000 X124.00 Y128.24
G1 F1800 X172.51 Y176.76 E1423.63969
G0 F12000 X171.95 Y176.76
G1 F1800 X123.43 Y128.24 E1426.49236
G0 F12000 X122.87 Y128.24
G1 F1800 X171.38 Y176.76 E1429.34503
G0 F12000 X170.82 Y176.76
G1 F1800 X122.30 Y128.24 E1432.19771
G0 F12000 X121.73 Y128.24
G1 F1800 X170.25 Y176.76 E1435.05041
G0 F12000 X169.69 Y176.76
G1 F1800 X121.17 Y128.24 E1437.90314
G0 F12000 X120.60 Y128.24
G1 F1800 X169.12 Y176.76 E1440.75587
G0 F12000 X168.56 Y176.76
G1 F1800 X120.04 Y128.24 E1443.60857
G0 F12000 X119.47 Y128.24
G1 F1800 X167.99 Y176.76 E1446.46130
G0 F12000 X167.42 Y176.76
G1 F1800 X118.91 Y128.24 E1449.31403
G0 F12000 X118.34 Y128.24
G1 F1800 X166.86 Y176.76 E1452.16677
G0 F12000 X166.29 Y176.76
G1 F1800 X117.77 Y128.24 E1455.01950
G0 F12000 X117.21 Y128.24
G1 F1800 X165.73 Y176.76 E1457.87223
G0 F12000 X165.16 Y176.76
G1 F1800 X116.64 Y128.24 E1460.72496
G0 F12000 X116.08 Y128.24
G1 F1800 X164.60 Y176.76 E1463.57769
G0 F12000 X164.03 Y176.76
G1 F1800 X114.75 Y127.48 E1466.47493
G0 F12000 X113.15 Y127.58
G1 F1800 X162.33 Y176.76 E1469.36647
G0 F12000 X161.77 Y176.76
G1 F1800 X113.03 Y128.02 E1472.23231
G0 F12000 X112.68 Y128.24
G1 F1800 X161.20 Y176.76 E1475.08501
G0 F12000 X160.64 Y176.76
G1 F1800 X112.12 Y128.24 E1477.93774
G0 F12000 X111.55 Y128.24
G1 F1800 X160.07 Y176.76 E1480.79047
G0 F12000 X159.50 Y176.76
G1 F1800 X110.99 Y128.24 E1483.64318
G0 F12000 X110.42 Y128.24
G1 F1800 X158.94 Y176.76 E1486.49591
G0 F12000 X158.37 Y176.76
G1 F1800 X109.85 Y128.24 E1489.34864
G0 F12000 X109.29 Y128.24
G1 F1800 X157.81 Y176.76 E1492.20134
G0 F12000 X157.24 Y176.76
G1 F1800 X108.72 Y128.24 E1495.05407
G0 F12000 X108.16 Y128.24
G1 F1800 X156.68 Y176.76 E1497.90680
G0 F12000 X156.11 Y176.76
G1 F1800 X107.59 Y128.24 E1500.75953
G0 F12000 X107.03 Y128.24
G1 F1800 X155.54 Y176.76 E1503.61227
G0 F12000 X154.98 Y176.76
G1 F1800 X106.46 Y128.24 E1506.46500
G0 F12000 X105.89 Y128.24
G1 F1800 X154.41 Y176.76 E1509.31773
G0 F12000 X153.85 Y176.76
G1 F1800 X105.33 Y128.24 E1512.17046
G0 F12000 X104.76 Y128.24
G1 F1800 X153.28 Y176.76 E1515.02319
G0 F12000 X152.72 Y176.76
G1 F1800 X104.20 Y128.24 E1517.87592
G0 F12000 X103.63 Y128.24
G1 F1800 X152.15 Y176.76 E1520.72862
G0 F12000 X151.59 Y176.76
G1 F1800 X103.07 Y128.24 E1523.58135
G0 F12000 X102.50 Y128.24
G1 F1800 X151.02 Y176.76 E1526.43409
G0 F12000 X150.45 Y176.76
G1 F1800 X101.94 Y128.24 E1529.28679
G0 F12000 X101.37 Y128.24
G1 F1800 X149.89 Y176.76 E1532.13952
G0 F12000 X149.32 Y176.76
G1 F1800 X100.80 Y128.24 E1534.99225
G0 F12000 X100.24 Y128.24
G1 F1800 X148.76 Y176.76 E1537.84495
G0 F12000 X148.19 Y176.76
G1 F1800 X99.67 Y128.24 E1540.69768
G0 F12000 X99.11 Y128.24
G1 F1800 X147.62 Y176.76 E1543.55041
G0 F12000 X147.06 Y176.76
G1 F1800 X98.54 Y128.24 E1546.40315
G0 F12000 X97.97 Y128.24
G1 F1800 X146.49 Y176.76 E1549.25588
G0 F12000 X145.93 Y176.76
G1 F1800 X97.41 Y128.24 E1552.10861
G0 F12000 X96.84 Y128.24
G1 F1800 X145.36 Y176.76 E1554.96134
G0 F12000 X144.80 Y176.76
G1 F1800 X96.28 Y128.24 E1557.81407
G0 F12000 X95.71 Y128.24
G1 F1800 X144.23 Y176.76 E1560.66680
G0 F12000 X143.66 Y176.76
G1 F1800 X95.15 Y128.24 E1563.51953
G0 F12000 X94.58 Y128.24
G1 F1800 X143.10 Y176.76 E1566.37227
G0 F12000 X142.53 Y176.76
G1 F1800 X94.02 Y128.24 E1569.22500
G0 F12000 X93.45 Y128.24
G1 F1800 X141.97 Y176.76 E1572.07773
G0 F12000 X141.40 Y176.76
G1 F1800 X92.72 Y128.08 E1574.93992
G0 F12000 X91.77 Y127.69
G1 F1800 X140.84 Y176.76 E1577.82464
G0 F12000 X140.27 Y176.76
G1 F1800 X90.83 Y127.31 E1580.73182
G0 F12000 X89.88 Y126.93
G1 F1800 X139.71 Y176.76 E1583.66148
G0 F12000 X139.14 Y176.76
G1 F1800 X88.93 Y126.55 E1586.61367
G0 F12000 X88.60 Y127.35
G1 F1800 X138.01 Y176.76 E1589.51885
G0 F12000 X137.44 Y176.76
G1 F1800 X88.50 Y127.82 E1592.39621
G0 F12000 X88.36 Y128.24
G1 F1800 X136.88 Y176.76 E1595.24894
G0 F12000 X136.31 Y176.76
G1 F1800 X87.79 Y128.24 E1598.10168
G0 F12000 X87.23 Y128.24
G1 F1800 X135.75 Y176.76 E1600.95441
G0 F12000 X135.18 Y176.76
G1 F1800 X86.66 Y128.24 E1603.80714
G0 F12000 X86.09 Y128.24
G1 F1800 X134.61 Y176.76 E1606.65987
G0 F12000 X134.05 Y176.76
G1 F1800 X85.53 Y128.24 E1609.51260
G0 F12000 X84.96 Y128.24
G1 F1800 X133.48 Y176.76 E1612.36533
G0 F12000 X132.92 Y176.76
G1 F1800 X84.40 Y128.24 E1615.21806
G0 F12000 X83.83 Y128.24
G1 F1800 X132.35 Y176.76 E1618.07079
G0 F12000 X131.79 Y176.76
G1 F1800 X83.27 Y128.24 E1620.92353
G0 F12000 X82.70 Y128.24
G1 F1800 X131.22 Y176.76 E1623.77626
G0 F12000 X130.65 Y176.76
G1 F1800 X82.14 Y128.24 E1626.62896
G0 F12000 X82.10 Y128.77
G1 F1800 X130.09 Y176.76 E1629.45059
G0 F12000 X129.52 Y176.76
G1 F1800 X82.10 Y129.33 E1632.23894
G0 F12000 X82.10 Y129.90
G1 F1800 X128.96 Y176.76 E1634.99404
G0 F12000 X128.39 Y176.76
G1 F1800 X82.10 Y130.47 E1637.71589
G0 F12000 X82.10 Y131.03
G1 F1800 X127.83 Y176.76 E1640.40446
G0 F12000 X127.26 Y176.76
G1 F1800 X82.10 Y131.60 E1643.05978
G0 F12000 X82.10 Y132.16
G1 F1800 X126.69 Y176.76 E1645.68186
G0 F12000 X126.13 Y176.76
G1 F1800 X82.10 Y132.73 E1648.27065
G0 F12000 X82.10 Y133.29
G1 F1800 X125.56 Y176.76 E1650.82620
G0 F12000 X125.00 Y176.76
G1 F1800 X82.10 Y133.86 E1653.34849
G0 F12000 X82.10 Y134.43
G1 F1800 X124.43 Y176.76 E1655.83751
G0 F12000 X123.87 Y176.76
G1 F1800 X82.10 Y134.99 E1658.29328
G0 F12000 X82.10 Y135.56
G1 F1800 X123.30 Y176.76 E1660.71580
G0 F12000 X122.73 Y176.76
G1 F1800 X82.10 Y136.12 E1663.10504
G0 F12000 X82.10 Y136.69
G1 F1800 X122.17 Y176.76 E1665.46103
G0 F12000 X121.60 Y176.76
G1 F1800 X82.10 Y137.25 E1667.78375
G0 F12000 X82.10 Y137.82
G1 F1800 X121.04 Y176.76 E1670.07321
G0 F12000 X120.61 Y176.90
G1 F1800 X82.10 Y138.38 E1672.33775
G0 F12000 X82.10 Y138.95
G1 F1800 X120.29 Y177.14 E1674.58335
G0 F12000 X119.97 Y177.39
G1 F1800 X82.10 Y139.52 E1676.80996
G0 F12000 X82.10 Y140.08
G1 F1800 X119.65 Y177.63 E1679.01764
G0 F12000 X119.32 Y177.87
G1 F1800 X82.10 Y140.65 E1681.20635
G0 F12000 X82.10 Y141.21
G1 F1800 X117.64 Y176.76 E1683.29626
G0 F12000 X117.08 Y176.76
G1 F1800 X82.10 Y141.78 E1685.35290
G0 F12000 X82.10 Y142.34
G1 F1800 X116.51 Y176.76 E1687.37628
G0 F12000 X115.95 Y176.76
G1 F1800 X82.10 Y142.91 E1689.36641
G0 F12000 X82.10 Y143.48
G1 F1800 X115.38 Y176.76 E1691.32326
G0 F12000 X114.81 Y176.76
G1 F1800 X82.10 Y144.04 E1693.24687
G0 F12000 X82.10 Y144.61
G1 F1800 X114.25 Y176.76 E1695.13722
G0 F12000 X113.68 Y176.76
G1 F1800 X82.10 Y145.17 E1696.99430
G0 F12000 X82.10 Y145.74
G1 F1800 X113.12 Y176.76 E1698.81813
G0 F12000 X112.55 Y176.76
G1 F1800 X82.10 Y146.30 E1700.60871
G0 F12000 X82.10 Y146.87
G1 F1800 X111.99 Y176.76 E1702.36601
G0 F12000 X111.42 Y176.76
G1 F1800 X82.10 Y147.44 E1704.09003
G0 F12000 X82.10 Y148.00
G1 F1800 X110.86 Y176.76 E1705.78080
G0 F12000 X110.29 Y176.76
G1 F1800 X82.10 Y148.57 E1707.43832
G0 F12000 X82.10 Y149.13
G1 F1800 X109.72 Y176.76 E1709.06257
G0 F12000 X109.16 Y176.76
G1 F1800 X82.10 Y149.70 E1710.65356
G0 F12000 X82.10 Y150.26
G1 F1800 X108.59 Y176.76 E1712.21131
G0 F12000 X108.03 Y176.76
G1 F1800 X82.10 Y150.83 E1713.73578
G0 F12000 X82.10 Y151.40
G1 F1800 X107.46 Y176.76 E1715.22699
G0 F12000 X106.90 Y176.76
G1 F1800 X82.10 Y151.96 E1716.68496
G0 F12000 X82.10 Y152.53
G1 F1800 X106.33 Y176.76 E1718.10965
G0 F12000 X105.76 Y176.76
G1 F1800 X82.10 Y153.09 E1719.50109
G0 F12000 X82.10 Y153.66
G1 F1800 X105.20 Y176.76 E1720.85928
G0 F12000 X104.63 Y176.76
G1 F1800 X82.10 Y154.22 E1722.18420
G0 F12000 X82.10 Y154.79
G1 F1800 X104.07 Y176.76 E1723.47586
G0 F12000 X103.50 Y176.76
G1 F1800 X82.10 Y155.35 E1724.73427
G0 F12000 X82.10 Y155.92
G1 F1800 X102.94 Y176.76 E1725.95941
G0 F12000 X102.37 Y176.76
G1 F1800 X82.10 Y156.49 E1727.15130
G0 F12000 X82.10 Y157.05
G1 F1800 X101.80 Y176.76 E1728.30990
G0 F12000 X101.24 Y176.76
G1 F1800 X82.10 Y157.62 E1729.43526
G0 F12000 X82.10 Y158.18
G1 F1800 X100.67 Y176.76 E1730.52734
G0 F12000 X100.11 Y176.76
G1 F1800 X82.10 Y158.75 E1731.58617
G0 F12000 X82.10 Y159.31
G1 F1800 X99.54 Y176.76 E1732.61176
G0 F12000 X98.98 Y176.76
G1 F1800 X82.10 Y159.88 E1733.60406
G0 F12000 X82.10 Y160.45
G1 F1800 X98.41 Y176.76 E1734.56311
G0 F12000 X97.84 Y176.76
G1 F1800 X82.10 Y161.01 E1735.48892
G0 F12000 X82.10 Y161.58
G1 F1800 X97.28 Y176.76 E1736.38144
G0 F12000 X96.71 Y176.76
G1 F1800 X82.10 Y162.14 E1737.24072
G0 F12000 X82.10 Y162.71
G1 F1800 X96.15 Y176.76 E1738.06675
G0 F12000 X95.58 Y176.76
G1 F1800 X82.10 Y163.28 E1738.85950
G0 F12000 X82.10 Y163.84
G1 F1800 X95.02 Y176.76 E1739.61899
G0 F12000 X94.45 Y176.76
G1 F1800 X82.10 Y164.41 E1740.34524
G0 F12000 X82.10 Y164.97
G1 F1800 X93.89 Y176.76 E1741.03822
G0 F12000 X93.32 Y176.76
G1 F1800 X82.10 Y165.54 E1741.69794
G0 F12000 X82.10 Y166.10
G1 F1800 X92.75 Y176.76 E1742.32441
G0 F12000 X92.19 Y176.76
G1 F1800 X82.10 Y166.67 E1742.91761
G0 F12000 X82.10 Y167.23
G1 F1800 X91.73 Y176.86 E1743.48375
G0 F12000 X91.32 Y177.02
G1 F1800 X82.10 Y167.80 E1744.02606
G0 F12000 X82.10 Y168.37
G1 F1800 X90.92 Y177.18 E1744.54453
G0 F12000 X90.51 Y177.34
G1 F1800 X82.10 Y168.93 E1745.03918
G0 F12000 X82.10 Y169.50
G1 F1800 X90.11 Y177.50 E1745.51002
G0 F12000 X89.70 Y177.67
G1 F1800 X82.10 Y170.06 E1745.95705
G0 F12000 X82.10 Y170.63
G1 F1800 X89.30 Y177.83 E1746.38020
G0 F12000 X88.89 Y177.99
G1 F1800 X82.10 Y171.19 E1746.77957
G0 F12000 X82.10 Y171.76
G1 F1800 X87.10 Y176.76 E1747.07344
G0 F12000 X87.24 Y176.90
G1 F1800 X88.49 Y178.15 E1747.14693
G0 F12000 X88.08 Y178.31
G1 F1800 X87.37 Y177.60 E1747.18877
G0 F12000 X87.24 Y178.04
G1 F1800 X87.47 Y178.55 E1747.21414
G1 X86.64 Y178.28 E1747.23947
G1 X86.66 Y178.87 E1747.26479
G1 X85.83 Y178.60 E1747.28999
G1 X85.85 Y179.19 E1747.31526
G1 X85.02 Y178.92 E1747.34052
G1 X85.04 Y179.51 E1747.36585
G1 X84.20 Y179.24 E1747.39105
G1 X84.23 Y179.83 E1747.41639
G1 X83.39 Y179.56 E1747.44159
G1 X83.42 Y180.15 E1747.46686
G1 X82.58 Y179.88 E1747.49212
G1 X82.61 Y180.47 E1747.51746
G1 X81.77 Y180.20 E1747.54266
G1 X81.80 Y180.79 E1747.56799
G1 X80.96 Y180.52 E1747.59320
G1 X80.99 Y181.12 E1747.61853
G1 X80.15 Y180.84 E1747.64373
G1 X80.18 Y181.44 E1747.66900
G1 X79.34 Y181.17 E1747.69430
G1 X79.37 Y181.76 E1747.71957
G1 X78.53 Y181.49 E1747.74486
G1 X78.56 Y182.08 E1747.77013
G1 X77.72 Y181.81 E1747.79533
G1 X77.75 Y182.40 E1747.82060
G1 X76.91 Y182.13 E1747.84590
G1 X76.94 Y182.72 E1747.87117
G1 X76.10 Y182.45 E1747.89646
G1 X76.13 Y183.04 E1747.92173
G1 X75.29 Y182.77 E1747.94699
G1 X75.32 Y183.36 E1747.97226
G1 X74.48 Y183.09 E1747.99747
G1 X74.50 Y183.68 E1748.02274
G1 X73.67 Y183.41 E1748.04804
G1 X73.69 Y184.00 E1748.07335
G1 X72.86 Y183.73 E1748.09855
G1 X72.88 Y184.32 E1748.12382
G1 X72.05 Y184.06 E1748.14909
G1 X72.07 Y184.65 E1748.17442
G1 X71.24 Y184.38 E1748.19962
G1 X71.26 Y184.97 E1748.22495
G1 X70.43 Y184.70 E1748.25016
G1 X70.45 Y185.29 E1748.27544
G1 X69.62 Y185.02 E1748.30070
G1 X69.64 Y185.61 E1748.32599
G1 X68.81 Y185.34 E1748.35124
G1 X68.83 Y185.93 E1748.37653
G1 X68.00 Y185.66 E1748.40180
G1 X68.02 Y186.25 E1748.42713
G1 X67.39 Y185.90 E1748.45720
G0 F12000 X87.23 Y177.84
G0 X87.06 Y176.94
G0 X82.10 Y176.28
G1 F1800 X82.57 Y176.76 E1748.48498
G0 F12000 X83.14 Y176.76
G1 F1800 X82.10 Y175.72 E1748.54601
G0 F12000 X82.10 Y175.15
G1 F1800 X83.70 Y176.76 E1748.64032
G0 F12000 X84.27 Y176.76
G1 F1800 X82.10 Y174.59 E1748.76788
G0 F12000 X82.10 Y174.02
G1 F1800 X84.83 Y176.76 E1748.92869
G0 F12000 X85.40 Y176.76
G1 F1800 X82.10 Y173.46 E1749.12277
G0 F12000 X82.10 Y172.89
G1 F1800 X85.97 Y176.76 E1749.35011
G0 F12000 X86.53 Y176.76
G1 F1800 X82.10 Y172.33 E1749.61069
G0 F12000 X87.06 Y176.94
G0 X87.23 Y177.84
G0 X92.02 Y176.90
G0 X118.07 Y176.94
G0 X118.33 Y177.70
G0 X97.97 Y193.28
G1 F1800 X98.53 Y193.56 E1749.63413
G1 X98.45 Y192.92 E1749.65759
G1 X99.17 Y193.07 E1749.68100
G1 X99.09 Y192.43 E1749.70445
G1 X99.82 Y192.59 E1749.72787
G1 X99.74 Y191.95 E1749.75133
G1 X100.46 Y192.10 E1749.77470
G1 X100.39 Y191.46 E1749.79816
G1 X101.11 Y191.62 E1749.82154
G1 X101.03 Y190.97 E1749.84499
G1 X101.75 Y191.13 E1749.86837
G1 X101.67 Y190.49 E1749.89182
G1 X102.40 Y190.64 E1749.91528
G1 X102.32 Y190.00 E1749.93873
G1 X103.04 Y190.16 E1749.96211
G1 X102.97 Y189.51 E1749.98550
G1 X103.69 Y189.67 E1750.00896
G1 X103.61 Y189.03 E1750.03234
G1 X104.33 Y189.18 E1750.05572
G1 X104.25 Y188.54 E1750.07917
G1 X104.98 Y188.70 E1750.10259
G1 X104.90 Y188.06 E1750.12605
G1 X105.62 Y188.21 E1750.14946
G1 X105.54 Y187.57 E1750.17291
G1 X106.27 Y187.72 E1750.19630
G1 X106.19 Y187.08 E1750.21975
G1 X106.91 Y187.24 E1750.24313
G1 X106.83 Y186.59 E1750.26658
G1 X107.56 Y186.75 E1750.29004
G1 X107.48 Y186.11 E1750.31349
G1 X108.20 Y186.26 E1750.33687
G1 X108.12 Y185.62 E1750.36025
G1 X108.84 Y185.78 E1750.38371
G1 X108.77 Y185.14 E1750.40710
G1 X109.49 Y185.29 E1750.43056
G1 X109.41 Y184.65 E1750.45398
G1 X110.14 Y184.81 E1750.47740
G1 X110.06 Y184.16 E1750.50085
G1 X110.78 Y184.32 E1750.52427
G1 X110.70 Y183.68 E1750.54769
G1 X111.42 Y183.83 E1750.57108
G1 X111.35 Y183.19 E1750.59453
G1 X112.07 Y183.35 E1750.61792
G1 X111.99 Y182.70 E1750.64133
G1 X112.71 Y182.86 E1750.66480
G1 X112.64 Y182.22 E1750.68825
G1 X113.36 Y182.37 E1750.71171
G1 X113.28 Y181.73 E1750.73509
G1 X114.00 Y181.89 E1750.75855
G1 X113.93 Y181.24 E1750.78193
G1 X114.65 Y181.40 E1750.80539
G1 X114.57 Y180.76 E1750.82878
G1 X115.29 Y180.91 E1750.85219
G1 X115.22 Y180.27 E1750.87565
G1 X115.94 Y180.43 E1750.89906
G1 X115.86 Y179.78 E1750.92245
G1 X116.58 Y179.94 E1750.94586
G1 X116.51 Y179.30 E1750.96932
G1 X117.23 Y179.45 E1750.99270
G1 X117.15 Y178.81 E1751.01608
G1 X117.87 Y178.97 E1751.03954
G1 X117.80 Y178.32 E1751.06299
G1 X118.52 Y178.48 E1751.08645
G1 X118.38 Y177.78 E1751.10983
G1 X119.00 Y178.12 E1751.13934
G0 F12000 X120.86 Y176.91
G0 X138.57 Y176.76
G1 F1800 X87.98 Y126.17 E1754.11401
G0 F12000 X88.04 Y126.79
G1 F1800 X87.03 Y125.78 E1754.17340
G0 F12000 X87.09 Y126.41
G1 F1800 X86.08 Y125.40 E1754.23278
G0 F12000 X86.15 Y126.03
G1 F1800 X85.14 Y125.02 E1754.29213
G0 F12000 X85.20 Y125.64
G1 F1800 X84.19 Y124.64 E1754.35152
G0 F12000 X84.25 Y125.26
G1 F1800 X83.24 Y124.25 E1754.41096
G0 F12000 X83.30 Y124.88
G1 F1800 X82.29 Y123.87 E1754.47035
G0 F12000 X82.35 Y124.50
G1 F1800 X81.34 Y123.49 E1754.52976
G0 F12000 X81.41 Y124.11
G1 F1800 X80.39 Y123.11 E1754.58917
G0 F12000 X80.46 Y123.73
G1 F1800 X79.45 Y122.72 E1754.64862
G0 F12000 X79.51 Y123.35
G1 F1800 X78.50 Y122.34 E1754.70800
G0 F12000 X78.56 Y122.97
G1 F1800 X77.55 Y121.96 E1754.76738
G0 F12000 X77.61 Y122.58
G1 F1800 X76.60 Y121.57 E1754.82683
G0 F12000 X76.67 Y122.20
G1 F1800 X75.65 Y121.19 E1754.88627
G0 F12000 X75.72 Y121.82
G1 F1800 X74.70 Y120.81 E1754.94571
G0 F12000 X74.77 Y121.44
G1 F1800 X73.76 Y120.43 E1755.00516
G0 F12000 X73.82 Y121.06
G1 F1800 X72.81 Y120.04 E1755.06460
G0 F12000 X72.87 Y120.67
G1 F1800 X71.86 Y119.66 E1755.12404
G0 F12000 X71.92 Y120.29
G1 F1800 X70.91 Y119.28 E1755.18351
G0 F12000 X70.97 Y119.91
G1 F1800 X69.96 Y118.90 E1755.24296
G0 F12000 X70.03 Y119.53
G1 F1800 X69.02 Y118.51 E1755.30243
G0 F12000 X69.08 Y119.14
G1 F1800 X68.07 Y118.13 E1755.36193
G0 F12000 X67.53 Y118.16
G1 F1800 X68.13 Y118.76 E1755.39703
G0 F12000 X93.15 Y128.10
G0 X112.82 Y128.06
G0 X113.06 Y127.26
G0 X77.46 Y103.76
G1 F1800 X75.89 Y102.20 E1755.48887
G0 F12000 X75.67 Y102.54
G1 F1800 X75.82 Y102.69 E1755.49781
G0 F12000 X77.16 Y102.90
G1 F1800 X79.09 Y104.83 E1755.61143
G0 F12000 X78.80 Y103.97
G1 F1800 X80.73 Y105.90 E1755.72497
G0 F12000 X80.43 Y105.04
G1 F1800 X82.36 Y106.97 E1755.83856
G0 F12000 X82.06 Y106.11
G1 F1800 X84.00 Y108.04 E1755.95216
G0 F12000 X83.70 Y107.17
G1 F1800 X85.63 Y109.11 E1756.06575
G0 F12000 X85.33 Y108.24
G1 F1800 X87.26 Y110.17 E1756.17934
G0 F12000 X86.97 Y109.31
G1 F1800 X88.90 Y111.24 E1756.29294
G0 F12000 X88.60 Y110.38
G1 F1800 X90.53 Y112.31 E1756.40653
G0 F12000 X90.24 Y111.45
G1 F1800 X92.17 Y113.38 E1756.52013
G0 F12000 X91.87 Y112.52
G1 F1800 X93.80 Y114.45 E1756.63366
G0 F12000 X93.50 Y113.59
G1 F1800 X95.44 Y115.52 E1756.74726
G0 F12000 X95.14 Y114.66
G1 F1800 X97.07 Y116.59 E1756.86079
G0 F12000 X96.77 Y115.72
G1 F1800 X98.71 Y117.66 E1756.97436
G0 F12000 X98.41 Y116.79
G1 F1800 X100.34 Y118.72 E1757.08789
G0 F12000 X100.04 Y117.86
G1 F1800 X101.97 Y119.79 E1757.20137
G0 F12000 X101.68 Y118.93
G1 F1800 X103.61 Y120.86 E1757.31490
G0 F12000 X103.31 Y120.00
G1 F1800 X105.24 Y121.93 E1757.42841
G0 F12000 X104.95 Y121.07
G1 F1800 X106.88 Y123.00 E1757.54195
G0 F12000 X106.58 Y122.14
G1 F1800 X108.51 Y124.07 E1757.65542
G0 F12000 X108.22 Y123.21
G1 F1800 X110.15 Y125.14 E1757.76893
G0 F12000 X109.85 Y124.28
G1 F1800 X111.78 Y126.21 E1757.88240
G0 F12000 X111.48 Y125.34
G1 F1800 X162.90 Y176.76 E1760.90532
G0 F12000 X163.46 Y176.76
G1 F1800 X113.12 Y126.41 E1763.86539
G0 F12000 X118.33 Y177.70
G0 X97.64 Y193.53
G1 F1800 X97.88 Y194.05 E1763.88879
G1 X97.16 Y193.89 E1763.91217
G1 X97.24 Y194.53 E1763.93562
G1 X96.52 Y194.38 E1763.95908
G1 X96.59 Y195.02 E1763.98253
G1 X95.87 Y194.87 E1764.00599
G1 X95.95 Y195.51 E1764.02944
G1 X95.23 Y195.35 E1764.05290
G1 X95.30 Y195.99 E1764.07635
G1 X94.58 Y195.84 E1764.09973
G1 X94.66 Y196.48 E1764.12318
G1 X93.94 Y196.32 E1764.14660
G1 X94.01 Y196.97 E1764.17005
G1 X93.29 Y196.81 E1764.19346
G1 X93.37 Y197.45 E1764.21685
G1 X92.65 Y197.30 E1764.24031
G1 X92.72 Y197.94 E1764.26370
G1 X92.00 Y197.78 E1764.28715
G1 X92.08 Y198.43 E1764.31047
G1 X91.36 Y198.27 E1764.33393
G1 X91.43 Y198.91 E1764.35738
G1 X90.71 Y198.76 E1764.38084
G1 X90.79 Y199.40 E1764.40422
G1 X90.07 Y199.24 E1764.42768
G1 X90.14 Y199.89 E1764.45113
G1 X89.42 Y199.73 E1764.47451
G1 X89.50 Y200.37 E1764.49789
G1 X88.78 Y200.22 E1764.52128
G1 X88.85 Y200.86 E1764.54474
G1 X88.13 Y200.70 E1764.56814
G1 X88.21 Y201.35 E1764.59153
G1 X87.49 Y201.19 E1764.61495
G1 X87.56 Y201.83 E1764.63840
G1 X86.84 Y201.68 E1764.66186
G1 X86.92 Y202.32 E1764.68518
G1 X86.20 Y202.16 E1764.70864
G1 X86.27 Y202.81 E1764.73209
G1 X85.55 Y202.65 E1764.75554
G1 X85.63 Y203.29 E1764.77893
G1 X84.91 Y203.14 E1764.80239
G1 X84.98 Y203.78 E1764.82584
G1 X84.26 Y203.62 E1764.84922
G1 X84.34 Y204.26 E1764.87260
G1 X83.62 Y204.11 E1764.89599
G1 X83.69 Y204.75 E1764.91944
G1 X82.97 Y204.60 E1764.94285
G1 X83.05 Y205.24 E1764.96624
G1 X82.33 Y205.08 E1764.98966
G1 X82.41 Y205.72 E1765.01311
G1 X81.68 Y205.57 E1765.03657
G1 X81.76 Y206.21 E1765.05999
G1 X81.04 Y206.06 E1765.08346
G1 X81.11 Y206.70 E1765.10684
G1 X80.39 Y206.54 E1765.13030
G1 X80.47 Y207.18 E1765.15372
G1 X79.75 Y207.03 E1765.17718
G1 X79.83 Y207.67 E1765.20063
G1 X79.27 Y207.39 E1765.22661
G0 F12000 X120.86 Y176.91
G0 X174.61 Y176.92
G0 X189.04 Y176.91
G0 X211.85 Y176.90
G0 X217.77 Y127.15
G0 X234.75 Y119.63
G1 F1800 X235.38 Y119.98 E1765.25187
G1 X235.35 Y119.39 E1765.27716
G1 X236.19 Y119.66 E1765.30241
G1 X236.16 Y119.07 E1765.32770
G1 X237.00 Y119.34 E1765.35296
G1 X236.98 Y118.75 E1765.37824
G1 X237.61 Y119.10 E1765.40832
;LAYER:1
G0 F12000 X237.99 Y119.10 Z0.40
;TYPE:WALL-INNER
G1 F2820 X217.72 Y127.12 E1765.95215
G1 X217.91 Y128.10 E1765.97691
G1 X226.66 Y128.10 E1766.19528
G1 X226.66 Y176.90 E1767.41257
G1 X216.69 Y176.90 E1767.66125
G1 X216.50 Y177.87 E1767.68592
G1 X237.77 Y186.45 E1768.25804
G1 X237.46 Y187.23 E1768.27899
G1 X211.85 Y176.90 E1768.96775
G1 X192.15 Y176.90 E1769.45932
G1 X191.89 Y177.76 E1769.48163
G1 X229.55 Y202.38 E1770.60397
G1 X229.09 Y203.08 E1770.62491
G1 X189.05 Y176.90 E1771.81828
G1 X176.74 Y176.90 E1772.12518
G1 X176.43 Y177.62 E1772.14480
G1 X215.31 Y219.43 E1773.56891
G1 X214.69 Y220.00 E1773.58985
G1 X174.61 Y176.90 E1775.05800
G1 X120.85 Y176.90 E1776.39912
G1 X79.48 Y208.11 E1777.69182
G1 X78.98 Y207.44 E1777.71275
G1 X118.37 Y177.72 E1778.94378
G1 X118.10 Y176.90 E1778.96532
G1 X92.02 Y176.90 E1779.61582
G1 X67.32 Y186.68 E1780.27857
G1 X67.01 Y185.90 E1780.29950
G1 X87.28 Y177.87 E1780.84334
G1 X87.09 Y176.90 E1780.86810
G1 X81.96 Y176.90 E1780.99621
G1 X81.96 Y128.10 E1782.21351
G1 X88.31 Y128.10 E1782.37194
G1 X88.50 Y127.13 E1782.39661
G1 X67.23 Y118.55 E1782.96872
G1 X67.54 Y117.77 E1782.98967
G1 X93.15 Y128.10 E1783.67842
G1 X112.85 Y128.10 E1784.16999
G1 X113.11 Y127.24 E1784.19230
G1 X75.45 Y102.62 E1785.31463
G1 X75.91 Y101.92 E1785.33556
G1 X115.95 Y128.10 E1786.52892
G1 X128.26 Y128.10 E1786.83582
G1 X128.57 Y127.38 E1786.85544
G1 X89.69 Y85.57 E1788.27953
G1 X90.31 Y85.00 E1788.30047
G1 X130.39 Y128.10 E1789.76860
G1 X184.15 Y128.10 E1791.10972
G1 X225.52 Y96.89 E1792.40240
G1 X226.02 Y97.56 E1792.42333
G1 X186.63 Y127.28 E1793.65435
G1 X186.90 Y128.10 E1793.67590
G1 X212.98 Y128.10 E1794.32639
G1 X237.68 Y118.32 E1794.98913
G1 X237.99 Y119.10 E1795.01006
G0 F12000 X238.51 Y119.32
;TYPE:WALL-OUTER
G1 F2820 X218.17 Y127.38 E1795.55561
G1 X218.24 Y127.70 E1795.56386
G1 X227.06 Y127.70 E1795.78395
G1 X227.06 Y177.30 E1797.02120
G1 X217.02 Y177.30 E1797.27163
G1 X216.96 Y177.62 E1797.27986
G1 X238.29 Y186.23 E1797.85372
G1 X237.68 Y187.75 E1797.89461
G1 X211.78 Y177.30 E1798.59138
G1 X192.44 Y177.30 E1799.07359
G1 X192.36 Y177.59 E1799.08104
G1 X230.10 Y202.26 E1800.20590
G1 X229.20 Y203.64 E1800.24681
G1 X188.93 Y177.30 E1801.44719
G1 X177.01 Y177.30 E1801.74459
G1 X176.90 Y177.54 E1801.75112
G1 X215.87 Y219.45 E1803.17871
G1 X214.67 Y220.57 E1803.21962
G1 X174.44 Y177.30 E1804.69341
G1 X120.98 Y177.30 E1806.02685
G1 X79.40 Y208.67 E1807.32619
G1 X78.42 Y207.36 E1807.36707
G1 X117.90 Y177.57 E1808.60088
G1 X117.81 Y177.30 E1808.60806
G1 X92.10 Y177.30 E1809.24948
G1 X67.09 Y187.20 E1809.92030
G1 X66.49 Y185.68 E1809.96118
G1 X86.83 Y177.62 E1810.50674
G1 X86.76 Y177.30 E1810.51499
G1 X81.56 Y177.30 E1810.64483
G1 X81.56 Y127.70 E1811.88208
G1 X87.98 Y127.70 E1812.04225
G1 X88.04 Y127.38 E1812.05049
G1 X66.71 Y118.77 E1812.62435
G1 X67.32 Y117.25 E1812.66523
G1 X93.22 Y127.70 E1813.36199
G1 X112.56 Y127.70 E1813.84421
G1 X112.64 Y127.41 E1813.85165
G1 X74.90 Y102.74 E1814.97650
G1 X75.80 Y101.36 E1815.01740
G1 X116.07 Y127.70 E1816.21777
G1 X127.99 Y127.70 E1816.51517
G1 X128.10 Y127.46 E1816.52170
G1 X89.13 Y85.55 E1817.94928
G1 X90.33 Y84.43 E1817.99019
G1 X130.56 Y127.70 E1819.46396
G1 X184.01 Y127.70 E1820.79740
G1 X225.60 Y96.33 E1822.09672
G1 X226.58 Y97.64 E1822.13760
G1 X187.10 Y127.43 E1823.37140
G1 X187.19 Y127.70 E1823.37858
G1 X212.90 Y127.70 E1824.01999
G1 X237.91 Y117.80 E1824.69081
G1 X238.51 Y119.32 E1824.73169
G0 F12000 X237.76 Y118.90
;TYPE:FILL
G1 F2820 X237.54 Y119.13 E1824.73956
G0 F12000 X237.60 Y118.50
G1 F2820 X236.60 Y119.50 E1824.77473
G0 F12000 X236.66 Y118.87
G1 F2820 X235.66 Y119.87 E1824.80990
G0 F12000 X235.72 Y119.24
G1 F2820 X234.73 Y120.24 E1824.84507
G0 F12000 X234.79 Y119.61
G1 F2820 X233.79 Y120.61 E1824.88025
G0 F12000 X233.85 Y119.98
G1 F2820 X232.85 Y120.98 E1824.91542
G0 F12000 X232.91 Y120.36
G1 F2820 X231.92 Y121.35 E1824.95059
G0 F12000 X231.98 Y120.73
G1 F2820 X230.98 Y121.72 E1824.98576
G0 F12000 X231.04 Y121.10
G1 F2820 X230.04 Y122.09 E1825.02097
G0 F12000 X230.10 Y121.47
G1 F2820 X229.11 Y122.47 E1825.05614
G0 F12000 X229.17 Y121.84
G1 F2820 X228.17 Y122.83 E1825.09131
G0 F12000 X228.23 Y122.21
G1 F2820 X227.24 Y123.21 E1825.12648
G0 F12000 X227.29 Y122.58
G1 F2820 X226.30 Y123.58 E1825.16166
G0 F12000 X226.36 Y122.95
G1 F2820 X225.36 Y123.95 E1825.19683
G0 F12000 X225.42 Y123.32
G1 F2820 X224.43 Y124.32 E1825.23203
G0 F12000 X224.49 Y123.69
G1 F2820 X223.49 Y124.69 E1825.26724
G0 F12000 X223.55 Y124.06
G1 F2820 X222.55 Y125.06 E1825.30245
G0 F12000 X222.61 Y124.43
G1 F2820 X221.62 Y125.43 E1825.33762
G0 F12000 X221.68 Y124.81
G1 F2820 X220.68 Y125.80 E1825.37281
G0 F12000 X220.74 Y125.17
G1 F2820 X219.74 Y126.17 E1825.40802
G0 F12000 X219.80 Y125.55
G1 F2820 X218.81 Y126.54 E1825.44322
G0 F12000 X218.87 Y125.92
G1 F2820 X217.87 Y126.92 E1825.47841
G0 F12000 X217.59 Y127.20
G1 F2820 X168.03 Y176.76 E1827.22685
G0 F12000 X167.46 Y176.76
G1 F2820 X217.93 Y126.29 E1829.00733
G0 F12000 X216.99 Y126.66
G1 F2820 X166.90 Y176.76 E1830.77471
G0 F12000 X166.33 Y176.76
G1 F2820 X216.06 Y127.03 E1832.52903
G0 F12000 X215.12 Y127.40
G1 F2820 X165.76 Y176.76 E1834.27027
G0 F12000 X165.20 Y176.76
G1 F2820 X214.19 Y127.77 E1835.99842
G0 F12000 X213.25 Y128.14
G1 F2820 X164.63 Y176.76 E1837.71351
G0 F12000 X164.07 Y176.76
G1 F2820 X212.59 Y128.24 E1839.42514
G0 F12000 X212.02 Y128.24
G1 F2820 X163.50 Y176.76 E1841.13677
G0 F12000 X162.94 Y176.76
G1 F2820 X211.45 Y128.24 E1842.84841
G0 F12000 X210.89 Y128.24
G1 F2820 X162.37 Y176.76 E1844.56003
G0 F12000 X161.80 Y176.76
G1 F2820 X210.32 Y128.24 E1846.27167
G0 F12000 X209.76 Y128.24
G1 F2820 X161.24 Y176.76 E1847.98331
G0 F12000 X160.67 Y176.76
G1 F2820 X209.19 Y128.24 E1849.69493
G0 F12000 X208.63 Y128.24
G1 F2820 X160.11 Y176.76 E1851.40657
G0 F12000 X159.54 Y176.76
G1 F2820 X208.06 Y128.24 E1853.11821
G0 F12000 X207.49 Y128.24
G1 F2820 X158.97 Y176.76 E1854.82985
G0 F12000 X158.41 Y176.76
G1 F2820 X206.93 Y128.24 E1856.54149
G0 F12000 X206.36 Y128.24
G1 F2820 X157.84 Y176.76 E1858.25313
G0 F12000 X157.28 Y176.76
G1 F2820 X205.80 Y128.24 E1859.96477
G0 F12000 X205.23 Y128.24
G1 F2820 X156.71 Y176.76 E1861.67640
G0 F12000 X156.15 Y176.76
G1 F2820 X204.67 Y128.24 E1863.38804
G0 F12000 X204.10 Y128.24
G1 F2820 X155.58 Y176.76 E1865.09968
G0 F12000 X155.02 Y176.76
G1 F2820 X203.53 Y128.24 E1866.81132
G0 F12000 X202.97 Y128.24
G1 F2820 X154.45 Y176.76 E1868.52296
G0 F12000 X153.88 Y176.76
G1 F2820 X202.40 Y128.24 E1870.23460
G0 F12000 X201.84 Y128.24
G1 F2820 X153.32 Y176.76 E1871.94622
G0 F12000 X152.75 Y176.76
G1 F2820 X201.27 Y128.24 E1873.65786
G0 F12000 X200.71 Y128.24
G1 F2820 X152.19 Y176.76 E1875.36950
G0 F12000 X151.62 Y176.76
G1 F2820 X200.14 Y128.24 E1877.08112
G0 F12000 X199.57 Y128.24
G1 F2820 X151.06 Y176.76 E1878.79276
G0 F12000 X150.49 Y176.76
G1 F2820 X199.01 Y128.24 E1880.50440
G0 F12000 X198.44 Y128.24
G1 F2820 X149.93 Y176.76 E1882.21602
G0 F12000 X149.36 Y176.76
G1 F2820 X197.88 Y128.24 E1883.92766
G0 F12000 X197.31 Y128.24
G1 F2820 X148.79 Y176.76 E1885.63929
G0 F12000 X148.23 Y176.76
G1 F2820 X196.75 Y128.24 E1887.35093
G0 F12000 X196.18 Y128.24
G1 F2820 X147.66 Y176.76 E1889.06257
G0 F12000 X147.10 Y176.76
G1 F2820 X195.62 Y128.24 E1890.77421
G0 F12000 X195.05 Y128.24
G1 F2820 X146.53 Y176.76 E1892.48585
G0 F12000 X145.97 Y176.76
G1 F2820 X194.48 Y128.24 E1894.19749
G0 F12000 X193.92 Y128.24
G1 F2820 X145.40 Y176.76 E1895.90913
G0 F12000 X144.83 Y176.76
G1 F2820 X193.35 Y128.24 E1897.62077
G0 F12000 X192.79 Y128.24
G1 F2820 X144.27 Y176.76 E1899.33240
G0 F12000 X143.70 Y176.76
G1 F2820 X192.22 Y128.24 E1901.04404
G0 F12000 X191.66 Y128.24
G1 F2820 X143.14 Y176.76 E1902.75568
G0 F12000 X142.57 Y176.76
G1 F2820 X191.09 Y128.24 E1904.46730
G0 F12000 X190.52 Y128.24
G1 F2820 X142.00 Y176.76 E1906.17894
G0 F12000 X141.44 Y176.76
G1 F2820 X189.96 Y128.24 E1907.89058
G0 F12000 X189.39 Y128.24
G1 F2820 X140.87 Y176.76 E1909.60220
G0 F12000 X140.31 Y176.76
G1 F2820 X188.83 Y128.24 E1911.31384
G0 F12000 X188.26 Y128.24
G1 F2820 X139.74 Y176.76 E1913.02548
G0 F12000 X139.18 Y176.76
G1 F2820 X187.69 Y128.24 E1914.73712
G0 F12000 X187.13 Y128.24
G1 F2820 X138.61 Y176.76 E1916.44876
G0 F12000 X138.04 Y176.76
G1 F2820 X186.74 Y128.06 E1918.16660
G0 F12000 X186.60 Y127.64
G1 F2820 X137.48 Y176.76 E1919.89943
G0 F12000 X136.91 Y176.76
G1 F2820 X189.23 Y124.44 E1921.74512
G0 F12000 X188.68 Y125.55
G1 F2820 X191.53 Y122.70 E1921.84570
G0 F12000 X190.99 Y123.82
G1 F2820 X193.84 Y120.97 E1921.94627
G0 F12000 X193.29 Y122.08
G1 F2820 X196.14 Y119.23 E1922.04687
G0 F12000 X195.59 Y120.34
G1 F2820 X198.44 Y117.49 E1922.14748
G0 F12000 X197.90 Y118.61
G1 F2820 X200.75 Y115.75 E1922.24809
G0 F12000 X200.20 Y116.87
G1 F2820 X203.05 Y114.02 E1922.34869
G0 F12000 X202.50 Y115.13
G1 F2820 X205.35 Y112.28 E1922.44932
G0 F12000 X204.80 Y113.39
G1 F2820 X207.66 Y110.54 E1922.54995
G0 F12000 X207.10 Y111.66
G1 F2820 X209.96 Y108.80 E1922.65061
G0 F12000 X209.41 Y109.92
G1 F2820 X212.26 Y107.07 E1922.75126
G0 F12000 X211.71 Y108.18
G1 F2820 X214.56 Y105.33 E1922.85191
G0 F12000 X214.01 Y106.45
G1 F2820 X216.87 Y103.59 E1922.95255
G0 F12000 X216.32 Y104.71
G1 F2820 X219.17 Y101.86 E1923.05324
G0 F12000 X218.62 Y102.97
G1 F2820 X221.47 Y100.12 E1923.15388
G0 F12000 X220.92 Y101.23
G1 F2820 X223.78 Y98.38 E1923.25455
G0 F12000 X223.22 Y99.50
G1 F2820 X225.55 Y97.17 E1923.33666
G0 F12000 X225.79 Y97.49
G1 F2820 X225.53 Y97.76 E1923.34611
G0 F12000 X186.67 Y127.30
G0 X186.93 Y128.06
G0 X212.98 Y128.10
G0 X225.60 Y128.24
G1 F2820 X177.08 Y176.76 E1925.05775
G0 F12000 X177.64 Y176.76
G1 F2820 X226.16 Y128.24 E1926.76939
G0 F12000 X226.52 Y128.45
G1 F2820 X178.21 Y176.76 E1928.47365
G0 F12000 X178.77 Y176.76
G1 F2820 X226.52 Y129.01 E1930.15795
G0 F12000 X226.52 Y129.58
G1 F2820 X179.34 Y176.76 E1931.82232
G0 F12000 X179.91 Y176.76
G1 F2820 X226.52 Y130.15 E1933.46672
G0 F12000 X226.52 Y130.71
G1 F2820 X180.47 Y176.76 E1935.09115
G0 F12000 X181.04 Y176.76
G1 F2820 X226.52 Y131.28 E1936.69563
G0 F12000 X226.52 Y131.84
G1 F2820 X181.60 Y176.76 E1938.28017
G0 F12000 X182.17 Y176.76
G1 F2820 X226.52 Y132.41 E1939.84473
G0 F12000 X226.52 Y132.97
G1 F2820 X182.73 Y176.76 E1941.38935
G0 F12000 X183.30 Y176.76
G1 F2820 X226.52 Y133.54 E1942.91402
G0 F12000 X226.52 Y134.11
G1 F2820 X183.87 Y176.76 E1944.41872
G0 F12000 X184.43 Y176.76
G1 F2820 X226.52 Y134.67 E1945.90345
G0 F12000 X226.52 Y135.24
G1 F2820 X185.00 Y176.76 E1947.36825
G0 F12000 X185.56 Y176.76
G1 F2820 X226.52 Y135.80 E1948.81308
G0 F12000 X226.52 Y136.37
G1 F2820 X186.13 Y176.76 E1950.23795
G0 F12000 X186.69 Y176.76
G1 F2820 X226.52 Y136.93 E1951.64288
G0 F12000 X226.52 Y137.50
G1 F2820 X187.26 Y176.76 E1953.02785
G0 F12000 X187.82 Y176.76
G1 F2820 X226.52 Y138.07 E1954.39285
G0 F12000 X226.52 Y138.63
G1 F2820 X188.39 Y176.76 E1955.73792
G0 F12000 X188.96 Y176.76
G1 F2820 X226.52 Y139.20 E1957.06302
G0 F12000 X226.52 Y139.76
G1 F2820 X189.35 Y176.93 E1958.37420
G0 F12000 X189.69 Y177.15
G1 F2820 X226.52 Y140.33 E1959.67334
G0 F12000 X226.52 Y140.89
G1 F2820 X190.03 Y177.38 E1960.96041
G0 F12000 X190.38 Y177.60
G1 F2820 X226.52 Y141.46 E1962.23540
G0 F12000 X226.52 Y142.03
G1 F2820 X190.72 Y177.83 E1963.49836
G0 F12000 X191.06 Y178.05
G1 F2820 X191.91 Y177.20 E1963.52828
G0 F12000 X192.35 Y176.76
G1 F2820 X226.52 Y142.59 E1964.73364
G0 F12000 X226.52 Y143.16
G1 F2820 X192.92 Y176.76 E1965.91905
G0 F12000 X193.48 Y176.76
G1 F2820 X226.52 Y143.72 E1967.08450
G0 F12000 X226.52 Y144.29
G1 F2820 X194.05 Y176.76 E1968.23000
G0 F12000 X194.61 Y176.76
G1 F2820 X226.52 Y144.85 E1969.35553
G0 F12000 X226.52 Y145.42
G1 F2820 X195.18 Y176.76 E1970.46110
G0 F12000 X195.74 Y176.76
G1 F2820 X226.52 Y145.99 E1971.54674
G0 F12000 X226.52 Y146.55
G1 F2820 X196.31 Y176.76 E1972.61241
G0 F12000 X196.88 Y176.76
G1 F2820 X226.52 Y147.12 E1973.65811
G0 F12000 X226.52 Y147.68
G1 F2820 X197.44 Y176.76 E1974.68388
G0 F12000 X198.01 Y176.76
G1 F2820 X226.52 Y148.25 E1975.68968
G0 F12000 X226.52 Y148.81
G1 F2820 X198.57 Y176.76 E1976.67552
G0 F12000 X199.14 Y176.76
G1 F2820 X226.52 Y149.38 E1977.64142
G0 F12000 X226.52 Y149.94
G1 F2820 X199.70 Y176.76 E1978.58736
G0 F12000 X200.27 Y176.76
G1 F2820 X226.52 Y150.51 E1979.51333
G0 F12000 X226.52 Y151.08
G1 F2820 X200.84 Y176.76 E1980.41935
G0 F12000 X201.40 Y176.76
G1 F2820 X226.52 Y151.64 E1981.30542
G0 F12000 X226.52 Y152.21
G1 F2820 X201.97 Y176.76 E1982.17152
G0 F12000 X202.53 Y176.76
G1 F2820 X226.52 Y152.77 E1983.01767
G0 F12000 X226.52 Y153.34
G1 F2820 X203.10 Y176.76 E1983.84387
G0 F12000 X203.66 Y176.76
G1 F2820 X226.52 Y153.91 E1984.65011
G0 F12000 X226.52 Y154.47
G1 F2820 X204.23 Y176.76 E1985.43638
G0 F12000 X204.79 Y176.76
G1 F2820 X226.52 Y155.04 E1986.20272
G0 F12000 X226.52 Y155.60
G1 F2820 X205.36 Y176.76 E1986.94909
G0 F12000 X205.93 Y176.76
G1 F2820 X226.52 Y156.17 E1987.67549
G0 F12000 X226.52 Y156.73
G1 F2820 X206.49 Y176.76 E1988.38196
G0 F12000 X207.06 Y176.76
G1 F2820 X226.52 Y157.30 E1989.06847
G0 F12000 X226.52 Y157.87
G1 F2820 X207.62 Y176.76 E1989.73500
G0 F12000 X208.19 Y176.76
G1 F2820 X226.52 Y158.43 E1990.38161
G0 F12000 X226.52 Y159.00
G1 F2820 X208.75 Y176.76 E1991.00825
G0 F12000 X209.32 Y176.76
G1 F2820 X226.52 Y159.56 E1991.61492
G0 F12000 X226.52 Y160.13
G1 F2820 X209.89 Y176.76 E1992.20166
G0 F12000 X210.45 Y176.76
G1 F2820 X226.52 Y160.69 E1992.76843
G0 F12000 X226.52 Y161.26
G1 F2820 X211.02 Y176.76 E1993.31523
G0 F12000 X211.58 Y176.76
G1 F2820 X226.52 Y161.82 E1993.84209
G0 F12000 X226.52 Y162.39
G1 F2820 X212.07 Y176.84 E1994.35174
G0 F12000 X212.47 Y177.00
G1 F2820 X226.52 Y162.96 E1994.84718
G0 F12000 X226.52 Y163.52
G1 F2820 X212.88 Y177.16 E1995.32841
G0 F12000 X213.28 Y177.32
G1 F2820 X226.52 Y164.09 E1995.79541
G0 F12000 X226.52 Y164.65
G1 F2820 X213.68 Y177.49 E1996.24820
G0 F12000 X214.09 Y177.65
G1 F2820 X226.52 Y165.22 E1996.68676
G0 F12000 X226.52 Y165.78
G1 F2820 X214.49 Y177.81 E1997.11111
G0 F12000 X214.89 Y177.97
G1 F2820 X226.52 Y166.35 E1997.52123
G0 F12000 X226.52 Y166.92
G1 F2820 X216.68 Y176.76 E1997.86847
G0 F12000 X216.55 Y176.88
G1 F2820 X215.29 Y178.14 E1997.91273
G0 F12000 X215.70 Y178.30
G1 F2820 X216.41 Y177.59 E1997.93795
G0 F12000 X216.53 Y178.03
G1 F2820 X216.30 Y178.54 E1997.95312
G1 X217.14 Y178.28 E1997.96831
G1 X217.11 Y178.87 E1997.98351
G1 X217.94 Y178.60 E1997.99864
G1 X217.91 Y179.19 E1998.01382
G1 X218.75 Y178.93 E1998.02901
G1 X218.72 Y179.52 E1998.04419
G1 X219.55 Y179.25 E1998.05930
G1 X219.53 Y179.84 E1998.07448
G1 X220.36 Y179.58 E1998.08960
G1 X220.33 Y180.17 E1998.10476
G1 X221.17 Y179.90 E1998.11988
G1 X221.14 Y180.50 E1998.13506
G1 X221.97 Y180.23 E1998.15024
G1 X221.94 Y180.82 E1998.16542
G1 X222.78 Y180.55 E1998.18061
G1 X222.75 Y181.15 E1998.19582
G1 X223.59 Y180.88 E1998.21095
G1 X223.56 Y181.47 E1998.22613
G1 X224.39 Y181.20 E1998.24126
G1 X224.36 Y181.80 E1998.25644
G1 X225.20 Y181.53 E1998.27163
G1 X225.17 Y182.12 E1998.28680
G1 X226.00 Y181.85 E1998.30199
G1 X225.98 Y182.45 E1998.31720
G1 X226.81 Y182.18 E1998.33231
G1 X226.78 Y182.77 E1998.34749
G1 X227.62 Y182.50 E1998.36261
G1 X227.59 Y183.10 E1998.37778
G1 X228.42 Y182.83 E1998.39290
G1 X228.39 Y183.42 E1998.40808
G1 X229.23 Y183.16 E1998.42319
G1 X229.20 Y183.75 E1998.43836
G1 X230.03 Y183.48 E1998.45349
G1 X230.01 Y184.07 E1998.46867
G1 X230.84 Y183.81 E1998.48386
G1 X230.81 Y184.40 E1998.49904
G1 X231.65 Y184.13 E1998.51422
G1 X231.62 Y184.72 E1998.52940
G1 X232.45 Y184.46 E1998.54459
G1 X232.42 Y185.05 E1998.55980
G1 X233.26 Y184.78 E1998.57500
G1 X233.23 Y185.38 E1998.59021
G1 X234.06 Y185.11 E1998.60542
G1 X234.04 Y185.70 E1998.62062
G1 X234.87 Y185.43 E1998.63581
G1 X234.84 Y186.03 E1998.65102
G1 X235.68 Y185.76 E1998.66621
G1 X235.65 Y186.35 E1998.68141
G1 X236.48 Y186.08 E1998.69661
G1 X236.46 Y186.68 E1998.71181
G1 X237.29 Y186.41 E1998.72700
G1 X237.06 Y186.92 E1998.74102
G0 F12000 X216.55 Y177.84
G0 X216.73 Y176.94
G0 X226.52 Y176.53
G1 F2820 X226.29 Y176.76 E1998.74902
G0 F12000 X225.73 Y176.76
G1 F2820 X226.52 Y175.97 E1998.77696
G0 F12000 X226.52 Y175.40
G1 F2820 X225.16 Y176.76 E1998.82487
G0 F12000 X224.59 Y176.76
G1 F2820 X226.52 Y174.84 E1998.89275
G0 F12000 X226.52 Y174.27
G1 F2820 X224.03 Y176.76 E1998.98055
G0 F12000 X223.46 Y176.76
G1 F2820 X226.52 Y173.70 E1999.08833
G0 F12000 X226.52 Y173.14
G1 F2820 X222.90 Y176.76 E1999.21607
G0 F12000 X222.33 Y176.76
G1 F2820 X226.52 Y172.57 E1999.36376
G0 F12000 X226.52 Y172.01
G1 F2820 X221.77 Y176.76 E1999.53140
G0 F12000 X221.20 Y176.76
G1 F2820 X226.52 Y171.44 E1999.71900
G0 F12000 X226.52 Y170.88
G1 F2820 X220.63 Y176.76 E1999.92658
G0 F12000 X220.07 Y176.76
G1 F2820 X226.52 Y170.31 E2000.15408
G0 F12000 X226.52 Y169.74
G1 F2820 X219.50 Y176.76 E2000.40156
G0 F12000 X218.94 Y176.76
G1 F2820 X226.52 Y169.18 E2000.66900
G0 F12000 X226.52 Y168.61
G1 F2820 X218.37 Y176.76 E2000.95637
G0 F12000 X217.81 Y176.76
G1 F2820 X226.52 Y168.05 E2001.26371
G0 F12000 X226.52 Y167.48
G1 F2820 X217.24 Y176.76 E2001.59101
G0 F12000 X216.73 Y176.94
G0 X216.55 Y177.84
G0 X211.85 Y176.90
G0 X192.18 Y176.94
G0 X191.94 Y177.74
G0 X209.25 Y189.28
G1 F2820 X208.67 Y189.57 E2001.60525
G1 X208.74 Y188.94 E2001.61950
G1 X207.99 Y189.12 E2001.63374
G1 X208.05 Y188.49 E2001.64794
G1 X207.31 Y188.67 E2001.66216
G1 X207.37 Y188.04 E2001.67643
G1 X206.62 Y188.22 E2001.69065
G1 X206.68 Y187.60 E2001.70489
G1 X205.94 Y187.78 E2001.71916
G1 X206.00 Y187.15 E2001.73337
G1 X205.25 Y187.33 E2001.74760
G1 X205.32 Y186.70 E2001.76187
G1 X204.57 Y186.88 E2001.77609
G1 X204.63 Y186.25 E2001.79034
G1 X203.88 Y186.44 E2001.80457
G1 X203.95 Y185.81 E2001.81878
G1 X203.20 Y185.99 E2001.83302
G1 X203.26 Y185.36 E2001.84727
G1 X202.52 Y185.54 E2001.86148
G1 X202.58 Y184.91 E2001.87573
G1 X201.83 Y185.09 E2001.88996
G1 X201.90 Y184.47 E2001.90417
G1 X201.15 Y184.65 E2001.91841
G1 X201.21 Y184.02 E2001.93266
G1 X200.47 Y184.20 E2001.94689
G1 X200.53 Y183.57 E2001.96116
G1 X199.78 Y183.75 E2001.97540
G1 X199.84 Y183.12 E2001.98965
G1 X199.10 Y183.31 E2002.00388
G1 X199.16 Y182.68 E2002.01813
G1 X198.41 Y182.86 E2002.03237
G1 X198.47 Y182.23 E2002.04658
G1 X197.73 Y182.41 E2002.06084
G1 X197.79 Y181.78 E2002.07508
G1 X197.04 Y181.96 E2002.08930
G1 X197.11 Y181.34 E2002.10355
G1 X196.36 Y181.52 E2002.11779
G1 X196.42 Y180.89 E2002.13199
G1 X195.68 Y181.07 E2002.14626
G1 X195.74 Y180.44 E2002.16050
G1 X194.99 Y180.62 E2002.17472
G1 X195.06 Y179.99 E2002.18893
G1 X194.31 Y180.17 E2002.20319
G1 X194.37 Y179.55 E2002.21740
G1 X193.62 Y179.73 E2002.23161
G1 X193.69 Y179.10 E2002.24586
G1 X192.94 Y179.28 E2002.26008
G1 X193.00 Y178.65 E2002.27428
G1 X192.26 Y178.83 E2002.28850
G1 X192.32 Y178.20 E2002.30272
G1 X191.57 Y178.38 E2002.31694
G1 X191.81 Y177.87 E2002.33104
G0 F12000 X189.04 Y176.91
G0 X176.77 Y176.93
G0 X176.47 Y177.61
G0 X183.59 Y185.52
G1 F2820 X183.33 Y186.06 E2002.34495
G1 X184.00 Y185.96 E2002.35888
G1 X183.87 Y186.65 E2002.37280
G1 X184.54 Y186.55 E2002.38673
G1 X184.42 Y187.24 E2002.40065
G1 X185.09 Y187.13 E2002.41460
G1 X184.96 Y187.82 E2002.42850
G1 X185.63 Y187.72 E2002.44241
G1 X185.51 Y188.41 E2002.45631
G1 X186.18 Y188.31 E2002.47022
G1 X186.05 Y189.00 E2002.48414
G1 X186.72 Y188.89 E2002.49805
G1 X186.60 Y189.58 E2002.51195
G1 X187.27 Y189.48 E2002.52590
G1 X187.14 Y190.17 E2002.53985
G1 X187.81 Y190.06 E2002.55382
G1 X187.69 Y190.75 E2002.56774
G1 X188.36 Y190.65 E2002.58167
G1 X188.23 Y191.34 E2002.59559
G1 X188.90 Y191.24 E2002.60952
G1 X188.78 Y191.93 E2002.62347
G1 X189.45 Y191.82 E2002.63739
G1 X189.32 Y192.51 E2002.65130
G1 X189.99 Y192.41 E2002.66524
G1 X189.87 Y193.10 E2002.67917
G1 X190.54 Y193.00 E2002.69312
G1 X190.41 Y193.69 E2002.70709
G1 X191.08 Y193.58 E2002.72103
G1 X190.96 Y194.27 E2002.73494
G1 X191.63 Y194.17 E2002.74885
G1 X191.50 Y194.86 E2002.76275
G1 X192.17 Y194.75 E2002.77666
G1 X192.05 Y195.44 E2002.79060
G1 X192.72 Y195.34 E2002.80451
G1 X192.59 Y196.03 E2002.81848
G1 X193.26 Y195.93 E2002.83245
G1 X193.14 Y196.62 E2002.84635
G1 X193.81 Y196.51 E2002.86030
G1 X193.69 Y197.20 E2002.87420
G1 X194.35 Y197.10 E2002.88813
G1 X194.23 Y197.79 E2002.90205
G1 X194.90 Y197.69 E2002.91598
G1 X194.78 Y198.38 E2002.92990
G1 X195.44 Y198.27 E2002.94385
G1 X195.32 Y198.96 E2002.95780
G1 X195.99 Y198.86 E2002.97171
G1 X195.87 Y199.55 E2002.98565
G1 X196.53 Y199.44 E2002.99956
G1 X196.41 Y200.13 E2003.01353
G1 X197.08 Y200.03 E2003.02743
G1 X196.96 Y200.72 E2003.04134
G1 X197.62 Y200.62 E2003.05529
G1 X197.50 Y201.31 E2003.06921
G1 X198.17 Y201.20 E2003.08318
G1 X198.04 Y201.89 E2003.09711
G1 X198.71 Y201.79 E2003.11108
G1 X198.59 Y202.48 E2003.12500
G1 X199.26 Y202.38 E2003.13896
G1 X199.14 Y203.06 E2003.15288
G1 X199.80 Y202.96 E2003.16681
G1 X199.68 Y203.65 E2003.18071
G1 X200.35 Y203.55 E2003.19466
G1 X200.23 Y204.24 E2003.20858
G1 X200.89 Y204.13 E2003.22253
G1 X200.77 Y204.82 E2003.23650
G1 X201.44 Y204.72 E2003.25045
G1 X201.32 Y205.41 E2003.26442
G1 X201.98 Y205.31 E2003.27832
G1 X201.86 Y206.00 E2003.29227
G1 X202.53 Y205.89 E2003.30618
G1 X202.41 Y206.58 E2003.32008
G1 X203.07 Y206.48 E2003.33399
G1 X202.95 Y207.17 E2003.34796
G1 X203.62 Y207.07 E2003.36193
G1 X203.50 Y207.75 E2003.37583
G1 X204.16 Y207.65 E2003.38978
G1 X204.04 Y208.34 E2003.40370
G1 X204.71 Y208.24 E2003.41765
G1 X204.59 Y208.93 E2003.43158
G1 X205.25 Y208.82 E2003.44553
G1 X205.13 Y209.51 E2003.45945
G1 X205.80 Y209.41 E2003.47340
G1 X205.68 Y210.10 E2003.48735
G1 X206.34 Y210.00 E2003.50126
G1 X206.22 Y210.69 E2003.51522
G1 X206.89 Y210.58 E2003.52913
G1 X206.77 Y211.27 E2003.54310
G1 X207.44 Y211.17 E2003.55701
G1 X207.31 Y211.86 E2003.57098
G1 X207.98 Y211.76 E2003.58493
G1 X207.86 Y212.45 E2003.59891
G1 X208.53 Y212.34 E2003.61289
G1 X208.40 Y213.03 E2003.62681
G1 X209.07 Y212.93 E2003.64079
G1 X208.95 Y213.62 E2003.65471
G1 X209.62 Y213.51 E2003.66866
G1 X209.49 Y214.20 E2003.68258
G1 X210.16 Y214.10 E2003.69653
G1 X210.04 Y214.79 E2003.71044
G1 X210.71 Y214.69 E2003.72439
G1 X210.58 Y215.38 E2003.73836
G1 X211.25 Y215.27 E2003.75233
G1 X211.13 Y215.96 E2003.76630
G1 X211.80 Y215.86 E2003.78025
G1 X211.67 Y216.55 E2003.79422
G1 X212.34 Y216.45 E2003.80812
G1 X212.22 Y217.13 E2003.82207
G1 X212.89 Y217.03 E2003.83598
G1 X212.76 Y217.72 E2003.84994
G1 X213.43 Y217.62 E2003.86385
G1 X213.31 Y218.31 E2003.87782
G1 X213.98 Y218.21 E2003.89179
G1 X213.85 Y218.89 E2003.90576
G1 X214.52 Y218.79 E2003.91971
G1 X214.40 Y219.48 E2003.93363
G1 X214.93 Y219.23 E2003.94828
G0 F12000 X176.47 Y177.61
G0 X176.77 Y176.93
G0 X189.04 Y176.91
G0 X226.63 Y201.31
G1 F2820 X227.21 Y201.02 E2003.96256
G1 X227.14 Y201.65 E2003.97683
G1 X227.89 Y201.46 E2003.99112
G1 X227.83 Y202.09 E2004.00536
G1 X228.57 Y201.91 E2004.01960
G1 X228.51 Y202.54 E2004.03387
G1 X229.10 Y202.52 E2004.04814
G1 X229.02 Y202.88 E2004.05718
G0 F12000 X226.69 Y200.68
G1 F2820 X226.12 Y200.97 E2004.07146
G1 X226.18 Y200.35 E2004.08573
G1 X225.43 Y200.53 E2004.09996
G1 X225.50 Y199.90 E2004.11423
G1 X224.75 Y200.08 E2004.12847
G1 X224.81 Y199.45 E2004.14274
G1 X224.06 Y199.63 E2004.15698
G1 X224.13 Y199.00 E2004.17123
G1 X223.38 Y199.19 E2004.18549
G1 X223.44 Y198.56 E2004.19976
G1 X222.70 Y198.74 E2004.21400
G1 X222.76 Y198.11 E2004.22827
G1 X222.01 Y198.29 E2004.24254
G1 X222.07 Y197.66 E2004.25679
G1 X221.33 Y197.84 E2004.27105
G1 X221.39 Y197.21 E2004.28532
G1 X220.64 Y197.40 E2004.29958
G1 X220.71 Y196.77 E2004.31385
G1 X219.96 Y196.95 E2004.32807
G1 X220.02 Y196.32 E2004.34232
G1 X219.28 Y196.50 E2004.35655
G1 X219.34 Y195.87 E2004.37076
G1 X218.59 Y196.05 E2004.38505
G1 X218.66 Y195.43 E2004.39932
G1 X217.91 Y195.61 E2004.41355
G1 X217.97 Y194.98 E2004.42784
G1 X217.22 Y195.16 E2004.44208
G1 X217.29 Y194.53 E2004.45629
G1 X216.54 Y194.71 E2004.47052
G1 X216.60 Y194.08 E2004.48479
G1 X215.86 Y194.26 E2004.49903
G1 X215.92 Y193.64 E2004.51330
G1 X215.17 Y193.82 E2004.52754
G1 X215.24 Y193.19 E2004.54179
G1 X214.49 Y193.37 E2004.55602
G1 X214.55 Y192.74 E2004.57030
G1 X213.80 Y192.92 E2004.58454
G1 X213.87 Y192.29 E2004.59881
G1 X213.12 Y192.47 E2004.61304
G1 X213.18 Y191.85 E2004.62731
G1 X212.44 Y192.03 E2004.64155
G1 X212.50 Y191.40 E2004.65582
G1 X211.75 Y191.58 E2004.67011
G1 X211.81 Y190.95 E2004.68436
G1 X211.07 Y191.13 E2004.69859
G1 X211.13 Y190.50 E2004.71284
G1 X210.38 Y190.69 E2004.72711
G1 X210.45 Y190.06 E2004.74135
G1 X209.70 Y190.24 E2004.75562
G1 X209.76 Y189.61 E2004.76989
G1 X209.19 Y189.90 E2004.78601
G0 F12000 X189.04 Y176.91
G0 X176.77 Y176.93
G0 X176.47 Y177.61
G0 X183.31 Y185.23
G1 F2820 X182.78 Y185.48 E2004.79990
G1 X182.91 Y184.79 E2004.81380
G1 X182.24 Y184.89 E2004.82770
G1 X182.36 Y184.20 E2004.84165
G1 X181.69 Y184.30 E2004.85556
G1 X181.81 Y183.62 E2004.86950
G1 X181.15 Y183.72 E2004.88341
G1 X181.27 Y183.03 E2004.89731
G1 X180.60 Y183.13 E2004.91126
G1 X180.72 Y182.44 E2004.92517
G1 X180.06 Y182.55 E2004.93911
G1 X180.18 Y181.86 E2004.95302
G1 X179.51 Y181.96 E2004.96696
G1 X179.63 Y181.27 E2004.98087
G1 X178.97 Y181.37 E2004.99482
G1 X179.09 Y180.69 E2005.00872
G1 X178.42 Y180.79 E2005.02265
G1 X178.54 Y180.10 E2005.03659
G1 X177.88 Y180.20 E2005.05052
G1 X178.00 Y179.51 E2005.06444
G1 X177.33 Y179.62 E2005.07837
G1 X177.45 Y178.93 E2005.09229
G1 X176.79 Y179.03 E2005.10620
G1 X176.91 Y178.34 E2005.12014
G1 X176.24 Y178.44 E2005.13405
G1 X176.41 Y177.71 E2005.14800
G1 X175.83 Y178.00 E2005.16422
G0 F12000 X175.56 Y177.71
G1 F2820 X225.03 Y128.24 E2006.90941
G0 F12000 X224.46 Y128.24
G1 F2820 X175.29 Y177.42 E2008.64422
G0 F12000 X175.01 Y177.12
G1 F2820 X223.90 Y128.24 E2010.36870
G0 F12000 X223.33 Y128.24
G1 F2820 X174.74 Y176.83 E2012.08285
G0 F12000 X174.25 Y176.76
G1 F2820 X222.77 Y128.24 E2013.79445
G0 F12000 X222.20 Y128.24
G1 F2820 X173.68 Y176.76 E2015.50605
G0 F12000 X173.12 Y176.76
G1 F2820 X221.64 Y128.24 E2017.21766
G0 F12000 X221.07 Y128.24
G1 F2820 X172.55 Y176.76 E2018.92926
G0 F12000 X171.99 Y176.76
G1 F2820 X220.50 Y128.24 E2020.64086
G0 F12000 X219.94 Y128.24
G1 F2820 X171.42 Y176.76 E2022.35247
G0 F12000 X170.85 Y176.76
G1 F2820 X219.37 Y128.24 E2024.06407
G0 F12000 X218.81 Y128.24
G1 F2820 X170.29 Y176.76 E2025.77567
G0 F12000 X169.72 Y176.76
G1 F2820 X218.24 Y128.24 E2027.48728
G0 F12000 X217.77 Y128.15
G1 F2820 X169.16 Y176.76 E2029.20223
G0 F12000 X168.59 Y176.76
G1 F2820 X217.68 Y127.67 E2030.93393
G0 F12000 X212.98 Y128.10
G0 X186.93 Y128.06
G0 X186.67 Y127.30
G0 X186.93 Y126.18
G1 F2820 X136.35 Y176.76 E2032.71834
G0 F12000 X135.78 Y176.76
G1 F2820 X184.63 Y127.91 E2034.44145
G0 F12000 X183.74 Y128.24
G1 F2820 X135.22 Y176.76 E2036.15305
G0 F12000 X134.65 Y176.76
G1 F2820 X183.17 Y128.24 E2037.86465
G0 F12000 X182.60 Y128.24
G1 F2820 X134.09 Y176.76 E2039.57626
G0 F12000 X133.52 Y176.76
G1 F2820 X182.04 Y128.24 E2041.28786
G0 F12000 X181.47 Y128.24
G1 F2820 X132.95 Y176.76 E2042.99946
G0 F12000 X132.39 Y176.76
G1 F2820 X180.91 Y128.24 E2044.71107
G0 F12000 X180.34 Y128.24
G1 F2820 X131.82 Y176.76 E2046.42267
G0 F12000 X131.26 Y176.76
G1 F2820 X179.78 Y128.24 E2048.13428
G0 F12000 X179.21 Y128.24
G1 F2820 X130.69 Y176.76 E2049.84588
G0 F12000 X130.13 Y176.76
G1 F2820 X178.64 Y128.24 E2051.55748
G0 F12000 X178.08 Y128.24
G1 F2820 X129.56 Y176.76 E2053.26909
G0 F12000 X128.99 Y176.76
G1 F2820 X177.51 Y128.24 E2054.98069
G0 F12000 X176.95 Y128.24
G1 F2820 X128.43 Y176.76 E2056.69231
G0 F12000 X127.86 Y176.76
G1 F2820 X176.38 Y128.24 E2058.40391
G0 F12000 X175.81 Y128.24
G1 F2820 X127.30 Y176.76 E2060.11552
G0 F12000 X126.73 Y176.76
G1 F2820 X175.25 Y128.24 E2061.82714
G0 F12000 X174.68 Y128.24
G1 F2820 X126.17 Y176.76 E2063.53874
G0 F12000 X125.60 Y176.76
G1 F2820 X174.12 Y128.24 E2065.25035
G0 F12000 X173.55 Y128.24
G1 F2820 X125.03 Y176.76 E2066.96195
G0 F12000 X124.47 Y176.76
G1 F2820 X172.99 Y128.24 E2068.67355
G0 F12000 X172.42 Y128.24
G1 F2820 X123.90 Y176.76 E2070.38516
G0 F12000 X123.34 Y176.76
G1 F2820 X171.85 Y128.24 E2072.09676
G0 F12000 X171.29 Y128.24
G1 F2820 X122.77 Y176.76 E2073.80836
G0 F12000 X122.21 Y176.76
G1 F2820 X170.72 Y128.24 E2075.51997
G0 F12000 X170.16 Y128.24
G1 F2820 X121.64 Y176.76 E2077.23157
G0 F12000 X121.08 Y176.76
G1 F2820 X169.59 Y128.24 E2078.94317
G0 F12000 X169.03 Y128.24
G1 F2820 X119.61 Y177.66 E2080.68665
G0 F12000 X118.49 Y177.64
G1 F2820 X167.90 Y128.24 E2082.42942
G0 F12000 X168.46 Y128.24
G1 F2820 X117.30 Y179.40 E2084.23419
G0 F12000 X117.85 Y178.28
G1 F2820 X115.00 Y181.14 E2084.33486
G0 F12000 X115.55 Y180.02
G1 F2820 X112.69 Y182.87 E2084.43552
G0 F12000 X113.25 Y181.76
G1 F2820 X110.39 Y184.61 E2084.53619
G0 F12000 X110.94 Y183.50
G1 F2820 X108.09 Y186.35 E2084.63684
G0 F12000 X108.64 Y185.23
G1 F2820 X105.79 Y188.09 E2084.73748
G0 F12000 X106.34 Y186.97
G1 F2820 X103.48 Y189.82 E2084.83813
G0 F12000 X104.03 Y188.71
G1 F2820 X101.18 Y191.56 E2084.93881
G0 F12000 X101.73 Y190.44
G1 F2820 X98.88 Y193.30 E2085.03949
G0 F12000 X99.43 Y192.18
G1 F2820 X96.57 Y195.04 E2085.14018
G0 F12000 X97.12 Y193.92
G1 F2820 X94.27 Y196.77 E2085.24086
G0 F12000 X94.82 Y195.66
G1 F2820 X91.97 Y198.51 E2085.34154
G0 F12000 X92.52 Y197.40
G1 F2820 X89.66 Y200.25 E2085.44223
G0 F12000 X90.22 Y199.13
G1 F2820 X87.36 Y201.99 E2085.54294
G0 F12000 X87.91 Y200.87
G1 F2820 X85.06 Y203.72 E2085.64366
G0 F12000 X85.61 Y202.61
G1 F2820 X82.75 Y205.46 E2085.74436
G0 F12000 X83.31 Y204.34
G1 F2820 X80.45 Y207.20 E2085.84508
G0 F12000 X79.36 Y207.72
G1 F2820 X81.00 Y206.08 E2085.90288
G0 F12000 X118.33 Y177.70
G0 X118.07 Y176.94
G0 X92.02 Y176.90
G0 X72.71 Y184.40
G1 F2820 X73.70 Y183.40 E2085.93805
G0 F12000 X73.64 Y184.03
G1 F2820 X74.64 Y183.03 E2085.97323
G0 F12000 X74.58 Y183.65
G1 F2820 X75.58 Y182.66 E2086.00840
G0 F12000 X75.52 Y183.28
G1 F2820 X76.51 Y182.29 E2086.04357
G0 F12000 X76.45 Y182.91
G1 F2820 X77.45 Y181.91 E2086.07874
G0 F12000 X77.39 Y182.54
G1 F2820 X78.39 Y181.54 E2086.11391
G0 F12000 X78.33 Y182.17
G1 F2820 X79.32 Y181.17 E2086.14908
G0 F12000 X79.26 Y181.80
G1 F2820 X80.26 Y180.80 E2086.18427
G0 F12000 X80.20 Y181.43
G1 F2820 X81.20 Y180.43 E2086.21946
G0 F12000 X81.14 Y181.06
G1 F2820 X82.13 Y180.06 E2086.25464
G0 F12000 X82.07 Y180.69
G1 F2820 X83.07 Y179.69 E2086.28982
G0 F12000 X83.01 Y180.32
G1 F2820 X84.01 Y179.32 E2086.32503
G0 F12000 X83.95 Y179.94
G1 F2820 X84.94 Y178.95 E2086.36022
G0 F12000 X84.88 Y179.57
G1 F2820 X85.88 Y178.58 E2086.39543
G0 F12000 X85.82 Y179.20
G1 F2820 X86.82 Y178.21 E2086.43064
G0 F12000 X86.75 Y178.83
G1 F2820 X137.35 Y128.24 E2088.21546
G0 F12000 X137.91 Y128.24
G1 F2820 X87.69 Y178.46 E2089.98717
G0 F12000 X87.38 Y177.64
G1 F2820 X136.78 Y128.24 E2091.73003
G0 F12000 X136.22 Y128.24
G1 F2820 X87.29 Y177.17 E2093.45614
G0 F12000 X87.13 Y176.76
G1 F2820 X135.65 Y128.24 E2095.16776
G0 F12000 X135.09 Y128.24
G1 F2820 X86.57 Y176.76 E2096.87936
G0 F12000 X86.00 Y176.76
G1 F2820 X134.52 Y128.24 E2098.59097
G0 F12000 X133.96 Y128.24
G1 F2820 X85.44 Y176.76 E2100.30259
G0 F12000 X84.87 Y176.76
G1 F2820 X133.39 Y128.24 E2102.01419
G0 F12000 X132.82 Y128.24
G1 F2820 X84.31 Y176.76 E2103.72579
G0 F12000 X83.74 Y176.76
G1 F2820 X132.26 Y128.24 E2105.43740
G0 F12000 X131.69 Y128.24
G1 F2820 X83.17 Y176.76 E2107.14900
G0 F12000 X82.61 Y176.76
G1 F2820 X131.13 Y128.24 E2108.86060
G0 F12000 X130.56 Y128.24
G1 F2820 X82.10 Y176.70 E2110.57020
G0 F12000 X82.10 Y176.14
G1 F2820 X130.16 Y128.07 E2112.26587
G0 F12000 X129.89 Y127.78
G1 F2820 X82.10 Y175.57 E2113.95193
G0 F12000 X82.10 Y175.00
G1 F2820 X129.62 Y127.48 E2115.62837
G0 F12000 X129.35 Y127.19
G1 F2820 X128.38 Y128.15 E2115.66232
G0 F12000 X128.30 Y128.24
G1 F2820 X82.10 Y174.44 E2117.29213
G0 F12000 X82.10 Y173.87
G1 F2820 X127.73 Y128.24 E2118.90200
G0 F12000 X127.17 Y128.24
G1 F2820 X82.10 Y173.31 E2120.49189
G0 F12000 X82.10 Y172.74
G1 F2820 X126.60 Y128.24 E2122.06182
G0 F12000 X126.04 Y128.24
G1 F2820 X82.10 Y172.18 E2123.61182
G0 F12000 X82.10 Y171.61
G1 F2820 X125.47 Y128.24 E2125.14184
G0 F12000 X124.90 Y128.24
G1 F2820 X82.10 Y171.04 E2126.65191
G0 F12000 X82.10 Y170.48
G1 F2820 X124.34 Y128.24 E2128.14204
G0 F12000 X123.77 Y128.24
G1 F2820 X82.10 Y169.91 E2129.61220
G0 F12000 X82.10 Y169.35
G1 F2820 X123.21 Y128.24 E2131.06240
G0 F12000 X122.64 Y128.24
G1 F2820 X82.10 Y168.78 E2132.49266
G0 F12000 X82.10 Y168.22
G1 F2820 X122.08 Y128.24 E2133.90299
G0 F12000 X121.51 Y128.24
G1 F2820 X82.10 Y167.65 E2135.29336
G0 F12000 X82.10 Y167.09
G1 F2820 X120.94 Y128.24 E2136.66377
G0 F12000 X120.38 Y128.24
G1 F2820 X82.10 Y166.52 E2138.01422
G0 F12000 X82.10 Y165.95
G1 F2820 X119.81 Y128.24 E2139.34472
G0 F12000 X119.25 Y128.24
G1 F2820 X82.10 Y165.39 E2140.65527
G0 F12000 X82.10 Y164.82
G1 F2820 X118.68 Y128.24 E2141.94585
G0 F12000 X118.12 Y128.24
G1 F2820 X82.10 Y164.26 E2143.21648
G0 F12000 X82.10 Y163.69
G1 F2820 X117.55 Y128.24 E2144.46715
