;-- START GCODE --
;Sliced for Type A Machines Series 1
;Sliced at: Thu 23-04-2015 00:46:54
;Basic settings: Layer height: 0.15 Walls: 0.8 Fill: 12
;Print Speed: 100 Support: 0
;Retraction Speed: 40 Retraction Distance: 1.2
;Print time: #P_TIME#
;Filament used: #F_AMNT#m #F_WGHT#g
;Filament cost: #F_COST#
M106 S255	 ;start with the fan on
G21        ;metric values
G90        ;absolute positioning
M106 S255    ;start with the fan on
G28     ;move to endstops
G29		;allows for auto-levelling
G1 X150 Y5  Z15.0 F12000 ;center and move the platform down 15mm
M109 S220 ;Heat To temp
G92 E0                  ;zero the extruded length
G1 F200 E30              ;extrude 30mm of feed stock
G92 E0                  ;zero the extruded length again
G1 X175 Y25  Z0 F12000 ;remove bugger
G1 X220 F12000 ;remove bugger
G1 X150 Y150  Z15 F12000 ;recenter and begin
G1 F12000

;Layer count: 244
;LAYER:0
M106 S255
G0 F12000 X76.35 Y124.30 Z0.25
;TYPE:SKIRT
G1 F1800 X228.65 Y124.30 E6.33190
G1 X228.65 Y180.70 E8.67674
G1 X76.35 Y180.70 E15.00864
G1 X76.35 Y124.30 E17.35348
G1 F2400 E16.15348
G0 F12000 X80.15 Y128.10
;TYPE:WALL-INNER
G1 F2400 E17.35348
G1 F1800 X224.85 Y128.10 E23.36940
G1 X224.85 Y176.90 E25.39827
G1 X80.15 Y176.90 E31.41420
G1 X80.15 Y128.10 E33.44307
G0 F12000 X79.75 Y127.70
;TYPE:WALL-OUTER
G1 F1800 X225.25 Y127.70 E39.49225
G1 X225.25 Y177.30 E41.55438
G1 X79.75 Y177.30 E47.60357
G1 X79.75 Y127.70 E49.66570
G0 F12000 X80.44 Y128.24
;TYPE:FILL
G1 F1800 X128.96 Y176.76 E52.51846
G0 F12000 X128.39 Y176.76
G1 F1800 X80.29 Y128.66 E55.34676
G0 F12000 X80.29 Y129.22
G1 F1800 X127.83 Y176.76 E58.14181
G0 F12000 X127.26 Y176.76
G1 F1800 X80.29 Y129.79 E60.90358
G0 F12000 X80.29 Y130.35
G1 F1800 X126.69 Y176.76 E63.63208
G0 F12000 X126.13 Y176.76
G1 F1800 X80.29 Y130.92 E66.32735
G0 F12000 X80.29 Y131.48
G1 F1800 X125.56 Y176.76 E68.98935
G0 F12000 X125.00 Y176.76
G1 F1800 X80.29 Y132.05 E71.61807
G0 F12000 X80.29 Y132.62
G1 F1800 X124.43 Y176.76 E74.21357
G0 F12000 X123.87 Y176.76
G1 F1800 X80.29 Y133.18 E76.77579
G0 F12000 X80.29 Y133.75
G1 F1800 X123.30 Y176.76 E79.30473
G0 F12000 X122.74 Y176.76
G1 F1800 X80.29 Y134.31 E81.80045
G0 F12000 X80.29 Y134.88
G1 F1800 X122.17 Y176.76 E84.26289
G0 F12000 X121.60 Y176.76
G1 F1800 X80.29 Y135.44 E86.69205
G0 F12000 X80.29 Y136.01
G1 F1800 X121.04 Y176.76 E89.08800
G0 F12000 X120.47 Y176.76
G1 F1800 X80.29 Y136.57 E91.45066
G0 F12000 X80.29 Y137.14
G1 F1800 X119.91 Y176.76 E93.78005
G0 F12000 X119.34 Y176.76
G1 F1800 X80.29 Y137.71 E96.07619
G0 F12000 X80.29 Y138.27
G1 F1800 X118.78 Y176.76 E98.33908
G0 F12000 X118.21 Y176.76
G1 F1800 X80.29 Y138.84 E100.56868
G0 F12000 X80.29 Y139.40
G1 F1800 X117.64 Y176.76 E102.76504
G0 F12000 X117.08 Y176.76
G1 F1800 X80.29 Y139.97 E104.92816
G0 F12000 X80.29 Y140.53
G1 F1800 X116.51 Y176.76 E107.05799
G0 F12000 X115.95 Y176.76
G1 F1800 X80.29 Y141.10 E109.15454
G0 F12000 X80.29 Y141.67
G1 F1800 X115.38 Y176.76 E111.21788
G0 F12000 X114.82 Y176.76
G1 F1800 X80.29 Y142.23 E113.24793
G0 F12000 X80.29 Y142.80
G1 F1800 X114.25 Y176.76 E115.24471
G0 F12000 X113.69 Y176.76
G1 F1800 X80.29 Y143.36 E117.20826
G0 F12000 X80.29 Y143.93
G1 F1800 X113.12 Y176.76 E119.13854
G0 F12000 X112.55 Y176.76
G1 F1800 X80.29 Y144.50 E121.03554
G0 F12000 X80.29 Y145.06
G1 F1800 X111.99 Y176.76 E122.89932
G0 F12000 X111.42 Y176.76
G1 F1800 X80.29 Y145.63 E124.72982
G0 F12000 X80.29 Y146.19
G1 F1800 X110.86 Y176.76 E126.52705
G0 F12000 X110.29 Y176.76
G1 F1800 X80.29 Y146.76 E128.29102
G0 F12000 X80.29 Y147.32
G1 F1800 X109.72 Y176.76 E130.02174
G0 F12000 X109.16 Y176.76
G1 F1800 X80.29 Y147.89 E131.71919
G0 F12000 X80.29 Y148.45
G1 F1800 X108.59 Y176.76 E133.38338
G0 F12000 X108.03 Y176.76
G1 F1800 X80.29 Y149.02 E135.01433
G0 F12000 X80.29 Y149.59
G1 F1800 X107.46 Y176.76 E136.61200
G0 F12000 X106.90 Y176.76
G1 F1800 X80.29 Y150.15 E138.17639
G0 F12000 X80.29 Y150.72
G1 F1800 X106.33 Y176.76 E139.70756
G0 F12000 X105.77 Y176.76
G1 F1800 X80.29 Y151.28 E141.20545
G0 F12000 X80.29 Y151.85
G1 F1800 X105.20 Y176.76 E142.67006
G0 F12000 X104.63 Y176.76
G1 F1800 X80.29 Y152.41 E144.10146
G0 F12000 X80.29 Y152.98
G1 F1800 X104.07 Y176.76 E145.49957
G0 F12000 X103.50 Y176.76
G1 F1800 X80.29 Y153.55 E146.86440
G0 F12000 X80.29 Y154.11
G1 F1800 X102.94 Y176.76 E148.19602
G0 F12000 X102.37 Y176.76
G1 F1800 X80.29 Y154.68 E149.49436
G0 F12000 X80.29 Y155.24
G1 F1800 X101.81 Y176.76 E150.75942
G0 F12000 X101.24 Y176.76
G1 F1800 X80.29 Y155.81 E151.99125
G0 F12000 X80.29 Y156.37
G1 F1800 X100.67 Y176.76 E153.18981
G0 F12000 X100.11 Y176.76
G1 F1800 X80.29 Y156.94 E154.35510
G0 F12000 X80.29 Y157.50
G1 F1800 X99.54 Y176.76 E155.48713
G0 F12000 X98.98 Y176.76
G1 F1800 X80.29 Y158.07 E156.58591
G0 F12000 X80.29 Y158.64
G1 F1800 X98.41 Y176.76 E157.65141
G0 F12000 X97.84 Y176.76
G1 F1800 X80.29 Y159.20 E158.68367
G0 F12000 X80.29 Y159.77
G1 F1800 X97.28 Y176.76 E159.68267
G0 F12000 X96.71 Y176.76
G1 F1800 X80.29 Y160.33 E160.64840
G0 F12000 X80.29 Y160.90
G1 F1800 X96.15 Y176.76 E161.58085
G0 F12000 X95.58 Y176.76
G1 F1800 X80.29 Y161.47 E162.48008
G0 F12000 X80.29 Y162.03
G1 F1800 X95.02 Y176.76 E163.34603
G0 F12000 X94.45 Y176.76
G1 F1800 X80.29 Y162.60 E164.17870
G0 F12000 X80.29 Y163.16
G1 F1800 X93.89 Y176.76 E164.97815
G0 F12000 X93.32 Y176.76
G1 F1800 X80.29 Y163.73 E165.74432
G0 F12000 X80.29 Y164.29
G1 F1800 X92.75 Y176.76 E166.47722
G0 F12000 X92.19 Y176.76
G1 F1800 X80.29 Y164.86 E167.17689
G0 F12000 X80.29 Y165.43
G1 F1800 X91.62 Y176.76 E167.84329
G0 F12000 X91.06 Y176.76
G1 F1800 X80.29 Y165.99 E168.47641
G0 F12000 X80.29 Y166.56
G1 F1800 X90.49 Y176.76 E169.07627
G0 F12000 X89.93 Y176.76
G1 F1800 X80.29 Y167.12 E169.64289
G0 F12000 X80.29 Y167.69
G1 F1800 X89.36 Y176.76 E170.17623
G0 F12000 X88.79 Y176.76
G1 F1800 X80.29 Y168.25 E170.67632
G0 F12000 X80.29 Y168.82
G1 F1800 X88.23 Y176.76 E171.14316
G0 F12000 X87.66 Y176.76
G1 F1800 X80.29 Y169.38 E171.57673
G0 F12000 X80.29 Y169.95
G1 F1800 X87.10 Y176.76 E171.97704
G0 F12000 X86.53 Y176.76
G1 F1800 X80.29 Y170.52 E172.34411
G0 F12000 X80.29 Y171.08
G1 F1800 X85.97 Y176.76 E172.67789
G0 F12000 X85.40 Y176.76
G1 F1800 X80.29 Y171.65 E172.97840
G0 F12000 X80.29 Y172.21
G1 F1800 X84.83 Y176.76 E173.24569
G0 F12000 X84.27 Y176.76
G1 F1800 X80.29 Y172.78 E173.47970
G0 F12000 X80.29 Y173.34
G1 F1800 X83.70 Y176.76 E173.68043
G0 F12000 X83.14 Y176.76
G1 F1800 X80.29 Y173.91 E173.84794
G0 F12000 X80.29 Y174.48
G1 F1800 X82.57 Y176.76 E173.98217
G0 F12000 X82.01 Y176.76
G1 F1800 X80.29 Y175.04 E174.08312
G0 F12000 X80.29 Y175.61
G1 F1800 X81.44 Y176.76 E174.15085
G0 F12000 X80.88 Y176.76
G1 F1800 X80.29 Y176.17 E174.18531
G0 F12000 X81.00 Y128.24
G1 F1800 X129.52 Y176.76 E177.03810
G0 F12000 X130.09 Y176.76
G1 F1800 X81.57 Y128.24 E179.89086
G0 F12000 X82.14 Y128.24
G1 F1800 X130.66 Y176.76 E182.74362
G0 F12000 X131.22 Y176.76
G1 F1800 X82.70 Y128.24 E185.59641
G0 F12000 X83.27 Y128.24
G1 F1800 X131.79 Y176.76 E188.44920
G0 F12000 X132.35 Y176.76
G1 F1800 X83.83 Y128.24 E191.30196
G0 F12000 X84.40 Y128.24
G1 F1800 X132.92 Y176.76 E194.15475
G0 F12000 X133.48 Y176.76
G1 F1800 X84.96 Y128.24 E197.00754
G0 F12000 X85.53 Y128.24
G1 F1800 X134.05 Y176.76 E199.86030
G0 F12000 X134.62 Y176.76
G1 F1800 X86.09 Y128.24 E202.71309
G0 F12000 X86.66 Y128.24
G1 F1800 X135.18 Y176.76 E205.56588
G0 F12000 X135.75 Y176.76
G1 F1800 X87.23 Y128.24 E208.41864
G0 F12000 X87.79 Y128.24
G1 F1800 X136.31 Y176.76 E211.27143
G0 F12000 X136.88 Y176.76
G1 F1800 X88.36 Y128.24 E214.12422
G0 F12000 X88.92 Y128.24
G1 F1800 X137.44 Y176.76 E216.97698
G0 F12000 X138.01 Y176.76
G1 F1800 X89.49 Y128.24 E219.82974
G0 F12000 X90.06 Y128.24
G1 F1800 X138.57 Y176.76 E222.68253
G0 F12000 X139.14 Y176.76
G1 F1800 X90.62 Y128.24 E225.53529
G0 F12000 X91.19 Y128.24
G1 F1800 X139.71 Y176.76 E228.38805
G0 F12000 X140.27 Y176.76
G1 F1800 X91.75 Y128.24 E231.24084
G0 F12000 X92.32 Y128.24
G1 F1800 X140.84 Y176.76 E234.09361
G0 F12000 X141.40 Y176.76
G1 F1800 X92.88 Y128.24 E236.94637
G0 F12000 X93.45 Y128.24
G1 F1800 X141.97 Y176.76 E239.79916
G0 F12000 X142.53 Y176.76
G1 F1800 X94.02 Y128.24 E242.65195
G0 F12000 X94.58 Y128.24
G1 F1800 X143.10 Y176.76 E245.50471
G0 F12000 X143.67 Y176.76
G1 F1800 X95.15 Y128.24 E248.35750
G0 F12000 X95.71 Y128.24
G1 F1800 X144.23 Y176.76 E251.21029
G0 F12000 X144.80 Y176.76
G1 F1800 X96.28 Y128.24 E254.06305
G0 F12000 X96.84 Y128.24
G1 F1800 X145.36 Y176.76 E256.91584
G0 F12000 X145.93 Y176.76
G1 F1800 X97.41 Y128.24 E259.76863
G0 F12000 X97.97 Y128.24
G1 F1800 X146.49 Y176.76 E262.62139
G0 F12000 X147.06 Y176.76
G1 F1800 X98.54 Y128.24 E265.47418
G0 F12000 X99.11 Y128.24
G1 F1800 X147.63 Y176.76 E268.32697
G0 F12000 X148.19 Y176.76
G1 F1800 X99.67 Y128.24 E271.17973
G0 F12000 X100.24 Y128.24
G1 F1800 X148.76 Y176.76 E274.03249
G0 F12000 X149.32 Y176.76
G1 F1800 X100.80 Y128.24 E276.88528
G0 F12000 X101.37 Y128.24
G1 F1800 X149.89 Y176.76 E279.73804
G0 F12000 X150.45 Y176.76
G1 F1800 X101.94 Y128.24 E282.59080
G0 F12000 X102.50 Y128.24
G1 F1800 X151.02 Y176.76 E285.44359
G0 F12000 X151.59 Y176.76
G1 F1800 X103.07 Y128.24 E288.29638
G0 F12000 X103.63 Y128.24
G1 F1800 X152.15 Y176.76 E291.14914
G0 F12000 X152.72 Y176.76
G1 F1800 X104.20 Y128.24 E294.00196
G0 F12000 X104.76 Y128.24
G1 F1800 X153.28 Y176.76 E296.85475
G0 F12000 X153.85 Y176.76
G1 F1800 X105.33 Y128.24 E299.70754
G0 F12000 X105.89 Y128.24
G1 F1800 X154.41 Y176.76 E302.56036
G0 F12000 X154.98 Y176.76
G1 F1800 X106.46 Y128.24 E305.41315
G0 F12000 X107.03 Y128.24
G1 F1800 X155.55 Y176.76 E308.26594
G0 F12000 X156.11 Y176.76
G1 F1800 X107.59 Y128.24 E311.11876
G0 F12000 X108.16 Y128.24
G1 F1800 X156.68 Y176.76 E313.97155
G0 F12000 X157.24 Y176.76
G1 F1800 X108.72 Y128.24 E316.82434
G0 F12000 X109.29 Y128.24
G1 F1800 X157.81 Y176.76 E319.67713
G0 F12000 X158.37 Y176.76
G1 F1800 X109.85 Y128.24 E322.52992
G0 F12000 X110.42 Y128.24
G1 F1800 X158.94 Y176.76 E325.38271
G0 F12000 X159.51 Y176.76
G1 F1800 X110.99 Y128.24 E328.23550
G0 F12000 X111.55 Y128.24
G1 F1800 X160.07 Y176.76 E331.08832
G0 F12000 X160.64 Y176.76
G1 F1800 X112.12 Y128.24 E333.94111
G0 F12000 X112.68 Y128.24
G1 F1800 X161.20 Y176.76 E336.79390
G0 F12000 X161.77 Y176.76
G1 F1800 X113.25 Y128.24 E339.64672
G0 F12000 X113.81 Y128.24
G1 F1800 X162.33 Y176.76 E342.49951
G0 F12000 X162.90 Y176.76
G1 F1800 X114.38 Y128.24 E345.35230
G0 F12000 X114.94 Y128.24
G1 F1800 X163.47 Y176.76 E348.20512
G0 F12000 X164.03 Y176.76
G1 F1800 X115.51 Y128.24 E351.05791
G0 F12000 X116.08 Y128.24
G1 F1800 X164.60 Y176.76 E353.91070
G0 F12000 X165.16 Y176.76
G1 F1800 X116.64 Y128.24 E356.76352
G0 F12000 X117.21 Y128.24
G1 F1800 X165.73 Y176.76 E359.61631
G0 F12000 X166.29 Y176.76
G1 F1800 X117.77 Y128.24 E362.46910
G0 F12000 X118.34 Y128.24
G1 F1800 X166.86 Y176.76 E365.32192
G0 F12000 X167.43 Y176.76
G1 F1800 X118.91 Y128.24 E368.17471
G0 F12000 X119.47 Y128.24
G1 F1800 X167.99 Y176.76 E371.02750
G0 F12000 X168.56 Y176.76
G1 F1800 X120.04 Y128.24 E373.88029
G0 F12000 X120.60 Y128.24
G1 F1800 X169.12 Y176.76 E376.73308
G0 F12000 X169.69 Y176.76
G1 F1800 X121.17 Y128.24 E379.58587
G0 F12000 X121.73 Y128.24
G1 F1800 X170.25 Y176.76 E382.43866
G0 F12000 X170.82 Y176.76
G1 F1800 X122.30 Y128.24 E385.29148
G0 F12000 X122.86 Y128.24
G1 F1800 X171.38 Y176.76 E388.14427
G0 F12000 X171.95 Y176.76
G1 F1800 X123.43 Y128.24 E390.99706
G0 F12000 X124.00 Y128.24
G1 F1800 X172.52 Y176.76 E393.84988
G0 F12000 X173.08 Y176.76
G1 F1800 X124.56 Y128.24 E396.70267
G0 F12000 X125.13 Y128.24
G1 F1800 X173.65 Y176.76 E399.55546
G0 F12000 X174.21 Y176.76
G1 F1800 X125.69 Y128.24 E402.40828
G0 F12000 X126.26 Y128.24
G1 F1800 X174.78 Y176.76 E405.26107
G0 F12000 X175.34 Y176.76
G1 F1800 X126.83 Y128.24 E408.11386
G0 F12000 X127.39 Y128.24
G1 F1800 X175.91 Y176.76 E410.96668
G0 F12000 X176.48 Y176.76
G1 F1800 X127.96 Y128.24 E413.81947
G0 F12000 X128.52 Y128.24
G1 F1800 X177.04 Y176.76 E416.67226
G0 F12000 X177.61 Y176.76
G1 F1800 X129.09 Y128.24 E419.52508
G0 F12000 X129.65 Y128.24
G1 F1800 X178.17 Y176.76 E422.37787
G0 F12000 X178.74 Y176.76
G1 F1800 X130.22 Y128.24 E425.23066
G0 F12000 X130.78 Y128.24
G1 F1800 X179.31 Y176.76 E428.08345
G0 F12000 X179.87 Y176.76
G1 F1800 X131.35 Y128.24 E430.93624
G0 F12000 X131.92 Y128.24
G1 F1800 X180.44 Y176.76 E433.78903
G0 F12000 X181.00 Y176.76
G1 F1800 X132.48 Y128.24 E436.64182
G0 F12000 X133.05 Y128.24
G1 F1800 X181.57 Y176.76 E439.49464
G0 F12000 X182.13 Y176.76
G1 F1800 X133.61 Y128.24 E442.34743
G0 F12000 X134.18 Y128.24
G1 F1800 X182.70 Y176.76 E445.20022
G0 F12000 X183.26 Y176.76
G1 F1800 X134.74 Y128.24 E448.05304
G0 F12000 X135.31 Y128.24
G1 F1800 X183.83 Y176.76 E450.90583
G0 F12000 X184.40 Y176.76
G1 F1800 X135.88 Y128.24 E453.75862
G0 F12000 X136.44 Y128.24
G1 F1800 X184.96 Y176.76 E456.61143
G0 F12000 X185.53 Y176.76
G1 F1800 X137.01 Y128.24 E459.46423
G0 F12000 X137.57 Y128.24
G1 F1800 X186.09 Y176.76 E462.31702
G0 F12000 X186.66 Y176.76
G1 F1800 X138.14 Y128.24 E465.16983
G0 F12000 X138.70 Y128.24
G1 F1800 X187.22 Y176.76 E468.02262
G0 F12000 X187.79 Y176.76
G1 F1800 X139.27 Y128.24 E470.87541
G0 F12000 X139.84 Y128.24
G1 F1800 X188.36 Y176.76 E473.72820
G0 F12000 X188.92 Y176.76
G1 F1800 X140.40 Y128.24 E476.58099
G0 F12000 X140.97 Y128.24
G1 F1800 X189.49 Y176.76 E479.43378
G0 F12000 X190.05 Y176.76
G1 F1800 X141.53 Y128.24 E482.28657
G0 F12000 X142.10 Y128.24
G1 F1800 X190.62 Y176.76 E485.13939
G0 F12000 X191.18 Y176.76
G1 F1800 X142.66 Y128.24 E487.99218
G0 F12000 X143.23 Y128.24
G1 F1800 X191.75 Y176.76 E490.84497
G0 F12000 X192.32 Y176.76
G1 F1800 X143.79 Y128.24 E493.69779
G0 F12000 X144.36 Y128.24
G1 F1800 X192.88 Y176.76 E496.55058
G0 F12000 X193.45 Y176.76
G1 F1800 X144.93 Y128.24 E499.40337
G0 F12000 X145.49 Y128.24
G1 F1800 X194.01 Y176.76 E502.25619
G0 F12000 X194.58 Y176.76
G1 F1800 X146.06 Y128.24 E505.10898
G0 F12000 X146.62 Y128.24
G1 F1800 X195.14 Y176.76 E507.96177
G0 F12000 X195.71 Y176.76
G1 F1800 X147.19 Y128.24 E510.81459
G0 F12000 X147.75 Y128.24
G1 F1800 X196.28 Y176.76 E513.66738
G0 F12000 X196.84 Y176.76
G1 F1800 X148.32 Y128.24 E516.52017
G0 F12000 X148.89 Y128.24
G1 F1800 X197.41 Y176.76 E519.37299
G0 F12000 X197.97 Y176.76
G1 F1800 X149.45 Y128.24 E522.22578
G0 F12000 X150.02 Y128.24
G1 F1800 X198.54 Y176.76 E525.07857
G0 F12000 X199.10 Y176.76
G1 F1800 X150.58 Y128.24 E527.93136
G0 F12000 X151.15 Y128.24
G1 F1800 X199.67 Y176.76 E530.78415
G0 F12000 X200.24 Y176.76
G1 F1800 X151.72 Y128.24 E533.63694
G0 F12000 X152.28 Y128.24
G1 F1800 X200.80 Y176.76 E536.48973
G0 F12000 X201.37 Y176.76
G1 F1800 X152.85 Y128.24 E539.34249
G0 F12000 X153.41 Y128.24
G1 F1800 X201.93 Y176.76 E542.19522
G0 F12000 X202.50 Y176.76
G1 F1800 X153.98 Y128.24 E545.04799
G0 F12000 X154.54 Y128.24
G1 F1800 X203.06 Y176.76 E547.90075
G0 F12000 X203.63 Y176.76
G1 F1800 X155.11 Y128.24 E550.75348
G0 F12000 X155.68 Y128.24
G1 F1800 X204.19 Y176.76 E553.60624
G0 F12000 X204.76 Y176.76
G1 F1800 X156.24 Y128.24 E556.45900
G0 F12000 X156.81 Y128.24
G1 F1800 X205.33 Y176.76 E559.31173
G0 F12000 X205.89 Y176.76
G1 F1800 X157.37 Y128.24 E562.16449
G0 F12000 X157.94 Y128.24
G1 F1800 X206.46 Y176.76 E565.01725
G0 F12000 X207.02 Y176.76
G1 F1800 X158.50 Y128.24 E567.86998
G0 F12000 X159.07 Y128.24
G1 F1800 X207.59 Y176.76 E570.72271
G0 F12000 X208.16 Y176.76
G1 F1800 X159.63 Y128.24 E573.57547
G0 F12000 X160.20 Y128.24
G1 F1800 X208.72 Y176.76 E576.42821
G0 F12000 X209.29 Y176.76
G1 F1800 X160.77 Y128.24 E579.28094
G0 F12000 X161.33 Y128.24
G1 F1800 X209.85 Y176.76 E582.13370
G0 F12000 X210.42 Y176.76
G1 F1800 X161.90 Y128.24 E584.98646
G0 F12000 X162.46 Y128.24
G1 F1800 X210.98 Y176.76 E587.83919
G0 F12000 X211.55 Y176.76
G1 F1800 X163.03 Y128.24 E590.69195
G0 F12000 X163.59 Y128.24
G1 F1800 X212.12 Y176.76 E593.54471
G0 F12000 X212.68 Y176.76
G1 F1800 X164.16 Y128.24 E596.39744
G0 F12000 X164.73 Y128.24
G1 F1800 X213.25 Y176.76 E599.25020
G0 F12000 X213.81 Y176.76
G1 F1800 X165.29 Y128.24 E602.10296
G0 F12000 X165.86 Y128.24
G1 F1800 X214.38 Y176.76 E604.95569
G0 F12000 X214.94 Y176.76
G1 F1800 X166.42 Y128.24 E607.80846
G0 F12000 X166.99 Y128.24
G1 F1800 X215.51 Y176.76 E610.66122
G0 F12000 X216.07 Y176.76
G1 F1800 X167.56 Y128.24 E613.51395
G0 F12000 X168.12 Y128.24
G1 F1800 X216.64 Y176.76 E616.36668
G0 F12000 X217.21 Y176.76
G1 F1800 X168.69 Y128.24 E619.21944
G0 F12000 X169.25 Y128.24
G1 F1800 X217.77 Y176.76 E622.07217
G0 F12000 X218.34 Y176.76
G1 F1800 X169.82 Y128.24 E624.92490
G0 F12000 X170.38 Y128.24
G1 F1800 X218.90 Y176.76 E627.77766
G0 F12000 X219.47 Y176.76
G1 F1800 X170.95 Y128.24 E630.63039
G0 F12000 X171.51 Y128.24
G1 F1800 X220.03 Y176.76 E633.48312
G0 F12000 X220.60 Y176.76
G1 F1800 X172.08 Y128.24 E636.33589
G0 F12000 X172.65 Y128.24
G1 F1800 X221.17 Y176.76 E639.18865
G0 F12000 X221.73 Y176.76
G1 F1800 X173.21 Y128.24 E642.04138
G0 F12000 X173.78 Y128.24
G1 F1800 X222.30 Y176.76 E644.89414
G0 F12000 X222.86 Y176.76
G1 F1800 X174.34 Y128.24 E647.74690
G0 F12000 X174.91 Y128.24
G1 F1800 X223.43 Y176.76 E650.59963
G0 F12000 X223.99 Y176.76
G1 F1800 X175.47 Y128.24 E653.45239
G0 F12000 X176.04 Y128.24
G1 F1800 X224.56 Y176.76 E656.30515
G0 F12000 X224.71 Y176.34
G1 F1800 X176.61 Y128.24 E659.13342
G0 F12000 X177.17 Y128.24
G1 F1800 X224.71 Y175.78 E661.92845
G0 F12000 X224.71 Y175.21
G1 F1800 X177.74 Y128.24 E664.69019
G0 F12000 X178.30 Y128.24
G1 F1800 X224.71 Y174.65 E667.41869
G0 F12000 X224.71 Y174.08
G1 F1800 X178.87 Y128.24 E670.11390
G0 F12000 X179.43 Y128.24
G1 F1800 X224.71 Y173.51 E672.77587
G0 F12000 X224.71 Y172.95
G1 F1800 X180.00 Y128.24 E675.40459
G0 F12000 X180.57 Y128.24
G1 F1800 X224.71 Y172.38 E678.00003
G0 F12000 X224.71 Y171.82
G1 F1800 X181.13 Y128.24 E680.56222
G0 F12000 X181.70 Y128.24
G1 F1800 X224.71 Y171.25 E683.09116
G0 F12000 X224.71 Y170.69
G1 F1800 X182.26 Y128.24 E685.58682
G0 F12000 X182.83 Y128.24
G1 F1800 X224.71 Y170.12 E688.04923
G0 F12000 X224.71 Y169.56
G1 F1800 X183.39 Y128.24 E690.47840
G0 F12000 X183.96 Y128.24
G1 F1800 X224.71 Y168.99 E692.87428
G0 F12000 X224.71 Y168.42
G1 F1800 X184.53 Y128.24 E695.23692
G0 F12000 X185.09 Y128.24
G1 F1800 X224.71 Y167.86 E697.56627
G0 F12000 X224.71 Y167.29
G1 F1800 X185.66 Y128.24 E699.86238
G0 F12000 X186.22 Y128.24
G1 F1800 X224.71 Y166.73 E702.12524
G0 F12000 X224.71 Y166.16
G1 F1800 X186.79 Y128.24 E704.35482
G0 F12000 X187.35 Y128.24
G1 F1800 X224.71 Y165.59 E706.55115
G0 F12000 X224.71 Y165.03
G1 F1800 X187.92 Y128.24 E708.71423
G0 F12000 X188.49 Y128.24
G1 F1800 X224.71 Y164.46 E710.84404
G0 F12000 X224.71 Y163.90
G1 F1800 X189.05 Y128.24 E712.94059
G0 F12000 X189.62 Y128.24
G1 F1800 X224.71 Y163.33 E715.00386
G0 F12000 X224.71 Y162.77
G1 F1800 X190.18 Y128.24 E717.03389
G0 F12000 X190.75 Y128.24
G1 F1800 X224.71 Y162.20 E719.03067
G0 F12000 X224.71 Y161.63
G1 F1800 X191.31 Y128.24 E720.99416
G0 F12000 X191.88 Y128.24
G1 F1800 X224.71 Y161.07 E722.92441
G0 F12000 X224.71 Y160.50
G1 F1800 X192.44 Y128.24 E724.82141
G0 F12000 X193.01 Y128.24
G1 F1800 X224.71 Y159.94 E726.68513
G0 F12000 X224.71 Y159.37
G1 F1800 X193.58 Y128.24 E728.51561
G0 F12000 X194.14 Y128.24
G1 F1800 X224.71 Y158.81 E730.31280
G0 F12000 X224.71 Y158.24
G1 F1800 X194.71 Y128.24 E732.07674
G0 F12000 X195.27 Y128.24
G1 F1800 X224.71 Y157.68 E733.80744
G0 F12000 X224.71 Y157.11
G1 F1800 X195.84 Y128.24 E735.50485
G0 F12000 X196.41 Y128.24
G1 F1800 X224.71 Y156.54 E737.16902
G0 F12000 X224.71 Y155.98
G1 F1800 X196.97 Y128.24 E738.79994
G0 F12000 X197.54 Y128.24
G1 F1800 X224.71 Y155.41 E740.39758
G0 F12000 X224.71 Y154.85
G1 F1800 X198.10 Y128.24 E741.96197
G0 F12000 X198.67 Y128.24
G1 F1800 X224.71 Y154.28 E743.49308
G0 F12000 X224.71 Y153.72
G1 F1800 X199.23 Y128.24 E744.99094
G0 F12000 X199.80 Y128.24
G1 F1800 X224.71 Y153.15 E746.45555
G0 F12000 X224.71 Y152.58
G1 F1800 X200.37 Y128.24 E747.88688
G0 F12000 X200.93 Y128.24
G1 F1800 X224.71 Y152.02 E749.28497
G0 F12000 X224.71 Y151.45
G1 F1800 X201.50 Y128.24 E750.64980
G0 F12000 X202.06 Y128.24
G1 F1800 X224.71 Y150.89 E751.98136
G0 F12000 X224.71 Y150.32
G1 F1800 X202.63 Y128.24 E753.27967
G0 F12000 X203.19 Y128.24
G1 F1800 X224.71 Y149.76 E754.54473
G0 F12000 X224.71 Y149.19
G1 F1800 X203.76 Y128.24 E755.77651
G0 F12000 X204.32 Y128.24
G1 F1800 X224.71 Y148.62 E756.97504
G0 F12000 X224.71 Y148.06
G1 F1800 X204.89 Y128.24 E758.14029
G0 F12000 X205.46 Y128.24
G1 F1800 X224.71 Y147.49 E759.27229
G0 F12000 X224.71 Y146.93
G1 F1800 X206.02 Y128.24 E760.37105
G0 F12000 X206.59 Y128.24
G1 F1800 X224.71 Y146.36 E761.43652
G0 F12000 X224.71 Y145.80
G1 F1800 X207.15 Y128.24 E762.46875
G0 F12000 X207.72 Y128.24
G1 F1800 X224.71 Y145.23 E763.46772
G0 F12000 X224.71 Y144.66
G1 F1800 X208.28 Y128.24 E764.43342
G0 F12000 X208.85 Y128.24
G1 F1800 X224.71 Y144.10 E765.36587
G0 F12000 X224.71 Y143.53
G1 F1800 X209.42 Y128.24 E766.26504
G0 F12000 X209.98 Y128.24
G1 F1800 X224.71 Y142.97 E767.13096
G0 F12000 X224.71 Y142.40
G1 F1800 X210.55 Y128.24 E767.96363
G0 F12000 X211.11 Y128.24
G1 F1800 X224.71 Y141.84 E768.76302
G0 F12000 X224.71 Y141.27
G1 F1800 X211.68 Y128.24 E769.52917
G0 F12000 X212.24 Y128.24
G1 F1800 X224.71 Y140.71 E770.26206
G0 F12000 X224.71 Y140.14
G1 F1800 X212.81 Y128.24 E770.96168
G0 F12000 X213.38 Y128.24
G1 F1800 X224.71 Y139.57 E771.62804
G0 F12000 X224.71 Y139.01
G1 F1800 X213.94 Y128.24 E772.26116
G0 F12000 X214.51 Y128.24
G1 F1800 X224.71 Y138.44 E772.86100
G0 F12000 X224.71 Y137.88
G1 F1800 X215.07 Y128.24 E773.42759
G0 F12000 X215.64 Y128.24
G1 F1800 X224.71 Y137.31 E773.96090
G0 F12000 X224.71 Y136.75
G1 F1800 X216.20 Y128.24 E774.46096
G0 F12000 X216.77 Y128.24
G1 F1800 X224.71 Y136.18 E774.92777
G0 F12000 X224.71 Y135.61
G1 F1800 X217.34 Y128.24 E775.36131
G0 F12000 X217.90 Y128.24
G1 F1800 X224.71 Y135.05 E775.76159
G0 F12000 X224.71 Y134.48
G1 F1800 X218.47 Y128.24 E776.12860
G0 F12000 X219.03 Y128.24
G1 F1800 X224.71 Y133.92 E776.46235
G0 F12000 X224.71 Y133.35
G1 F1800 X219.60 Y128.24 E776.76286
G0 F12000 X220.16 Y128.24
G1 F1800 X224.71 Y132.78 E777.03009
G0 F12000 X224.71 Y132.22
G1 F1800 X220.73 Y128.24 E777.26407
G0 F12000 X221.29 Y128.24
G1 F1800 X224.71 Y131.65 E777.46480
G0 F12000 X224.71 Y131.09
G1 F1800 X221.86 Y128.24 E777.63225
G0 F12000 X222.43 Y128.24
G1 F1800 X224.71 Y130.52 E777.76645
G0 F12000 X224.71 Y129.96
G1 F1800 X222.99 Y128.24 E777.86740
G0 F12000 X223.56 Y128.24
G1 F1800 X224.71 Y129.39 E777.93508
G0 F12000 X224.71 Y128.82
G1 F1800 X224.12 Y128.24 E777.96950
;LAYER:1
G0 F12000 X224.85 Y128.10 Z0.40
;TYPE:WALL-INNER
G1 F2820 X224.85 Y176.90 E779.18682
G1 X80.15 Y176.90 E782.79638
G1 X80.15 Y128.10 E784.01370
G1 X224.85 Y128.10 E787.62326
G0 F12000 X225.25 Y127.70
;TYPE:WALL-OUTER
G1 F2820 X225.25 Y177.30 E788.86053
G1 X79.75 Y177.30 E792.49005
G1 X79.75 Y127.70 E793.72732
G1 X225.25 Y127.70 E797.35684
G0 F12000 X224.47 Y128.24
;TYPE:FILL
G1 F2820 X175.94 Y176.76 E799.06855
G0 F12000 X176.51 Y176.76
G1 F2820 X224.71 Y128.56 E800.76889
G0 F12000 X224.71 Y129.13
G1 F2820 X177.07 Y176.76 E802.44931
G0 F12000 X177.64 Y176.76
G1 F2820 X224.71 Y129.69 E804.10976
G0 F12000 X224.71 Y130.26
G1 F2820 X178.21 Y176.76 E805.75025
G0 F12000 X178.77 Y176.76
G1 F2820 X224.71 Y130.82 E807.37080
G0 F12000 X224.71 Y131.39
G1 F2820 X179.34 Y176.76 E808.97138
G0 F12000 X179.90 Y176.76
G1 F2820 X224.71 Y131.96 E810.55200
G0 F12000 X224.71 Y132.52
G1 F2820 X180.47 Y176.76 E812.11267
G0 F12000 X181.03 Y176.76
G1 F2820 X224.71 Y133.09 E813.65339
G0 F12000 X224.71 Y133.65
G1 F2820 X181.60 Y176.76 E815.17414
G0 F12000 X182.17 Y176.76
G1 F2820 X224.71 Y134.22 E816.67494
G0 F12000 X224.71 Y134.78
G1 F2820 X182.73 Y176.76 E818.15579
G0 F12000 X183.30 Y176.76
G1 F2820 X224.71 Y135.35 E819.61668
G0 F12000 X224.71 Y135.91
G1 F2820 X183.86 Y176.76 E821.05759
G0 F12000 X184.43 Y176.76
G1 F2820 X224.71 Y136.48 E822.47858
G0 F12000 X224.71 Y137.05
G1 F2820 X185.00 Y176.76 E823.87960
G0 F12000 X185.56 Y176.76
G1 F2820 X224.71 Y137.61 E825.26065
G0 F12000 X224.71 Y138.18
G1 F2820 X186.13 Y176.76 E826.62177
G0 F12000 X186.69 Y176.76
G1 F2820 X224.71 Y138.74 E827.96292
G0 F12000 X224.71 Y139.31
G1 F2820 X187.26 Y176.76 E829.28411
G0 F12000 X187.82 Y176.76
G1 F2820 X224.71 Y139.87 E830.58536
G0 F12000 X224.71 Y140.44
G1 F2820 X188.39 Y176.76 E831.86665
G0 F12000 X188.96 Y176.76
G1 F2820 X224.71 Y141.01 E833.12797
G0 F12000 X224.71 Y141.57
G1 F2820 X189.52 Y176.76 E834.36935
G0 F12000 X190.09 Y176.76
G1 F2820 X224.71 Y142.14 E835.59077
G0 F12000 X224.71 Y142.70
G1 F2820 X190.65 Y176.76 E836.79223
G0 F12000 X191.22 Y176.76
G1 F2820 X224.71 Y143.27 E837.97373
G0 F12000 X224.71 Y143.83
G1 F2820 X191.78 Y176.76 E839.13528
G0 F12000 X192.35 Y176.76
G1 F2820 X224.71 Y144.40 E840.27687
G0 F12000 X224.71 Y144.97
G1 F2820 X192.91 Y176.76 E841.39850
G0 F12000 X193.48 Y176.76
G1 F2820 X224.71 Y145.53 E842.50019
G0 F12000 X224.71 Y146.10
G1 F2820 X194.05 Y176.76 E843.58191
G0 F12000 X194.61 Y176.76
G1 F2820 X224.71 Y146.66 E844.64367
G0 F12000 X224.71 Y147.23
G1 F2820 X195.18 Y176.76 E845.68549
G0 F12000 X195.74 Y176.76
G1 F2820 X224.71 Y147.79 E846.70734
G0 F12000 X224.71 Y148.36
G1 F2820 X196.31 Y176.76 E847.70923
G0 F12000 X196.87 Y176.76
G1 F2820 X224.71 Y148.93 E848.69118
G0 F12000 X224.71 Y149.49
G1 F2820 X197.44 Y176.76 E849.65317
G0 F12000 X198.01 Y176.76
G1 F2820 X224.71 Y150.06 E850.59519
G0 F12000 X224.71 Y150.62
G1 F2820 X198.57 Y176.76 E851.51728
G0 F12000 X199.14 Y176.76
G1 F2820 X224.71 Y151.19 E852.41940
G0 F12000 X224.71 Y151.75
G1 F2820 X199.70 Y176.76 E853.30155
G0 F12000 X200.27 Y176.76
G1 F2820 X224.71 Y152.32 E854.16378
G0 F12000 X224.71 Y152.88
G1 F2820 X200.83 Y176.76 E855.00603
G0 F12000 X201.40 Y176.76
G1 F2820 X224.71 Y153.45 E855.82832
G0 F12000 X224.71 Y154.02
G1 F2820 X201.97 Y176.76 E856.63066
G0 F12000 X202.53 Y176.76
G1 F2820 X224.71 Y154.58 E857.41305
G0 F12000 X224.71 Y155.15
G1 F2820 X203.10 Y176.76 E858.17547
G0 F12000 X203.66 Y176.76
G1 F2820 X224.71 Y155.71 E858.91792
G0 F12000 X224.71 Y156.28
G1 F2820 X204.23 Y176.76 E859.64045
G0 F12000 X204.79 Y176.76
G1 F2820 X224.71 Y156.84 E860.34300
G0 F12000 X224.71 Y157.41
G1 F2820 X205.36 Y176.76 E861.02559
G0 F12000 X205.93 Y176.76
G1 F2820 X224.71 Y157.98 E861.68825
G0 F12000 X224.71 Y158.54
G1 F2820 X206.49 Y176.76 E862.33093
G0 F12000 X207.06 Y176.76
G1 F2820 X224.71 Y159.11 E862.95366
G0 F12000 X224.71 Y159.67
G1 F2820 X207.62 Y176.76 E863.55645
G0 F12000 X208.19 Y176.76
G1 F2820 X224.71 Y160.24 E864.13927
G0 F12000 X224.71 Y160.81
G1 F2820 X208.75 Y176.76 E864.70212
G0 F12000 X209.32 Y176.76
G1 F2820 X224.71 Y161.37 E865.24505
G0 F12000 X224.71 Y161.94
G1 F2820 X209.88 Y176.76 E865.76801
G0 F12000 X210.45 Y176.76
G1 F2820 X224.71 Y162.50 E866.27099
G0 F12000 X224.71 Y163.07
G1 F2820 X211.02 Y176.76 E866.75403
G0 F12000 X211.58 Y176.76
G1 F2820 X224.71 Y163.63 E867.21713
G0 F12000 X224.71 Y164.20
G1 F2820 X212.15 Y176.76 E867.66025
G0 F12000 X212.71 Y176.76
G1 F2820 X224.71 Y164.76 E868.08342
G0 F12000 X224.71 Y165.33
G1 F2820 X213.28 Y176.76 E868.48665
G0 F12000 X213.84 Y176.76
G1 F2820 X224.71 Y165.90 E868.86990
G0 F12000 X224.71 Y166.46
G1 F2820 X214.41 Y176.76 E869.23319
G0 F12000 X214.98 Y176.76
G1 F2820 X224.71 Y167.03 E869.57655
G0 F12000 X224.71 Y167.59
G1 F2820 X215.54 Y176.76 E869.89994
G0 F12000 X216.11 Y176.76
G1 F2820 X224.71 Y168.16 E870.20336
G0 F12000 X224.71 Y168.72
G1 F2820 X216.67 Y176.76 E870.48686
G0 F12000 X217.24 Y176.76
G1 F2820 X224.71 Y169.29 E870.75038
G0 F12000 X224.71 Y169.86
G1 F2820 X217.81 Y176.76 E870.99394
G0 F12000 X218.37 Y176.76
G1 F2820 X224.71 Y170.42 E871.21756
G0 F12000 X224.71 Y170.99
G1 F2820 X218.94 Y176.76 E871.42122
G0 F12000 X219.50 Y176.76
G1 F2820 X224.71 Y171.55 E871.60491
G0 F12000 X224.71 Y172.12
G1 F2820 X220.07 Y176.76 E871.76867
G0 F12000 X220.63 Y176.76
G1 F2820 X224.71 Y172.68 E871.91246
G0 F12000 X224.71 Y173.25
G1 F2820 X221.20 Y176.76 E872.03629
G0 F12000 X221.76 Y176.76
G1 F2820 X224.71 Y173.82 E872.14016
G0 F12000 X224.71 Y174.38
G1 F2820 X222.33 Y176.76 E872.22409
G0 F12000 X222.90 Y176.76
G1 F2820 X224.71 Y174.95 E872.28805
G0 F12000 X224.71 Y175.51
G1 F2820 X223.46 Y176.76 E872.33204
G0 F12000 X224.03 Y176.76
G1 F2820 X224.71 Y176.08 E872.35610
G0 F12000 X224.71 Y176.64
G1 F2820 X224.59 Y176.76 E872.36019
G0 F12000 X223.90 Y128.24
G1 F2820 X175.38 Y176.76 E874.07190
G0 F12000 X174.81 Y176.76
G1 F2820 X223.33 Y128.24 E875.78361
G0 F12000 X222.77 Y128.24
G1 F2820 X174.25 Y176.76 E877.49532
G0 F12000 X173.68 Y176.76
G1 F2820 X222.20 Y128.24 E879.20703
G0 F12000 X221.64 Y128.24
G1 F2820 X173.12 Y176.76 E880.91872
G0 F12000 X172.55 Y176.76
G1 F2820 X221.07 Y128.24 E882.63043
G0 F12000 X220.50 Y128.24
G1 F2820 X171.98 Y176.76 E884.34214
G0 F12000 X171.42 Y176.76
G1 F2820 X219.94 Y128.24 E886.05385
G0 F12000 X219.37 Y128.24
G1 F2820 X170.85 Y176.76 E887.76556
G0 F12000 X170.29 Y176.76
G1 F2820 X218.81 Y128.24 E889.47727
G0 F12000 X218.24 Y128.24
G1 F2820 X169.72 Y176.76 E891.18898
G0 F12000 X169.16 Y176.76
G1 F2820 X217.68 Y128.24 E892.90068
G0 F12000 X217.11 Y128.24
G1 F2820 X168.59 Y176.76 E894.61239
G0 F12000 X168.02 Y176.76
G1 F2820 X216.54 Y128.24 E896.32410
G0 F12000 X215.98 Y128.24
G1 F2820 X167.46 Y176.76 E898.03581
G0 F12000 X166.89 Y176.76
G1 F2820 X215.41 Y128.24 E899.74752
G0 F12000 X214.85 Y128.24
G1 F2820 X166.33 Y176.76 E901.45923
G0 F12000 X165.76 Y176.76
G1 F2820 X214.28 Y128.24 E903.17094
G0 F12000 X213.72 Y128.24
G1 F2820 X165.20 Y176.76 E904.88265
G0 F12000 X164.63 Y176.76
G1 F2820 X213.15 Y128.24 E906.59436
G0 F12000 X212.59 Y128.24
G1 F2820 X164.06 Y176.76 E908.30605
G0 F12000 X163.50 Y176.76
G1 F2820 X212.02 Y128.24 E910.01776
G0 F12000 X211.45 Y128.24
G1 F2820 X162.93 Y176.76 E911.72947
G0 F12000 X162.37 Y176.76
G1 F2820 X210.89 Y128.24 E913.44118
G0 F12000 X210.32 Y128.24
G1 F2820 X161.80 Y176.76 E915.15289
G0 F12000 X161.24 Y176.76
G1 F2820 X209.76 Y128.24 E916.86460
G0 F12000 X209.19 Y128.24
G1 F2820 X160.67 Y176.76 E918.57631
G0 F12000 X160.10 Y176.76
G1 F2820 X208.63 Y128.24 E920.28802
G0 F12000 X208.06 Y128.24
G1 F2820 X159.54 Y176.76 E921.99973
G0 F12000 X158.97 Y176.76
G1 F2820 X207.49 Y128.24 E923.71143
G0 F12000 X206.93 Y128.24
G1 F2820 X158.41 Y176.76 E925.42314
G0 F12000 X157.84 Y176.76
G1 F2820 X206.36 Y128.24 E927.13485
G0 F12000 X205.80 Y128.24
G1 F2820 X157.28 Y176.76 E928.84656
G0 F12000 X156.71 Y176.76
G1 F2820 X205.23 Y128.24 E930.55827
G0 F12000 X204.67 Y128.24
G1 F2820 X156.15 Y176.76 E932.26998
G0 F12000 X155.58 Y176.76
G1 F2820 X204.10 Y128.24 E933.98169
G0 F12000 X203.53 Y128.24
G1 F2820 X155.01 Y176.76 E935.69340
G0 F12000 X154.45 Y176.76
G1 F2820 X202.97 Y128.24 E937.40511
G0 F12000 X202.40 Y128.24
G1 F2820 X153.88 Y176.76 E939.11682
G0 F12000 X153.32 Y176.76
G1 F2820 X201.84 Y128.24 E940.82851
G0 F12000 X201.27 Y128.24
G1 F2820 X152.75 Y176.76 E942.54022
G0 F12000 X152.19 Y176.76
G1 F2820 X200.71 Y128.24 E944.25189
G0 F12000 X200.14 Y128.24
G1 F2820 X151.62 Y176.76 E945.96357
G0 F12000 X151.05 Y176.76
G1 F2820 X199.57 Y128.24 E947.67526
G0 F12000 X199.01 Y128.24
G1 F2820 X150.49 Y176.76 E949.38693
G0 F12000 X149.92 Y176.76
G1 F2820 X198.44 Y128.24 E951.09861
G0 F12000 X197.88 Y128.24
G1 F2820 X149.36 Y176.76 E952.81030
G0 F12000 X148.79 Y176.76
G1 F2820 X197.31 Y128.24 E954.52197
G0 F12000 X196.75 Y128.24
G1 F2820 X148.23 Y176.76 E956.23365
G0 F12000 X147.66 Y176.76
G1 F2820 X196.18 Y128.24 E957.94534
G0 F12000 X195.62 Y128.24
G1 F2820 X147.09 Y176.76 E959.65701
G0 F12000 X146.53 Y176.76
G1 F2820 X195.05 Y128.24 E961.36869
G0 F12000 X194.48 Y128.24
G1 F2820 X145.96 Y176.76 E963.08038
G0 F12000 X145.40 Y176.76
G1 F2820 X193.92 Y128.24 E964.79205
G0 F12000 X193.35 Y128.24
G1 F2820 X144.83 Y176.76 E966.50373
G0 F12000 X144.27 Y176.76
G1 F2820 X192.79 Y128.24 E968.21542
G0 F12000 X192.22 Y128.24
G1 F2820 X143.70 Y176.76 E969.92709
G0 F12000 X143.13 Y176.76
G1 F2820 X191.66 Y128.24 E971.63877
G0 F12000 X191.09 Y128.24
G1 F2820 X142.57 Y176.76 E973.35044
G0 F12000 X142.00 Y176.76
G1 F2820 X190.52 Y128.24 E975.06211
G0 F12000 X189.96 Y128.24
G1 F2820 X141.44 Y176.76 E976.77379
G0 F12000 X140.87 Y176.76
G1 F2820 X189.39 Y128.24 E978.48546
G0 F12000 X188.83 Y128.24
G1 F2820 X140.31 Y176.76 E980.19715
G0 F12000 X139.74 Y176.76
G1 F2820 X188.26 Y128.24 E981.90883
G0 F12000 X187.69 Y128.24
G1 F2820 X139.18 Y176.76 E983.62050
G0 F12000 X138.61 Y176.76
G1 F2820 X187.13 Y128.24 E985.33219
G0 F12000 X186.56 Y128.24
G1 F2820 X138.04 Y176.76 E987.04387
G0 F12000 X137.48 Y176.76
G1 F2820 X186.00 Y128.24 E988.75554
G0 F12000 X185.43 Y128.24
G1 F2820 X136.91 Y176.76 E990.46723
G0 F12000 X136.35 Y176.76
G1 F2820 X184.87 Y128.24 E992.17891
G0 F12000 X184.30 Y128.24
G1 F2820 X135.78 Y176.76 E993.89058
G0 F12000 X135.22 Y176.76
G1 F2820 X183.74 Y128.24 E995.60227
G0 F12000 X183.17 Y128.24
G1 F2820 X134.65 Y176.76 E997.31395
G0 F12000 X134.08 Y176.76
G1 F2820 X182.60 Y128.24 E999.02562
G0 F12000 X182.04 Y128.24
G1 F2820 X133.52 Y176.76 E1000.73730
G0 F12000 X132.95 Y176.76
G1 F2820 X181.47 Y128.24 E1002.44897
G0 F12000 X180.91 Y128.24
G1 F2820 X132.39 Y176.76 E1004.16064
G0 F12000 X131.82 Y176.76
G1 F2820 X180.34 Y128.24 E1005.87232
G0 F12000 X179.78 Y128.24
G1 F2820 X131.25 Y176.76 E1007.58401
G0 F12000 X130.69 Y176.76
G1 F2820 X179.21 Y128.24 E1009.29568
G0 F12000 X178.64 Y128.24
G1 F2820 X130.12 Y176.76 E1011.00736
G0 F12000 X129.56 Y176.76
G1 F2820 X178.08 Y128.24 E1012.71905
G0 F12000 X177.51 Y128.24
G1 F2820 X128.99 Y176.76 E1014.43072
G0 F12000 X128.43 Y176.76
G1 F2820 X176.95 Y128.24 E1016.14240
G0 F12000 X176.38 Y128.24
G1 F2820 X127.86 Y176.76 E1017.85409
G0 F12000 X127.30 Y176.76
G1 F2820 X175.82 Y128.24 E1019.56576
G0 F12000 X175.25 Y128.24
G1 F2820 X126.73 Y176.76 E1021.27744
G0 F12000 X126.16 Y176.76
G1 F2820 X174.69 Y128.24 E1022.98913
G0 F12000 X174.12 Y128.24
G1 F2820 X125.60 Y176.76 E1024.70080
G0 F12000 X125.03 Y176.76
G1 F2820 X173.55 Y128.24 E1026.41248
G0 F12000 X172.99 Y128.24
G1 F2820 X124.47 Y176.76 E1028.12417
G0 F12000 X123.90 Y176.76
G1 F2820 X172.42 Y128.24 E1029.83584
G0 F12000 X171.86 Y128.24
G1 F2820 X123.34 Y176.76 E1031.54752
G0 F12000 X122.77 Y176.76
G1 F2820 X171.29 Y128.24 E1033.25919
G0 F12000 X170.72 Y128.24
G1 F2820 X122.20 Y176.76 E1034.97086
G0 F12000 X121.64 Y176.76
G1 F2820 X170.16 Y128.24 E1036.68254
G0 F12000 X169.59 Y128.24
G1 F2820 X121.07 Y176.76 E1038.39421
G0 F12000 X120.51 Y176.76
G1 F2820 X169.03 Y128.24 E1040.10590
G0 F12000 X168.46 Y128.24
G1 F2820 X119.94 Y176.76 E1041.81758
G0 F12000 X119.38 Y176.76
G1 F2820 X167.90 Y128.24 E1043.52925
G0 F12000 X167.33 Y128.24
G1 F2820 X118.81 Y176.76 E1045.24094
G0 F12000 X118.25 Y176.76
G1 F2820 X166.76 Y128.24 E1046.95262
G0 F12000 X166.20 Y128.24
G1 F2820 X117.68 Y176.76 E1048.66429
G0 F12000 X117.11 Y176.76
G1 F2820 X165.63 Y128.24 E1050.37598
G0 F12000 X165.07 Y128.24
G1 F2820 X116.55 Y176.76 E1052.08766
G0 F12000 X115.98 Y176.76
G1 F2820 X164.50 Y128.24 E1053.79933
G0 F12000 X163.94 Y128.24
G1 F2820 X115.42 Y176.76 E1055.51102
G0 F12000 X114.85 Y176.76
G1 F2820 X163.37 Y128.24 E1057.22270
G0 F12000 X162.81 Y128.24
G1 F2820 X114.28 Y176.76 E1058.93437
G0 F12000 X113.72 Y176.76
G1 F2820 X162.24 Y128.24 E1060.64604
G0 F12000 X161.67 Y128.24
G1 F2820 X113.15 Y176.76 E1062.35772
G0 F12000 X112.59 Y176.76
G1 F2820 X161.11 Y128.24 E1064.06939
G0 F12000 X160.54 Y128.24
G1 F2820 X112.02 Y176.76 E1065.78107
G0 F12000 X111.46 Y176.76
G1 F2820 X159.98 Y128.24 E1067.49276
G0 F12000 X159.41 Y128.24
G1 F2820 X110.89 Y176.76 E1069.20443
G0 F12000 X110.33 Y176.76
G1 F2820 X158.84 Y128.24 E1070.91611
G0 F12000 X158.28 Y128.24
G1 F2820 X109.76 Y176.76 E1072.62780
G0 F12000 X109.19 Y176.76
G1 F2820 X157.71 Y128.24 E1074.33947
G0 F12000 X157.15 Y128.24
G1 F2820 X108.63 Y176.76 E1076.05115
G0 F12000 X108.06 Y176.76
G1 F2820 X156.58 Y128.24 E1077.76284
G0 F12000 X156.02 Y128.24
G1 F2820 X107.50 Y176.76 E1079.47451
G0 F12000 X106.93 Y176.76
G1 F2820 X155.45 Y128.24 E1081.18619
G0 F12000 X154.89 Y128.24
G1 F2820 X106.36 Y176.76 E1082.89788
G0 F12000 X105.80 Y176.76
G1 F2820 X154.32 Y128.24 E1084.60955
G0 F12000 X153.75 Y128.24
G1 F2820 X105.23 Y176.76 E1086.32123
G0 F12000 X104.67 Y176.76
G1 F2820 X153.19 Y128.24 E1088.03292
G0 F12000 X152.62 Y128.24
G1 F2820 X104.10 Y176.76 E1089.74459
G0 F12000 X103.54 Y176.76
G1 F2820 X152.06 Y128.24 E1091.45630
G0 F12000 X151.49 Y128.24
G1 F2820 X102.97 Y176.76 E1093.16801
G0 F12000 X102.41 Y176.76
G1 F2820 X150.93 Y128.24 E1094.87970
G0 F12000 X150.36 Y128.24
G1 F2820 X101.84 Y176.76 E1096.59141
G0 F12000 X101.27 Y176.76
G1 F2820 X149.79 Y128.24 E1098.30312
G0 F12000 X149.23 Y128.24
G1 F2820 X100.71 Y176.76 E1100.01483
G0 F12000 X100.14 Y176.76
G1 F2820 X148.66 Y128.24 E1101.72654
G0 F12000 X148.10 Y128.24
G1 F2820 X99.58 Y176.76 E1103.43825
G0 F12000 X99.01 Y176.76
G1 F2820 X147.53 Y128.24 E1105.14996
G0 F12000 X146.97 Y128.24
G1 F2820 X98.45 Y176.76 E1106.86167
G0 F12000 X97.88 Y176.76
G1 F2820 X146.40 Y128.24 E1108.57338
G0 F12000 X145.84 Y128.24
G1 F2820 X97.31 Y176.76 E1110.28509
G0 F12000 X96.75 Y176.76
G1 F2820 X145.27 Y128.24 E1111.99679
G0 F12000 X144.70 Y128.24
G1 F2820 X96.18 Y176.76 E1113.70850
G0 F12000 X95.62 Y176.76
G1 F2820 X144.14 Y128.24 E1115.42021
G0 F12000 X143.57 Y128.24
G1 F2820 X95.05 Y176.76 E1117.13192
G0 F12000 X94.49 Y176.76
G1 F2820 X143.01 Y128.24 E1118.84363
G0 F12000 X142.44 Y128.24
G1 F2820 X93.92 Y176.76 E1120.55534
G0 F12000 X93.36 Y176.76
G1 F2820 X141.88 Y128.24 E1122.26705
G0 F12000 X141.31 Y128.24
G1 F2820 X92.79 Y176.76 E1123.97876
G0 F12000 X92.22 Y176.76
G1 F2820 X140.74 Y128.24 E1125.69047
G0 F12000 X140.18 Y128.24
G1 F2820 X91.66 Y176.76 E1127.40216
G0 F12000 X91.09 Y176.76
G1 F2820 X139.61 Y128.24 E1129.11387
G0 F12000 X139.05 Y128.24
G1 F2820 X90.53 Y176.76 E1130.82558
G0 F12000 X89.96 Y176.76
G1 F2820 X138.48 Y128.24 E1132.53729
G0 F12000 X137.92 Y128.24
G1 F2820 X89.39 Y176.76 E1134.24900
G0 F12000 X88.83 Y176.76
G1 F2820 X137.35 Y128.24 E1135.96071
G0 F12000 X136.78 Y128.24
G1 F2820 X88.26 Y176.76 E1137.67242
G0 F12000 X87.70 Y176.76
G1 F2820 X136.22 Y128.24 E1139.38413
G0 F12000 X135.65 Y128.24
G1 F2820 X87.13 Y176.76 E1141.09584
G0 F12000 X86.57 Y176.76
G1 F2820 X135.09 Y128.24 E1142.80754
G0 F12000 X134.52 Y128.24
G1 F2820 X86.00 Y176.76 E1144.51925
G0 F12000 X85.44 Y176.76
G1 F2820 X133.96 Y128.24 E1146.23096
G0 F12000 X133.39 Y128.24
G1 F2820 X84.87 Y176.76 E1147.94267
G0 F12000 X84.30 Y176.76
G1 F2820 X132.82 Y128.24 E1149.65438
G0 F12000 X132.26 Y128.24
G1 F2820 X83.74 Y176.76 E1151.36609
G0 F12000 X83.17 Y176.76
G1 F2820 X131.69 Y128.24 E1153.07780
G0 F12000 X131.13 Y128.24
G1 F2820 X82.61 Y176.76 E1154.78951
G0 F12000 X82.04 Y176.76
G1 F2820 X130.56 Y128.24 E1156.50122
G0 F12000 X130.00 Y128.24
G1 F2820 X81.47 Y176.76 E1158.21293
G0 F12000 X80.91 Y176.76
G1 F2820 X129.43 Y128.24 E1159.92464
G0 F12000 X128.87 Y128.24
G1 F2820 X80.34 Y176.76 E1161.63635
G0 F12000 X80.29 Y176.25
G1 F2820 X128.30 Y128.24 E1163.33003
G0 F12000 X127.73 Y128.24
G1 F2820 X80.29 Y175.68 E1165.00374
G0 F12000 X80.29 Y175.12
G1 F2820 X127.17 Y128.24 E1166.65753
G0 F12000 X126.60 Y128.24
G1 F2820 X80.29 Y174.55 E1168.29134
G0 F12000 X80.29 Y173.99
G1 F2820 X126.04 Y128.24 E1169.90519
G0 F12000 X125.47 Y128.24
G1 F2820 X80.29 Y173.42 E1171.49911
G0 F12000 X80.29 Y172.85
G1 F2820 X124.91 Y128.24 E1173.07306
G0 F12000 X124.34 Y128.24
G1 F2820 X80.29 Y172.29 E1174.62704
G0 F12000 X80.29 Y171.72
G1 F2820 X123.77 Y128.24 E1176.16109
G0 F12000 X123.21 Y128.24
G1 F2820 X80.29 Y171.16 E1177.67518
G0 F12000 X80.29 Y170.59
G1 F2820 X122.64 Y128.24 E1179.16929
G0 F12000 X122.08 Y128.24
G1 F2820 X80.29 Y170.03 E1180.64346
G0 F12000 X80.29 Y169.46
G1 F2820 X121.51 Y128.24 E1182.09768
G0 F12000 X120.94 Y128.24
G1 F2820 X80.29 Y168.89 E1183.53193
G0 F12000 X80.29 Y168.33
G1 F2820 X120.38 Y128.24 E1184.94621
G0 F12000 X119.81 Y128.24
G1 F2820 X80.29 Y167.76 E1186.34056
G0 F12000 X80.29 Y167.20
G1 F2820 X119.25 Y128.24 E1187.71495
G0 F12000 X118.68 Y128.24
G1 F2820 X80.29 Y166.63 E1189.06936
G0 F12000 X80.29 Y166.07
G1 F2820 X118.12 Y128.24 E1190.40385
G0 F12000 X117.55 Y128.24
G1 F2820 X80.29 Y165.50 E1191.71837
G0 F12000 X80.29 Y164.93
G1 F2820 X116.98 Y128.24 E1193.01292
G0 F12000 X116.42 Y128.24
G1 F2820 X80.29 Y164.37 E1194.28753
G0 F12000 X80.29 Y163.80
G1 F2820 X115.85 Y128.24 E1195.54219
G0 F12000 X115.29 Y128.24
G1 F2820 X80.29 Y163.24 E1196.77687
G0 F12000 X80.29 Y162.67
G1 F2820 X114.72 Y128.24 E1197.99162
G0 F12000 X114.16 Y128.24
G1 F2820 X80.29 Y162.11 E1199.18641
G0 F12000 X80.29 Y161.54
G1 F2820 X113.59 Y128.24 E1200.36123
G0 F12000 X113.03 Y128.24
G1 F2820 X80.29 Y160.97 E1201.51609
G0 F12000 X80.29 Y160.41
G1 F2820 X112.46 Y128.24 E1202.65101
G0 F12000 X111.89 Y128.24
G1 F2820 X80.29 Y159.84 E1203.76597
G0 F12000 X80.29 Y159.28
G1 F2820 X111.33 Y128.24 E1204.86097
G0 F12000 X110.76 Y128.24
G1 F2820 X80.29 Y158.71 E1205.93602
G0 F12000 X80.29 Y158.15
G1 F2820 X110.20 Y128.24 E1206.99111
G0 F12000 X109.63 Y128.24
G1 F2820 X80.29 Y157.58 E1208.02622
G0 F12000 X80.29 Y157.01
G1 F2820 X109.07 Y128.24 E1209.04141
G0 F12000 X108.50 Y128.24
G1 F2820 X80.29 Y156.45 E1210.03663
G0 F12000 X80.29 Y155.88
G1 F2820 X107.93 Y128.24 E1211.01188
G0 F12000 X107.37 Y128.24
G1 F2820 X80.29 Y155.32 E1211.96720
G0 F12000 X80.29 Y154.75
G1 F2820 X106.80 Y128.24 E1212.90255
G0 F12000 X106.24 Y128.24
G1 F2820 X80.29 Y154.19 E1213.81794
G0 F12000 X80.29 Y153.62
G1 F2820 X105.67 Y128.24 E1214.71339
G0 F12000 X105.11 Y128.24
G1 F2820 X80.29 Y153.06 E1215.58888
G0 F12000 X80.29 Y152.49
G1 F2820 X104.54 Y128.24 E1216.44440
G0 F12000 X103.97 Y128.24
G1 F2820 X80.29 Y151.92 E1217.27999
G0 F12000 X80.29 Y151.36
G1 F2820 X103.41 Y128.24 E1218.09561
G0 F12000 X102.84 Y128.24
G1 F2820 X80.29 Y150.79 E1218.89126
G0 F12000 X80.29 Y150.23
G1 F2820 X102.28 Y128.24 E1219.66697
G0 F12000 X101.71 Y128.24
G1 F2820 X80.29 Y149.66 E1220.42272
G0 F12000 X80.29 Y149.09
G1 F2820 X101.15 Y128.24 E1221.15851
G0 F12000 X100.58 Y128.24
G1 F2820 X80.29 Y148.53 E1221.87433
G0 F12000 X80.29 Y147.96
G1 F2820 X100.02 Y128.24 E1222.57021
G0 F12000 X99.45 Y128.24
G1 F2820 X80.29 Y147.40 E1223.24613
G0 F12000 X80.29 Y146.83
G1 F2820 X98.88 Y128.24 E1223.90209
G0 F12000 X98.32 Y128.24
G1 F2820 X80.29 Y146.27 E1224.53811
G0 F12000 X80.29 Y145.70
G1 F2820 X97.75 Y128.24 E1225.15416
G0 F12000 X97.19 Y128.24
G1 F2820 X80.29 Y145.13 E1225.75025
G0 F12000 X80.29 Y144.57
G1 F2820 X96.62 Y128.24 E1226.32641
G0 F12000 X96.06 Y128.24
G1 F2820 X80.29 Y144.00 E1226.88260
G0 F12000 X80.29 Y143.44
G1 F2820 X95.49 Y128.24 E1227.41882
G0 F12000 X94.92 Y128.24
G1 F2820 X80.29 Y142.87 E1227.93511
G0 F12000 X80.29 Y142.31
G1 F2820 X94.36 Y128.24 E1228.43143
G0 F12000 X93.79 Y128.24
G1 F2820 X80.29 Y141.74 E1228.90778
G0 F12000 X80.29 Y141.18
G1 F2820 X93.23 Y128.24 E1229.36419
G0 F12000 X92.66 Y128.24
G1 F2820 X80.29 Y140.61 E1229.80064
G0 F12000 X80.29 Y140.04
G1 F2820 X92.09 Y128.24 E1230.21713
G0 F12000 X91.53 Y128.24
G1 F2820 X80.29 Y139.48 E1230.61367
G0 F12000 X80.29 Y138.91
G1 F2820 X90.96 Y128.24 E1230.99026
G0 F12000 X90.40 Y128.24
G1 F2820 X80.29 Y138.35 E1231.34688
G0 F12000 X80.29 Y137.78
G1 F2820 X89.83 Y128.24 E1231.68354
G0 F12000 X89.27 Y128.24
G1 F2820 X80.29 Y137.22 E1232.00026
G0 F12000 X80.29 Y136.65
G1 F2820 X88.70 Y128.24 E1232.29702
G0 F12000 X88.14 Y128.24
G1 F2820 X80.29 Y136.08 E1232.57381
G0 F12000 X80.29 Y135.52
G1 F2820 X87.57 Y128.24 E1232.83066
G0 F12000 X87.00 Y128.24
G1 F2820 X80.29 Y134.95 E1233.06755
G0 F12000 X80.29 Y134.39
G1 F2820 X86.44 Y128.24 E1233.28448
G0 F12000 X85.87 Y128.24
G1 F2820 X80.29 Y133.82 E1233.48147
G0 F12000 X80.29 Y133.26
G1 F2820 X85.31 Y128.24 E1233.65849
G0 F12000 X84.74 Y128.24
G1 F2820 X80.29 Y132.69 E1233.81555
G0 F12000 X80.29 Y132.12
G1 F2820 X84.18 Y128.24 E1233.95267
G0 F12000 X83.61 Y128.24
G1 F2820 X80.29 Y131.56 E1234.06983
G0 F12000 X80.29 Y130.99
G1 F2820 X83.04 Y128.24 E1234.16702
G0 F12000 X82.48 Y128.24
G1 F2820 X80.29 Y130.43 E1234.24426
G0 F12000 X80.29 Y129.86
G1 F2820 X81.91 Y128.24 E1234.30155
G0 F12000 X81.35 Y128.24
G1 F2820 X80.29 Y129.30 E1234.33887
G0 F12000 X80.29 Y128.73
G1 F2820 X80.78 Y128.24 E1234.35625
;LAYER:2
G0 F12000 X80.15 Y128.10 Z0.55
;TYPE:WALL-INNER
G1 F3900 X224.85 Y128.10 E1237.96580
G1 X224.85 Y176.90 E1239.18312
G1 X80.15 Y176.90 E1242.79268
G1 X80.15 Y128.10 E1244.01000
G0 F12000 X79.75 Y127.70
;TYPE:WALL-OUTER
G1 F3900 X225.25 Y127.70 E1247.63951
G1 X225.25 Y177.30 E1248.87679
G1 X79.75 Y177.30 E1252.50630
G1 X79.75 Y127.70 E1253.74358
G0 F12000 X80.44 Y128.24
;TYPE:FILL
G1 F3900 X128.96 Y176.76 E1255.45524
G0 F12000 X128.39 Y176.76
G1 F3900 X80.29 Y128.66 E1257.15222
G0 F12000 X80.29 Y129.22
G1 F3900 X127.83 Y176.76 E1258.82925
G0 F12000 X127.26 Y176.76
G1 F3900 X80.29 Y129.79 E1260.48631
G0 F12000 X80.29 Y130.35
G1 F3900 X126.69 Y176.76 E1262.12341
G0 F12000 X126.13 Y176.76
G1 F3900 X80.29 Y130.92 E1263.74057
G0 F12000 X80.29 Y131.48
G1 F3900 X125.56 Y176.76 E1265.33777
G0 F12000 X125.00 Y176.76
G1 F3900 X80.29 Y132.05 E1266.91500
G0 F12000 X80.29 Y132.62
G1 F3900 X124.43 Y176.76 E1268.47230
G0 F12000 X123.87 Y176.76
G1 F3900 X80.29 Y133.18 E1270.00963
G0 F12000 X80.29 Y133.75
G1 F3900 X123.30 Y176.76 E1271.52700
G0 F12000 X122.74 Y176.76
G1 F3900 X80.29 Y134.31 E1273.02443
G0 F12000 X80.29 Y134.88
G1 F3900 X122.17 Y176.76 E1274.50190
G0 F12000 X121.60 Y176.76
G1 F3900 X80.29 Y135.44 E1275.95939
G0 F12000 X80.29 Y136.01
G1 F3900 X121.04 Y176.76 E1277.39696
G0 F12000 X120.47 Y176.76
G1 F3900 X80.29 Y136.57 E1278.81456
G0 F12000 X80.29 Y137.14
G1 F3900 X119.91 Y176.76 E1280.21219
G0 F12000 X119.34 Y176.76
G1 F3900 X80.29 Y137.71 E1281.58987
G0 F12000 X80.29 Y138.27
G1 F3900 X118.78 Y176.76 E1282.94761
G0 F12000 X118.21 Y176.76
G1 F3900 X80.29 Y138.84 E1284.28537
G0 F12000 X80.29 Y139.40
G1 F3900 X117.64 Y176.76 E1285.60319
G0 F12000 X117.08 Y176.76
G1 F3900 X80.29 Y139.97 E1286.90106
G0 F12000 X80.29 Y140.53
G1 F3900 X116.51 Y176.76 E1288.17895
G0 F12000 X115.95 Y176.76
G1 F3900 X80.29 Y141.10 E1289.43689
G0 F12000 X80.29 Y141.67
G1 F3900 X115.38 Y176.76 E1290.67489
G0 F12000 X114.82 Y176.76
G1 F3900 X80.29 Y142.23 E1291.89292
G0 F12000 X80.29 Y142.80
G1 F3900 X114.25 Y176.76 E1293.09099
G0 F12000 X113.69 Y176.76
G1 F3900 X80.29 Y143.36 E1294.26912
G0 F12000 X80.29 Y143.93
G1 F3900 X113.12 Y176.76 E1295.42729
G0 F12000 X112.55 Y176.76
G1 F3900 X80.29 Y144.50 E1296.56549
G0 F12000 X80.29 Y145.06
G1 F3900 X111.99 Y176.76 E1297.68375
G0 F12000 X111.42 Y176.76
G1 F3900 X80.29 Y145.63 E1298.78206
G0 F12000 X80.29 Y146.19
G1 F3900 X110.86 Y176.76 E1299.86039
G0 F12000 X110.29 Y176.76
G1 F3900 X80.29 Y146.76 E1300.91877
G0 F12000 X80.29 Y147.32
G1 F3900 X109.72 Y176.76 E1301.95721
G0 F12000 X109.16 Y176.76
G1 F3900 X80.29 Y147.89 E1302.97567
G0 F12000 X80.29 Y148.45
G1 F3900 X108.59 Y176.76 E1303.97419
G0 F12000 X108.03 Y176.76
G1 F3900 X80.29 Y149.02 E1304.95276
G0 F12000 X80.29 Y149.59
G1 F3900 X107.46 Y176.76 E1305.91136
G0 F12000 X106.90 Y176.76
G1 F3900 X80.29 Y150.15 E1306.85000
G0 F12000 X80.29 Y150.72
G1 F3900 X106.33 Y176.76 E1307.76870
G0 F12000 X105.77 Y176.76
G1 F3900 X80.29 Y151.28 E1308.66743
G0 F12000 X80.29 Y151.85
G1 F3900 X105.20 Y176.76 E1309.54620
G0 F12000 X104.63 Y176.76
G1 F3900 X80.29 Y152.41 E1310.40503
G0 F12000 X80.29 Y152.98
G1 F3900 X104.07 Y176.76 E1311.24390
G0 F12000 X103.50 Y176.76
G1 F3900 X80.29 Y153.55 E1312.06280
G0 F12000 X80.29 Y154.11
G1 F3900 X102.94 Y176.76 E1312.86177
G0 F12000 X102.37 Y176.76
G1 F3900 X80.29 Y154.68 E1313.64078
G0 F12000 X80.29 Y155.24
G1 F3900 X101.81 Y176.76 E1314.39981
G0 F12000 X101.24 Y176.76
G1 F3900 X80.29 Y155.81 E1315.13891
G0 F12000 X80.29 Y156.37
G1 F3900 X100.67 Y176.76 E1315.85805
G0 F12000 X100.11 Y176.76
G1 F3900 X80.29 Y156.94 E1316.55722
G0 F12000 X80.29 Y157.50
G1 F3900 X99.54 Y176.76 E1317.23644
G0 F12000 X98.98 Y176.76
G1 F3900 X80.29 Y158.07 E1317.89571
G0 F12000 X80.29 Y158.64
G1 F3900 X98.41 Y176.76 E1318.53501
G0 F12000 X97.84 Y176.76
G1 F3900 X80.29 Y159.20 E1319.15436
G0 F12000 X80.29 Y159.77
G1 F3900 X97.28 Y176.76 E1319.75377
G0 F12000 X96.71 Y176.76
G1 F3900 X80.29 Y160.33 E1320.33320
G0 F12000 X80.29 Y160.90
G1 F3900 X96.15 Y176.76 E1320.89267
G0 F12000 X95.58 Y176.76
G1 F3900 X80.29 Y161.47 E1321.43221
G0 F12000 X80.29 Y162.03
G1 F3900 X95.02 Y176.76 E1321.95178
G0 F12000 X94.45 Y176.76
G1 F3900 X80.29 Y162.60 E1322.45138
G0 F12000 X80.29 Y163.16
G1 F3900 X93.89 Y176.76 E1322.93105
G0 F12000 X93.32 Y176.76
G1 F3900 X80.29 Y163.73 E1323.39076
G0 F12000 X80.29 Y164.29
G1 F3900 X92.75 Y176.76 E1323.83049
G0 F12000 X92.19 Y176.76
G1 F3900 X80.29 Y164.86 E1324.25030
G0 F12000 X80.29 Y165.43
G1 F3900 X91.62 Y176.76 E1324.65014
G0 F12000 X91.06 Y176.76
G1 F3900 X80.29 Y165.99 E1325.03001
G0 F12000 X80.29 Y166.56
G1 F3900 X90.49 Y176.76 E1325.38993
G0 F12000 X89.93 Y176.76
G1 F3900 X80.29 Y167.12 E1325.72990
G0 F12000 X80.29 Y167.69
G1 F3900 X89.36 Y176.76 E1326.04990
G0 F12000 X88.79 Y176.76
G1 F3900 X80.29 Y168.25 E1326.34996
G0 F12000 X80.29 Y168.82
G1 F3900 X88.23 Y176.76 E1326.63006
G0 F12000 X87.66 Y176.76
G1 F3900 X80.29 Y169.38 E1326.89020
G0 F12000 X80.29 Y169.95
G1 F3900 X87.10 Y176.76 E1327.13039
G0 F12000 X86.53 Y176.76
G1 F3900 X80.29 Y170.52 E1327.35063
G0 F12000 X80.29 Y171.08
G1 F3900 X85.97 Y176.76 E1327.55090
G0 F12000 X85.40 Y176.76
G1 F3900 X80.29 Y171.65 E1327.73120
G0 F12000 X80.29 Y172.21
G1 F3900 X84.83 Y176.76 E1327.89157
G0 F12000 X84.27 Y176.76
G1 F3900 X80.29 Y172.78 E1328.03198
G0 F12000 X80.29 Y173.34
G1 F3900 X83.70 Y176.76 E1328.15242
G0 F12000 X83.14 Y176.76
G1 F3900 X80.29 Y173.91 E1328.25292
G0 F12000 X80.29 Y174.48
G1 F3900 X82.57 Y176.76 E1328.33346
G0 F12000 X82.01 Y176.76
G1 F3900 X80.29 Y175.04 E1328.39403
G0 F12000 X80.29 Y175.61
G1 F3900 X81.44 Y176.76 E1328.43467
G0 F12000 X80.88 Y176.76
G1 F3900 X80.29 Y176.17 E1328.45535
G0 F12000 X81.00 Y128.24
G1 F3900 X129.52 Y176.76 E1330.16702
G0 F12000 X130.09 Y176.76
G1 F3900 X81.57 Y128.24 E1331.87868
G0 F12000 X82.14 Y128.24
G1 F3900 X130.66 Y176.76 E1333.59033
G0 F12000 X131.22 Y176.76
G1 F3900 X82.70 Y128.24 E1335.30201
G0 F12000 X83.27 Y128.24
G1 F3900 X131.79 Y176.76 E1337.01368
G0 F12000 X132.35 Y176.76
G1 F3900 X83.83 Y128.24 E1338.72534
G0 F12000 X84.40 Y128.24
G1 F3900 X132.92 Y176.76 E1340.43701
G0 F12000 X133.48 Y176.76
G1 F3900 X84.96 Y128.24 E1342.14869
G0 F12000 X85.53 Y128.24
G1 F3900 X134.05 Y176.76 E1343.86034
G0 F12000 X134.62 Y176.76
G1 F3900 X86.09 Y128.24 E1345.57202
G0 F12000 X86.66 Y128.24
G1 F3900 X135.18 Y176.76 E1347.28369
G0 F12000 X135.75 Y176.76
G1 F3900 X87.23 Y128.24 E1348.99535
G0 F12000 X87.79 Y128.24
G1 F3900 X136.31 Y176.76 E1350.70702
G0 F12000 X136.88 Y176.76
G1 F3900 X88.36 Y128.24 E1352.41869
G0 F12000 X88.92 Y128.24
G1 F3900 X137.44 Y176.76 E1354.13035
G0 F12000 X138.01 Y176.76
G1 F3900 X89.49 Y128.24 E1355.84201
G0 F12000 X90.06 Y128.24
G1 F3900 X138.57 Y176.76 E1357.55368
G0 F12000 X139.14 Y176.76
G1 F3900 X90.62 Y128.24 E1359.26534
G0 F12000 X91.19 Y128.24
G1 F3900 X139.71 Y176.76 E1360.97699
G0 F12000 X140.27 Y176.76
G1 F3900 X91.75 Y128.24 E1362.68867
G0 F12000 X92.32 Y128.24
G1 F3900 X140.84 Y176.76 E1364.40032
G0 F12000 X141.40 Y176.76
G1 F3900 X92.88 Y128.24 E1366.11198
G0 F12000 X93.45 Y128.24
G1 F3900 X141.97 Y176.76 E1367.82366
G0 F12000 X142.53 Y176.76
G1 F3900 X94.02 Y128.24 E1369.53533
G0 F12000 X94.58 Y128.24
G1 F3900 X143.10 Y176.76 E1371.24699
G0 F12000 X143.67 Y176.76
G1 F3900 X95.15 Y128.24 E1372.95866
G0 F12000 X95.71 Y128.24
G1 F3900 X144.23 Y176.76 E1374.67033
G0 F12000 X144.80 Y176.76
G1 F3900 X96.28 Y128.24 E1376.38199
G0 F12000 X96.84 Y128.24
G1 F3900 X145.36 Y176.76 E1378.09366
G0 F12000 X145.93 Y176.76
G1 F3900 X97.41 Y128.24 E1379.80534
G0 F12000 X97.97 Y128.24
G1 F3900 X146.49 Y176.76 E1381.51699
G0 F12000 X147.06 Y176.76
G1 F3900 X98.54 Y128.24 E1383.22867
G0 F12000 X99.11 Y128.24
G1 F3900 X147.63 Y176.76 E1384.94034
G0 F12000 X148.19 Y176.76
G1 F3900 X99.67 Y128.24 E1386.65200
G0 F12000 X100.24 Y128.24
G1 F3900 X148.76 Y176.76 E1388.36366
G0 F12000 X149.32 Y176.76
G1 F3900 X100.80 Y128.24 E1390.07533
G0 F12000 X101.37 Y128.24
G1 F3900 X149.89 Y176.76 E1391.78699
G0 F12000 X150.45 Y176.76
G1 F3900 X101.94 Y128.24 E1393.49864
G0 F12000 X102.50 Y128.24
G1 F3900 X151.02 Y176.76 E1395.21032
G0 F12000 X151.59 Y176.76
G1 F3900 X103.07 Y128.24 E1396.92199
G0 F12000 X103.63 Y128.24
G1 F3900 X152.15 Y176.76 E1398.63365
G0 F12000 X152.72 Y176.76
G1 F3900 X104.20 Y128.24 E1400.34534
G0 F12000 X104.76 Y128.24
G1 F3900 X153.28 Y176.76 E1402.05701
G0 F12000 X153.85 Y176.76
G1 F3900 X105.33 Y128.24 E1403.76869
G0 F12000 X105.89 Y128.24
G1 F3900 X154.41 Y176.76 E1405.48038
G0 F12000 X154.98 Y176.76
G1 F3900 X106.46 Y128.24 E1407.19205
G0 F12000 X107.03 Y128.24
G1 F3900 X155.55 Y176.76 E1408.90373
G0 F12000 X156.11 Y176.76
G1 F3900 X107.59 Y128.24 E1410.61542
G0 F12000 X108.16 Y128.24
G1 F3900 X156.68 Y176.76 E1412.32709
G0 F12000 X157.24 Y176.76
G1 F3900 X108.72 Y128.24 E1414.03877
G0 F12000 X109.29 Y128.24
G1 F3900 X157.81 Y176.76 E1415.75044
G0 F12000 X158.37 Y176.76
G1 F3900 X109.85 Y128.24 E1417.46211
G0 F12000 X110.42 Y128.24
G1 F3900 X158.94 Y176.76 E1419.17379
G0 F12000 X159.51 Y176.76
G1 F3900 X110.99 Y128.24 E1420.88546
G0 F12000 X111.55 Y128.24
G1 F3900 X160.07 Y176.76 E1422.59715
G0 F12000 X160.64 Y176.76
G1 F3900 X112.12 Y128.24 E1424.30883
G0 F12000 X112.68 Y128.24
G1 F3900 X161.20 Y176.76 E1426.02050
G0 F12000 X161.77 Y176.76
G1 F3900 X113.25 Y128.24 E1427.73219
G0 F12000 X113.81 Y128.24
G1 F3900 X162.33 Y176.76 E1429.44387
G0 F12000 X162.90 Y176.76
G1 F3900 X114.38 Y128.24 E1431.15554
G0 F12000 X114.94 Y128.24
G1 F3900 X163.47 Y176.76 E1432.86723
G0 F12000 X164.03 Y176.76
G1 F3900 X115.51 Y128.24 E1434.57891
G0 F12000 X116.08 Y128.24
G1 F3900 X164.60 Y176.76 E1436.29058
G0 F12000 X165.16 Y176.76
G1 F3900 X116.64 Y128.24 E1438.00227
G0 F12000 X117.21 Y128.24
G1 F3900 X165.73 Y176.76 E1439.71395
G0 F12000 X166.29 Y176.76
G1 F3900 X117.77 Y128.24 E1441.42562
G0 F12000 X118.34 Y128.24
G1 F3900 X166.86 Y176.76 E1443.13731
G0 F12000 X167.43 Y176.76
G1 F3900 X118.91 Y128.24 E1444.84899
G0 F12000 X119.47 Y128.24
G1 F3900 X167.99 Y176.76 E1446.56066
G0 F12000 X168.56 Y176.76
G1 F3900 X120.04 Y128.24 E1448.27233
G0 F12000 X120.60 Y128.24
G1 F3900 X169.12 Y176.76 E1449.98401
G0 F12000 X169.69 Y176.76
G1 F3900 X121.17 Y128.24 E1451.69568
G0 F12000 X121.73 Y128.24
G1 F3900 X170.25 Y176.76 E1453.40736
G0 F12000 X170.82 Y176.76
G1 F3900 X122.30 Y128.24 E1455.11905
G0 F12000 X122.86 Y128.24
G1 F3900 X171.38 Y176.76 E1456.83072
G0 F12000 X171.95 Y176.76
G1 F3900 X123.43 Y128.24 E1458.54240
G0 F12000 X124.00 Y128.24
G1 F3900 X172.52 Y176.76 E1460.25409
G0 F12000 X173.08 Y176.76
G1 F3900 X124.56 Y128.24 E1461.96576
G0 F12000 X125.13 Y128.24
G1 F3900 X173.65 Y176.76 E1463.67744
G0 F12000 X174.21 Y176.76
G1 F3900 X125.69 Y128.24 E1465.38913
G0 F12000 X126.26 Y128.24
G1 F3900 X174.78 Y176.76 E1467.10080
G0 F12000 X175.34 Y176.76
G1 F3900 X126.83 Y128.24 E1468.81248
G0 F12000 X127.39 Y128.24
G1 F3900 X175.91 Y176.76 E1470.52417
G0 F12000 X176.48 Y176.76
G1 F3900 X127.96 Y128.24 E1472.23584
G0 F12000 X128.52 Y128.24
G1 F3900 X177.04 Y176.76 E1473.94752
G0 F12000 X177.61 Y176.76
G1 F3900 X129.09 Y128.24 E1475.65921
G0 F12000 X129.65 Y128.24
G1 F3900 X178.17 Y176.76 E1477.37088
G0 F12000 X178.74 Y176.76
G1 F3900 X130.22 Y128.24 E1479.08256
G0 F12000 X130.78 Y128.24
G1 F3900 X179.31 Y176.76 E1480.79423
G0 F12000 X179.87 Y176.76
G1 F3900 X131.35 Y128.24 E1482.50590
G0 F12000 X131.92 Y128.24
G1 F3900 X180.44 Y176.76 E1484.21758
G0 F12000 X181.00 Y176.76
G1 F3900 X132.48 Y128.24 E1485.92925
G0 F12000 X133.05 Y128.24
G1 F3900 X181.57 Y176.76 E1487.64094
G0 F12000 X182.13 Y176.76
G1 F3900 X133.61 Y128.24 E1489.35262
G0 F12000 X134.18 Y128.24
G1 F3900 X182.70 Y176.76 E1491.06429
G0 F12000 X183.26 Y176.76
G1 F3900 X134.74 Y128.24 E1492.77598
G0 F12000 X135.31 Y128.24
G1 F3900 X183.83 Y176.76 E1494.48766
G0 F12000 X184.40 Y176.76
G1 F3900 X135.88 Y128.24 E1496.19933
G0 F12000 X136.44 Y128.24
G1 F3900 X184.96 Y176.76 E1497.91102
G0 F12000 X185.53 Y176.76
G1 F3900 X137.01 Y128.24 E1499.62270
G0 F12000 X137.57 Y128.24
G1 F3900 X186.09 Y176.76 E1501.33437
G0 F12000 X186.66 Y176.76
G1 F3900 X138.14 Y128.24 E1503.04606
G0 F12000 X138.70 Y128.24
G1 F3900 X187.22 Y176.76 E1504.75774
G0 F12000 X187.79 Y176.76
G1 F3900 X139.27 Y128.24 E1506.46941
G0 F12000 X139.84 Y128.24
G1 F3900 X188.36 Y176.76 E1508.18108
G0 F12000 X188.92 Y176.76
G1 F3900 X140.40 Y128.24 E1509.89276
G0 F12000 X140.97 Y128.24
G1 F3900 X189.49 Y176.76 E1511.60443
G0 F12000 X190.05 Y176.76
G1 F3900 X141.53 Y128.24 E1513.31611
G0 F12000 X142.10 Y128.24
G1 F3900 X190.62 Y176.76 E1515.02780
G0 F12000 X191.18 Y176.76
G1 F3900 X142.66 Y128.24 E1516.73947
G0 F12000 X143.23 Y128.24
G1 F3900 X191.75 Y176.76 E1518.45115
G0 F12000 X192.32 Y176.76
G1 F3900 X143.79 Y128.24 E1520.16284
G0 F12000 X144.36 Y128.24
G1 F3900 X192.88 Y176.76 E1521.87451
G0 F12000 X193.45 Y176.76
G1 F3900 X144.93 Y128.24 E1523.58619
G0 F12000 X145.49 Y128.24
G1 F3900 X194.01 Y176.76 E1525.29788
G0 F12000 X194.58 Y176.76
G1 F3900 X146.06 Y128.24 E1527.00955
G0 F12000 X146.62 Y128.24
G1 F3900 X195.14 Y176.76 E1528.72123
G0 F12000 X195.71 Y176.76
G1 F3900 X147.19 Y128.24 E1530.43292
G0 F12000 X147.75 Y128.24
G1 F3900 X196.28 Y176.76 E1532.14459
G0 F12000 X196.84 Y176.76
G1 F3900 X148.32 Y128.24 E1533.85627
G0 F12000 X148.89 Y128.24
G1 F3900 X197.41 Y176.76 E1535.56796
G0 F12000 X197.97 Y176.76
G1 F3900 X149.45 Y128.24 E1537.27963
G0 F12000 X150.02 Y128.24
G1 F3900 X198.54 Y176.76 E1538.99131
G0 F12000 X199.10 Y176.76
G1 F3900 X150.58 Y128.24 E1540.70298
G0 F12000 X151.15 Y128.24
G1 F3900 X199.67 Y176.76 E1542.41465
G0 F12000 X200.24 Y176.76
G1 F3900 X151.72 Y128.24 E1544.12633
G0 F12000 X152.28 Y128.24
G1 F3900 X200.80 Y176.76 E1545.83800
G0 F12000 X201.37 Y176.76
G1 F3900 X152.85 Y128.24 E1547.54966
G0 F12000 X153.41 Y128.24
G1 F3900 X201.93 Y176.76 E1549.26130
G0 F12000 X202.50 Y176.76
G1 F3900 X153.98 Y128.24 E1550.97295
G0 F12000 X154.54 Y128.24
G1 F3900 X203.06 Y176.76 E1552.68461
G0 F12000 X203.63 Y176.76
G1 F3900 X155.11 Y128.24 E1554.39625
G0 F12000 X155.68 Y128.24
G1 F3900 X204.19 Y176.76 E1556.10790
G0 F12000 X204.76 Y176.76
G1 F3900 X156.24 Y128.24 E1557.81956
G0 F12000 X156.81 Y128.24
G1 F3900 X205.33 Y176.76 E1559.53120
G0 F12000 X205.89 Y176.76
G1 F3900 X157.37 Y128.24 E1561.24286
G0 F12000 X157.94 Y128.24
G1 F3900 X206.46 Y176.76 E1562.95451
G0 F12000 X207.02 Y176.76
G1 F3900 X158.50 Y128.24 E1564.66615
G0 F12000 X159.07 Y128.24
G1 F3900 X207.59 Y176.76 E1566.37779
G0 F12000 X208.16 Y176.76
G1 F3900 X159.63 Y128.24 E1568.08945
G0 F12000 X160.20 Y128.24
G1 F3900 X208.72 Y176.76 E1569.80109
G0 F12000 X209.29 Y176.76
G1 F3900 X160.77 Y128.24 E1571.51272
G0 F12000 X161.33 Y128.24
G1 F3900 X209.85 Y176.76 E1573.22438
G0 F12000 X210.42 Y176.76
G1 F3900 X161.90 Y128.24 E1574.93604
G0 F12000 X162.46 Y128.24
G1 F3900 X210.98 Y176.76 E1576.64768
G0 F12000 X211.55 Y176.76
G1 F3900 X163.03 Y128.24 E1578.35933
G0 F12000 X163.59 Y128.24
G1 F3900 X212.12 Y176.76 E1580.07099
G0 F12000 X212.68 Y176.76
G1 F3900 X164.16 Y128.24 E1581.78263
G0 F12000 X164.73 Y128.24
G1 F3900 X213.25 Y176.76 E1583.49428
G0 F12000 X213.81 Y176.76
G1 F3900 X165.29 Y128.24 E1585.20594
G0 F12000 X165.86 Y128.24
G1 F3900 X214.38 Y176.76 E1586.91758
G0 F12000 X214.94 Y176.76
G1 F3900 X166.42 Y128.24 E1588.62923
G0 F12000 X166.99 Y128.24
G1 F3900 X215.51 Y176.76 E1590.34089
G0 F12000 X216.07 Y176.76
G1 F3900 X167.56 Y128.24 E1592.05253
G0 F12000 X168.12 Y128.24
G1 F3900 X216.64 Y176.76 E1593.76417
G0 F12000 X217.21 Y176.76
G1 F3900 X168.69 Y128.24 E1595.47583
G0 F12000 X169.25 Y128.24
G1 F3900 X217.77 Y176.76 E1597.18746
G0 F12000 X218.34 Y176.76
G1 F3900 X169.82 Y128.24 E1598.89910
G0 F12000 X170.38 Y128.24
G1 F3900 X218.90 Y176.76 E1600.61076
G0 F12000 X219.47 Y176.76
G1 F3900 X170.95 Y128.24 E1602.32240
G0 F12000 X171.51 Y128.24
G1 F3900 X220.03 Y176.76 E1604.03404
G0 F12000 X220.60 Y176.76
G1 F3900 X172.08 Y128.24 E1605.74569
G0 F12000 X172.65 Y128.24
G1 F3900 X221.17 Y176.76 E1607.45735
G0 F12000 X221.73 Y176.76
G1 F3900 X173.21 Y128.24 E1609.16899
G0 F12000 X173.78 Y128.24
G1 F3900 X222.30 Y176.76 E1610.88064
G0 F12000 X222.86 Y176.76
G1 F3900 X174.34 Y128.24 E1612.59230
G0 F12000 X174.91 Y128.24
G1 F3900 X223.43 Y176.76 E1614.30394
G0 F12000 X223.99 Y176.76
G1 F3900 X175.47 Y128.24 E1616.01560
G0 F12000 X176.04 Y128.24
G1 F3900 X224.56 Y176.76 E1617.72725
G0 F12000 X224.71 Y176.34
G1 F3900 X176.61 Y128.24 E1619.42422
G0 F12000 X177.17 Y128.24
G1 F3900 X224.71 Y175.78 E1621.10123
G0 F12000 X224.71 Y175.21
G1 F3900 X177.74 Y128.24 E1622.75828
G0 F12000 X178.30 Y128.24
G1 F3900 X224.71 Y174.65 E1624.39537
G0 F12000 X224.71 Y174.08
G1 F3900 X178.87 Y128.24 E1626.01250
G0 F12000 X179.43 Y128.24
G1 F3900 X224.71 Y173.51 E1627.60968
G0 F12000 X224.71 Y172.95
G1 F3900 X180.00 Y128.24 E1629.18691
G0 F12000 X180.57 Y128.24
G1 F3900 X224.71 Y172.38 E1630.74418
G0 F12000 X224.71 Y171.82
G1 F3900 X181.13 Y128.24 E1632.28149
G0 F12000 X181.70 Y128.24
G1 F3900 X224.71 Y171.25 E1633.79886
G0 F12000 X224.71 Y170.69
G1 F3900 X182.26 Y128.24 E1635.29625
G0 F12000 X182.83 Y128.24
G1 F3900 X224.71 Y170.12 E1636.77370
G0 F12000 X224.71 Y169.56
G1 F3900 X183.39 Y128.24 E1638.23120
G0 F12000 X183.96 Y128.24
G1 F3900 X224.71 Y168.99 E1639.66873
G0 F12000 X224.71 Y168.42
G1 F3900 X184.53 Y128.24 E1641.08631
G0 F12000 X185.09 Y128.24
G1 F3900 X224.71 Y167.86 E1642.48393
G0 F12000 X224.71 Y167.29
G1 F3900 X185.66 Y128.24 E1643.86159
G0 F12000 X186.22 Y128.24
G1 F3900 X224.71 Y166.73 E1645.21931
G0 F12000 X224.71 Y166.16
G1 F3900 X186.79 Y128.24 E1646.55705
G0 F12000 X187.35 Y128.24
G1 F3900 X224.71 Y165.59 E1647.87485
G0 F12000 X224.71 Y165.03
G1 F3900 X187.92 Y128.24 E1649.17270
G0 F12000 X188.49 Y128.24
G1 F3900 X224.71 Y164.46 E1650.45058
G0 F12000 X224.71 Y163.90
G1 F3900 X189.05 Y128.24 E1651.70852
G0 F12000 X189.62 Y128.24
G1 F3900 X224.71 Y163.33 E1652.94648
G0 F12000 X224.71 Y162.77
G1 F3900 X190.18 Y128.24 E1654.16450
G0 F12000 X190.75 Y128.24
G1 F3900 X224.71 Y162.20 E1655.36256
G0 F12000 X224.71 Y161.63
G1 F3900 X191.31 Y128.24 E1656.54066
G0 F12000 X191.88 Y128.24
G1 F3900 X224.71 Y161.07 E1657.69881
G0 F12000 X224.71 Y160.50
G1 F3900 X192.44 Y128.24 E1658.83701
G0 F12000 X193.01 Y128.24
G1 F3900 X224.71 Y159.94 E1659.95524
G0 F12000 X224.71 Y159.37
G1 F3900 X193.58 Y128.24 E1661.05352
G0 F12000 X194.14 Y128.24
G1 F3900 X224.71 Y158.81 E1662.13184
G0 F12000 X224.71 Y158.24
G1 F3900 X194.71 Y128.24 E1663.19021
G0 F12000 X195.27 Y128.24
G1 F3900 X224.71 Y157.68 E1664.22862
G0 F12000 X224.71 Y157.11
G1 F3900 X195.84 Y128.24 E1665.24707
G0 F12000 X196.41 Y128.24
G1 F3900 X224.71 Y156.54 E1666.24557
G0 F12000 X224.71 Y155.98
G1 F3900 X196.97 Y128.24 E1667.22412
G0 F12000 X197.54 Y128.24
G1 F3900 X224.71 Y155.41 E1668.18271
G0 F12000 X224.71 Y154.85
G1 F3900 X198.10 Y128.24 E1669.12134
G0 F12000 X198.67 Y128.24
G1 F3900 X224.71 Y154.28 E1670.04001
G0 F12000 X224.71 Y153.72
G1 F3900 X199.23 Y128.24 E1670.93872
G0 F12000 X199.80 Y128.24
G1 F3900 X224.71 Y153.15 E1671.81749
G0 F12000 X224.71 Y152.58
G1 F3900 X200.37 Y128.24 E1672.67629
G0 F12000 X200.93 Y128.24
G1 F3900 X224.71 Y152.02 E1673.51514
G0 F12000 X224.71 Y151.45
G1 F3900 X201.50 Y128.24 E1674.33404
G0 F12000 X202.06 Y128.24
G1 F3900 X224.71 Y150.89 E1675.13298
G0 F12000 X224.71 Y150.32
G1 F3900 X202.63 Y128.24 E1675.91196
G0 F12000 X203.19 Y128.24
G1 F3900 X224.71 Y149.76 E1676.67100
G0 F12000 X224.71 Y149.19
G1 F3900 X203.76 Y128.24 E1677.41007
G0 F12000 X204.32 Y128.24
G1 F3900 X224.71 Y148.62 E1678.12918
G0 F12000 X224.71 Y148.06
G1 F3900 X204.89 Y128.24 E1678.82834
G0 F12000 X205.46 Y128.24
G1 F3900 X224.71 Y147.49 E1679.50754
G0 F12000 X224.71 Y146.93
G1 F3900 X206.02 Y128.24 E1680.16679
G0 F12000 X206.59 Y128.24
G1 F3900 X224.71 Y146.36 E1680.80607
G0 F12000 X224.71 Y145.80
G1 F3900 X207.15 Y128.24 E1681.42541
G0 F12000 X207.72 Y128.24
G1 F3900 X224.71 Y145.23 E1682.02480
G0 F12000 X224.71 Y144.66
G1 F3900 X208.28 Y128.24 E1682.60421
G0 F12000 X208.85 Y128.24
G1 F3900 X224.71 Y144.10 E1683.16368
G0 F12000 X224.71 Y143.53
G1 F3900 X209.42 Y128.24 E1683.70318
G0 F12000 X209.98 Y128.24
G1 F3900 X224.71 Y142.97 E1684.22274
G0 F12000 X224.71 Y142.40
G1 F3900 X210.55 Y128.24 E1684.72234
G0 F12000 X211.11 Y128.24
G1 F3900 X224.71 Y141.84 E1685.20198
G0 F12000 X224.71 Y141.27
G1 F3900 X211.68 Y128.24 E1685.66166
G0 F12000 X212.24 Y128.24
G1 F3900 X224.71 Y140.71 E1686.10140
G0 F12000 X224.71 Y140.14
G1 F3900 X212.81 Y128.24 E1686.52117
G0 F12000 X213.38 Y128.24
G1 F3900 X224.71 Y139.57 E1686.92099
G0 F12000 X224.71 Y139.01
G1 F3900 X213.94 Y128.24 E1687.30086
G0 F12000 X214.51 Y128.24
G1 F3900 X224.71 Y138.44 E1687.66076
G0 F12000 X224.71 Y137.88
G1 F3900 X215.07 Y128.24 E1688.00071
G0 F12000 X215.64 Y128.24
G1 F3900 X224.71 Y137.31 E1688.32070
G0 F12000 X224.71 Y136.75
G1 F3900 X216.20 Y128.24 E1688.62074
G0 F12000 X216.77 Y128.24
G1 F3900 X224.71 Y136.18 E1688.90082
G0 F12000 X224.71 Y135.61
G1 F3900 X217.34 Y128.24 E1689.16094
G0 F12000 X217.90 Y128.24
G1 F3900 X224.71 Y135.05 E1689.40112
G0 F12000 X224.71 Y134.48
G1 F3900 X218.47 Y128.24 E1689.62132
G0 F12000 X219.03 Y128.24
G1 F3900 X224.71 Y133.92 E1689.82157
G0 F12000 X224.71 Y133.35
G1 F3900 X219.60 Y128.24 E1690.00188
G0 F12000 X220.16 Y128.24
G1 F3900 X224.71 Y132.78 E1690.16221
G0 F12000 X224.71 Y132.22
G1 F3900 X220.73 Y128.24 E1690.30260
G0 F12000 X221.29 Y128.24
G1 F3900 X224.71 Y131.65 E1690.42304
G0 F12000 X224.71 Y131.09
G1 F3900 X221.86 Y128.24 E1690.52351
G0 F12000 X222.43 Y128.24
G1 F3900 X224.71 Y130.52 E1690.60403
G0 F12000 X224.71 Y129.96
G1 F3900 X222.99 Y128.24 E1690.66460
G0 F12000 X223.56 Y128.24
G1 F3900 X224.71 Y129.39 E1690.70521
G0 F12000 X224.71 Y128.82
G1 F3900 X224.12 Y128.24 E1690.72586
;LAYER:3
G0 F12000 X224.85 Y128.10 Z0.70
;TYPE:WALL-INNER
G1 F4920 X224.85 Y176.90 E1691.94318
G1 X80.15 Y176.90 E1695.55274
G1 X80.15 Y128.10 E1696.77006
G1 X224.85 Y128.10 E1700.37962
G0 F12000 X225.25 Y127.70
;TYPE:WALL-OUTER
G1 F4920 X225.25 Y177.30 E1701.61689
G1 X79.75 Y177.30 E1705.24641
G1 X79.75 Y127.70 E1706.48368
G1 X225.25 Y127.70 E1710.11320
G0 F12000 X224.47 Y128.24
;TYPE:FILL
G1 F4920 X175.94 Y176.76 E1711.82491
G0 F12000 X176.51 Y176.76
G1 F4920 X224.71 Y128.56 E1713.52526
G0 F12000 X224.71 Y129.13
G1 F4920 X177.07 Y176.76 E1715.20567
G0 F12000 X177.64 Y176.76
G1 F4920 X224.71 Y129.69 E1716.86612
G0 F12000 X224.71 Y130.26
G1 F4920 X178.21 Y176.76 E1718.50661
G0 F12000 X178.77 Y176.76
G1 F4920 X224.71 Y130.82 E1720.12716
G0 F12000 X224.71 Y131.39
G1 F4920 X179.34 Y176.76 E1721.72774
G0 F12000 X179.90 Y176.76
G1 F4920 X224.71 Y131.96 E1723.30836
G0 F12000 X224.71 Y132.52
G1 F4920 X180.47 Y176.76 E1724.86903
G0 F12000 X181.03 Y176.76
G1 F4920 X224.71 Y133.09 E1726.40975
G0 F12000 X224.71 Y133.65
G1 F4920 X181.60 Y176.76 E1727.93050
G0 F12000 X182.17 Y176.76
G1 F4920 X224.71 Y134.22 E1729.43130
G0 F12000 X224.71 Y134.78
G1 F4920 X182.73 Y176.76 E1730.91215
G0 F12000 X183.30 Y176.76
G1 F4920 X224.71 Y135.35 E1732.37304
G0 F12000 X224.71 Y135.91
G1 F4920 X183.86 Y176.76 E1733.81395
G0 F12000 X184.43 Y176.76
G1 F4920 X224.71 Y136.48 E1735.23494
G0 F12000 X224.71 Y137.05
G1 F4920 X185.00 Y176.76 E1736.63596
G0 F12000 X185.56 Y176.76
G1 F4920 X224.71 Y137.61 E1738.01701
G0 F12000 X224.71 Y138.18
G1 F4920 X186.13 Y176.76 E1739.37813
G0 F12000 X186.69 Y176.76
G1 F4920 X224.71 Y138.74 E1740.71928
G0 F12000 X224.71 Y139.31
G1 F4920 X187.26 Y176.76 E1742.04047
G0 F12000 X187.82 Y176.76
G1 F4920 X224.71 Y139.87 E1743.34172
G0 F12000 X224.71 Y140.44
G1 F4920 X188.39 Y176.76 E1744.62301
G0 F12000 X188.96 Y176.76
G1 F4920 X224.71 Y141.01 E1745.88433
G0 F12000 X224.71 Y141.57
G1 F4920 X189.52 Y176.76 E1747.12571
G0 F12000 X190.09 Y176.76
G1 F4920 X224.71 Y142.14 E1748.34713
G0 F12000 X224.71 Y142.70
G1 F4920 X190.65 Y176.76 E1749.54859
G0 F12000 X191.22 Y176.76
G1 F4920 X224.71 Y143.27 E1750.73009
G0 F12000 X224.71 Y143.83
G1 F4920 X191.78 Y176.76 E1751.89164
G0 F12000 X192.35 Y176.76
G1 F4920 X224.71 Y144.40 E1753.03323
G0 F12000 X224.71 Y144.97
G1 F4920 X192.91 Y176.76 E1754.15487
G0 F12000 X193.48 Y176.76
G1 F4920 X224.71 Y145.53 E1755.25655
G0 F12000 X224.71 Y146.10
G1 F4920 X194.05 Y176.76 E1756.33827
G0 F12000 X194.61 Y176.76
G1 F4920 X224.71 Y146.66 E1757.40003
G0 F12000 X224.71 Y147.23
G1 F4920 X195.18 Y176.76 E1758.44185
G0 F12000 X195.74 Y176.76
G1 F4920 X224.71 Y147.79 E1759.46370
G0 F12000 X224.71 Y148.36
G1 F4920 X196.31 Y176.76 E1760.46559
G0 F12000 X196.87 Y176.76
G1 F4920 X224.71 Y148.93 E1761.44754
G0 F12000 X224.71 Y149.49
G1 F4920 X197.44 Y176.76 E1762.40953
G0 F12000 X198.01 Y176.76
G1 F4920 X224.71 Y150.06 E1763.35155
G0 F12000 X224.71 Y150.62
G1 F4920 X198.57 Y176.76 E1764.27364
G0 F12000 X199.14 Y176.76
G1 F4920 X224.71 Y151.19 E1765.17576
G0 F12000 X224.71 Y151.75
G1 F4920 X199.70 Y176.76 E1766.05791
G0 F12000 X200.27 Y176.76
G1 F4920 X224.71 Y152.32 E1766.92014
G0 F12000 X224.71 Y152.88
G1 F4920 X200.83 Y176.76 E1767.76239
G0 F12000 X201.40 Y176.76
G1 F4920 X224.71 Y153.45 E1768.58468
G0 F12000 X224.71 Y154.02
G1 F4920 X201.97 Y176.76 E1769.38702
G0 F12000 X202.53 Y176.76
G1 F4920 X224.71 Y154.58 E1770.16941
G0 F12000 X224.71 Y155.15
G1 F4920 X203.10 Y176.76 E1770.93183
G0 F12000 X203.66 Y176.76
G1 F4920 X224.71 Y155.71 E1771.67428
G0 F12000 X224.71 Y156.28
G1 F4920 X204.23 Y176.76 E1772.39681
G0 F12000 X204.79 Y176.76
G1 F4920 X224.71 Y156.84 E1773.09936
G0 F12000 X224.71 Y157.41
G1 F4920 X205.36 Y176.76 E1773.78195
G0 F12000 X205.93 Y176.76
G1 F4920 X224.71 Y157.98 E1774.44461
G0 F12000 X224.71 Y158.54
G1 F4920 X206.49 Y176.76 E1775.08729
G0 F12000 X207.06 Y176.76
G1 F4920 X224.71 Y159.11 E1775.71002
G0 F12000 X224.71 Y159.67
G1 F4920 X207.62 Y176.76 E1776.31281
G0 F12000 X208.19 Y176.76
G1 F4920 X224.71 Y160.24 E1776.89563
G0 F12000 X224.71 Y160.81
G1 F4920 X208.75 Y176.76 E1777.45849
G0 F12000 X209.32 Y176.76
G1 F4920 X224.71 Y161.37 E1778.00141
G0 F12000 X224.71 Y161.94
G1 F4920 X209.88 Y176.76 E1778.52437
G0 F12000 X210.45 Y176.76
G1 F4920 X224.71 Y162.50 E1779.02736
G0 F12000 X224.71 Y163.07
G1 F4920 X211.02 Y176.76 E1779.51040
G0 F12000 X211.58 Y176.76
G1 F4920 X224.71 Y163.63 E1779.97349
G0 F12000 X224.71 Y164.20
G1 F4920 X212.15 Y176.76 E1780.41661
G0 F12000 X212.71 Y176.76
G1 F4920 X224.71 Y164.76 E1780.83978
G0 F12000 X224.71 Y165.33
G1 F4920 X213.28 Y176.76 E1781.24301
G0 F12000 X213.84 Y176.76
G1 F4920 X224.71 Y165.90 E1781.62626
G0 F12000 X224.71 Y166.46
G1 F4920 X214.41 Y176.76 E1781.98955
G0 F12000 X214.98 Y176.76
G1 F4920 X224.71 Y167.03 E1782.33291
G0 F12000 X224.71 Y167.59
G1 F4920 X215.54 Y176.76 E1782.65630
G0 F12000 X216.11 Y176.76
G1 F4920 X224.71 Y168.16 E1782.95973
G0 F12000 X224.71 Y168.72
G1 F4920 X216.67 Y176.76 E1783.24322
G0 F12000 X217.24 Y176.76
G1 F4920 X224.71 Y169.29 E1783.50674
G0 F12000 X224.71 Y169.86
G1 F4920 X217.81 Y176.76 E1783.75030
G0 F12000 X218.37 Y176.76
G1 F4920 X224.71 Y170.42 E1783.97392
G0 F12000 X224.71 Y170.99
G1 F4920 X218.94 Y176.76 E1784.17758
G0 F12000 X219.50 Y176.76
G1 F4920 X224.71 Y171.55 E1784.36127
G0 F12000 X224.71 Y172.12
G1 F4920 X220.07 Y176.76 E1784.52503
G0 F12000 X220.63 Y176.76
G1 F4920 X224.71 Y172.68 E1784.66882
G0 F12000 X224.71 Y173.25
G1 F4920 X221.20 Y176.76 E1784.79265
G0 F12000 X221.76 Y176.76
G1 F4920 X224.71 Y173.82 E1784.89652
G0 F12000 X224.71 Y174.38
G1 F4920 X222.33 Y176.76 E1784.98045
G0 F12000 X222.90 Y176.76
G1 F4920 X224.71 Y174.95 E1785.04441
G0 F12000 X224.71 Y175.51
G1 F4920 X223.46 Y176.76 E1785.08840
G0 F12000 X224.03 Y176.76
G1 F4920 X224.71 Y176.08 E1785.11246
G0 F12000 X224.71 Y176.64
G1 F4920 X224.59 Y176.76 E1785.11655
G0 F12000 X223.90 Y128.24
G1 F4920 X175.38 Y176.76 E1786.82826
G0 F12000 X174.81 Y176.76
G1 F4920 X223.33 Y128.24 E1788.53997
G0 F12000 X222.77 Y128.24
G1 F4920 X174.25 Y176.76 E1790.25168
G0 F12000 X173.68 Y176.76
G1 F4920 X222.20 Y128.24 E1791.96339
G0 F12000 X221.64 Y128.24
G1 F4920 X173.12 Y176.76 E1793.67508
G0 F12000 X172.55 Y176.76
G1 F4920 X221.07 Y128.24 E1795.38679
G0 F12000 X220.50 Y128.24
G1 F4920 X171.98 Y176.76 E1797.09850
G0 F12000 X171.42 Y176.76
G1 F4920 X219.94 Y128.24 E1798.81021
G0 F12000 X219.37 Y128.24
G1 F4920 X170.85 Y176.76 E1800.52192
G0 F12000 X170.29 Y176.76
G1 F4920 X218.81 Y128.24 E1802.23363
G0 F12000 X218.24 Y128.24
G1 F4920 X169.72 Y176.76 E1803.94534
G0 F12000 X169.16 Y176.76
G1 F4920 X217.68 Y128.24 E1805.65704
G0 F12000 X217.11 Y128.24
G1 F4920 X168.59 Y176.76 E1807.36875
G0 F12000 X168.02 Y176.76
G1 F4920 X216.54 Y128.24 E1809.08046
G0 F12000 X215.98 Y128.24
G1 F4920 X167.46 Y176.76 E1810.79217
G0 F12000 X166.89 Y176.76
G1 F4920 X215.41 Y128.24 E1812.50388
G0 F12000 X214.85 Y128.24
G1 F4920 X166.33 Y176.76 E1814.21559
G0 F12000 X165.76 Y176.76
G1 F4920 X214.28 Y128.24 E1815.92730
G0 F12000 X213.72 Y128.24
G1 F4920 X165.20 Y176.76 E1817.63901
G0 F12000 X164.63 Y176.76
G1 F4920 X213.15 Y128.24 E1819.35072
G0 F12000 X212.59 Y128.24
G1 F4920 X164.06 Y176.76 E1821.06241
G0 F12000 X163.50 Y176.76
G1 F4920 X212.02 Y128.24 E1822.77412
G0 F12000 X211.45 Y128.24
G1 F4920 X162.93 Y176.76 E1824.48583
G0 F12000 X162.37 Y176.76
G1 F4920 X210.89 Y128.24 E1826.19754
G0 F12000 X210.32 Y128.24
G1 F4920 X161.80 Y176.76 E1827.90925
G0 F12000 X161.24 Y176.76
G1 F4920 X209.76 Y128.24 E1829.62096
G0 F12000 X209.19 Y128.24
G1 F4920 X160.67 Y176.76 E1831.33267
G0 F12000 X160.10 Y176.76
G1 F4920 X208.63 Y128.24 E1833.04438
G0 F12000 X208.06 Y128.24
G1 F4920 X159.54 Y176.76 E1834.75609
G0 F12000 X158.97 Y176.76
G1 F4920 X207.49 Y128.24 E1836.46779
G0 F12000 X206.93 Y128.24
G1 F4920 X158.41 Y176.76 E1838.17950
G0 F12000 X157.84 Y176.76
G1 F4920 X206.36 Y128.24 E1839.89121
G0 F12000 X205.80 Y128.24
G1 F4920 X157.28 Y176.76 E1841.60292
G0 F12000 X156.71 Y176.76
G1 F4920 X205.23 Y128.24 E1843.31463
G0 F12000 X204.67 Y128.24
G1 F4920 X156.15 Y176.76 E1845.02634
G0 F12000 X155.58 Y176.76
G1 F4920 X204.10 Y128.24 E1846.73805
G0 F12000 X203.53 Y128.24
G1 F4920 X155.01 Y176.76 E1848.44976
G0 F12000 X154.45 Y176.76
G1 F4920 X202.97 Y128.24 E1850.16147
G0 F12000 X202.40 Y128.24
G1 F4920 X153.88 Y176.76 E1851.87318
G0 F12000 X153.32 Y176.76
G1 F4920 X201.84 Y128.24 E1853.58487
G0 F12000 X201.27 Y128.24
G1 F4920 X152.75 Y176.76 E1855.29658
G0 F12000 X152.19 Y176.76
G1 F4920 X200.71 Y128.24 E1857.00825
G0 F12000 X200.14 Y128.24
G1 F4920 X151.62 Y176.76 E1858.71993
G0 F12000 X151.05 Y176.76
G1 F4920 X199.57 Y128.24 E1860.43162
G0 F12000 X199.01 Y128.24
G1 F4920 X150.49 Y176.76 E1862.14329
G0 F12000 X149.92 Y176.76
G1 F4920 X198.44 Y128.24 E1863.85497
G0 F12000 X197.88 Y128.24
G1 F4920 X149.36 Y176.76 E1865.56666
G0 F12000 X148.79 Y176.76
G1 F4920 X197.31 Y128.24 E1867.27833
G0 F12000 X196.75 Y128.24
G1 F4920 X148.23 Y176.76 E1868.99001
G0 F12000 X147.66 Y176.76
G1 F4920 X196.18 Y128.24 E1870.70170
G0 F12000 X195.62 Y128.24
G1 F4920 X147.09 Y176.76 E1872.41337
G0 F12000 X146.53 Y176.76
G1 F4920 X195.05 Y128.24 E1874.12505
G0 F12000 X194.48 Y128.24
G1 F4920 X145.96 Y176.76 E1875.83674
G0 F12000 X145.40 Y176.76
G1 F4920 X193.92 Y128.24 E1877.54841
G0 F12000 X193.35 Y128.24
G1 F4920 X144.83 Y176.76 E1879.26009
G0 F12000 X144.27 Y176.76
G1 F4920 X192.79 Y128.24 E1880.97178
G0 F12000 X192.22 Y128.24
G1 F4920 X143.70 Y176.76 E1882.68345
G0 F12000 X143.13 Y176.76
G1 F4920 X191.66 Y128.24 E1884.39513
G0 F12000 X191.09 Y128.24
G1 F4920 X142.57 Y176.76 E1886.10680
G0 F12000 X142.00 Y176.76
G1 F4920 X190.52 Y128.24 E1887.81847
G0 F12000 X189.96 Y128.24
G1 F4920 X141.44 Y176.76 E1889.53015
G0 F12000 X140.87 Y176.76
G1 F4920 X189.39 Y128.24 E1891.24182
G0 F12000 X188.83 Y128.24
G1 F4920 X140.31 Y176.76 E1892.95351
G0 F12000 X139.74 Y176.76
G1 F4920 X188.26 Y128.24 E1894.66519
G0 F12000 X187.69 Y128.24
G1 F4920 X139.18 Y176.76 E1896.37686
G0 F12000 X138.61 Y176.76
G1 F4920 X187.13 Y128.24 E1898.08855
G0 F12000 X186.56 Y128.24
G1 F4920 X138.04 Y176.76 E1899.80023
G0 F12000 X137.48 Y176.76
G1 F4920 X186.00 Y128.24 E1901.51190
G0 F12000 X185.43 Y128.24
G1 F4920 X136.91 Y176.76 E1903.22359
G0 F12000 X136.35 Y176.76
G1 F4920 X184.87 Y128.24 E1904.93527
G0 F12000 X184.30 Y128.24
G1 F4920 X135.78 Y176.76 E1906.64694
G0 F12000 X135.22 Y176.76
G1 F4920 X183.74 Y128.24 E1908.35863
G0 F12000 X183.17 Y128.24
G1 F4920 X134.65 Y176.76 E1910.07031
G0 F12000 X134.08 Y176.76
G1 F4920 X182.60 Y128.24 E1911.78198
G0 F12000 X182.04 Y128.24
G1 F4920 X133.52 Y176.76 E1913.49366
G0 F12000 X132.95 Y176.76
G1 F4920 X181.47 Y128.24 E1915.20533
G0 F12000 X180.91 Y128.24
G1 F4920 X132.39 Y176.76 E1916.91700
G0 F12000 X131.82 Y176.76
G1 F4920 X180.34 Y128.24 E1918.62868
G0 F12000 X179.78 Y128.24
G1 F4920 X131.25 Y176.76 E1920.34037
G0 F12000 X130.69 Y176.76
G1 F4920 X179.21 Y128.24 E1922.05204
G0 F12000 X178.64 Y128.24
G1 F4920 X130.12 Y176.76 E1923.76372
G0 F12000 X129.56 Y176.76
G1 F4920 X178.08 Y128.24 E1925.47541
G0 F12000 X177.51 Y128.24
G1 F4920 X128.99 Y176.76 E1927.18708
G0 F12000 X128.43 Y176.76
G1 F4920 X176.95 Y128.24 E1928.89876
G0 F12000 X176.38 Y128.24
G1 F4920 X127.86 Y176.76 E1930.61045
G0 F12000 X127.30 Y176.76
G1 F4920 X175.82 Y128.24 E1932.32212
G0 F12000 X175.25 Y128.24
G1 F4920 X126.73 Y176.76 E1934.03380
G0 F12000 X126.16 Y176.76
G1 F4920 X174.69 Y128.24 E1935.74549
G0 F12000 X174.12 Y128.24
G1 F4920 X125.60 Y176.76 E1937.45716
G0 F12000 X125.03 Y176.76
G1 F4920 X173.55 Y128.24 E1939.16884
G0 F12000 X172.99 Y128.24
G1 F4920 X124.47 Y176.76 E1940.88053
G0 F12000 X123.90 Y176.76
G1 F4920 X172.42 Y128.24 E1942.59220
G0 F12000 X171.86 Y128.24
G1 F4920 X123.34 Y176.76 E1944.30388
G0 F12000 X122.77 Y176.76
G1 F4920 X171.29 Y128.24 E1946.01555
G0 F12000 X170.72 Y128.24
G1 F4920 X122.20 Y176.76 E1947.72722
G0 F12000 X121.64 Y176.76
G1 F4920 X170.16 Y128.24 E1949.43890
G0 F12000 X169.59 Y128.24
G1 F4920 X121.07 Y176.76 E1951.15057
G0 F12000 X120.51 Y176.76
G1 F4920 X169.03 Y128.24 E1952.86226
G0 F12000 X168.46 Y128.24
G1 F4920 X119.94 Y176.76 E1954.57394
G0 F12000 X119.38 Y176.76
G1 F4920 X167.90 Y128.24 E1956.28561
G0 F12000 X167.33 Y128.24
G1 F4920 X118.81 Y176.76 E1957.99730
G0 F12000 X118.25 Y176.76
G1 F4920 X166.76 Y128.24 E1959.70898
G0 F12000 X166.20 Y128.24
G1 F4920 X117.68 Y176.76 E1961.42065
G0 F12000 X117.11 Y176.76
G1 F4920 X165.63 Y128.24 E1963.13234
G0 F12000 X165.07 Y128.24
G1 F4920 X116.55 Y176.76 E1964.84402
G0 F12000 X115.98 Y176.76
G1 F4920 X164.50 Y128.24 E1966.55569
G0 F12000 X163.94 Y128.24
G1 F4920 X115.42 Y176.76 E1968.26738
G0 F12000 X114.85 Y176.76
G1 F4920 X163.37 Y128.24 E1969.97906
G0 F12000 X162.81 Y128.24
G1 F4920 X114.28 Y176.76 E1971.69073
G0 F12000 X113.72 Y176.76
G1 F4920 X162.24 Y128.24 E1973.40241
G0 F12000 X161.67 Y128.24
G1 F4920 X113.15 Y176.76 E1975.11408
G0 F12000 X112.59 Y176.76
G1 F4920 X161.11 Y128.24 E1976.82575
G0 F12000 X160.54 Y128.24
G1 F4920 X112.02 Y176.76 E1978.53743
G0 F12000 X111.46 Y176.76
G1 F4920 X159.98 Y128.24 E1980.24912
G0 F12000 X159.41 Y128.24
G1 F4920 X110.89 Y176.76 E1981.96079
G0 F12000 X110.33 Y176.76
G1 F4920 X158.84 Y128.24 E1983.67247
G0 F12000 X158.28 Y128.24
G1 F4920 X109.76 Y176.76 E1985.38416
G0 F12000 X109.19 Y176.76
G1 F4920 X157.71 Y128.24 E1987.09583
G0 F12000 X157.15 Y128.24
G1 F4920 X108.63 Y176.76 E1988.80751
G0 F12000 X108.06 Y176.76
G1 F4920 X156.58 Y128.24 E1990.51920
G0 F12000 X156.02 Y128.24
G1 F4920 X107.50 Y176.76 E1992.23087
G0 F12000 X106.93 Y176.76
G1 F4920 X155.45 Y128.24 E1993.94255
G0 F12000 X154.89 Y128.24
G1 F4920 X106.36 Y176.76 E1995.65424
G0 F12000 X105.80 Y176.76
G1 F4920 X154.32 Y128.24 E1997.36591
G0 F12000 X153.75 Y128.24
G1 F4920 X105.23 Y176.76 E1999.07759
G0 F12000 X104.67 Y176.76
G1 F4920 X153.19 Y128.24 E2000.78928
G0 F12000 X152.62 Y128.24
G1 F4920 X104.10 Y176.76 E2002.50095
G0 F12000 X103.54 Y176.76
G1 F4920 X152.06 Y128.24 E2004.21266
G0 F12000 X151.49 Y128.24
G1 F4920 X102.97 Y176.76 E2005.92437
G0 F12000 X102.41 Y176.76
G1 F4920 X150.93 Y128.24 E2007.63606
G0 F12000 X150.36 Y128.24
G1 F4920 X101.84 Y176.76 E2009.34777
G0 F12000 X101.27 Y176.76
G1 F4920 X149.79 Y128.24 E2011.05948
G0 F12000 X149.23 Y128.24
G1 F4920 X100.71 Y176.76 E2012.77119
G0 F12000 X100.14 Y176.76
G1 F4920 X148.66 Y128.24 E2014.48290
G0 F12000 X148.10 Y128.24
G1 F4920 X99.58 Y176.76 E2016.19461
G0 F12000 X99.01 Y176.76
G1 F4920 X147.53 Y128.24 E2017.90632
G0 F12000 X146.97 Y128.24
G1 F4920 X98.45 Y176.76 E2019.61803
G0 F12000 X97.88 Y176.76
G1 F4920 X146.40 Y128.24 E2021.32974
G0 F12000 X145.84 Y128.24
G1 F4920 X97.31 Y176.76 E2023.04145
G0 F12000 X96.75 Y176.76
G1 F4920 X145.27 Y128.24 E2024.75316
G0 F12000 X144.70 Y128.24
G1 F4920 X96.18 Y176.76 E2026.46486
G0 F12000 X95.62 Y176.76
G1 F4920 X144.14 Y128.24 E2028.17657
G0 F12000 X143.57 Y128.24
G1 F4920 X95.05 Y176.76 E2029.88828
G0 F12000 X94.49 Y176.76
G1 F4920 X143.01 Y128.24 E2031.59999
G0 F12000 X142.44 Y128.24
G1 F4920 X93.92 Y176.76 E2033.31170
G0 F12000 X93.36 Y176.76
G1 F4920 X141.88 Y128.24 E2035.02341
G0 F12000 X141.31 Y128.24
G1 F4920 X92.79 Y176.76 E2036.73512
G0 F12000 X92.22 Y176.76
G1 F4920 X140.74 Y128.24 E2038.44683
G0 F12000 X140.18 Y128.24
G1 F4920 X91.66 Y176.76 E2040.15852
G0 F12000 X91.09 Y176.76
G1 F4920 X139.61 Y128.24 E2041.87023
G0 F12000 X139.05 Y128.24
G1 F4920 X90.53 Y176.76 E2043.58194
G0 F12000 X89.96 Y176.76
G1 F4920 X138.48 Y128.24 E2045.29365
G0 F12000 X137.92 Y128.24
G1 F4920 X89.39 Y176.76 E2047.00536
G0 F12000 X88.83 Y176.76
G1 F4920 X137.35 Y128.24 E2048.71707
G0 F12000 X136.78 Y128.24
G1 F4920 X88.26 Y176.76 E2050.42878
G0 F12000 X87.70 Y176.76
G1 F4920 X136.22 Y128.24 E2052.14049
G0 F12000 X135.65 Y128.24
G1 F4920 X87.13 Y176.76 E2053.85220
G0 F12000 X86.57 Y176.76
G1 F4920 X135.09 Y128.24 E2055.56391
G0 F12000 X134.52 Y128.24
G1 F4920 X86.00 Y176.76 E2057.27561
G0 F12000 X85.44 Y176.76
G1 F4920 X133.96 Y128.24 E2058.98732
G0 F12000 X133.39 Y128.24
G1 F4920 X84.87 Y176.76 E2060.69903
G0 F12000 X84.30 Y176.76
G1 F4920 X132.82 Y128.24 E2062.41074
G0 F12000 X132.26 Y128.24
G1 F4920 X83.74 Y176.76 E2064.12245
G0 F12000 X83.17 Y176.76
G1 F4920 X131.69 Y128.24 E2065.83416
G0 F12000 X131.13 Y128.24
G1 F4920 X82.61 Y176.76 E2067.54587
G0 F12000 X82.04 Y176.76
G1 F4920 X130.56 Y128.24 E2069.25758
G0 F12000 X130.00 Y128.24
G1 F4920 X81.47 Y176.76 E2070.96929
G0 F12000 X80.91 Y176.76
G1 F4920 X129.43 Y128.24 E2072.68100
G0 F12000 X128.87 Y128.24
G1 F4920 X80.34 Y176.76 E2074.39271
G0 F12000 X80.29 Y176.25
G1 F4920 X128.30 Y128.24 E2076.08639
G0 F12000 X127.73 Y128.24
G1 F4920 X80.29 Y175.68 E2077.76011
G0 F12000 X80.29 Y175.12
G1 F4920 X127.17 Y128.24 E2079.41389
G0 F12000 X126.60 Y128.24
G1 F4920 X80.29 Y174.55 E2081.04770
G0 F12000 X80.29 Y173.99
G1 F4920 X126.04 Y128.24 E2082.66155
G0 F12000 X125.47 Y128.24
G1 F4920 X80.29 Y173.42 E2084.25547
G0 F12000 X80.29 Y172.85
G1 F4920 X124.91 Y128.24 E2085.82942
G0 F12000 X124.34 Y128.24
G1 F4920 X80.29 Y172.29 E2087.38340
G0 F12000 X80.29 Y171.72
G1 F4920 X123.77 Y128.24 E2088.91745
G0 F12000 X123.21 Y128.24
G1 F4920 X80.29 Y171.16 E2090.43154
G0 F12000 X80.29 Y170.59
G1 F4920 X122.64 Y128.24 E2091.92565
G0 F12000 X122.08 Y128.24
G1 F4920 X80.29 Y170.03 E2093.39982
G0 F12000 X80.29 Y169.46
G1 F4920 X121.51 Y128.24 E2094.85404
G0 F12000 X120.94 Y128.24
G1 F4920 X80.29 Y168.89 E2096.28829
G0 F12000 X80.29 Y168.33
G1 F4920 X120.38 Y128.24 E2097.70257
G0 F12000 X119.81 Y128.24
G1 F4920 X80.29 Y167.76 E2099.09692
G0 F12000 X80.29 Y167.20
G1 F4920 X119.25 Y128.24 E2100.47131
G0 F12000 X118.68 Y128.24
G1 F4920 X80.29 Y166.63 E2101.82572
G0 F12000 X80.29 Y166.07
G1 F4920 X118.12 Y128.24 E2103.16021
G0 F12000 X117.55 Y128.24
G1 F4920 X80.29 Y165.50 E2104.47473
G0 F12000 X80.29 Y164.93
G1 F4920 X116.98 Y128.24 E2105.76928
G0 F12000 X116.42 Y128.24
G1 F4920 X80.29 Y164.37 E2107.04390
G0 F12000 X80.29 Y163.80
G1 F4920 X115.85 Y128.24 E2108.29855
G0 F12000 X115.29 Y128.24
G1 F4920 X80.29 Y163.24 E2109.53323
G0 F12000 X80.29 Y162.67
G1 F4920 X114.72 Y128.24 E2110.74798
G0 F12000 X114.16 Y128.24
G1 F4920 X80.29 Y162.11 E2111.94277
G0 F12000 X80.29 Y161.54
G1 F4920 X113.59 Y128.24 E2113.11759
G0 F12000 X113.03 Y128.24
G1 F4920 X80.29 Y160.97 E2114.27245
G0 F12000 X80.29 Y160.41
G1 F4920 X112.46 Y128.24 E2115.40737
G0 F12000 X111.89 Y128.24
G1 F4920 X80.29 Y159.84 E2116.52233
G0 F12000 X80.29 Y159.28
G1 F4920 X111.33 Y128.24 E2117.61733
G0 F12000 X110.76 Y128.24
G1 F4920 X80.29 Y158.71 E2118.69238
G0 F12000 X80.29 Y158.15
G1 F4920 X110.20 Y128.24 E2119.74747
G0 F12000 X109.63 Y128.24
G1 F4920 X80.29 Y157.58 E2120.78258
G0 F12000 X80.29 Y157.01
G1 F4920 X109.07 Y128.24 E2121.79777
G0 F12000 X108.50 Y128.24
G1 F4920 X80.29 Y156.45 E2122.79299
G0 F12000 X80.29 Y155.88
G1 F4920 X107.93 Y128.24 E2123.76824
G0 F12000 X107.37 Y128.24
G1 F4920 X80.29 Y155.32 E2124.72356
G0 F12000 X80.29 Y154.75
G1 F4920 X106.80 Y128.24 E2125.65891
G0 F12000 X106.24 Y128.24
G1 F4920 X80.29 Y154.19 E2126.57430
G0 F12000 X80.29 Y153.62
G1 F4920 X105.67 Y128.24 E2127.46975
G0 F12000 X105.11 Y128.24
G1 F4920 X80.29 Y153.06 E2128.34524
G0 F12000 X80.29 Y152.49
G1 F4920 X104.54 Y128.24 E2129.20076
G0 F12000 X103.97 Y128.24
G1 F4920 X80.29 Y151.92 E2130.03635
G0 F12000 X80.29 Y151.36
G1 F4920 X103.41 Y128.24 E2130.85197
G0 F12000 X102.84 Y128.24
G1 F4920 X80.29 Y150.79 E2131.64762
G0 F12000 X80.29 Y150.23
G1 F4920 X102.28 Y128.24 E2132.42333
G0 F12000 X101.71 Y128.24
G1 F4920 X80.29 Y149.66 E2133.17908
G0 F12000 X80.29 Y149.09
G1 F4920 X101.15 Y128.24 E2133.91487
G0 F12000 X100.58 Y128.24
G1 F4920 X80.29 Y148.53 E2134.63069
G0 F12000 X80.29 Y147.96
G1 F4920 X100.02 Y128.24 E2135.32657
G0 F12000 X99.45 Y128.24
G1 F4920 X80.29 Y147.40 E2136.00250
G0 F12000 X80.29 Y146.83
G1 F4920 X98.88 Y128.24 E2136.65845
G0 F12000 X98.32 Y128.24
G1 F4920 X80.29 Y146.27 E2137.29447
G0 F12000 X80.29 Y145.70
G1 F4920 X97.75 Y128.24 E2137.91053
G0 F12000 X97.19 Y128.24
G1 F4920 X80.29 Y145.13 E2138.50661
G0 F12000 X80.29 Y144.57
G1 F4920 X96.62 Y128.24 E2139.08277
G0 F12000 X96.06 Y128.24
G1 F4920 X80.29 Y144.00 E2139.63896
G0 F12000 X80.29 Y143.44
G1 F4920 X95.49 Y128.24 E2140.17518
G0 F12000 X94.92 Y128.24
G1 F4920 X80.29 Y142.87 E2140.69147
G0 F12000 X80.29 Y142.31
G1 F4920 X94.36 Y128.24 E2141.18779
G0 F12000 X93.79 Y128.24
G1 F4920 X80.29 Y141.74 E2141.66414
G0 F12000 X80.29 Y141.18
G1 F4920 X93.23 Y128.24 E2142.12055
G0 F12000 X92.66 Y128.24
G1 F4920 X80.29 Y140.61 E2142.55700
G0 F12000 X80.29 Y140.04
G1 F4920 X92.09 Y128.24 E2142.97349
G0 F12000 X91.53 Y128.24
G1 F4920 X80.29 Y139.48 E2143.37003
G0 F12000 X80.29 Y138.91
G1 F4920 X90.96 Y128.24 E2143.74662
G0 F12000 X90.40 Y128.24
G1 F4920 X80.29 Y138.35 E2144.10324
G0 F12000 X80.29 Y137.78
G1 F4920 X89.83 Y128.24 E2144.43990
G0 F12000 X89.27 Y128.24
G1 F4920 X80.29 Y137.22 E2144.75662
G0 F12000 X80.29 Y136.65
G1 F4920 X88.70 Y128.24 E2145.05338
G0 F12000 X88.14 Y128.24
G1 F4920 X80.29 Y136.08 E2145.33017
G0 F12000 X80.29 Y135.52
G1 F4920 X87.57 Y128.24 E2145.58702
G0 F12000 X87.00 Y128.24
G1 F4920 X80.29 Y134.95 E2145.82391
G0 F12000 X80.29 Y134.39
G1 F4920 X86.44 Y128.24 E2146.04084
G0 F12000 X85.87 Y128.24
G1 F4920 X80.29 Y133.82 E2146.23783
G0 F12000 X80.29 Y133.26
G1 F4920 X85.31 Y128.24 E2146.41485
G0 F12000 X84.74 Y128.24
G1 F4920 X80.29 Y132.69 E2146.57191
G0 F12000 X80.29 Y132.12
G1 F4920 X84.18 Y128.24 E2146.70903
G0 F12000 X83.61 Y128.24
G1 F4920 X80.29 Y131.56 E2146.82619
G0 F12000 X80.29 Y130.99
G1 F4920 X83.04 Y128.24 E2146.92338
G0 F12000 X82.48 Y128.24
G1 F4920 X80.29 Y130.43 E2147.00062
G0 F12000 X80.29 Y129.86
G1 F4920 X81.91 Y128.24 E2147.05791
G0 F12000 X81.35 Y128.24
G1 F4920 X80.29 Y129.30 E2147.09523
G0 F12000 X80.29 Y128.73
G1 F4920 X80.78 Y128.24 E2147.11261
;LAYER:4
G0 F12000 X80.15 Y128.10 Z0.85
;TYPE:WALL-INNER
G1 F6000 X224.85 Y128.10 E2150.72216
G1 X224.85 Y176.90 E2151.93948
G1 X80.15 Y176.90 E2155.54904
G1 X80.15 Y128.10 E2156.76636
G0 F12000 X79.75 Y127.70
;TYPE:WALL-OUTER
G1 F6000 X225.25 Y127.70 E2160.39587
G1 X225.25 Y177.30 E2161.63315
G1 X79.75 Y177.30 E2165.26266
G1 X79.75 Y127.70 E2166.49994
G0 F12000 X80.44 Y128.24
;TYPE:FILL
G1 F6000 X128.96 Y176.76 E2168.21160
G0 F12000 X128.39 Y176.76
G1 F6000 X80.29 Y128.66 E2169.90858
G0 F12000 X80.29 Y129.22
G1 F6000 X127.83 Y176.76 E2171.58561
G0 F12000 X127.26 Y176.76
G1 F6000 X80.29 Y129.79 E2173.24267
G0 F12000 X80.29 Y130.35
G1 F6000 X126.69 Y176.76 E2174.87977
G0 F12000 X126.13 Y176.76
G1 F6000 X80.29 Y130.92 E2176.49693
G0 F12000 X80.29 Y131.48
G1 F6000 X125.56 Y176.76 E2178.09413
G0 F12000 X125.00 Y176.76
G1 F6000 X80.29 Y132.05 E2179.67136
G0 F12000 X80.29 Y132.62
G1 F6000 X124.43 Y176.76 E2181.22866
G0 F12000 X123.87 Y176.76
G1 F6000 X80.29 Y133.18 E2182.76599
G0 F12000 X80.29 Y133.75
G1 F6000 X123.30 Y176.76 E2184.28336
G0 F12000 X122.74 Y176.76
G1 F6000 X80.29 Y134.31 E2185.78079
G0 F12000 X80.29 Y134.88
G1 F6000 X122.17 Y176.76 E2187.25826
G0 F12000 X121.60 Y176.76
G1 F6000 X80.29 Y135.44 E2188.71575
G0 F12000 X80.29 Y136.01
G1 F6000 X121.04 Y176.76 E2190.15332
G0 F12000 X120.47 Y176.76
G1 F6000 X80.29 Y136.57 E2191.57092
G0 F12000 X80.29 Y137.14
G1 F6000 X119.91 Y176.76 E2192.96855
G0 F12000 X119.34 Y176.76
G1 F6000 X80.29 Y137.71 E2194.34623
G0 F12000 X80.29 Y138.27
G1 F6000 X118.78 Y176.76 E2195.70397
G0 F12000 X118.21 Y176.76
G1 F6000 X80.29 Y138.84 E2197.04173
G0 F12000 X80.29 Y139.40
G1 F6000 X117.64 Y176.76 E2198.35955
G0 F12000 X117.08 Y176.76
G1 F6000 X80.29 Y139.97 E2199.65742
G0 F12000 X80.29 Y140.53
G1 F6000 X116.51 Y176.76 E2200.93532
G0 F12000 X115.95 Y176.76
G1 F6000 X80.29 Y141.10 E2202.19325
G0 F12000 X80.29 Y141.67
G1 F6000 X115.38 Y176.76 E2203.43125
G0 F12000 X114.82 Y176.76
G1 F6000 X80.29 Y142.23 E2204.64928
G0 F12000 X80.29 Y142.80
G1 F6000 X114.25 Y176.76 E2205.84735
G0 F12000 X113.69 Y176.76
G1 F6000 X80.29 Y143.36 E2207.02548
G0 F12000 X80.29 Y143.93
G1 F6000 X113.12 Y176.76 E2208.18365
G0 F12000 X112.55 Y176.76
G1 F6000 X80.29 Y144.50 E2209.32185
G0 F12000 X80.29 Y145.06
G1 F6000 X111.99 Y176.76 E2210.44012
G0 F12000 X111.42 Y176.76
G1 F6000 X80.29 Y145.63 E2211.53842
G0 F12000 X80.29 Y146.19
G1 F6000 X110.86 Y176.76 E2212.61675
G0 F12000 X110.29 Y176.76
G1 F6000 X80.29 Y146.76 E2213.67513
G0 F12000 X80.29 Y147.32
G1 F6000 X109.72 Y176.76 E2214.71357
G0 F12000 X109.16 Y176.76
G1 F6000 X80.29 Y147.89 E2215.73203
G0 F12000 X80.29 Y148.45
G1 F6000 X108.59 Y176.76 E2216.73055
G0 F12000 X108.03 Y176.76
G1 F6000 X80.29 Y149.02 E2217.70912
G0 F12000 X80.29 Y149.59
G1 F6000 X107.46 Y176.76 E2218.66772
G0 F12000 X106.90 Y176.76
G1 F6000 X80.29 Y150.15 E2219.60636
G0 F12000 X80.29 Y150.72
G1 F6000 X106.33 Y176.76 E2220.52506
G0 F12000 X105.77 Y176.76
G1 F6000 X80.29 Y151.28 E2221.42379
G0 F12000 X80.29 Y151.85
G1 F6000 X105.20 Y176.76 E2222.30256
G0 F12000 X104.63 Y176.76
G1 F6000 X80.29 Y152.41 E2223.16140
G0 F12000 X80.29 Y152.98
G1 F6000 X104.07 Y176.76 E2224.00026
G0 F12000 X103.50 Y176.76
G1 F6000 X80.29 Y153.55 E2224.81916
G0 F12000 X80.29 Y154.11
G1 F6000 X102.94 Y176.76 E2225.61813
G0 F12000 X102.37 Y176.76
G1 F6000 X80.29 Y154.68 E2226.39714
G0 F12000 X80.29 Y155.24
G1 F6000 X101.81 Y176.76 E2227.15617
G0 F12000 X101.24 Y176.76
G1 F6000 X80.29 Y155.81 E2227.89527
G0 F12000 X80.29 Y156.37
G1 F6000 X100.67 Y176.76 E2228.61441
G0 F12000 X100.11 Y176.76
G1 F6000 X80.29 Y156.94 E2229.31358
G0 F12000 X80.29 Y157.50
G1 F6000 X99.54 Y176.76 E2229.99280
G0 F12000 X98.98 Y176.76
G1 F6000 X80.29 Y158.07 E2230.65207
G0 F12000 X80.29 Y158.64
G1 F6000 X98.41 Y176.76 E2231.29137
G0 F12000 X97.84 Y176.76
G1 F6000 X80.29 Y159.20 E2231.91072
G0 F12000 X80.29 Y159.77
G1 F6000 X97.28 Y176.76 E2232.51013
G0 F12000 X96.71 Y176.76
G1 F6000 X80.29 Y160.33 E2233.08956
G0 F12000 X80.29 Y160.90
G1 F6000 X96.15 Y176.76 E2233.64903
G0 F12000 X95.58 Y176.76
G1 F6000 X80.29 Y161.47 E2234.18857
G0 F12000 X80.29 Y162.03
G1 F6000 X95.02 Y176.76 E2234.70814
G0 F12000 X94.45 Y176.76
G1 F6000 X80.29 Y162.60 E2235.20774
G0 F12000 X80.29 Y163.16
G1 F6000 X93.89 Y176.76 E2235.68741
G0 F12000 X93.32 Y176.76
G1 F6000 X80.29 Y163.73 E2236.14712
G0 F12000 X80.29 Y164.29
G1 F6000 X92.75 Y176.76 E2236.58685
G0 F12000 X92.19 Y176.76
G1 F6000 X80.29 Y164.86 E2237.00666
G0 F12000 X80.29 Y165.43
G1 F6000 X91.62 Y176.76 E2237.40650
G0 F12000 X91.06 Y176.76
G1 F6000 X80.29 Y165.99 E2237.78637
G0 F12000 X80.29 Y166.56
G1 F6000 X90.49 Y176.76 E2238.14629
G0 F12000 X89.93 Y176.76
G1 F6000 X80.29 Y167.12 E2238.48626
G0 F12000 X80.29 Y167.69
G1 F6000 X89.36 Y176.76 E2238.80626
G0 F12000 X88.79 Y176.76
G1 F6000 X80.29 Y168.25 E2239.10632
G0 F12000 X80.29 Y168.82
G1 F6000 X88.23 Y176.76 E2239.38642
G0 F12000 X87.66 Y176.76
G1 F6000 X80.29 Y169.38 E2239.64656
G0 F12000 X80.29 Y169.95
G1 F6000 X87.10 Y176.76 E2239.88675
G0 F12000 X86.53 Y176.76
G1 F6000 X80.29 Y170.52 E2240.10699
G0 F12000 X80.29 Y171.08
G1 F6000 X85.97 Y176.76 E2240.30726
G0 F12000 X85.40 Y176.76
G1 F6000 X80.29 Y171.65 E2240.48756
G0 F12000 X80.29 Y172.21
G1 F6000 X84.83 Y176.76 E2240.64793
G0 F12000 X84.27 Y176.76
G1 F6000 X80.29 Y172.78 E2240.78834
G0 F12000 X80.29 Y173.34
G1 F6000 X83.70 Y176.76 E2240.90878
G0 F12000 X83.14 Y176.76
G1 F6000 X80.29 Y173.91 E2241.00928
G0 F12000 X80.29 Y174.48
G1 F6000 X82.57 Y176.76 E2241.08982
G0 F12000 X82.01 Y176.76
G1 F6000 X80.29 Y175.04 E2241.15039
G0 F12000 X80.29 Y175.61
G1 F6000 X81.44 Y176.76 E2241.19103
G0 F12000 X80.88 Y176.76
G1 F6000 X80.29 Y176.17 E2241.21171
G0 F12000 X81.00 Y128.24
G1 F6000 X129.52 Y176.76 E2242.92338
G0 F12000 X130.09 Y176.76
G1 F6000 X81.57 Y128.24 E2244.63504
G0 F12000 X82.14 Y128.24
G1 F6000 X130.66 Y176.76 E2246.34669
G0 F12000 X131.22 Y176.76
G1 F6000 X82.70 Y128.24 E2248.05837
G0 F12000 X83.27 Y128.24
G1 F6000 X131.79 Y176.76 E2249.77004
G0 F12000 X132.35 Y176.76
G1 F6000 X83.83 Y128.24 E2251.48170
G0 F12000 X84.40 Y128.24
G1 F6000 X132.92 Y176.76 E2253.19337
G0 F12000 X133.48 Y176.76
G1 F6000 X84.96 Y128.24 E2254.90505
G0 F12000 X85.53 Y128.24
G1 F6000 X134.05 Y176.76 E2256.61670
G0 F12000 X134.62 Y176.76
G1 F6000 X86.09 Y128.24 E2258.32838
G0 F12000 X86.66 Y128.24
G1 F6000 X135.18 Y176.76 E2260.04005
G0 F12000 X135.75 Y176.76
G1 F6000 X87.23 Y128.24 E2261.75171
G0 F12000 X87.79 Y128.24
G1 F6000 X136.31 Y176.76 E2263.46338
G0 F12000 X136.88 Y176.76
G1 F6000 X88.36 Y128.24 E2265.17506
G0 F12000 X88.92 Y128.24
G1 F6000 X137.44 Y176.76 E2266.88671
G0 F12000 X138.01 Y176.76
G1 F6000 X89.49 Y128.24 E2268.59837
G0 F12000 X90.06 Y128.24
G1 F6000 X138.57 Y176.76 E2270.31004
G0 F12000 X139.14 Y176.76
G1 F6000 X90.62 Y128.24 E2272.02170
G0 F12000 X91.19 Y128.24
G1 F6000 X139.71 Y176.76 E2273.73335
G0 F12000 X140.27 Y176.76
G1 F6000 X91.75 Y128.24 E2275.44503
G0 F12000 X92.32 Y128.24
G1 F6000 X140.84 Y176.76 E2277.15669
G0 F12000 X141.40 Y176.76
G1 F6000 X92.88 Y128.24 E2278.86834
G0 F12000 X93.45 Y128.24
G1 F6000 X141.97 Y176.76 E2280.58002
G0 F12000 X142.53 Y176.76
G1 F6000 X94.02 Y128.24 E2282.29169
G0 F12000 X94.58 Y128.24
G1 F6000 X143.10 Y176.76 E2284.00335
G0 F12000 X143.67 Y176.76
G1 F6000 X95.15 Y128.24 E2285.71502
G0 F12000 X95.71 Y128.24
G1 F6000 X144.23 Y176.76 E2287.42669
G0 F12000 X144.80 Y176.76
G1 F6000 X96.28 Y128.24 E2289.13835
G0 F12000 X96.84 Y128.24
G1 F6000 X145.36 Y176.76 E2290.85002
G0 F12000 X145.93 Y176.76
G1 F6000 X97.41 Y128.24 E2292.56170
G0 F12000 X97.97 Y128.24
G1 F6000 X146.49 Y176.76 E2294.27335
G0 F12000 X147.06 Y176.76
G1 F6000 X98.54 Y128.24 E2295.98503
G0 F12000 X99.11 Y128.24
G1 F6000 X147.63 Y176.76 E2297.69670
G0 F12000 X148.19 Y176.76
G1 F6000 X99.67 Y128.24 E2299.40836
G0 F12000 X100.24 Y128.24
G1 F6000 X148.76 Y176.76 E2301.12002
G0 F12000 X149.32 Y176.76
G1 F6000 X100.80 Y128.24 E2302.83169
G0 F12000 X101.37 Y128.24
G1 F6000 X149.89 Y176.76 E2304.54335
G0 F12000 X150.45 Y176.76
G1 F6000 X101.94 Y128.24 E2306.25500
G0 F12000 X102.50 Y128.24
G1 F6000 X151.02 Y176.76 E2307.96668
G0 F12000 X151.59 Y176.76
G1 F6000 X103.07 Y128.24 E2309.67835
G0 F12000 X103.63 Y128.24
G1 F6000 X152.15 Y176.76 E2311.39001
G0 F12000 X152.72 Y176.76
G1 F6000 X104.20 Y128.24 E2313.10170
G0 F12000 X104.76 Y128.24
G1 F6000 X153.28 Y176.76 E2314.81337
G0 F12000 X153.85 Y176.76
G1 F6000 X105.33 Y128.24 E2316.52505
G0 F12000 X105.89 Y128.24
G1 F6000 X154.41 Y176.76 E2318.23674
G0 F12000 X154.98 Y176.76
G1 F6000 X106.46 Y128.24 E2319.94841
G0 F12000 X107.03 Y128.24
G1 F6000 X155.55 Y176.76 E2321.66009
G0 F12000 X156.11 Y176.76
G1 F6000 X107.59 Y128.24 E2323.37178
G0 F12000 X108.16 Y128.24
G1 F6000 X156.68 Y176.76 E2325.08345
G0 F12000 X157.24 Y176.76
G1 F6000 X108.72 Y128.24 E2326.79513
G0 F12000 X109.29 Y128.24
G1 F6000 X157.81 Y176.76 E2328.50680
G0 F12000 X158.37 Y176.76
G1 F6000 X109.85 Y128.24 E2330.21847
G0 F12000 X110.42 Y128.24
G1 F6000 X158.94 Y176.76 E2331.93015
G0 F12000 X159.51 Y176.76
G1 F6000 X110.99 Y128.24 E2333.64182
G0 F12000 X111.55 Y128.24
G1 F6000 X160.07 Y176.76 E2335.35351
G0 F12000 X160.64 Y176.76
G1 F6000 X112.12 Y128.24 E2337.06519
G0 F12000 X112.68 Y128.24
G1 F6000 X161.20 Y176.76 E2338.77686
G0 F12000 X161.77 Y176.76
G1 F6000 X113.25 Y128.24 E2340.48855
G0 F12000 X113.81 Y128.24
G1 F6000 X162.33 Y176.76 E2342.20023
G0 F12000 X162.90 Y176.76
G1 F6000 X114.38 Y128.24 E2343.91190
G0 F12000 X114.94 Y128.24
G1 F6000 X163.47 Y176.76 E2345.62359
G0 F12000 X164.03 Y176.76
G1 F6000 X115.51 Y128.24 E2347.33527
G0 F12000 X116.08 Y128.24
G1 F6000 X164.60 Y176.76 E2349.04694
G0 F12000 X165.16 Y176.76
G1 F6000 X116.64 Y128.24 E2350.75863
G0 F12000 X117.21 Y128.24
G1 F6000 X165.73 Y176.76 E2352.47031
G0 F12000 X166.29 Y176.76
G1 F6000 X117.77 Y128.24 E2354.18198
G0 F12000 X118.34 Y128.24
G1 F6000 X166.86 Y176.76 E2355.89367
G0 F12000 X167.43 Y176.76
G1 F6000 X118.91 Y128.24 E2357.60535
G0 F12000 X119.47 Y128.24
G1 F6000 X167.99 Y176.76 E2359.31702
G0 F12000 X168.56 Y176.76
G1 F6000 X120.04 Y128.24 E2361.02870
G0 F12000 X120.60 Y128.24
G1 F6000 X169.12 Y176.76 E2362.74037
G0 F12000 X169.69 Y176.76
G1 F6000 X121.17 Y128.24 E2364.45204
G0 F12000 X121.73 Y128.24
G1 F6000 X170.25 Y176.76 E2366.16372
G0 F12000 X170.82 Y176.76
G1 F6000 X122.30 Y128.24 E2367.87541
G0 F12000 X122.86 Y128.24
G1 F6000 X171.38 Y176.76 E2369.58708
G0 F12000 X171.95 Y176.76
G1 F6000 X123.43 Y128.24 E2371.29876
G0 F12000 X124.00 Y128.24
G1 F6000 X172.52 Y176.76 E2373.01045
G0 F12000 X173.08 Y176.76
G1 F6000 X124.56 Y128.24 E2374.72212
G0 F12000 X125.13 Y128.24
G1 F6000 X173.65 Y176.76 E2376.43380
G0 F12000 X174.21 Y176.76
G1 F6000 X125.69 Y128.24 E2378.14549
G0 F12000 X126.26 Y128.24
G1 F6000 X174.78 Y176.76 E2379.85716
G0 F12000 X175.34 Y176.76
G1 F6000 X126.83 Y128.24 E2381.56884
G0 F12000 X127.39 Y128.24
G1 F6000 X175.91 Y176.76 E2383.28053
G0 F12000 X176.48 Y176.76
G1 F6000 X127.96 Y128.24 E2384.99220
G0 F12000 X128.52 Y128.24
G1 F6000 X177.04 Y176.76 E2386.70388
G0 F12000 X177.61 Y176.76
G1 F6000 X129.09 Y128.24 E2388.41557
G0 F12000 X129.65 Y128.24
G1 F6000 X178.17 Y176.76 E2390.12724
G0 F12000 X178.74 Y176.76
G1 F6000 X130.22 Y128.24 E2391.83892
G0 F12000 X130.78 Y128.24
G1 F6000 X179.31 Y176.76 E2393.55059
G0 F12000 X179.87 Y176.76
G1 F6000 X131.35 Y128.24 E2395.26226
G0 F12000 X131.92 Y128.24
G1 F6000 X180.44 Y176.76 E2396.97394
G0 F12000 X181.00 Y176.76
G1 F6000 X132.48 Y128.24 E2398.68561
G0 F12000 X133.05 Y128.24
G1 F6000 X181.57 Y176.76 E2400.39730
G0 F12000 X182.13 Y176.76
G1 F6000 X133.61 Y128.24 E2402.10898
G0 F12000 X134.18 Y128.24
G1 F6000 X182.70 Y176.76 E2403.82065
G0 F12000 X183.26 Y176.76
G1 F6000 X134.74 Y128.24 E2405.53234
G0 F12000 X135.31 Y128.24
G1 F6000 X183.83 Y176.76 E2407.24402
G0 F12000 X184.40 Y176.76
G1 F6000 X135.88 Y128.24 E2408.95569
G0 F12000 X136.44 Y128.24
G1 F6000 X184.96 Y176.76 E2410.66738
G0 F12000 X185.53 Y176.76
G1 F6000 X137.01 Y128.24 E2412.37906
G0 F12000 X137.57 Y128.24
G1 F6000 X186.09 Y176.76 E2414.09073
G0 F12000 X186.66 Y176.76
G1 F6000 X138.14 Y128.24 E2415.80242
G0 F12000 X138.70 Y128.24
G1 F6000 X187.22 Y176.76 E2417.51410
G0 F12000 X187.79 Y176.76
G1 F6000 X139.27 Y128.24 E2419.22577
G0 F12000 X139.84 Y128.24
G1 F6000 X188.36 Y176.76 E2420.93744
G0 F12000 X188.92 Y176.76
G1 F6000 X140.40 Y128.24 E2422.64912
G0 F12000 X140.97 Y128.24
G1 F6000 X189.49 Y176.76 E2424.36079
G0 F12000 X190.05 Y176.76
G1 F6000 X141.53 Y128.24 E2426.07247
G0 F12000 X142.10 Y128.24
G1 F6000 X190.62 Y176.76 E2427.78416
G0 F12000 X191.18 Y176.76
G1 F6000 X142.66 Y128.24 E2429.49583
G0 F12000 X143.23 Y128.24
G1 F6000 X191.75 Y176.76 E2431.20751
G0 F12000 X192.32 Y176.76
G1 F6000 X143.79 Y128.24 E2432.91920
G0 F12000 X144.36 Y128.24
G1 F6000 X192.88 Y176.76 E2434.63087
G0 F12000 X193.45 Y176.76
