;-- START GCODE --
;Sliced for Type A Machines Series 1
;Sliced at: Thu 23-07-2015 23:34:04
;Basic settings: Layer height: 0.3 Walls: 1.2 Fill: 17
;Print Speed: 80 Support: 0
;Retraction Speed: 40 Retraction Distance: 3
;Print time: #P_TIME#
;Filament used: #F_AMNT#m #F_WGHT#g
;Filament cost: #F_COST#
M106 S255	 ;start with the fan on
G21        ;metric values
G90        ;absolute positioning
M106 S255    ;start with the fan on
G28     ;move to endstops
G29		;allows for auto-levelling
G1 X150 Y5  Z15.0 F12000 ;center and move the platform down 15mm
M109 S220 ;Heat To temp
G92 E0                  ;zero the extruded length
G1 F200 E30              ;extrude 30mm of feed stock
G92 E0                  ;zero the extruded length again
G1 X175 Y25  Z0 F12000 ;remove bugger
G1 X220 F12000 ;remove bugger
G1 X150 Y150  Z15 F12000 ;recenter and begin
G1 F12000

;Layer count: 79
;LAYER:0
M106 S255
G0 F12000 X179.71 Y124.48 Z0.30
;TYPE:SKIRT
G1 F2700 X179.71 Y124.69 E0.00998
G1 X179.51 Y124.89 E0.02409
G1 X179.51 Y125.08 E0.03407
G1 X179.31 Y125.28 E0.04818
G1 X179.31 Y125.48 E0.05816
G1 X179.11 Y125.69 E0.07227
G1 X179.11 Y125.89 E0.08225
G1 X178.91 Y126.08 E0.09636
G1 X178.91 Y126.28 E0.10633
G1 X178.51 Y126.69 E0.13456
G1 X178.51 Y126.89 E0.14453
G1 X178.31 Y127.08 E0.15865
G1 X178.31 Y127.28 E0.16862
G1 X178.11 Y127.48 E0.18273
G1 X178.11 Y127.69 E0.19271
G1 X177.91 Y127.89 E0.20682
G1 X177.91 Y128.09 E0.21680
G1 X177.51 Y128.49 E0.24502
G1 X177.51 Y128.69 E0.25500
G1 X177.31 Y128.88 E0.26911
G1 X177.31 Y129.09 E0.27909
G1 X177.11 Y129.28 E0.29320
G1 X177.11 Y129.49 E0.30318
G1 X176.91 Y129.69 E0.31729
G1 X176.91 Y129.88 E0.32727
G1 X176.71 Y130.09 E0.34138
G1 X176.71 Y130.28 E0.35136
G1 X176.31 Y130.69 E0.37958
G1 X176.31 Y130.88 E0.38956
G1 X176.11 Y131.09 E0.40367
G1 X176.11 Y131.28 E0.41365
G1 X175.91 Y131.49 E0.42776
G1 X175.91 Y131.69 E0.43774
G1 X175.71 Y131.88 E0.45185
G1 X175.71 Y132.09 E0.46183
G1 X175.31 Y132.49 E0.49005
G1 X175.31 Y132.69 E0.50003
G1 X175.11 Y132.88 E0.51414
G1 X175.11 Y133.09 E0.52412
G1 X174.91 Y133.28 E0.53823
G1 X174.91 Y133.49 E0.54820
G1 X174.71 Y133.69 E0.56232
G1 X174.71 Y133.88 E0.57229
G1 X174.31 Y134.28 E0.60052
G1 X174.31 Y134.88 E0.63045
G1 X174.11 Y135.09 E0.64456
G1 X174.11 Y135.49 E0.66452
G1 X173.91 Y135.69 E0.67863
G1 X173.91 Y136.09 E0.69858
G1 X173.71 Y136.28 E0.71270
G1 X173.71 Y136.88 E0.74263
G1 X173.51 Y137.09 E0.75674
G1 X173.51 Y137.49 E0.77670
G1 X173.31 Y137.69 E0.79081
G1 X173.31 Y138.09 E0.81076
G1 X173.11 Y138.28 E0.82488
G1 X173.11 Y138.88 E0.85481
G1 X172.91 Y139.09 E0.86892
G1 X172.91 Y139.49 E0.88888
G1 X172.71 Y139.69 E0.90299
G1 X172.71 Y140.09 E0.92294
G1 X172.51 Y140.28 E0.93705
G1 X172.51 Y140.88 E0.96699
G1 X172.31 Y141.09 E0.98110
G1 X172.31 Y141.49 E1.00106
G1 X172.11 Y141.69 E1.01517
G1 X172.11 Y142.09 E1.03512
G1 X171.91 Y142.28 E1.04923
G1 X171.91 Y142.88 E1.07917
G1 X171.71 Y143.09 E1.09328
G1 X171.71 Y143.49 E1.11324
G1 X171.51 Y143.69 E1.12735
G1 X171.51 Y144.09 E1.14730
G1 X171.31 Y144.28 E1.16141
G1 X171.31 Y144.69 E1.18137
G1 X171.11 Y144.88 E1.19548
G1 X171.11 Y147.09 E1.30524
G1 X170.91 Y147.28 E1.31935
G1 X170.91 Y149.28 E1.41913
G1 X170.71 Y149.49 E1.43324
G1 X170.71 Y151.49 E1.53302
G1 X170.51 Y151.69 E1.54713
G1 X170.51 Y153.24 E1.62486
G1 X170.71 Y153.44 E1.63897
G1 X170.71 Y155.44 E1.73875
G1 X170.91 Y155.64 E1.75286
G1 X170.91 Y157.64 E1.85265
G1 X171.11 Y157.84 E1.86676
G1 X171.11 Y159.84 E1.96654
G1 X171.31 Y160.04 E1.98065
G1 X171.31 Y160.44 E2.00060
G1 X171.51 Y160.64 E2.01471
G1 X171.51 Y161.04 E2.03467
G1 X171.71 Y161.24 E2.04878
G1 X171.71 Y161.64 E2.06874
G1 X171.91 Y161.84 E2.08285
G1 X171.91 Y162.44 E2.11278
G1 X172.11 Y162.64 E2.12689
G1 X172.11 Y163.04 E2.14685
G1 X172.31 Y163.24 E2.16096
G1 X172.31 Y163.64 E2.18092
G1 X172.51 Y163.84 E2.19503
G1 X172.51 Y164.44 E2.22496
G1 X172.71 Y164.64 E2.23907
G1 X172.71 Y165.04 E2.25903
G1 X172.91 Y165.24 E2.27314
G1 X172.91 Y165.64 E2.29310
G1 X173.11 Y165.84 E2.30721
G1 X173.11 Y166.44 E2.33714
G1 X173.31 Y166.64 E2.35125
G1 X173.31 Y167.04 E2.37121
G1 X173.51 Y167.24 E2.38532
G1 X173.51 Y167.64 E2.40528
G1 X173.71 Y167.84 E2.41939
G1 X173.71 Y168.44 E2.44932
G1 X173.91 Y168.64 E2.46343
G1 X173.91 Y169.04 E2.48339
G1 X174.11 Y169.24 E2.49750
G1 X174.11 Y169.64 E2.51746
G1 X174.31 Y169.84 E2.53157
G1 X174.31 Y170.44 E2.56150
G1 X174.71 Y170.84 E2.58972
G1 X174.71 Y171.04 E2.59970
G1 X174.91 Y171.24 E2.61381
G1 X174.91 Y171.44 E2.62379
G1 X175.11 Y171.64 E2.63790
G1 X175.11 Y171.84 E2.64788
G1 X175.31 Y172.04 E2.66199
G1 X175.31 Y172.24 E2.67197
G1 X175.71 Y172.64 E2.70019
G1 X175.71 Y172.84 E2.71017
G1 X175.91 Y173.04 E2.72428
G1 X175.91 Y173.24 E2.73426
G1 X176.11 Y173.44 E2.74837
G1 X176.11 Y173.64 E2.75835
G1 X176.31 Y173.84 E2.77246
G1 X176.31 Y174.04 E2.78244
G1 X176.71 Y174.44 E2.81066
G1 X176.71 Y174.64 E2.82064
G1 X176.91 Y174.84 E2.83475
G1 X176.91 Y175.04 E2.84473
G1 X177.11 Y175.24 E2.85884
G1 X177.11 Y175.44 E2.86882
G1 X177.31 Y175.64 E2.88293
G1 X177.31 Y175.84 E2.89290
G1 X177.51 Y176.04 E2.90702
G1 X177.51 Y176.24 E2.91699
G1 X177.91 Y176.64 E2.94522
G1 X177.91 Y176.84 E2.95519
G1 X178.11 Y177.04 E2.96930
G1 X178.11 Y177.24 E2.97928
G1 X178.31 Y177.44 E2.99339
G1 X178.31 Y177.64 E3.00337
G1 X178.51 Y177.84 E3.01748
G1 X178.51 Y178.04 E3.02746
G1 X178.91 Y178.44 E3.05568
G1 X178.91 Y178.64 E3.06566
G1 X179.11 Y178.84 E3.07977
G1 X179.11 Y179.04 E3.08975
G1 X179.31 Y179.24 E3.10386
G1 X179.31 Y179.44 E3.11384
G1 X179.51 Y179.64 E3.12795
G1 X179.51 Y179.84 E3.13793
G1 X179.71 Y180.04 E3.15204
G1 X179.71 Y180.24 E3.16202
G1 X180.71 Y181.24 E3.23257
G1 X180.71 Y181.44 E3.24255
G1 X181.51 Y182.24 E3.29900
G1 X181.51 Y182.44 E3.30897
G1 X182.51 Y183.44 E3.37953
G1 X182.51 Y183.64 E3.38951
G1 X183.31 Y184.44 E3.44595
G1 X183.31 Y184.64 E3.45593
G1 X184.11 Y185.44 E3.51237
G1 X184.11 Y185.64 E3.52235
G1 X185.11 Y186.64 E3.59291
G1 X185.11 Y186.84 E3.60288
G1 X185.25 Y186.98 E3.61248
G1 X185.65 Y187.18 E3.63475
G1 X186.45 Y187.98 E3.69112
G1 X186.85 Y188.18 E3.71350
G1 X187.45 Y188.78 E3.75576
G1 X187.85 Y188.98 E3.77814
G1 X188.45 Y189.58 E3.82040
G1 X188.85 Y189.78 E3.84278
G1 X189.65 Y190.58 E3.89916
G1 X190.05 Y190.78 E3.92153
G1 X190.65 Y191.38 E3.96380
G1 X191.05 Y191.58 E3.98618
G1 X191.85 Y192.38 E4.04255
G1 X193.85 Y193.38 E4.15417
G1 X194.05 Y193.58 E4.16821
G1 X195.65 Y194.38 E4.25753
G1 X195.85 Y194.58 E4.27157
G1 X197.85 Y195.58 E4.38319
G1 X198.05 Y195.78 E4.39723
G1 X199.65 Y196.58 E4.48655
G1 X199.85 Y196.78 E4.50059
G1 X200.07 Y196.89 E4.51297
G1 X200.99 Y197.20 E4.56122
G1 X201.79 Y197.40 E4.60260
G1 X202.99 Y197.80 E4.66547
G1 X203.79 Y198.00 E4.70685
G1 X204.99 Y198.40 E4.76972
G1 X205.79 Y198.60 E4.81110
G1 X206.99 Y199.00 E4.87402
G1 X207.41 Y199.10 E4.89592
G1 X207.41 Y105.83 E9.54948
G1 X206.99 Y105.93 E9.57143
G1 X205.79 Y106.33 E9.63430
G1 X204.99 Y106.53 E9.67568
G1 X203.79 Y106.93 E9.73855
G1 X202.99 Y107.13 E9.77994
G1 X201.79 Y107.53 E9.84281
G1 X200.99 Y107.73 E9.88419
G1 X200.07 Y108.04 E9.93248
G1 X198.65 Y108.75 E10.01175
G1 X198.45 Y108.95 E10.02579
G1 X195.25 Y110.55 E10.20435
G1 X195.05 Y110.75 E10.21839
G1 X191.85 Y112.35 E10.39695
G1 X191.05 Y113.15 E10.45333
G1 X190.65 Y113.35 E10.47571
G1 X190.05 Y113.95 E10.51797
G1 X189.65 Y114.15 E10.54035
G1 X188.85 Y114.95 E10.59672
G1 X188.45 Y115.15 E10.61910
G1 X187.85 Y115.75 E10.66136
G1 X187.45 Y115.95 E10.68374
G1 X186.85 Y116.55 E10.72600
G1 X186.45 Y116.75 E10.74838
G1 X185.65 Y117.55 E10.80476
G1 X185.25 Y117.75 E10.82702
G1 X185.11 Y117.89 E10.83662
G1 X185.11 Y118.08 E10.84660
G1 X184.11 Y119.08 E10.91715
G1 X184.11 Y119.28 E10.92713
G1 X183.31 Y120.08 E10.98357
G1 X183.31 Y120.28 E10.99355
G1 X182.51 Y121.08 E11.05000
G1 X182.51 Y121.28 E11.05997
G1 X181.51 Y122.28 E11.13053
G1 X181.51 Y122.48 E11.14051
G1 X180.71 Y123.28 E11.19695
G1 X180.71 Y123.48 E11.20693
G1 X179.71 Y124.48 E11.27749
G0 F12000 X179.31 Y124.52
G1 F2700 X179.11 Y124.72 E11.29160
G1 X179.11 Y124.92 E11.30157
G1 X178.91 Y125.12 E11.31569
G1 X178.91 Y125.32 E11.32566
G1 X178.71 Y125.52 E11.33978
G1 X178.71 Y125.72 E11.34975
G1 X178.51 Y125.92 E11.36386
G1 X178.51 Y126.12 E11.37384
G1 X178.11 Y126.52 E11.40206
G1 X178.11 Y126.72 E11.41204
G1 X177.91 Y126.92 E11.42615
G1 X177.91 Y127.12 E11.43613
G1 X177.71 Y127.32 E11.45024
G1 X177.71 Y127.52 E11.46022
G1 X177.51 Y127.72 E11.47433
G1 X177.51 Y127.92 E11.48431
G1 X177.11 Y128.32 E11.51253
G1 X177.11 Y128.52 E11.52251
G1 X176.91 Y128.72 E11.53662
G1 X176.91 Y128.92 E11.54660
G1 X176.71 Y129.12 E11.56071
G1 X176.71 Y129.32 E11.57069
G1 X176.51 Y129.52 E11.58480
G1 X176.51 Y129.72 E11.59478
G1 X176.31 Y129.92 E11.60889
G1 X176.31 Y130.12 E11.61887
G1 X175.91 Y130.52 E11.64709
G1 X175.91 Y130.72 E11.65707
G1 X175.71 Y130.92 E11.67118
G1 X175.71 Y131.12 E11.68116
G1 X175.51 Y131.32 E11.69527
G1 X175.51 Y131.52 E11.70524
G1 X175.31 Y131.72 E11.71936
G1 X175.31 Y131.92 E11.72933
G1 X174.91 Y132.32 E11.75756
G1 X174.91 Y132.52 E11.76753
G1 X174.71 Y132.72 E11.78165
G1 X174.71 Y132.92 E11.79162
G1 X174.51 Y133.12 E11.80573
G1 X174.51 Y133.32 E11.81571
G1 X174.31 Y133.52 E11.82982
G1 X174.31 Y133.72 E11.83980
G1 X173.91 Y134.12 E11.86802
G1 X173.91 Y134.72 E11.89796
G1 X173.71 Y134.92 E11.91207
G1 X173.71 Y135.32 E11.93203
G1 X173.51 Y135.52 E11.94614
G1 X173.51 Y135.92 E11.96609
G1 X173.31 Y136.12 E11.98020
G1 X173.31 Y136.72 E12.01014
G1 X173.11 Y136.92 E12.02425
G1 X173.11 Y137.32 E12.04420
G1 X172.91 Y137.52 E12.05832
G1 X172.91 Y137.92 E12.07827
G1 X172.71 Y138.12 E12.09238
G1 X172.71 Y138.72 E12.12232
G1 X172.51 Y138.92 E12.13643
G1 X172.51 Y139.32 E12.15638
G1 X172.31 Y139.52 E12.17050
G1 X172.31 Y139.92 E12.19045
G1 X172.11 Y140.12 E12.20456
G1 X172.11 Y140.72 E12.23450
G1 X171.91 Y140.92 E12.24861
G1 X171.91 Y141.32 E12.26856
G1 X171.71 Y141.52 E12.28267
G1 X171.71 Y141.92 E12.30263
G1 X171.51 Y142.12 E12.31674
G1 X171.51 Y142.72 E12.34668
G1 X171.31 Y142.92 E12.36079
G1 X171.31 Y143.32 E12.38074
G1 X171.11 Y143.52 E12.39485
G1 X171.11 Y143.92 E12.41481
G1 X170.91 Y144.12 E12.42892
G1 X170.91 Y144.52 E12.44888
G1 X170.71 Y144.72 E12.46299
G1 X170.71 Y146.92 E12.57275
G1 X170.51 Y147.12 E12.58686
G1 X170.51 Y149.12 E12.68664
G1 X170.31 Y149.32 E12.70075
G1 X170.31 Y151.32 E12.80053
G1 X170.11 Y151.52 E12.81464
G1 X170.11 Y153.41 E12.90893
G1 X170.31 Y153.61 E12.92304
G1 X170.31 Y155.61 E13.02283
G1 X170.51 Y155.81 E13.03694
G1 X170.51 Y157.81 E13.13672
G1 X170.71 Y158.01 E13.15083
G1 X170.71 Y160.01 E13.25061
G1 X170.91 Y160.21 E13.26472
G1 X170.91 Y160.61 E13.28468
G1 X171.11 Y160.81 E13.29879
G1 X171.11 Y161.21 E13.31874
G1 X171.31 Y161.41 E13.33285
G1 X171.31 Y161.81 E13.35281
G1 X171.51 Y162.01 E13.36692
G1 X171.51 Y162.61 E13.39685
G1 X171.71 Y162.81 E13.41097
G1 X171.71 Y163.21 E13.43092
G1 X171.91 Y163.41 E13.44503
G1 X171.91 Y163.81 E13.46499
G1 X172.11 Y164.01 E13.47910
G1 X172.11 Y164.61 E13.50903
G1 X172.31 Y164.81 E13.52315
G1 X172.31 Y165.21 E13.54310
G1 X172.51 Y165.41 E13.55721
G1 X172.51 Y165.81 E13.57717
G1 X172.71 Y166.01 E13.59128
G1 X172.71 Y166.61 E13.62121
G1 X172.91 Y166.81 E13.63532
G1 X172.91 Y167.21 E13.65528
G1 X173.11 Y167.41 E13.66939
G1 X173.11 Y167.81 E13.68935
G1 X173.31 Y168.01 E13.70346
G1 X173.31 Y168.61 E13.73339
G1 X173.51 Y168.81 E13.74750
G1 X173.51 Y169.21 E13.76746
G1 X173.71 Y169.41 E13.78157
G1 X173.71 Y169.81 E13.80153
G1 X173.91 Y170.01 E13.81564
G1 X173.91 Y170.61 E13.84557
G1 X174.31 Y171.01 E13.87379
G1 X174.31 Y171.21 E13.88377
G1 X174.51 Y171.41 E13.89788
G1 X174.51 Y171.61 E13.90786
G1 X174.71 Y171.81 E13.92197
G1 X174.71 Y172.01 E13.93195
G1 X174.91 Y172.21 E13.94606
G1 X174.91 Y172.41 E13.95604
G1 X175.31 Y172.81 E13.98426
G1 X175.31 Y173.01 E13.99424
G1 X175.51 Y173.21 E14.00835
G1 X175.51 Y173.41 E14.01833
G1 X175.71 Y173.61 E14.03244
G1 X175.71 Y173.81 E14.04242
G1 X175.91 Y174.01 E14.05653
G1 X175.91 Y174.21 E14.06651
G1 X176.31 Y174.61 E14.09473
G1 X176.31 Y174.81 E14.10471
G1 X176.51 Y175.01 E14.11882
G1 X176.51 Y175.21 E14.12880
G1 X176.71 Y175.41 E14.14291
G1 X176.71 Y175.61 E14.15289
G1 X176.91 Y175.81 E14.16700
G1 X176.91 Y176.01 E14.17698
G1 X177.11 Y176.21 E14.19109
G1 X177.11 Y176.41 E14.20106
G1 X177.51 Y176.81 E14.22929
G1 X177.51 Y177.01 E14.23926
G1 X177.71 Y177.21 E14.25338
G1 X177.71 Y177.41 E14.26335
G1 X177.91 Y177.61 E14.27747
G1 X177.91 Y177.81 E14.28744
G1 X178.11 Y178.01 E14.30155
G1 X178.11 Y178.21 E14.31153
G1 X178.51 Y178.61 E14.33975
G1 X178.51 Y178.81 E14.34973
G1 X178.71 Y179.01 E14.36384
G1 X178.71 Y179.21 E14.37382
G1 X178.91 Y179.41 E14.38793
G1 X178.91 Y179.61 E14.39791
G1 X179.11 Y179.81 E14.41202
G1 X179.11 Y180.01 E14.42200
G1 X179.31 Y180.21 E14.43611
G1 X179.31 Y180.41 E14.44609
G1 X180.31 Y181.41 E14.51664
G1 X180.31 Y181.61 E14.52662
G1 X181.11 Y182.41 E14.58307
G1 X181.11 Y182.61 E14.59304
G1 X182.11 Y183.61 E14.66360
G1 X182.11 Y183.81 E14.67358
G1 X182.91 Y184.61 E14.73002
G1 X182.91 Y184.81 E14.74000
G1 X183.71 Y185.61 E14.79644
G1 X183.71 Y185.81 E14.80642
G1 X184.71 Y186.81 E14.87698
G1 X184.71 Y187.01 E14.88696
G1 X185.01 Y187.31 E14.90802
G1 X185.41 Y187.51 E14.93028
G1 X186.21 Y188.31 E14.98676
G1 X186.61 Y188.51 E15.00903
G1 X187.21 Y189.11 E15.05140
G1 X187.61 Y189.31 E15.07367
G1 X188.21 Y189.91 E15.11603
G1 X188.61 Y190.11 E15.13830
G1 X189.41 Y190.91 E15.19478
G1 X189.81 Y191.11 E15.21705
G1 X190.41 Y191.71 E15.25942
G1 X190.81 Y191.91 E15.28168
G1 X191.61 Y192.71 E15.33816
G1 X193.61 Y193.71 E15.44968
G1 X193.81 Y193.91 E15.46379
G1 X195.41 Y194.71 E15.55303
G1 X195.61 Y194.91 E15.56715
G1 X197.61 Y195.91 E15.67870
G1 X197.81 Y196.11 E15.69281
G1 X199.41 Y196.91 E15.78206
G1 X199.61 Y197.11 E15.79617
G1 X199.91 Y197.26 E15.81308
G1 X200.88 Y197.58 E15.86388
G1 X201.68 Y197.78 E15.90498
G1 X202.88 Y198.18 E15.96804
G1 X203.68 Y198.38 E16.00922
G1 X204.88 Y198.78 E16.07228
G1 X205.68 Y198.98 E16.11347
G1 X206.88 Y199.38 E16.17642
G1 X207.68 Y199.58 E16.21766
G1 X207.81 Y199.62 E16.22476
G1 X207.81 Y105.30 E20.93050
G1 X207.68 Y105.35 E20.93755
G1 X206.88 Y105.55 E20.97889
G1 X205.68 Y105.95 E21.04179
G1 X204.88 Y106.15 E21.08298
G1 X203.68 Y106.55 E21.14604
G1 X202.88 Y106.75 E21.18723
G1 X201.68 Y107.15 E21.25029
G1 X200.88 Y107.35 E21.29138
G1 X199.91 Y107.67 E21.34218
G1 X198.41 Y108.42 E21.42603
G1 X198.21 Y108.62 E21.44014
G1 X195.01 Y110.22 E21.61863
G1 X194.81 Y110.42 E21.63274
G1 X191.61 Y112.02 E21.81119
G1 X190.81 Y112.82 E21.86767
G1 X190.41 Y113.02 E21.88994
G1 X189.81 Y113.62 E21.93230
G1 X189.41 Y113.82 E21.95457
G1 X188.61 Y114.62 E22.01105
G1 X188.21 Y114.82 E22.03332
G1 X187.61 Y115.42 E22.07569
G1 X187.21 Y115.62 E22.09795
G1 X186.61 Y116.22 E22.14032
G1 X186.21 Y116.42 E22.16259
G1 X185.41 Y117.22 E22.21907
G1 X185.01 Y117.42 E22.24138
G1 X184.71 Y117.72 E22.26241
G1 X184.71 Y117.92 E22.27238
G1 X183.71 Y118.92 E22.34294
G1 X183.71 Y119.12 E22.35292
G1 X182.91 Y119.92 E22.40936
G1 X182.91 Y120.12 E22.41934
G1 X182.11 Y120.92 E22.47578
G1 X182.11 Y121.12 E22.48576
G1 X181.11 Y122.12 E22.55632
G1 X181.11 Y122.32 E22.56630
G1 X180.31 Y123.12 E22.62274
G1 X180.31 Y123.32 E22.63272
G1 X179.31 Y124.32 E22.70327
G1 X179.31 Y124.52 E22.71325
G0 F12000 X178.91 Y124.35
G1 F2700 X178.71 Y124.55 E22.72736
G1 X178.71 Y124.75 E22.73734
G1 X178.51 Y124.95 E22.75145
G1 X178.51 Y125.15 E22.76143
G1 X178.31 Y125.35 E22.77554
G1 X178.31 Y125.55 E22.78552
G1 X178.11 Y125.75 E22.79963
G1 X178.11 Y125.95 E22.80961
G1 X177.71 Y126.35 E22.83783
G1 X177.71 Y126.55 E22.84781
G1 X177.51 Y126.75 E22.86192
G1 X177.51 Y126.95 E22.87190
G1 X177.31 Y127.15 E22.88601
G1 X177.31 Y127.35 E22.89599
G1 X177.11 Y127.55 E22.91010
G1 X177.11 Y127.75 E22.92008
G1 X176.71 Y128.15 E22.94830
G1 X176.71 Y128.35 E22.95828
G1 X176.51 Y128.55 E22.97239
G1 X176.51 Y128.75 E22.98236
G1 X176.31 Y128.95 E22.99648
G1 X176.31 Y129.15 E23.00645
G1 X176.11 Y129.35 E23.02056
G1 X176.11 Y129.55 E23.03054
G1 X175.91 Y129.75 E23.04465
G1 X175.91 Y129.95 E23.05463
G1 X175.51 Y130.35 E23.08285
G1 X175.51 Y130.55 E23.09283
G1 X175.31 Y130.75 E23.10694
G1 X175.31 Y130.95 E23.11692
G1 X175.11 Y131.15 E23.13103
G1 X175.11 Y131.35 E23.14101
G1 X174.91 Y131.55 E23.15512
G1 X174.91 Y131.75 E23.16510
G1 X174.51 Y132.15 E23.19332
G1 X174.51 Y132.35 E23.20330
G1 X174.31 Y132.55 E23.21741
G1 X174.31 Y132.75 E23.22739
G1 X174.11 Y132.95 E23.24150
G1 X174.11 Y133.15 E23.25148
G1 X173.91 Y133.35 E23.26559
G1 X173.91 Y133.55 E23.27557
G1 X173.51 Y133.95 E23.30379
G1 X173.51 Y134.55 E23.33372
G1 X173.31 Y134.75 E23.34783
G1 X173.31 Y135.15 E23.36779
G1 X173.11 Y135.35 E23.38190
G1 X173.11 Y135.75 E23.40186
G1 X172.91 Y135.95 E23.41597
G1 X172.91 Y136.55 E23.44590
G1 X172.71 Y136.75 E23.46001
G1 X172.71 Y137.15 E23.47997
G1 X172.51 Y137.35 E23.49408
G1 X172.51 Y137.75 E23.51404
G1 X172.31 Y137.95 E23.52815
G1 X172.31 Y138.55 E23.55808
G1 X172.11 Y138.75 E23.57219
G1 X172.11 Y139.15 E23.59215
G1 X171.91 Y139.35 E23.60626
G1 X171.91 Y139.75 E23.62622
G1 X171.71 Y139.95 E23.64033
G1 X171.71 Y140.55 E23.67026
G1 X171.51 Y140.75 E23.68437
G1 X171.51 Y141.15 E23.70433
G1 X171.31 Y141.35 E23.71844
G1 X171.31 Y141.75 E23.73840
G1 X171.11 Y141.95 E23.75251
G1 X171.11 Y142.55 E23.78244
G1 X170.91 Y142.75 E23.79655
G1 X170.91 Y143.15 E23.81651
G1 X170.71 Y143.35 E23.83062
G1 X170.71 Y143.75 E23.85058
G1 X170.51 Y143.95 E23.86469
G1 X170.51 Y144.35 E23.88464
G1 X170.31 Y144.55 E23.89875
G1 X170.31 Y146.75 E24.00851
G1 X170.11 Y146.95 E24.02262
G1 X170.11 Y148.95 E24.12240
G1 X169.91 Y149.15 E24.13652
G1 X169.91 Y151.15 E24.23630
G1 X169.71 Y151.35 E24.25041
G1 X169.71 Y153.57 E24.36126
G1 X169.91 Y153.78 E24.37537
G1 X169.91 Y155.78 E24.47515
G1 X170.11 Y155.97 E24.48927
G1 X170.11 Y157.97 E24.58905
G1 X170.31 Y158.18 E24.60316
G1 X170.31 Y160.18 E24.70294
G1 X170.51 Y160.38 E24.71705
G1 X170.51 Y160.78 E24.73700
G1 X170.71 Y160.97 E24.75112
G1 X170.71 Y161.38 E24.77107
G1 X170.91 Y161.57 E24.78518
G1 X170.91 Y161.97 E24.80514
G1 X171.11 Y162.18 E24.81925
G1 X171.11 Y162.78 E24.84918
G1 X171.31 Y162.97 E24.86329
G1 X171.31 Y163.38 E24.88325
G1 X171.51 Y163.57 E24.89736
G1 X171.51 Y163.97 E24.91732
G1 X171.71 Y164.18 E24.93143
G1 X171.71 Y164.78 E24.96136
G1 X171.91 Y164.97 E24.97547
G1 X171.91 Y165.38 E24.99543
G1 X172.11 Y165.57 E25.00954
G1 X172.11 Y165.97 E25.02950
G1 X172.31 Y166.18 E25.04361
G1 X172.31 Y166.78 E25.07354
G1 X172.51 Y166.97 E25.08765
G1 X172.51 Y167.38 E25.10761
G1 X172.71 Y167.57 E25.12172
G1 X172.71 Y167.97 E25.14168
G1 X172.91 Y168.18 E25.15579
G1 X172.91 Y168.78 E25.18572
G1 X173.11 Y168.97 E25.19983
G1 X173.11 Y169.38 E25.21979
G1 X173.31 Y169.57 E25.23390
G1 X173.31 Y169.97 E25.25386
G1 X173.51 Y170.18 E25.26797
G1 X173.51 Y170.78 E25.29790
G1 X173.91 Y171.18 E25.32612
G1 X173.91 Y171.38 E25.33610
G1 X174.11 Y171.57 E25.35021
G1 X174.11 Y171.78 E25.36019
G1 X174.31 Y171.97 E25.37430
G1 X174.31 Y172.18 E25.38428
G1 X174.51 Y172.38 E25.39839
G1 X174.51 Y172.57 E25.40837
G1 X174.91 Y172.97 E25.43659
G1 X174.91 Y173.18 E25.44657
G1 X175.11 Y173.38 E25.46068
G1 X175.11 Y173.57 E25.47066
G1 X175.31 Y173.78 E25.48477
G1 X175.31 Y173.97 E25.49475
G1 X175.51 Y174.18 E25.50886
G1 X175.51 Y174.38 E25.51884
G1 X175.91 Y174.78 E25.54706
G1 X175.91 Y174.97 E25.55704
G1 X176.11 Y175.18 E25.57115
G1 X176.11 Y175.38 E25.58113
G1 X176.31 Y175.57 E25.59524
G1 X176.31 Y175.78 E25.60522
G1 X176.51 Y175.97 E25.61933
G1 X176.51 Y176.18 E25.62930
G1 X176.71 Y176.38 E25.64342
G1 X176.71 Y176.57 E25.65339
G1 X177.11 Y176.97 E25.68162
G1 X177.11 Y177.18 E25.69159
G1 X177.31 Y177.38 E25.70571
G1 X177.31 Y177.57 E25.71568
G1 X177.51 Y177.78 E25.72979
G1 X177.51 Y177.97 E25.73977
G1 X177.71 Y178.18 E25.75388
G1 X177.71 Y178.38 E25.76386
G1 X178.11 Y178.78 E25.79208
G1 X178.11 Y178.97 E25.80206
G1 X178.31 Y179.18 E25.81617
G1 X178.31 Y179.38 E25.82615
G1 X178.51 Y179.57 E25.84026
G1 X178.51 Y179.78 E25.85024
G1 X178.71 Y179.97 E25.86435
G1 X178.71 Y180.18 E25.87433
G1 X178.91 Y180.38 E25.88844
G1 X178.91 Y180.57 E25.89842
G1 X179.91 Y181.57 E25.96897
G1 X179.91 Y181.78 E25.97895
G1 X180.71 Y182.57 E26.03540
G1 X180.71 Y182.78 E26.04537
G1 X181.71 Y183.78 E26.11593
G1 X181.71 Y183.97 E26.12591
G1 X182.51 Y184.78 E26.18235
G1 X182.51 Y184.97 E26.19233
G1 X183.31 Y185.78 E26.24877
G1 X183.31 Y185.97 E26.25875
G1 X184.31 Y186.97 E26.32931
G1 X184.31 Y187.17 E26.33924
G1 X184.78 Y187.64 E26.37183
G1 X185.18 Y187.84 E26.39414
G1 X185.97 Y188.64 E26.45059
G1 X186.38 Y188.84 E26.47290
G1 X186.97 Y189.44 E26.51523
G1 X187.38 Y189.64 E26.53754
G1 X187.97 Y190.24 E26.57988
G1 X188.38 Y190.44 E26.60219
G1 X189.18 Y191.24 E26.65863
G1 X189.57 Y191.44 E26.68095
G1 X190.18 Y192.04 E26.72328
G1 X190.57 Y192.24 E26.74559
G1 X191.38 Y193.04 E26.80210
G1 X193.38 Y194.04 E26.91360
G1 X193.58 Y194.24 E26.92778
G1 X195.18 Y195.04 E27.01696
G1 X195.38 Y195.24 E27.03114
G1 X197.38 Y196.24 E27.14263
G1 X197.58 Y196.44 E27.15681
G1 X199.18 Y197.24 E27.24599
G1 X199.38 Y197.44 E27.26017
G1 X199.76 Y197.63 E27.28181
G1 X200.77 Y197.97 E27.33462
G1 X201.57 Y198.16 E27.37570
G1 X202.77 Y198.57 E27.43887
G1 X203.57 Y198.76 E27.47995
G1 X204.77 Y199.17 E27.54312
G1 X205.57 Y199.37 E27.58420
G1 X206.77 Y199.77 E27.64742
G1 X207.57 Y199.97 E27.68840
G1 X208.21 Y200.18 E27.72243
G1 X208.21 Y104.75 E32.48365
G1 X207.57 Y104.96 E32.51763
G1 X206.77 Y105.16 E32.55871
G1 X205.57 Y105.56 E32.62188
G1 X204.77 Y105.76 E32.66296
G1 X203.57 Y106.16 E32.72613
G1 X202.77 Y106.36 E32.76721
G1 X201.57 Y106.76 E32.83038
G1 X200.77 Y106.96 E32.87146
G1 X199.76 Y107.30 E32.92427
G1 X198.18 Y108.09 E33.01284
G1 X197.97 Y108.29 E33.02703
G1 X194.78 Y109.89 E33.20545
G1 X194.57 Y110.09 E33.21963
G1 X191.38 Y111.69 E33.39806
G1 X190.57 Y112.49 E33.45457
G1 X190.18 Y112.69 E33.47689
G1 X189.57 Y113.29 E33.51922
G1 X189.18 Y113.49 E33.54153
G1 X188.38 Y114.29 E33.59797
G1 X187.97 Y114.49 E33.62029
G1 X187.38 Y115.09 E33.66262
G1 X186.97 Y115.29 E33.68493
G1 X186.38 Y115.89 E33.72726
G1 X185.97 Y116.09 E33.74958
G1 X185.18 Y116.89 E33.80602
G1 X184.78 Y117.09 E33.82833
G1 X184.31 Y117.55 E33.86093
G1 X184.31 Y117.75 E33.87086
G1 X183.31 Y118.75 E33.94141
G1 X183.31 Y118.95 E33.95139
G1 X182.51 Y119.75 E34.00783
G1 X182.51 Y119.95 E34.01781
G1 X181.71 Y120.75 E34.07426
G1 X181.71 Y120.95 E34.08423
G1 X180.71 Y121.95 E34.15479
G1 X180.71 Y122.15 E34.16477
G1 X179.91 Y122.95 E34.22121
G1 X179.91 Y123.15 E34.23119
G1 X178.91 Y124.15 E34.30175
G1 X178.91 Y124.35 E34.31172
G0 F12000 X178.51 Y124.19
G1 F2700 X178.31 Y124.39 E34.32584
G1 X178.31 Y124.59 E34.33581
G1 X178.11 Y124.79 E34.34992
G1 X178.11 Y124.99 E34.35990
G1 X177.91 Y125.19 E34.37401
G1 X177.91 Y125.39 E34.38399
G1 X177.71 Y125.59 E34.39810
G1 X177.71 Y125.79 E34.40808
G1 X177.31 Y126.19 E34.43630
G1 X177.31 Y126.39 E34.44628
G1 X177.11 Y126.59 E34.46039
G1 X177.11 Y126.79 E34.47037
G1 X176.91 Y126.99 E34.48448
G1 X176.91 Y127.19 E34.49446
G1 X176.71 Y127.39 E34.50857
G1 X176.71 Y127.59 E34.51855
G1 X176.31 Y127.99 E34.54677
G1 X176.31 Y128.19 E34.55675
G1 X176.11 Y128.39 E34.57086
G1 X176.11 Y128.59 E34.58084
G1 X175.91 Y128.79 E34.59495
G1 X175.91 Y128.99 E34.60493
G1 X175.71 Y129.19 E34.61904
G1 X175.71 Y129.39 E34.62902
G1 X175.51 Y129.59 E34.64313
G1 X175.51 Y129.79 E34.65310
G1 X175.11 Y130.19 E34.68133
G1 X175.11 Y130.39 E34.69130
G1 X174.91 Y130.59 E34.70542
G1 X174.91 Y130.79 E34.71539
G1 X174.71 Y130.99 E34.72951
G1 X174.71 Y131.19 E34.73948
G1 X174.51 Y131.39 E34.75359
G1 X174.51 Y131.59 E34.76357
G1 X174.11 Y131.99 E34.79179
G1 X174.11 Y132.19 E34.80177
G1 X173.91 Y132.39 E34.81588
G1 X173.91 Y132.59 E34.82586
G1 X173.71 Y132.79 E34.83997
G1 X173.71 Y132.99 E34.84995
G1 X173.51 Y133.19 E34.86406
G1 X173.51 Y133.39 E34.87404
G1 X173.11 Y133.79 E34.90226
G1 X173.11 Y134.39 E34.93220
G1 X172.91 Y134.59 E34.94631
G1 X172.91 Y134.99 E34.96626
G1 X172.71 Y135.19 E34.98037
G1 X172.71 Y135.59 E35.00033
G1 X172.51 Y135.79 E35.01444
G1 X172.51 Y136.39 E35.04438
G1 X172.31 Y136.59 E35.05849
G1 X172.31 Y136.99 E35.07844
G1 X172.11 Y137.19 E35.09255
G1 X172.11 Y137.59 E35.11251
G1 X171.91 Y137.79 E35.12662
G1 X171.91 Y138.39 E35.15656
G1 X171.71 Y138.59 E35.17067
G1 X171.71 Y138.99 E35.19062
G1 X171.51 Y139.19 E35.20473
G1 X171.51 Y139.59 E35.22469
G1 X171.31 Y139.79 E35.23880
G1 X171.31 Y140.39 E35.26873
G1 X171.11 Y140.59 E35.28285
G1 X171.11 Y140.99 E35.30280
G1 X170.91 Y141.19 E35.31691
G1 X170.91 Y141.59 E35.33687
G1 X170.71 Y141.79 E35.35098
G1 X170.71 Y142.39 E35.38091
G1 X170.51 Y142.59 E35.39503
G1 X170.51 Y142.99 E35.41498
G1 X170.31 Y143.19 E35.42909
G1 X170.31 Y143.59 E35.44905
G1 X170.11 Y143.79 E35.46316
G1 X170.11 Y144.19 E35.48312
G1 X169.91 Y144.39 E35.49723
G1 X169.91 Y146.59 E35.60699
G1 X169.71 Y146.79 E35.62110
G1 X169.71 Y148.79 E35.72088
G1 X169.51 Y148.99 E35.73499
G1 X169.51 Y150.99 E35.83477
G1 X169.31 Y151.19 E35.84888
G1 X169.31 Y153.74 E35.97620
G1 X169.51 Y153.94 E35.99031
G1 X169.51 Y155.94 E36.09009
G1 X169.71 Y156.14 E36.10420
G1 X169.71 Y158.14 E36.20398
G1 X169.91 Y158.34 E36.21809
G1 X169.91 Y160.34 E36.31787
G1 X170.11 Y160.54 E36.33198
G1 X170.11 Y160.94 E36.35194
G1 X170.31 Y161.14 E36.36605
G1 X170.31 Y161.54 E36.38601
G1 X170.51 Y161.74 E36.40012
G1 X170.51 Y162.14 E36.42007
G1 X170.71 Y162.34 E36.43419
G1 X170.71 Y162.94 E36.46412
G1 X170.91 Y163.14 E36.47823
G1 X170.91 Y163.54 E36.49819
G1 X171.11 Y163.74 E36.51230
G1 X171.11 Y164.14 E36.53225
G1 X171.31 Y164.34 E36.54637
G1 X171.31 Y164.94 E36.57630
G1 X171.51 Y165.14 E36.59041
G1 X171.51 Y165.54 E36.61037
G1 X171.71 Y165.74 E36.62448
G1 X171.71 Y166.14 E36.64443
G1 X171.91 Y166.34 E36.65855
G1 X171.91 Y166.94 E36.68848
G1 X172.11 Y167.14 E36.70259
G1 X172.11 Y167.54 E36.72255
G1 X172.31 Y167.74 E36.73666
G1 X172.31 Y168.14 E36.75661
G1 X172.51 Y168.34 E36.77072
G1 X172.51 Y168.94 E36.80066
G1 X172.71 Y169.14 E36.81477
G1 X172.71 Y169.54 E36.83473
G1 X172.91 Y169.74 E36.84884
G1 X172.91 Y170.14 E36.86879
G1 X173.11 Y170.34 E36.88290
G1 X173.11 Y170.94 E36.91284
G1 X173.51 Y171.34 E36.94106
G1 X173.51 Y171.54 E36.95104
G1 X173.71 Y171.74 E36.96515
G1 X173.71 Y171.94 E36.97513
G1 X173.91 Y172.14 E36.98924
G1 X173.91 Y172.34 E36.99922
G1 X174.11 Y172.54 E37.01333
G1 X174.11 Y172.74 E37.02331
G1 X174.51 Y173.14 E37.05153
G1 X174.51 Y173.34 E37.06151
G1 X174.71 Y173.54 E37.07562
G1 X174.71 Y173.74 E37.08560
G1 X174.91 Y173.94 E37.09971
G1 X174.91 Y174.14 E37.10968
G1 X175.11 Y174.34 E37.12380
G1 X175.11 Y174.54 E37.13377
G1 X175.51 Y174.94 E37.16200
G1 X175.51 Y175.14 E37.17197
G1 X175.71 Y175.34 E37.18608
G1 X175.71 Y175.54 E37.19606
G1 X175.91 Y175.74 E37.21017
G1 X175.91 Y175.94 E37.22015
G1 X176.11 Y176.14 E37.23426
G1 X176.11 Y176.34 E37.24424
G1 X176.31 Y176.54 E37.25835
G1 X176.31 Y176.74 E37.26833
G1 X176.71 Y177.14 E37.29655
G1 X176.71 Y177.34 E37.30653
G1 X176.91 Y177.54 E37.32064
G1 X176.91 Y177.74 E37.33062
G1 X177.11 Y177.94 E37.34473
G1 X177.11 Y178.14 E37.35471
G1 X177.31 Y178.34 E37.36882
G1 X177.31 Y178.54 E37.37880
G1 X177.71 Y178.94 E37.40702
G1 X177.71 Y179.14 E37.41700
G1 X177.91 Y179.34 E37.43111
G1 X177.91 Y179.54 E37.44109
G1 X178.11 Y179.74 E37.45520
G1 X178.11 Y179.94 E37.46518
G1 X178.31 Y180.14 E37.47929
G1 X178.31 Y180.34 E37.48927
G1 X178.51 Y180.54 E37.50338
G1 X178.51 Y180.74 E37.51335
G1 X179.51 Y181.74 E37.58391
G1 X179.51 Y181.94 E37.59389
G1 X180.31 Y182.74 E37.65033
G1 X180.31 Y182.94 E37.66031
G1 X181.31 Y183.94 E37.73087
G1 X181.31 Y184.14 E37.74084
G1 X182.11 Y184.94 E37.79729
G1 X182.11 Y185.14 E37.80727
G1 X182.91 Y185.94 E37.86371
G1 X182.91 Y186.14 E37.87369
G1 X183.91 Y187.14 E37.94424
G1 X183.91 Y187.34 E37.95422
G1 X184.54 Y187.97 E37.99832
G1 X184.94 Y188.16 E38.02063
G1 X185.74 Y188.97 E38.07707
G1 X186.14 Y189.16 E38.09939
G1 X186.74 Y189.76 E38.14172
G1 X187.14 Y189.97 E38.16403
G1 X187.74 Y190.56 E38.20636
G1 X188.14 Y190.76 E38.22868
G1 X188.94 Y191.56 E38.28512
G1 X189.34 Y191.76 E38.30743
G1 X189.94 Y192.37 E38.34977
G1 X190.34 Y192.56 E38.37208
G1 X191.14 Y193.37 E38.42852
G1 X193.14 Y194.37 E38.54008
G1 X193.34 Y194.56 E38.55419
G1 X194.94 Y195.37 E38.64344
G1 X195.14 Y195.56 E38.65755
G1 X197.14 Y196.56 E38.76911
G1 X197.34 Y196.76 E38.78322
G1 X198.94 Y197.56 E38.87246
G1 X199.14 Y197.76 E38.88657
G1 X199.61 Y198.00 E38.91283
G1 X200.65 Y198.35 E38.96755
G1 X201.46 Y198.55 E39.00899
G1 X202.65 Y198.95 E39.07180
G1 X203.46 Y199.15 E39.11324
G1 X204.65 Y199.55 E39.17605
G1 X205.46 Y199.75 E39.21749
G1 X206.65 Y200.15 E39.28030
G1 X207.45 Y200.35 E39.32169
G1 X208.61 Y200.74 E39.38265
G1 X208.61 Y104.19 E44.19920
G1 X207.46 Y104.58 E44.26010
G1 X206.65 Y104.78 E44.30154
G1 X205.46 Y105.18 E44.36435
G1 X204.65 Y105.38 E44.40579
G1 X203.46 Y105.78 E44.46860
G1 X202.65 Y105.98 E44.51004
G1 X201.46 Y106.38 E44.57285
G1 X200.65 Y106.58 E44.61429
G1 X199.61 Y106.93 E44.66901
G1 X197.94 Y107.76 E44.76220
G1 X197.74 Y107.96 E44.77631
G1 X194.54 Y109.56 E44.95481
G1 X194.34 Y109.76 E44.96892
G1 X191.14 Y111.36 E45.14741
G1 X190.34 Y112.16 E45.20385
G1 X189.94 Y112.36 E45.22617
G1 X189.34 Y112.96 E45.26850
G1 X188.94 Y113.16 E45.29081
G1 X188.14 Y113.96 E45.34726
G1 X187.74 Y114.16 E45.36957
G1 X187.14 Y114.76 E45.41190
G1 X186.74 Y114.96 E45.43421
G1 X186.14 Y115.56 E45.47655
G1 X185.74 Y115.76 E45.49886
G1 X184.94 Y116.56 E45.55530
G1 X184.54 Y116.76 E45.57761
G1 X183.91 Y117.39 E45.62171
G1 X183.91 Y117.59 E45.63169
G1 X182.91 Y118.59 E45.70224
G1 X182.91 Y118.79 E45.71222
G1 X182.11 Y119.59 E45.76867
G1 X182.11 Y119.79 E45.77864
G1 X181.31 Y120.59 E45.83509
G1 X181.31 Y120.79 E45.84507
G1 X180.31 Y121.79 E45.91562
G1 X180.31 Y121.99 E45.92560
G1 X179.51 Y122.79 E45.98204
G1 X179.51 Y122.99 E45.99202
G1 X178.51 Y123.99 E46.06258
G1 X178.51 Y124.19 E46.07256
G0 F12000 X178.11 Y124.02
G1 F2700 X177.91 Y124.22 E46.08667
G1 X177.91 Y124.42 E46.09664
G1 X177.71 Y124.62 E46.11076
G1 X177.71 Y124.82 E46.12073
G1 X177.51 Y125.02 E46.13484
G1 X177.51 Y125.22 E46.14482
G1 X177.31 Y125.42 E46.15893
G1 X177.31 Y125.62 E46.16891
G1 X176.91 Y126.02 E46.19713
G1 X176.91 Y126.22 E46.20711
G1 X176.71 Y126.42 E46.22122
G1 X176.71 Y126.62 E46.23120
G1 X176.51 Y126.82 E46.24531
G1 X176.51 Y127.02 E46.25529
G1 X176.31 Y127.22 E46.26940
G1 X176.31 Y127.42 E46.27938
G1 X175.91 Y127.82 E46.30760
G1 X175.91 Y128.02 E46.31758
G1 X175.71 Y128.22 E46.33169
G1 X175.71 Y128.42 E46.34167
G1 X175.51 Y128.62 E46.35578
G1 X175.51 Y128.82 E46.36576
G1 X175.31 Y129.02 E46.37987
G1 X175.31 Y129.22 E46.38985
G1 X175.11 Y129.42 E46.40396
G1 X175.11 Y129.62 E46.41394
G1 X174.71 Y130.02 E46.44216
G1 X174.71 Y130.22 E46.45214
G1 X174.51 Y130.42 E46.46625
G1 X174.51 Y130.62 E46.47623
G1 X174.31 Y130.82 E46.49034
G1 X174.31 Y131.02 E46.50031
G1 X174.11 Y131.22 E46.51443
G1 X174.11 Y131.42 E46.52440
G1 X173.71 Y131.82 E46.55263
G1 X173.71 Y132.02 E46.56260
G1 X173.51 Y132.22 E46.57671
G1 X173.51 Y132.42 E46.58669
G1 X173.31 Y132.62 E46.60080
G1 X173.31 Y132.82 E46.61078
G1 X173.11 Y133.02 E46.62489
G1 X173.11 Y133.22 E46.63487
G1 X172.71 Y133.62 E46.66309
G1 X172.71 Y134.22 E46.69303
G1 X172.51 Y134.42 E46.70714
G1 X172.51 Y134.82 E46.72709
G1 X172.31 Y135.02 E46.74121
G1 X172.31 Y135.42 E46.76116
G1 X172.11 Y135.62 E46.77527
G1 X172.11 Y136.22 E46.80521
G1 X171.91 Y136.42 E46.81932
G1 X171.91 Y136.82 E46.83927
G1 X171.71 Y137.02 E46.85339
G1 X171.71 Y137.42 E46.87334
G1 X171.51 Y137.62 E46.88745
G1 X171.51 Y138.22 E46.91739
G1 X171.31 Y138.42 E46.93150
G1 X171.31 Y138.82 E46.95145
G1 X171.11 Y139.02 E46.96556
G1 X171.11 Y139.42 E46.98552
G1 X170.91 Y139.62 E46.99963
G1 X170.91 Y140.22 E47.02957
G1 X170.71 Y140.42 E47.04368
G1 X170.71 Y140.82 E47.06363
G1 X170.51 Y141.02 E47.07774
G1 X170.51 Y141.42 E47.09770
G1 X170.31 Y141.62 E47.11181
G1 X170.31 Y142.22 E47.14175
G1 X170.11 Y142.42 E47.15586
G1 X170.11 Y142.82 E47.17581
G1 X169.91 Y143.02 E47.18992
G1 X169.91 Y143.42 E47.20988
G1 X169.71 Y143.62 E47.22399
G1 X169.71 Y144.02 E47.24395
G1 X169.51 Y144.22 E47.25806
G1 X169.51 Y146.42 E47.36782
G1 X169.31 Y146.62 E47.38193
G1 X169.31 Y148.62 E47.48171
G1 X169.11 Y148.82 E47.49582
G1 X169.11 Y150.82 E47.59560
G1 X168.91 Y151.02 E47.60971
G1 X168.91 Y153.91 E47.75359
G1 X169.11 Y154.11 E47.76771
G1 X169.11 Y156.11 E47.86749
G1 X169.31 Y156.31 E47.88160
G1 X169.31 Y158.31 E47.98138
G1 X169.51 Y158.51 E47.99549
G1 X169.51 Y160.51 E48.09527
G1 X169.71 Y160.71 E48.10938
G1 X169.71 Y161.11 E48.12934
G1 X169.91 Y161.31 E48.14345
G1 X169.91 Y161.71 E48.16340
G1 X170.11 Y161.91 E48.17751
G1 X170.11 Y162.31 E48.19747
G1 X170.31 Y162.51 E48.21158
G1 X170.31 Y163.11 E48.24152
G1 X170.51 Y163.31 E48.25563
G1 X170.51 Y163.71 E48.27558
G1 X170.71 Y163.91 E48.28969
G1 X170.71 Y164.31 E48.30965
G1 X170.91 Y164.51 E48.32376
G1 X170.91 Y165.11 E48.35369
G1 X171.11 Y165.31 E48.36781
G1 X171.11 Y165.71 E48.38776
G1 X171.31 Y165.91 E48.40187
G1 X171.31 Y166.31 E48.42183
G1 X171.51 Y166.51 E48.43594
G1 X171.51 Y167.11 E48.46587
G1 X171.71 Y167.31 E48.47999
G1 X171.71 Y167.71 E48.49994
G1 X171.91 Y167.91 E48.51405
G1 X171.91 Y168.31 E48.53401
G1 X172.11 Y168.51 E48.54812
G1 X172.11 Y169.11 E48.57805
G1 X172.31 Y169.31 E48.59216
G1 X172.31 Y169.71 E48.61212
G1 X172.51 Y169.91 E48.62623
G1 X172.51 Y170.31 E48.64619
G1 X172.71 Y170.51 E48.66030
G1 X172.71 Y171.11 E48.69023
G1 X173.11 Y171.51 E48.71846
G1 X173.11 Y171.71 E48.72843
G1 X173.31 Y171.91 E48.74254
G1 X173.31 Y172.11 E48.75252
G1 X173.51 Y172.31 E48.76663
G1 X173.51 Y172.51 E48.77661
G1 X173.71 Y172.71 E48.79072
G1 X173.71 Y172.91 E48.80070
G1 X174.11 Y173.31 E48.82892
G1 X174.11 Y173.51 E48.83890
G1 X174.31 Y173.71 E48.85301
G1 X174.31 Y173.91 E48.86299
G1 X174.51 Y174.11 E48.87710
G1 X174.51 Y174.31 E48.88708
G1 X174.71 Y174.51 E48.90119
G1 X174.71 Y174.71 E48.91117
G1 X175.11 Y175.11 E48.93939
G1 X175.11 Y175.31 E48.94937
G1 X175.31 Y175.51 E48.96348
G1 X175.31 Y175.71 E48.97346
G1 X175.51 Y175.91 E48.98757
G1 X175.51 Y176.11 E48.99755
G1 X175.71 Y176.31 E49.01166
G1 X175.71 Y176.51 E49.02164
G1 X175.91 Y176.71 E49.03575
G1 X175.91 Y176.91 E49.04572
G1 X176.31 Y177.31 E49.07395
G1 X176.31 Y177.51 E49.08393
G1 X176.51 Y177.71 E49.09804
G1 X176.51 Y177.91 E49.10801
G1 X176.71 Y178.11 E49.12213
G1 X176.71 Y178.31 E49.13210
G1 X176.91 Y178.51 E49.14621
G1 X176.91 Y178.71 E49.15619
G1 X177.31 Y179.11 E49.18441
G1 X177.31 Y179.31 E49.19439
G1 X177.51 Y179.51 E49.20850
G1 X177.51 Y179.71 E49.21848
G1 X177.71 Y179.91 E49.23259
G1 X177.71 Y180.11 E49.24257
G1 X177.91 Y180.31 E49.25668
G1 X177.91 Y180.51 E49.26666
G1 X178.11 Y180.71 E49.28077
G1 X178.11 Y180.91 E49.29075
G1 X179.11 Y181.91 E49.36130
G1 X179.11 Y182.11 E49.37128
G1 X179.91 Y182.91 E49.42773
G1 X179.91 Y183.11 E49.43771
G1 X180.91 Y184.11 E49.50826
G1 X180.91 Y184.31 E49.51824
G1 X181.71 Y185.11 E49.57468
G1 X181.71 Y185.31 E49.58466
G1 X182.51 Y186.11 E49.64111
G1 X182.51 Y186.31 E49.65108
G1 X183.51 Y187.31 E49.72164
G1 X183.51 Y187.51 E49.73162
G1 X184.30 Y188.29 E49.78721
G1 X184.70 Y188.49 E49.80953
G1 X185.50 Y189.29 E49.86597
G1 X185.90 Y189.49 E49.88828
G1 X186.50 Y190.09 E49.93061
G1 X186.90 Y190.29 E49.95293
G1 X187.50 Y190.89 E49.99526
G1 X187.90 Y191.09 E50.01757
G1 X188.70 Y191.89 E50.07402
G1 X189.10 Y192.09 E50.09633
G1 X189.70 Y192.69 E50.13866
G1 X190.10 Y192.89 E50.16097
G1 X190.90 Y193.69 E50.21742
G1 X192.90 Y194.69 E50.32897
G1 X193.10 Y194.89 E50.34309
G1 X194.70 Y195.69 E50.43233
G1 X194.90 Y195.89 E50.44644
G1 X196.90 Y196.89 E50.55800
G1 X197.10 Y197.09 E50.57211
G1 X198.70 Y197.89 E50.66136
G1 X198.90 Y198.09 E50.67547
G1 X199.46 Y198.37 E50.70648
G1 X200.54 Y198.73 E50.76355
G1 X201.34 Y198.93 E50.80478
G1 X202.54 Y199.33 E50.86784
G1 X203.34 Y199.53 E50.90903
G1 X204.54 Y199.93 E50.97209
G1 X205.34 Y200.13 E51.01328
G1 X206.54 Y200.53 E51.07623
G1 X207.34 Y200.73 E51.11747
G1 X208.63 Y201.16 E51.18532
G1 X209.01 Y201.20 E51.20436
G1 X209.01 Y103.71 E56.06831
G1 X208.70 Y103.74 E56.08397
G1 X207.34 Y104.19 E56.15539
G1 X206.54 Y104.39 E56.19648
G1 X205.34 Y104.79 E56.25959
G1 X204.54 Y104.99 E56.30078
G1 X203.34 Y105.39 E56.36384
G1 X202.54 Y105.59 E56.40503
G1 X201.34 Y105.99 E56.46809
G1 X200.54 Y106.19 E56.50932
G1 X199.46 Y106.56 E56.56639
G1 X197.70 Y107.43 E56.66434
G1 X197.50 Y107.63 E56.67845
G1 X194.30 Y109.23 E56.85694
G1 X194.10 Y109.43 E56.87105
G1 X190.90 Y111.03 E57.04954
G1 X190.10 Y111.83 E57.10599
G1 X189.70 Y112.03 E57.12830
G1 X189.10 Y112.63 E57.17063
G1 X188.70 Y112.83 E57.19294
G1 X187.90 Y113.63 E57.24939
G1 X187.50 Y113.83 E57.27170
G1 X186.90 Y114.43 E57.31403
G1 X186.50 Y114.63 E57.33634
G1 X185.90 Y115.23 E57.37868
G1 X185.50 Y115.43 E57.40099
G1 X184.70 Y116.23 E57.45743
G1 X184.30 Y116.43 E57.47974
G1 X183.51 Y117.22 E57.53534
G1 X183.51 Y117.42 E57.54532
G1 X182.51 Y118.42 E57.61588
G1 X182.51 Y118.62 E57.62585
G1 X181.71 Y119.42 E57.68230
G1 X181.71 Y119.62 E57.69228
G1 X180.91 Y120.42 E57.74872
G1 X180.91 Y120.62 E57.75870
G1 X179.91 Y121.62 E57.82925
G1 X179.91 Y121.82 E57.83923
G1 X179.11 Y122.62 E57.89568
G1 X179.11 Y122.82 E57.90565
G1 X178.11 Y123.82 E57.97621
G1 X178.11 Y124.02 E57.98619
G0 F12000 X177.71 Y123.86
G1 F2700 X177.51 Y124.06 E58.00030
G1 X177.51 Y124.26 E58.01028
G1 X177.31 Y124.46 E58.02439
G1 X177.31 Y124.66 E58.03437
G1 X177.11 Y124.86 E58.04848
G1 X177.11 Y125.06 E58.05846
G1 X176.91 Y125.26 E58.07257
G1 X176.91 Y125.46 E58.08254
G1 X176.51 Y125.86 E58.11077
G1 X176.51 Y126.06 E58.12074
G1 X176.31 Y126.26 E58.13486
G1 X176.31 Y126.46 E58.14483
G1 X176.11 Y126.66 E58.15894
G1 X176.11 Y126.86 E58.16892
G1 X175.91 Y127.06 E58.18303
G1 X175.91 Y127.26 E58.19301
G1 X175.51 Y127.66 E58.22123
G1 X175.51 Y127.86 E58.23121
G1 X175.31 Y128.06 E58.24532
G1 X175.31 Y128.26 E58.25530
G1 X175.11 Y128.46 E58.26941
G1 X175.11 Y128.66 E58.27939
G1 X174.91 Y128.86 E58.29350
G1 X174.91 Y129.06 E58.30348
G1 X174.71 Y129.26 E58.31759
G1 X174.71 Y129.46 E58.32757
G1 X174.31 Y129.86 E58.35579
G1 X174.31 Y130.06 E58.36577
G1 X174.11 Y130.26 E58.37988
G1 X174.11 Y130.46 E58.38986
G1 X173.91 Y130.66 E58.40397
G1 X173.91 Y130.86 E58.41395
G1 X173.71 Y131.06 E58.42806
G1 X173.71 Y131.26 E58.43804
G1 X173.31 Y131.66 E58.46626
G1 X173.31 Y131.86 E58.47624
G1 X173.11 Y132.06 E58.49035
G1 X173.11 Y132.26 E58.50033
G1 X172.91 Y132.46 E58.51444
G1 X172.91 Y132.66 E58.52441
G1 X172.71 Y132.86 E58.53853
G1 X172.71 Y133.06 E58.54850
G1 X172.31 Y133.46 E58.57673
G1 X172.31 Y134.06 E58.60666
G1 X172.11 Y134.26 E58.62077
G1 X172.11 Y134.66 E58.64073
G1 X171.91 Y134.86 E58.65484
G1 X171.91 Y135.26 E58.67479
G1 X171.71 Y135.46 E58.68891
G1 X171.71 Y136.06 E58.71884
G1 X171.51 Y136.26 E58.73295
G1 X171.51 Y136.66 E58.75291
G1 X171.31 Y136.86 E58.76702
G1 X171.31 Y137.26 E58.78697
G1 X171.11 Y137.46 E58.80108
G1 X171.11 Y138.06 E58.83102
G1 X170.91 Y138.26 E58.84513
G1 X170.91 Y138.66 E58.86509
G1 X170.71 Y138.86 E58.87920
G1 X170.71 Y139.26 E58.89915
G1 X170.51 Y139.46 E58.91326
G1 X170.51 Y140.06 E58.94320
G1 X170.31 Y140.26 E58.95731
G1 X170.31 Y140.66 E58.97727
G1 X170.11 Y140.86 E58.99138
G1 X170.11 Y141.26 E59.01133
G1 X169.91 Y141.46 E59.02544
G1 X169.91 Y142.06 E59.05538
G1 X169.71 Y142.26 E59.06949
G1 X169.71 Y142.66 E59.08945
G1 X169.51 Y142.86 E59.10356
G1 X169.51 Y143.26 E59.12351
G1 X169.31 Y143.46 E59.13762
G1 X169.31 Y143.86 E59.15758
G1 X169.11 Y144.06 E59.17169
G1 X169.11 Y146.26 E59.28145
G1 X168.91 Y146.46 E59.29556
G1 X168.91 Y148.46 E59.39534
G1 X168.71 Y148.66 E59.40945
G1 X168.71 Y150.66 E59.50923
G1 X168.51 Y150.86 E59.52334
G1 X168.51 Y154.07 E59.68379
G1 X168.71 Y154.27 E59.69790
G1 X168.71 Y156.27 E59.79768
G1 X168.91 Y156.47 E59.81179
G1 X168.91 Y158.47 E59.91157
G1 X169.11 Y158.67 E59.92568
G1 X169.11 Y160.67 E60.02546
G1 X169.31 Y160.87 E60.03958
G1 X169.31 Y161.27 E60.05953
G1 X169.51 Y161.47 E60.07364
G1 X169.51 Y161.87 E60.09360
G1 X169.71 Y162.07 E60.10771
G1 X169.71 Y162.47 E60.12767
G1 X169.91 Y162.67 E60.14178
G1 X169.91 Y163.27 E60.17171
G1 X170.11 Y163.47 E60.18582
G1 X170.11 Y163.87 E60.20578
G1 X170.31 Y164.07 E60.21989
G1 X170.31 Y164.47 E60.23985
G1 X170.51 Y164.67 E60.25396
G1 X170.51 Y165.27 E60.28389
G1 X170.71 Y165.47 E60.29800
G1 X170.71 Y165.87 E60.31796
G1 X170.91 Y166.07 E60.33207
G1 X170.91 Y166.47 E60.35202
G1 X171.11 Y166.67 E60.36614
G1 X171.11 Y167.27 E60.39607
G1 X171.31 Y167.47 E60.41018
G1 X171.31 Y167.87 E60.43014
G1 X171.51 Y168.07 E60.44425
G1 X171.51 Y168.47 E60.46420
G1 X171.71 Y168.67 E60.47832
G1 X171.71 Y169.27 E60.50825
G1 X171.91 Y169.47 E60.52236
G1 X171.91 Y169.87 E60.54232
G1 X172.11 Y170.07 E60.55643
G1 X172.11 Y170.47 E60.57638
G1 X172.31 Y170.67 E60.59049
G1 X172.31 Y171.27 E60.62043
G1 X172.71 Y171.67 E60.64865
G1 X172.71 Y171.87 E60.65863
G1 X172.91 Y172.07 E60.67274
G1 X172.91 Y172.27 E60.68272
G1 X173.11 Y172.47 E60.69683
G1 X173.11 Y172.67 E60.70681
G1 X173.31 Y172.87 E60.72092
G1 X173.31 Y173.07 E60.73090
G1 X173.71 Y173.47 E60.75912
G1 X173.71 Y173.67 E60.76910
G1 X173.91 Y173.87 E60.78321
G1 X173.91 Y174.07 E60.79319
G1 X174.11 Y174.27 E60.80730
G1 X174.11 Y174.47 E60.81728
G1 X174.31 Y174.67 E60.83139
G1 X174.31 Y174.87 E60.84136
G1 X174.71 Y175.27 E60.86959
G1 X174.71 Y175.47 E60.87956
G1 X174.91 Y175.67 E60.89368
G1 X174.91 Y175.87 E60.90365
G1 X175.11 Y176.07 E60.91776
G1 X175.11 Y176.27 E60.92774
G1 X175.31 Y176.47 E60.94185
G1 X175.31 Y176.67 E60.95183
G1 X175.51 Y176.87 E60.96594
G1 X175.51 Y177.07 E60.97592
G1 X175.91 Y177.47 E61.00414
G1 X175.91 Y177.67 E61.01412
G1 X176.11 Y177.87 E61.02823
G1 X176.11 Y178.07 E61.03821
G1 X176.31 Y178.27 E61.05232
G1 X176.31 Y178.47 E61.06230
G1 X176.51 Y178.67 E61.07641
G1 X176.51 Y178.87 E61.08639
G1 X176.91 Y179.27 E61.11461
G1 X176.91 Y179.47 E61.12459
G1 X177.11 Y179.67 E61.13870
G1 X177.11 Y179.87 E61.14868
G1 X177.31 Y180.07 E61.16279
G1 X177.31 Y180.27 E61.17277
G1 X177.51 Y180.47 E61.18688
G1 X177.51 Y180.67 E61.19686
G1 X177.71 Y180.87 E61.21097
G1 X177.71 Y181.07 E61.22095
G1 X178.71 Y182.07 E61.29150
G1 X178.71 Y182.27 E61.30148
G1 X179.51 Y183.07 E61.35792
G1 X179.51 Y183.27 E61.36790
G1 X180.51 Y184.27 E61.43846
G1 X180.51 Y184.47 E61.44843
G1 X181.31 Y185.27 E61.50488
G1 X181.31 Y185.47 E61.51486
G1 X182.11 Y186.27 E61.57130
G1 X182.11 Y186.47 E61.58128
G1 X183.11 Y187.47 E61.65183
G1 X183.11 Y187.67 E61.66181
G1 X183.46 Y188.02 E61.68644
G1 X183.46 Y188.02 E61.68655
G1 X184.06 Y188.62 E61.72885
G1 X184.46 Y188.82 E61.75120
G1 X185.26 Y189.62 E61.80758
G1 X185.66 Y189.82 E61.82995
G1 X186.26 Y190.42 E61.87225
G1 X186.66 Y190.62 E61.89461
G1 X187.26 Y191.22 E61.93691
G1 X187.66 Y191.42 E61.95926
G1 X188.46 Y192.22 E62.01564
G1 X188.86 Y192.42 E62.03802
G1 X189.46 Y193.02 E62.08031
G1 X189.86 Y193.22 E62.10267
G1 X190.66 Y194.02 E62.15904
G1 X192.66 Y195.02 E62.27067
G1 X192.86 Y195.22 E62.28478
G1 X194.46 Y196.02 E62.37403
G1 X194.66 Y196.22 E62.38814
G1 X196.66 Y197.22 E62.49969
G1 X196.86 Y197.42 E62.51381
G1 X198.46 Y198.22 E62.60305
G1 X198.66 Y198.42 E62.61716
G1 X199.31 Y198.74 E62.65297
G1 X200.42 Y199.12 E62.71173
G1 X201.23 Y199.32 E62.75333
G1 X202.42 Y199.72 E62.81597
G1 X203.23 Y199.92 E62.85757
G1 X204.42 Y200.32 E62.92022
G1 X205.23 Y200.52 E62.96182
G1 X206.42 Y200.92 E63.02452
G1 X207.23 Y201.12 E63.06602
G1 X208.55 Y201.56 E63.13555
G1 X209.41 Y201.64 E63.17863
G1 X209.41 Y103.26 E68.08673
G1 X208.62 Y103.35 E68.12669
G1 X207.23 Y103.81 E68.19958
G1 X206.42 Y104.01 E68.24108
G1 X205.23 Y104.41 E68.30378
G1 X204.42 Y104.61 E68.34538
G1 X203.23 Y105.01 E68.40803
G1 X202.42 Y105.21 E68.44963
G1 X201.23 Y105.61 E68.51228
G1 X200.42 Y105.81 E68.55388
G1 X199.31 Y106.19 E68.61263
G1 X197.46 Y107.11 E68.71538
G1 X197.26 Y107.31 E68.72949
G1 X194.06 Y108.91 E68.90798
G1 X193.86 Y109.11 E68.92209
G1 X190.66 Y110.71 E69.10065
G1 X189.86 Y111.51 E69.15702
G1 X189.46 Y111.71 E69.17938
G1 X188.86 Y112.31 E69.22168
G1 X188.46 Y112.51 E69.24406
G1 X187.66 Y113.31 E69.30043
G1 X187.26 Y113.51 E69.32279
G1 X186.66 Y114.11 E69.36509
G1 X186.26 Y114.31 E69.38744
G1 X185.66 Y114.91 E69.42974
G1 X185.26 Y115.11 E69.45212
G1 X184.46 Y115.91 E69.50849
G1 X184.06 Y116.11 E69.53085
G1 X183.46 Y116.71 E69.57315
G1 X183.46 Y116.71 E69.57326
G1 X183.11 Y117.06 E69.59788
G1 X183.11 Y117.26 E69.60786
G1 X182.11 Y118.26 E69.67842
G1 X182.11 Y118.46 E69.68839
G1 X181.31 Y119.26 E69.74484
G1 X181.31 Y119.46 E69.75482
G1 X180.51 Y120.26 E69.81126
G1 X180.51 Y120.46 E69.82124
G1 X179.51 Y121.46 E69.89179
G1 X179.51 Y121.66 E69.90177
G1 X178.71 Y122.46 E69.95822
G1 X178.71 Y122.66 E69.96819
G1 X177.71 Y123.66 E70.03875
G1 X177.71 Y123.86 E70.04873
G0 F12000 X177.31 Y123.69
G1 F2700 X177.11 Y123.89 E70.06284
G1 X177.11 Y124.09 E70.07282
G1 X176.91 Y124.29 E70.08693
G1 X176.91 Y124.49 E70.09691
G1 X176.71 Y124.69 E70.11102
G1 X176.71 Y124.89 E70.12099
G1 X176.51 Y125.09 E70.13511
G1 X176.51 Y125.29 E70.14508
G1 X176.11 Y125.69 E70.17331
G1 X176.11 Y125.89 E70.18328
G1 X175.91 Y126.09 E70.19739
G1 X175.91 Y126.29 E70.20737
G1 X175.71 Y126.49 E70.22148
G1 X175.71 Y126.69 E70.23146
G1 X175.51 Y126.89 E70.24557
G1 X175.51 Y127.09 E70.25555
G1 X175.11 Y127.49 E70.28377
G1 X175.11 Y127.69 E70.29375
G1 X174.91 Y127.89 E70.30786
G1 X174.91 Y128.09 E70.31784
G1 X174.71 Y128.29 E70.33195
G1 X174.71 Y128.49 E70.34193
G1 X174.51 Y128.69 E70.35604
G1 X174.51 Y128.89 E70.36602
G1 X174.31 Y129.09 E70.38013
G1 X174.31 Y129.29 E70.39011
G1 X173.91 Y129.69 E70.41833
G1 X173.91 Y129.89 E70.42831
G1 X173.71 Y130.09 E70.44242
G1 X173.71 Y130.29 E70.45240
G1 X173.51 Y130.49 E70.46651
G1 X173.51 Y130.69 E70.47649
G1 X173.31 Y130.89 E70.49060
G1 X173.31 Y131.09 E70.50058
G1 X172.91 Y131.49 E70.52880
G1 X172.91 Y131.69 E70.53878
G1 X172.71 Y131.89 E70.55289
G1 X172.71 Y132.09 E70.56286
G1 X172.51 Y132.29 E70.57698
G1 X172.51 Y132.49 E70.58695
G1 X172.31 Y132.69 E70.60106
G1 X172.31 Y132.89 E70.61104
G1 X171.91 Y133.29 E70.63927
G1 X171.91 Y133.89 E70.66920
G1 X171.71 Y134.09 E70.68331
G1 X171.71 Y134.49 E70.70327
G1 X171.51 Y134.69 E70.71738
G1 X171.51 Y135.09 E70.73733
G1 X171.31 Y135.29 E70.75144
G1 X171.31 Y135.89 E70.78138
G1 X171.11 Y136.09 E70.79549
G1 X171.11 Y136.49 E70.81545
G1 X170.91 Y136.69 E70.82956
G1 X170.91 Y137.09 E70.84951
G1 X170.71 Y137.29 E70.86362
G1 X170.71 Y137.89 E70.89356
G1 X170.51 Y138.09 E70.90767
G1 X170.51 Y138.49 E70.92763
G1 X170.31 Y138.69 E70.94174
G1 X170.31 Y139.09 E70.96169
G1 X170.11 Y139.29 E70.97580
G1 X170.11 Y139.89 E71.00574
G1 X169.91 Y140.09 E71.01985
G1 X169.91 Y140.49 E71.03981
G1 X169.71 Y140.69 E71.05392
G1 X169.71 Y141.09 E71.07387
G1 X169.51 Y141.29 E71.08798
G1 X169.51 Y141.89 E71.11792
G1 X169.31 Y142.09 E71.13203
G1 X169.31 Y142.49 E71.15198
G1 X169.11 Y142.69 E71.16610
G1 X169.11 Y143.09 E71.18605
G1 X168.91 Y143.29 E71.20016
G1 X168.91 Y143.69 E71.22012
G1 X168.71 Y143.89 E71.23423
G1 X168.71 Y146.09 E71.34399
G1 X168.51 Y146.29 E71.35810
G1 X168.51 Y148.29 E71.45788
G1 X168.31 Y148.49 E71.47199
G1 X168.31 Y150.49 E71.57177
G1 X168.11 Y150.69 E71.58588
G1 X168.11 Y154.24 E71.76279
G1 X168.31 Y154.44 E71.77690
G1 X168.31 Y156.44 E71.87668
G1 X168.51 Y156.64 E71.89080
G1 X168.51 Y158.64 E71.99058
G1 X168.71 Y158.84 E72.00469
G1 X168.71 Y160.84 E72.10447
G1 X168.91 Y161.04 E72.11858
G1 X168.91 Y161.44 E72.13853
G1 X169.11 Y161.64 E72.15265
G1 X169.11 Y162.04 E72.17260
G1 X169.31 Y162.24 E72.18671
G1 X169.31 Y162.64 E72.20667
G1 X169.51 Y162.84 E72.22078
G1 X169.51 Y163.44 E72.25071
G1 X169.71 Y163.64 E72.26483
G1 X169.71 Y164.04 E72.28478
G1 X169.91 Y164.24 E72.29889
G1 X169.91 Y164.64 E72.31885
G1 X170.11 Y164.84 E72.33296
G1 X170.11 Y165.44 E72.36289
G1 X170.31 Y165.64 E72.37700
G1 X170.31 Y166.04 E72.39696
G1 X170.51 Y166.24 E72.41107
G1 X170.51 Y166.64 E72.43103
G1 X170.71 Y166.84 E72.44514
G1 X170.71 Y167.44 E72.47507
G1 X170.91 Y167.64 E72.48918
G1 X170.91 Y168.04 E72.50914
G1 X171.11 Y168.24 E72.52325
G1 X171.11 Y168.64 E72.54321
G1 X171.31 Y168.84 E72.55732
G1 X171.31 Y169.44 E72.58725
G1 X171.51 Y169.64 E72.60136
G1 X171.51 Y170.04 E72.62132
G1 X171.71 Y170.24 E72.63543
G1 X171.71 Y170.64 E72.65539
G1 X171.91 Y170.84 E72.66950
G1 X171.91 Y171.44 E72.69943
G1 X172.31 Y171.84 E72.72765
G1 X172.31 Y172.04 E72.73763
G1 X172.51 Y172.24 E72.75174
G1 X172.51 Y172.44 E72.76172
G1 X172.71 Y172.64 E72.77583
G1 X172.71 Y172.84 E72.78581
G1 X172.91 Y173.04 E72.79992
G1 X172.91 Y173.24 E72.80990
G1 X173.31 Y173.64 E72.83812
G1 X173.31 Y173.84 E72.84810
G1 X173.51 Y174.04 E72.86221
G1 X173.51 Y174.24 E72.87219
G1 X173.71 Y174.44 E72.88630
G1 X173.71 Y174.64 E72.89628
G1 X173.91 Y174.84 E72.91039
G1 X173.91 Y175.04 E72.92037
G1 X174.31 Y175.44 E72.94859
G1 X174.31 Y175.64 E72.95857
G1 X174.51 Y175.84 E72.97268
G1 X174.51 Y176.04 E72.98266
G1 X174.71 Y176.24 E72.99677
G1 X174.71 Y176.44 E73.00675
G1 X174.91 Y176.64 E73.02086
G1 X174.91 Y176.84 E73.03084
G1 X175.11 Y177.04 E73.04495
G1 X175.11 Y177.24 E73.05492
G1 X175.51 Y177.64 E73.08315
G1 X175.51 Y177.84 E73.09312
G1 X175.71 Y178.04 E73.10724
G1 X175.71 Y178.24 E73.11721
G1 X175.91 Y178.44 E73.13132
G1 X175.91 Y178.64 E73.14130
G1 X176.11 Y178.84 E73.15541
G1 X176.11 Y179.04 E73.16539
G1 X176.51 Y179.44 E73.19361
G1 X176.51 Y179.64 E73.20359
G1 X176.71 Y179.84 E73.21770
G1 X176.71 Y180.04 E73.22768
G1 X176.91 Y180.24 E73.24179
G1 X176.91 Y180.44 E73.25177
G1 X177.11 Y180.64 E73.26588
G1 X177.11 Y180.84 E73.27586
G1 X177.31 Y181.04 E73.28997
G1 X177.31 Y181.24 E73.29995
G1 X178.31 Y182.24 E73.37050
G1 X178.31 Y182.44 E73.38048
G1 X179.11 Y183.24 E73.43693
G1 X179.11 Y183.44 E73.44690
G1 X180.11 Y184.44 E73.51746
G1 X180.11 Y184.64 E73.52744
G1 X180.91 Y185.44 E73.58388
G1 X180.91 Y185.64 E73.59386
G1 X181.71 Y186.44 E73.65030
G1 X181.71 Y186.64 E73.66028
G1 X182.71 Y187.64 E73.73084
G1 X182.71 Y187.84 E73.74082
G1 X183.23 Y188.35 E73.77708
G1 X183.83 Y188.95 E73.81938
G1 X184.23 Y189.15 E73.84174
G1 X185.03 Y189.95 E73.89811
G1 X185.43 Y190.15 E73.92049
G1 X186.03 Y190.75 E73.96279
G1 X186.43 Y190.95 E73.98514
G1 X187.03 Y191.55 E74.02744
G1 X187.43 Y191.75 E74.04980
G1 X188.23 Y192.55 E74.10617
G1 X188.63 Y192.75 E74.12855
G1 X189.23 Y193.35 E74.17085
G1 X189.63 Y193.55 E74.19320
G1 X190.43 Y194.35 E74.24958
G1 X192.43 Y195.35 E74.36120
G1 X192.63 Y195.55 E74.37531
G1 X194.23 Y196.35 E74.46456
G1 X194.43 Y196.55 E74.47867
G1 X196.43 Y197.55 E74.59023
G1 X196.63 Y197.75 E74.60434
G1 X198.23 Y198.55 E74.69358
G1 X198.43 Y198.75 E74.70770
G1 X199.15 Y199.11 E74.74797
G1 X200.31 Y199.50 E74.80909
G1 X201.12 Y199.70 E74.85069
G1 X202.31 Y200.10 E74.91334
G1 X203.12 Y200.30 E74.95494
G1 X204.31 Y200.70 E75.01759
G1 X205.12 Y200.90 E75.05919
G1 X206.31 Y201.30 E75.12188
G1 X207.12 Y201.50 E75.16339
G1 X208.47 Y201.95 E75.23454
G1 X209.81 Y202.07 E75.30172
G1 X209.81 Y102.81 E80.25392
G1 X208.53 Y102.96 E80.31847
G1 X207.12 Y103.43 E80.39253
G1 X206.31 Y103.63 E80.43403
G1 X205.12 Y104.03 E80.49673
G1 X204.31 Y104.23 E80.53833
G1 X203.12 Y104.63 E80.60098
G1 X202.31 Y104.83 E80.64258
G1 X201.12 Y105.23 E80.70523
G1 X200.31 Y105.43 E80.74683
G1 X199.15 Y105.82 E80.80795
G1 X197.23 Y106.78 E80.91515
G1 X197.03 Y106.98 E80.92927
G1 X193.83 Y108.58 E81.10776
G1 X193.63 Y108.78 E81.12187
G1 X190.43 Y110.38 E81.30043
G1 X189.63 Y111.18 E81.35680
G1 X189.23 Y111.38 E81.37916
G1 X188.63 Y111.98 E81.42146
G1 X188.23 Y112.18 E81.44384
G1 X187.43 Y112.98 E81.50021
G1 X187.03 Y113.18 E81.52257
G1 X186.43 Y113.78 E81.56486
G1 X186.03 Y113.98 E81.58722
G1 X185.43 Y114.58 E81.62952
G1 X185.03 Y114.78 E81.65190
G1 X184.23 Y115.58 E81.70827
G1 X183.83 Y115.78 E81.73063
G1 X183.51 Y116.09 E81.75275
G1 X182.71 Y116.89 E81.80919
G1 X182.71 Y117.09 E81.81917
G1 X181.71 Y118.09 E81.88972
G1 X181.71 Y118.29 E81.89970
G1 X180.91 Y119.09 E81.95615
G1 X180.91 Y119.29 E81.96612
G1 X180.11 Y120.09 E82.02257
G1 X180.11 Y120.29 E82.03255
G1 X179.11 Y121.29 E82.10310
G1 X179.11 Y121.49 E82.11308
G1 X178.31 Y122.29 E82.16952
G1 X178.31 Y122.49 E82.17950
G1 X177.31 Y123.49 E82.25006
G1 X177.31 Y123.69 E82.26004
G0 F12000 X176.91 Y123.53
G1 F2700 X176.71 Y123.72 E82.27415
G1 X176.71 Y123.92 E82.28412
G1 X176.51 Y124.12 E82.29824
G1 X176.51 Y124.33 E82.30821
G1 X176.31 Y124.53 E82.32232
G1 X176.31 Y124.72 E82.33230
G1 X176.11 Y124.92 E82.34641
G1 X176.11 Y125.12 E82.35639
G1 X175.71 Y125.53 E82.38461
G1 X175.71 Y125.72 E82.39459
G1 X175.51 Y125.92 E82.40870
G1 X175.51 Y126.12 E82.41868
G1 X175.31 Y126.33 E82.43279
G1 X175.31 Y126.53 E82.44277
G1 X175.11 Y126.72 E82.45688
G1 X175.11 Y126.92 E82.46686
G1 X174.71 Y127.33 E82.49508
G1 X174.71 Y127.53 E82.50506
G1 X174.51 Y127.72 E82.51917
G1 X174.51 Y127.92 E82.52915
G1 X174.31 Y128.12 E82.54326
G1 X174.31 Y128.32 E82.55324
G1 X174.11 Y128.53 E82.56735
G1 X174.11 Y128.72 E82.57733
G1 X173.91 Y128.93 E82.59144
G1 X173.91 Y129.12 E82.60142
G1 X173.51 Y129.53 E82.62964
G1 X173.51 Y129.72 E82.63962
G1 X173.31 Y129.93 E82.65373
G1 X173.31 Y130.12 E82.66371
G1 X173.11 Y130.32 E82.67782
G1 X173.11 Y130.53 E82.68779
G1 X172.91 Y130.72 E82.70191
G1 X172.91 Y130.93 E82.71188
G1 X172.51 Y131.32 E82.74011
G1 X172.51 Y131.53 E82.75008
G1 X172.31 Y131.72 E82.76419
G1 X172.31 Y131.93 E82.77417
G1 X172.11 Y132.12 E82.78828
G1 X172.11 Y132.32 E82.79826
G1 X171.91 Y132.53 E82.81237
G1 X171.91 Y132.72 E82.82235
G1 X171.51 Y133.12 E82.85057
G1 X171.51 Y133.72 E82.88051
G1 X171.31 Y133.93 E82.89462
G1 X171.31 Y134.32 E82.91457
G1 X171.11 Y134.53 E82.92869
G1 X171.11 Y134.93 E82.94864
G1 X170.91 Y135.12 E82.96275
G1 X170.91 Y135.72 E82.99269
G1 X170.71 Y135.93 E83.00680
G1 X170.71 Y136.32 E83.02675
G1 X170.51 Y136.53 E83.04087
G1 X170.51 Y136.93 E83.06082
G1 X170.31 Y137.12 E83.07493
G1 X170.31 Y137.72 E83.10487
G1 X170.11 Y137.93 E83.11898
G1 X170.11 Y138.32 E83.13893
G1 X169.91 Y138.53 E83.15304
G1 X169.91 Y138.93 E83.17300
G1 X169.71 Y139.12 E83.18711
G1 X169.71 Y139.72 E83.21705
G1 X169.51 Y139.93 E83.23116
G1 X169.51 Y140.32 E83.25111
G1 X169.31 Y140.53 E83.26522
G1 X169.31 Y140.93 E83.28518
G1 X169.11 Y141.12 E83.29929
G1 X169.11 Y141.72 E83.32923
G1 X168.91 Y141.93 E83.34334
G1 X168.91 Y142.32 E83.36329
G1 X168.71 Y142.53 E83.37740
G1 X168.71 Y142.93 E83.39736
G1 X168.51 Y143.12 E83.41147
G1 X168.51 Y143.53 E83.43143
G1 X168.31 Y143.72 E83.44554
G1 X168.31 Y145.93 E83.55530
G1 X168.11 Y146.12 E83.56941
G1 X168.11 Y148.12 E83.66919
G1 X167.91 Y148.32 E83.68330
G1 X167.91 Y150.32 E83.78308
G1 X167.71 Y150.53 E83.79719
G1 X167.71 Y154.40 E83.99066
G1 X167.91 Y154.60 E84.00478
G1 X167.91 Y156.60 E84.10456
G1 X168.11 Y156.80 E84.11867
G1 X168.11 Y158.80 E84.21845
G1 X168.31 Y159.00 E84.23256
G1 X168.31 Y161.00 E84.33234
G1 X168.51 Y161.20 E84.34645
G1 X168.51 Y161.60 E84.36641
G1 X168.71 Y161.80 E84.38052
G1 X168.71 Y162.20 E84.40047
G1 X168.91 Y162.40 E84.41458
G1 X168.91 Y162.80 E84.43454
G1 X169.11 Y163.00 E84.44865
G1 X169.11 Y163.60 E84.47859
G1 X169.31 Y163.80 E84.49270
G1 X169.31 Y164.20 E84.51265
G1 X169.51 Y164.40 E84.52676
G1 X169.51 Y164.80 E84.54672
G1 X169.71 Y165.00 E84.56083
G1 X169.71 Y165.60 E84.59077
G1 X169.91 Y165.80 E84.60488
G1 X169.91 Y166.20 E84.62483
G1 X170.11 Y166.40 E84.63894
G1 X170.11 Y166.80 E84.65890
G1 X170.31 Y167.00 E84.67301
G1 X170.31 Y167.60 E84.70294
G1 X170.51 Y167.80 E84.71706
G1 X170.51 Y168.20 E84.73701
G1 X170.71 Y168.40 E84.75112
G1 X170.71 Y168.80 E84.77108
G1 X170.91 Y169.00 E84.78519
G1 X170.91 Y169.60 E84.81512
G1 X171.11 Y169.80 E84.82924
G1 X171.11 Y170.20 E84.84919
G1 X171.31 Y170.40 E84.86330
G1 X171.31 Y170.80 E84.88326
G1 X171.51 Y171.00 E84.89737
G1 X171.51 Y171.60 E84.92730
G1 X171.91 Y172.00 E84.95553
G1 X171.91 Y172.20 E84.96550
G1 X172.11 Y172.40 E84.97962
G1 X172.11 Y172.60 E84.98959
G1 X172.31 Y172.80 E85.00370
G1 X172.31 Y173.00 E85.01368
G1 X172.51 Y173.20 E85.02779
G1 X172.51 Y173.40 E85.03777
G1 X172.91 Y173.80 E85.06599
G1 X172.91 Y174.00 E85.07597
G1 X173.11 Y174.20 E85.09008
G1 X173.11 Y174.40 E85.10006
G1 X173.31 Y174.60 E85.11417
G1 X173.31 Y174.80 E85.12415
G1 X173.51 Y175.00 E85.13826
G1 X173.51 Y175.20 E85.14824
G1 X173.91 Y175.60 E85.17646
G1 X173.91 Y175.80 E85.18644
G1 X174.11 Y176.00 E85.20055
G1 X174.11 Y176.20 E85.21053
G1 X174.31 Y176.40 E85.22464
G1 X174.31 Y176.60 E85.23462
G1 X174.51 Y176.80 E85.24873
G1 X174.51 Y177.00 E85.25871
G1 X174.71 Y177.20 E85.27282
G1 X174.71 Y177.40 E85.28280
G1 X175.11 Y177.80 E85.31102
G1 X175.11 Y178.00 E85.32100
G1 X175.31 Y178.20 E85.33511
G1 X175.31 Y178.40 E85.34509
G1 X175.51 Y178.60 E85.35920
G1 X175.51 Y178.80 E85.36917
G1 X175.71 Y179.00 E85.38329
G1 X175.71 Y179.20 E85.39326
G1 X176.11 Y179.60 E85.42149
G1 X176.11 Y179.80 E85.43146
G1 X176.31 Y180.00 E85.44557
G1 X176.31 Y180.20 E85.45555
G1 X176.51 Y180.40 E85.46966
G1 X176.51 Y180.60 E85.47964
G1 X176.71 Y180.80 E85.49375
G1 X176.71 Y181.00 E85.50373
G1 X176.91 Y181.20 E85.51784
G1 X176.91 Y181.40 E85.52782
G1 X177.91 Y182.40 E85.59838
G1 X177.91 Y182.60 E85.60835
G1 X178.71 Y183.40 E85.66480
G1 X178.71 Y183.60 E85.67478
G1 X179.71 Y184.60 E85.74533
G1 X179.71 Y184.80 E85.75531
G1 X180.51 Y185.60 E85.81175
G1 X180.51 Y185.80 E85.82173
G1 X181.31 Y186.60 E85.87818
G1 X181.31 Y186.80 E85.88815
G1 X182.31 Y187.80 E85.95871
G1 X182.31 Y188.00 E85.96869
G1 X183.59 Y189.28 E86.05886
G1 X183.99 Y189.48 E86.08110
G1 X184.79 Y190.28 E86.13762
G1 X185.19 Y190.48 E86.15986
G1 X185.79 Y191.08 E86.20227
G1 X186.19 Y191.28 E86.22451
G1 X186.79 Y191.88 E86.26691
G1 X187.19 Y192.08 E86.28916
G1 X187.99 Y192.88 E86.34567
G1 X188.39 Y193.08 E86.36792
G1 X188.99 Y193.68 E86.41032
G1 X189.39 Y193.88 E86.43257
G1 X190.19 Y194.68 E86.48908
G1 X192.19 Y195.68 E86.60057
G1 X192.39 Y195.88 E86.61472
G1 X193.99 Y196.68 E86.70392
G1 X194.19 Y196.88 E86.71807
G1 X196.19 Y197.88 E86.82958
G1 X196.39 Y198.08 E86.84373
G1 X197.99 Y198.88 E86.93293
G1 X198.19 Y199.08 E86.94707
G1 X199.00 Y199.49 E86.99226
G1 X199.01 Y199.49 E86.99257
G1 X200.22 Y199.89 E87.05609
G1 X201.01 Y200.09 E87.09687
G1 X202.22 Y200.49 E87.16033
G1 X203.01 Y200.69 E87.20111
G1 X204.22 Y201.09 E87.26458
G1 X205.01 Y201.29 E87.30536
G1 X206.21 Y201.69 E87.36873
G1 X207.01 Y201.89 E87.40955
G1 X208.39 Y202.35 E87.48229
G1 X210.21 Y202.51 E87.57362
G1 X210.21 Y102.37 E92.56997
G1 X208.44 Y102.56 E92.65882
G1 X207.01 Y103.04 E92.73434
G1 X206.22 Y103.24 E92.77501
G1 X205.01 Y103.64 E92.83854
G1 X204.22 Y103.84 E92.87932
G1 X203.01 Y104.24 E92.94279
G1 X202.22 Y104.44 E92.98356
G1 X201.01 Y104.84 E93.04703
G1 X200.22 Y105.04 E93.08781
G1 X199.01 Y105.44 E93.15133
G1 X199.00 Y105.44 E93.15164
G1 X196.99 Y106.45 E93.26376
G1 X196.79 Y106.65 E93.27791
G1 X193.59 Y108.25 E93.45635
G1 X193.39 Y108.45 E93.47050
G1 X190.19 Y110.05 E93.64893
G1 X189.39 Y110.85 E93.70544
G1 X188.99 Y111.05 E93.72769
G1 X188.39 Y111.65 E93.77009
G1 X187.99 Y111.85 E93.79233
G1 X187.19 Y112.65 E93.84885
G1 X186.79 Y112.85 E93.87109
G1 X186.19 Y113.45 E93.91350
G1 X185.79 Y113.65 E93.93574
G1 X185.19 Y114.25 E93.97815
G1 X184.79 Y114.45 E94.00039
G1 X183.99 Y115.25 E94.05691
G1 X183.59 Y115.45 E94.07915
G1 X182.31 Y116.72 E94.16932
G1 X182.31 Y116.92 E94.17930
G1 X181.31 Y117.92 E94.24985
G1 X181.31 Y118.12 E94.25983
G1 X180.51 Y118.92 E94.31628
G1 X180.51 Y119.12 E94.32625
G1 X179.71 Y119.92 E94.38270
G1 X179.71 Y120.12 E94.39268
G1 X178.71 Y121.12 E94.46323
G1 X178.71 Y121.33 E94.47321
G1 X177.91 Y122.12 E94.52965
G1 X177.91 Y122.33 E94.53963
G1 X176.91 Y123.33 E94.61019
G1 X176.91 Y123.53 E94.62016
G0 F12000 X176.51 Y123.36
G1 F2700 X176.31 Y123.56 E94.63428
G1 X176.31 Y123.76 E94.64425
G1 X176.11 Y123.96 E94.65837
G1 X176.11 Y124.16 E94.66834
G1 X175.91 Y124.36 E94.68245
G1 X175.91 Y124.56 E94.69243
G1 X175.71 Y124.76 E94.70654
G1 X175.71 Y124.96 E94.71652
G1 X175.31 Y125.36 E94.74474
G1 X175.31 Y125.56 E94.75472
G1 X175.11 Y125.76 E94.76883
G1 X175.11 Y125.96 E94.77881
G1 X174.91 Y126.16 E94.79292
G1 X174.91 Y126.36 E94.80290
G1 X174.71 Y126.56 E94.81701
G1 X174.71 Y126.76 E94.82699
G1 X174.31 Y127.16 E94.85521
G1 X174.31 Y127.36 E94.86519
G1 X174.11 Y127.56 E94.87930
G1 X174.11 Y127.76 E94.88928
G1 X173.91 Y127.96 E94.90339
G1 X173.91 Y128.16 E94.91337
G1 X173.71 Y128.36 E94.92748
G1 X173.71 Y128.56 E94.93746
G1 X173.51 Y128.76 E94.95157
G1 X173.51 Y128.96 E94.96155
G1 X173.11 Y129.36 E94.98977
G1 X173.11 Y129.56 E94.99975
G1 X172.91 Y129.76 E95.01386
G1 X172.91 Y129.96 E95.02383
G1 X172.71 Y130.16 E95.03795
G1 X172.71 Y130.36 E95.04792
G1 X172.51 Y130.56 E95.06204
G1 X172.51 Y130.76 E95.07201
G1 X172.11 Y131.16 E95.10024
G1 X172.11 Y131.36 E95.11021
G1 X171.91 Y131.56 E95.12432
G1 X171.91 Y131.76 E95.13430
G1 X171.71 Y131.96 E95.14841
G1 X171.71 Y132.16 E95.15839
G1 X171.51 Y132.36 E95.17250
G1 X171.51 Y132.56 E95.18248
G1 X171.11 Y132.96 E95.21070
G1 X171.11 Y133.56 E95.24064
G1 X170.91 Y133.76 E95.25475
G1 X170.91 Y134.16 E95.27470
G1 X170.71 Y134.36 E95.28882
G1 X170.71 Y134.76 E95.30877
G1 X170.51 Y134.96 E95.32288
G1 X170.51 Y135.56 E95.35282
G1 X170.31 Y135.76 E95.36693
G1 X170.31 Y136.16 E95.38688
G1 X170.11 Y136.36 E95.40099
G1 X170.11 Y136.76 E95.42095
G1 X169.91 Y136.96 E95.43506
G1 X169.91 Y137.56 E95.46500
G1 X169.71 Y137.76 E95.47911
G1 X169.71 Y138.16 E95.49906
G1 X169.51 Y138.36 E95.51317
G1 X169.51 Y138.76 E95.53313
G1 X169.31 Y138.96 E95.54724
G1 X169.31 Y139.56 E95.57718
G1 X169.11 Y139.76 E95.59129
G1 X169.11 Y140.16 E95.61124
G1 X168.91 Y140.36 E95.62535
G1 X168.91 Y140.76 E95.64531
G1 X168.71 Y140.96 E95.65942
G1 X168.71 Y141.56 E95.68936
G1 X168.51 Y141.76 E95.70347
G1 X168.51 Y142.16 E95.72342
G1 X168.31 Y142.36 E95.73753
G1 X168.31 Y142.76 E95.75749
G1 X168.11 Y142.96 E95.77160
G1 X168.11 Y143.36 E95.79156
G1 X167.91 Y143.56 E95.80567
G1 X167.91 Y145.76 E95.91543
G1 X167.71 Y145.96 E95.92954
G1 X167.71 Y147.96 E96.02932
G1 X167.51 Y148.16 E96.04343
G1 X167.51 Y150.16 E96.14321
G1 X167.31 Y150.36 E96.15732
G1 X167.31 Y152.36 E96.25710
G1 X167.21 Y152.46 E96.26451
G1 X167.31 Y152.57 E96.27192
G1 X167.31 Y154.57 E96.37170
G1 X167.51 Y154.77 E96.38581
G1 X167.51 Y156.77 E96.48559
G1 X167.71 Y156.97 E96.49970
G1 X167.71 Y158.97 E96.59948
G1 X167.91 Y159.17 E96.61359
G1 X167.91 Y161.17 E96.71337
G1 X168.11 Y161.37 E96.72748
G1 X168.11 Y161.77 E96.74744
G1 X168.31 Y161.97 E96.76155
G1 X168.31 Y162.37 E96.78151
G1 X168.51 Y162.57 E96.79562
G1 X168.51 Y162.97 E96.81557
G1 X168.71 Y163.17 E96.82968
G1 X168.71 Y163.77 E96.85962
G1 X168.91 Y163.97 E96.87373
G1 X168.91 Y164.37 E96.89369
G1 X169.11 Y164.57 E96.90780
G1 X169.11 Y164.97 E96.92775
G1 X169.31 Y165.17 E96.94186
G1 X169.31 Y165.77 E96.97180
G1 X169.51 Y165.97 E96.98591
G1 X169.51 Y166.37 E97.00587
G1 X169.71 Y166.57 E97.01998
G1 X169.71 Y166.97 E97.03993
G1 X169.91 Y167.17 E97.05404
G1 X169.91 Y167.77 E97.08398
G1 X170.11 Y167.97 E97.09809
G1 X170.11 Y168.37 E97.11805
G1 X170.31 Y168.57 E97.13216
G1 X170.31 Y168.97 E97.15211
G1 X170.51 Y169.17 E97.16622
G1 X170.51 Y169.77 E97.19616
G1 X170.71 Y169.97 E97.21027
G1 X170.71 Y170.37 E97.23022
G1 X170.91 Y170.57 E97.24434
G1 X170.91 Y170.97 E97.26429
G1 X171.11 Y171.17 E97.27840
G1 X171.11 Y171.77 E97.30834
G1 X171.51 Y172.17 E97.33656
G1 X171.51 Y172.37 E97.34654
G1 X171.71 Y172.57 E97.36065
G1 X171.71 Y172.77 E97.37063
G1 X171.91 Y172.97 E97.38474
G1 X171.91 Y173.17 E97.39472
G1 X172.11 Y173.37 E97.40883
G1 X172.11 Y173.57 E97.41880
G1 X172.51 Y173.97 E97.44703
G1 X172.51 Y174.17 E97.45700
G1 X172.71 Y174.37 E97.47112
G1 X172.71 Y174.57 E97.48109
G1 X172.91 Y174.77 E97.49520
G1 X172.91 Y174.97 E97.50518
G1 X173.11 Y175.17 E97.51929
G1 X173.11 Y175.37 E97.52927
G1 X173.51 Y175.77 E97.55749
G1 X173.51 Y175.97 E97.56747
G1 X173.71 Y176.17 E97.58158
G1 X173.71 Y176.37 E97.59156
G1 X173.91 Y176.57 E97.60567
G1 X173.91 Y176.77 E97.61565
G1 X174.11 Y176.97 E97.62976
G1 X174.11 Y177.17 E97.63974
G1 X174.31 Y177.37 E97.65385
G1 X174.31 Y177.57 E97.66383
G1 X174.71 Y177.97 E97.69205
G1 X174.71 Y178.17 E97.70203
G1 X174.91 Y178.37 E97.71614
G1 X174.91 Y178.57 E97.72612
G1 X175.11 Y178.77 E97.74023
G1 X175.11 Y178.97 E97.75021
G1 X175.31 Y179.17 E97.76432
G1 X175.31 Y179.37 E97.77430
G1 X175.71 Y179.77 E97.80252
G1 X175.71 Y179.97 E97.81250
G1 X175.91 Y180.17 E97.82661
G1 X175.91 Y180.37 E97.83659
G1 X176.11 Y180.57 E97.85070
G1 X176.11 Y180.77 E97.86067
G1 X176.31 Y180.97 E97.87479
G1 X176.31 Y181.17 E97.88476
G1 X176.51 Y181.37 E97.89887
G1 X176.51 Y181.57 E97.90885
G1 X177.51 Y182.57 E97.97941
G1 X177.51 Y182.77 E97.98939
G1 X178.31 Y183.57 E98.04583
G1 X178.31 Y183.77 E98.05581
G1 X179.31 Y184.77 E98.12636
G1 X179.31 Y184.97 E98.13634
G1 X180.11 Y185.77 E98.19279
G1 X180.11 Y185.97 E98.20276
G1 X180.91 Y186.77 E98.25921
G1 X180.91 Y186.97 E98.26919
G1 X181.91 Y187.97 E98.33974
G1 X181.91 Y188.17 E98.34972
G1 X182.71 Y188.97 E98.40616
G1 X182.71 Y188.99 E98.40711
G1 X182.75 Y189.01 E98.40934
G1 X183.35 Y189.61 E98.45175
G1 X183.75 Y189.81 E98.47399
G1 X184.55 Y190.61 E98.53051
G1 X184.95 Y190.81 E98.55275
G1 X185.55 Y191.41 E98.59516
G1 X185.95 Y191.61 E98.61740
G1 X186.55 Y192.21 E98.65980
G1 X186.95 Y192.41 E98.68205
G1 X187.75 Y193.21 E98.73856
G1 X188.15 Y193.41 E98.76081
G1 X188.75 Y194.01 E98.80321
G1 X189.15 Y194.21 E98.82546
G1 X189.95 Y195.01 E98.88197
G1 X191.95 Y196.01 E98.99346
G1 X192.15 Y196.21 E99.00764
G1 X193.75 Y197.01 E99.09682
G1 X193.95 Y197.21 E99.11101
G1 X195.95 Y198.21 E99.22250
G1 X196.15 Y198.41 E99.23668
G1 X197.75 Y199.21 E99.32586
G1 X197.95 Y199.41 E99.34004
G1 X198.86 Y199.86 E99.39062
G1 X198.90 Y199.87 E99.39242
G1 X200.09 Y200.27 E99.45550
G1 X200.90 Y200.47 E99.49667
G1 X202.09 Y200.87 E99.55975
G1 X202.90 Y201.07 E99.60093
G1 X204.09 Y201.47 E99.66400
G1 X204.90 Y201.67 E99.70518
G1 X206.10 Y202.07 E99.76830
G1 X206.90 Y202.27 E99.80938
G1 X208.31 Y202.74 E99.88358
G1 X210.61 Y202.95 E99.99915
G1 X210.61 Y101.92 E105.03971
G1 X208.35 Y102.17 E105.15316
G1 X206.90 Y102.66 E105.22980
G1 X206.09 Y102.86 E105.27098
G1 X204.90 Y103.26 E105.33405
G1 X204.09 Y103.46 E105.37523
G1 X202.90 Y103.86 E105.43831
G1 X202.09 Y104.06 E105.47948
G1 X200.90 Y104.46 E105.54256
G1 X200.09 Y104.66 E105.58373
G1 X198.90 Y105.06 E105.64681
G1 X198.86 Y105.07 E105.64861
G1 X196.75 Y106.12 E105.76606
G1 X196.55 Y106.32 E105.78031
G1 X193.35 Y107.92 E105.95867
G1 X193.15 Y108.12 E105.97292
G1 X189.96 Y109.72 E106.15128
G1 X189.15 Y110.52 E106.20787
G1 X188.75 Y110.72 E106.23011
G1 X188.15 Y111.32 E106.27252
G1 X187.75 Y111.52 E106.29476
G1 X186.95 Y112.32 E106.35128
G1 X186.55 Y112.52 E106.37352
G1 X185.95 Y113.12 E106.41592
G1 X185.55 Y113.32 E106.43817
G1 X184.95 Y113.92 E106.48057
G1 X184.55 Y114.12 E106.50282
G1 X183.75 Y114.92 E106.55933
G1 X183.35 Y115.12 E106.58158
G1 X182.75 Y115.72 E106.62398
G1 X182.71 Y115.74 E106.62621
G1 X182.71 Y115.76 E106.62716
G1 X181.91 Y116.56 E106.68360
G1 X181.91 Y116.76 E106.69358
G1 X180.91 Y117.76 E106.76414
G1 X180.91 Y117.96 E106.77412
G1 X180.11 Y118.76 E106.83056
G1 X180.11 Y118.96 E106.84054
G1 X179.31 Y119.76 E106.89698
G1 X179.31 Y119.96 E106.90696
G1 X178.31 Y120.96 E106.97752
G1 X178.31 Y121.16 E106.98749
G1 X177.51 Y121.96 E107.04394
G1 X177.51 Y122.16 E107.05392
G1 X176.51 Y123.16 E107.12447
G1 X176.51 Y123.36 E107.13445
G0 F12000 X176.11 Y123.19
G1 F2700 X175.91 Y123.39 E107.14856
G1 X175.91 Y123.59 E107.15854
G1 X175.71 Y123.79 E107.17265
G1 X175.71 Y123.99 E107.18263
G1 X175.51 Y124.19 E107.19674
G1 X175.51 Y124.39 E107.20672
G1 X175.31 Y124.59 E107.22083
G1 X175.31 Y124.79 E107.23081
G1 X174.91 Y125.19 E107.25903
G1 X174.91 Y125.39 E107.26901
G1 X174.71 Y125.59 E107.28312
G1 X174.71 Y125.79 E107.29310
G1 X174.51 Y125.99 E107.30721
G1 X174.51 Y126.19 E107.31718
G1 X174.31 Y126.39 E107.33130
G1 X174.31 Y126.59 E107.34127
G1 X173.91 Y126.99 E107.36950
G1 X173.91 Y127.19 E107.37947
G1 X173.71 Y127.39 E107.39358
G1 X173.71 Y127.59 E107.40356
G1 X173.51 Y127.79 E107.41767
G1 X173.51 Y127.99 E107.42765
G1 X173.31 Y128.19 E107.44176
G1 X173.31 Y128.39 E107.45174
G1 X173.11 Y128.59 E107.46585
G1 X173.11 Y128.79 E107.47583
G1 X172.71 Y129.19 E107.50405
G1 X172.71 Y129.39 E107.51403
G1 X172.51 Y129.59 E107.52814
G1 X172.51 Y129.79 E107.53812
G1 X172.31 Y129.99 E107.55223
G1 X172.31 Y130.19 E107.56221
G1 X172.11 Y130.39 E107.57632
G1 X172.11 Y130.59 E107.58630
G1 X171.71 Y130.99 E107.61452
G1 X171.71 Y131.19 E107.62450
G1 X171.51 Y131.39 E107.63861
G1 X171.51 Y131.59 E107.64859
G1 X171.31 Y131.79 E107.66270
G1 X171.31 Y131.99 E107.67268
G1 X171.11 Y132.19 E107.68679
G1 X171.11 Y132.39 E107.69677
G1 X170.71 Y132.79 E107.72499
G1 X170.71 Y133.39 E107.75492
G1 X170.51 Y133.59 E107.76903
G1 X170.51 Y133.99 E107.78899
G1 X170.31 Y134.19 E107.80310
G1 X170.31 Y134.59 E107.82306
G1 X170.11 Y134.79 E107.83717
G1 X170.11 Y135.39 E107.86710
G1 X169.91 Y135.59 E107.88121
G1 X169.91 Y135.99 E107.90117
G1 X169.71 Y136.19 E107.91528
G1 X169.71 Y136.59 E107.93524
G1 X169.51 Y136.79 E107.94935
G1 X169.51 Y137.39 E107.97928
G1 X169.31 Y137.59 E107.99339
G1 X169.31 Y137.99 E108.01335
G1 X169.11 Y138.19 E108.02746
G1 X169.11 Y138.59 E108.04741
G1 X168.91 Y138.79 E108.06153
G1 X168.91 Y139.39 E108.09146
G1 X168.71 Y139.59 E108.10557
G1 X168.71 Y139.99 E108.12553
G1 X168.51 Y140.19 E108.13964
G1 X168.51 Y140.59 E108.15959
G1 X168.31 Y140.79 E108.17371
G1 X168.31 Y141.39 E108.20364
G1 X168.11 Y141.59 E108.21775
G1 X168.11 Y141.99 E108.23771
G1 X167.91 Y142.19 E108.25182
G1 X167.91 Y142.59 E108.27177
G1 X167.71 Y142.79 E108.28589
G1 X167.71 Y143.19 E108.30584
G1 X167.51 Y143.39 E108.31995
G1 X167.51 Y145.59 E108.42971
G1 X167.31 Y145.79 E108.44382
G1 X167.31 Y147.79 E108.54360
G1 X167.11 Y147.99 E108.55771
G1 X167.11 Y149.99 E108.65749
G1 X166.91 Y150.19 E108.67160
G1 X166.91 Y152.19 E108.77139
G1 X166.71 Y152.39 E108.78550
G1 X166.71 Y152.53 E108.79248
G1 X166.91 Y152.73 E108.80659
G1 X166.91 Y154.73 E108.90637
G1 X167.11 Y154.93 E108.92048
G1 X167.11 Y156.93 E109.02026
G1 X167.31 Y157.13 E109.03437
G1 X167.31 Y159.13 E109.13416
G1 X167.51 Y159.33 E109.14827
G1 X167.51 Y161.33 E109.24805
G1 X167.71 Y161.53 E109.26216
G1 X167.71 Y161.93 E109.28211
G1 X167.91 Y162.13 E109.29623
G1 X167.91 Y162.53 E109.31618
G1 X168.11 Y162.73 E109.33029
G1 X168.11 Y163.13 E109.35025
G1 X168.31 Y163.33 E109.36436
G1 X168.31 Y163.93 E109.39429
G1 X168.51 Y164.13 E109.40840
G1 X168.51 Y164.53 E109.42836
G1 X168.71 Y164.73 E109.44247
G1 X168.71 Y165.13 E109.46243
G1 X168.91 Y165.33 E109.47654
G1 X168.91 Y165.93 E109.50647
G1 X169.11 Y166.13 E109.52058
G1 X169.11 Y166.53 E109.54054
G1 X169.31 Y166.73 E109.55465
G1 X169.31 Y167.13 E109.57461
G1 X169.51 Y167.33 E109.58872
G1 X169.51 Y167.93 E109.61865
G1 X169.71 Y168.13 E109.63276
G1 X169.71 Y168.53 E109.65272
G1 X169.91 Y168.73 E109.66683
G1 X169.91 Y169.13 E109.68679
G1 X170.11 Y169.33 E109.70090
G1 X170.11 Y169.93 E109.73083
G1 X170.31 Y170.13 E109.74494
G1 X170.31 Y170.53 E109.76490
G1 X170.51 Y170.73 E109.77901
G1 X170.51 Y171.13 E109.79897
G1 X170.71 Y171.33 E109.81308
G1 X170.71 Y171.93 E109.84301
G1 X171.11 Y172.33 E109.87123
G1 X171.11 Y172.53 E109.88121
G1 X171.31 Y172.73 E109.89532
G1 X171.31 Y172.93 E109.90530
G1 X171.51 Y173.13 E109.91941
G1 X171.51 Y173.33 E109.92939
G1 X171.71 Y173.53 E109.94350
G1 X171.71 Y173.73 E109.95348
G1 X172.11 Y174.13 E109.98170
G1 X172.11 Y174.33 E109.99168
G1 X172.31 Y174.53 E110.00579
G1 X172.31 Y174.73 E110.01577
G1 X172.51 Y174.93 E110.02988
G1 X172.51 Y175.13 E110.03986
G1 X172.71 Y175.33 E110.05397
G1 X172.71 Y175.53 E110.06395
G1 X173.11 Y175.93 E110.09217
G1 X173.11 Y176.13 E110.10215
G1 X173.31 Y176.33 E110.11626
G1 X173.31 Y176.53 E110.12624
G1 X173.51 Y176.73 E110.14035
G1 X173.51 Y176.93 E110.15033
G1 X173.71 Y177.13 E110.16444
G1 X173.71 Y177.33 E110.17441
G1 X173.91 Y177.53 E110.18853
G1 X173.91 Y177.73 E110.19850
G1 X174.31 Y178.13 E110.22673
G1 X174.31 Y178.33 E110.23670
G1 X174.51 Y178.53 E110.25081
G1 X174.51 Y178.73 E110.26079
G1 X174.71 Y178.93 E110.27490
G1 X174.71 Y179.13 E110.28488
G1 X174.91 Y179.33 E110.29899
G1 X174.91 Y179.53 E110.30897
G1 X175.31 Y179.93 E110.33719
G1 X175.31 Y180.13 E110.34717
G1 X175.51 Y180.33 E110.36128
G1 X175.51 Y180.53 E110.37126
G1 X175.71 Y180.73 E110.38537
G1 X175.71 Y180.93 E110.39535
G1 X175.91 Y181.13 E110.40946
G1 X175.91 Y181.33 E110.41944
G1 X176.11 Y181.53 E110.43355
G1 X176.11 Y181.73 E110.44353
G1 X177.11 Y182.73 E110.51408
G1 X177.11 Y182.93 E110.52406
G1 X177.91 Y183.73 E110.58051
G1 X177.91 Y183.93 E110.59048
G1 X178.91 Y184.93 E110.66104
G1 X178.91 Y185.13 E110.67102
G1 X179.71 Y185.93 E110.72746
G1 X179.71 Y186.13 E110.73744
G1 X180.51 Y186.93 E110.79388
G1 X180.51 Y187.13 E110.80386
G1 X181.51 Y188.13 E110.87442
G1 X181.51 Y188.33 E110.88440
G1 X182.31 Y189.13 E110.94084
G1 X182.31 Y189.24 E110.94593
G1 X182.52 Y189.34 E110.95724
G1 X183.12 Y189.94 E110.99957
G1 X183.52 Y190.14 E111.02188
G1 X184.32 Y190.94 E111.07833
G1 X184.72 Y191.14 E111.10064
G1 X185.32 Y191.74 E111.14297
G1 X185.72 Y191.94 E111.16529
G1 X186.32 Y192.54 E111.20762
G1 X186.72 Y192.74 E111.22993
G1 X187.52 Y193.54 E111.28637
G1 X187.92 Y193.74 E111.30869
G1 X188.52 Y194.34 E111.35102
G1 X188.92 Y194.54 E111.37333
G1 X189.72 Y195.34 E111.42978
G1 X191.72 Y196.34 E111.54133
G1 X191.92 Y196.54 E111.55544
G1 X193.52 Y197.34 E111.64469
G1 X193.72 Y197.54 E111.65880
G1 X195.72 Y198.54 E111.77036
G1 X195.92 Y198.74 E111.78447
G1 X197.52 Y199.54 E111.87372
G1 X197.72 Y199.74 E111.88783
G1 X198.72 Y200.24 E111.94383
G1 X198.78 Y200.25 E111.94712
G1 X199.99 Y200.66 E112.01034
G1 X200.78 Y200.85 E112.05137
G1 X201.99 Y201.26 E112.11459
G1 X202.78 Y201.46 E112.15562
G1 X203.99 Y201.86 E112.21884
G1 X204.78 Y202.06 E112.25987
G1 X205.99 Y202.46 E112.32310
G1 X206.78 Y202.66 E112.36407
G1 X208.22 Y203.13 E112.43975
G1 X211.01 Y203.39 E112.57957
G1 X211.01 Y101.47 E117.66423
G1 X208.27 Y101.78 E117.80187
G1 X206.78 Y102.27 E117.88009
G1 X205.99 Y102.47 E117.92112
G1 X204.78 Y102.87 E117.98434
G1 X203.99 Y103.07 E118.02537
G1 X202.78 Y103.47 E118.08859
G1 X201.99 Y103.67 E118.12962
G1 X200.78 Y104.07 E118.19284
G1 X199.99 Y104.27 E118.23387
G1 X198.78 Y104.67 E118.29708
G1 X198.72 Y104.69 E118.30038
G1 X196.52 Y105.79 E118.42331
G1 X196.32 Y105.99 E118.43742
G1 X193.12 Y107.59 E118.61592
G1 X192.92 Y107.79 E118.63003
G1 X189.72 Y109.39 E118.80852
G1 X188.92 Y110.19 E118.86496
G1 X188.52 Y110.39 E118.88728
G1 X187.92 Y110.99 E118.92961
G1 X187.52 Y111.19 E118.95192
G1 X186.72 Y111.99 E119.00836
G1 X186.32 Y112.19 E119.03068
G1 X185.72 Y112.79 E119.07301
G1 X185.32 Y112.99 E119.09532
G1 X184.72 Y113.59 E119.13765
G1 X184.32 Y113.79 E119.15997
G1 X183.52 Y114.59 E119.21641
G1 X183.12 Y114.79 E119.23872
G1 X182.52 Y115.39 E119.28105
G1 X182.31 Y115.49 E119.29239
G1 X182.31 Y115.59 E119.29743
G1 X181.51 Y116.39 E119.35387
G1 X181.51 Y116.59 E119.36385
G1 X180.51 Y117.59 E119.43441
G1 X180.51 Y117.79 E119.44438
G1 X179.71 Y118.59 E119.50083
G1 X179.71 Y118.79 E119.51081
G1 X178.91 Y119.59 E119.56725
G1 X178.91 Y119.79 E119.57723
G1 X177.91 Y120.79 E119.64778
G1 X177.91 Y120.99 E119.65776
G1 X177.11 Y121.79 E119.71421
G1 X177.11 Y121.99 E119.72418
G1 X176.11 Y122.99 E119.79474
G1 X176.11 Y123.19 E119.80472
G0 F12000 X175.71 Y123.03
G1 F2700 X175.51 Y123.23 E119.81883
G1 X175.51 Y123.43 E119.82881
G1 X175.31 Y123.63 E119.84292
G1 X175.31 Y123.83 E119.85290
G1 X175.11 Y124.03 E119.86701
G1 X175.11 Y124.23 E119.87699
G1 X174.91 Y124.43 E119.89110
G1 X174.91 Y124.63 E119.90107
G1 X174.51 Y125.03 E119.92930
G1 X174.51 Y125.23 E119.93927
G1 X174.31 Y125.43 E119.95339
G1 X174.31 Y125.63 E119.96336
G1 X174.11 Y125.83 E119.97747
G1 X174.11 Y126.03 E119.98745
G1 X173.91 Y126.23 E120.00156
G1 X173.91 Y126.43 E120.01154
G1 X173.51 Y126.83 E120.03976
G1 X173.51 Y127.03 E120.04974
G1 X173.31 Y127.23 E120.06385
G1 X173.31 Y127.43 E120.07383
G1 X173.11 Y127.63 E120.08794
G1 X173.11 Y127.83 E120.09792
G1 X172.91 Y128.03 E120.11203
G1 X172.91 Y128.23 E120.12201
G1 X172.71 Y128.43 E120.13612
G1 X172.71 Y128.63 E120.14610
G1 X172.31 Y129.03 E120.17432
G1 X172.31 Y129.23 E120.18430
G1 X172.11 Y129.43 E120.19841
G1 X172.11 Y129.63 E120.20839
G1 X171.91 Y129.83 E120.22250
G1 X171.91 Y130.03 E120.23248
G1 X171.71 Y130.23 E120.24659
G1 X171.71 Y130.43 E120.25657
G1 X171.31 Y130.83 E120.28479
G1 X171.31 Y131.03 E120.29477
G1 X171.11 Y131.23 E120.30888
G1 X171.11 Y131.43 E120.31886
G1 X170.91 Y131.63 E120.33297
G1 X170.91 Y131.83 E120.34294
G1 X170.71 Y132.03 E120.35706
G1 X170.71 Y132.23 E120.36703
G1 X170.31 Y132.63 E120.39526
G1 X170.31 Y133.23 E120.42519
G1 X170.11 Y133.43 E120.43930
G1 X170.11 Y133.83 E120.45926
G1 X169.91 Y134.03 E120.47337
G1 X169.91 Y134.43 E120.49332
G1 X169.71 Y134.63 E120.50744
G1 X169.71 Y135.23 E120.53737
G1 X169.51 Y135.43 E120.55148
G1 X169.51 Y135.83 E120.57144
G1 X169.31 Y136.03 E120.58555
G1 X169.31 Y136.43 E120.60550
G1 X169.11 Y136.63 E120.61961
G1 X169.11 Y137.23 E120.64955
G1 X168.91 Y137.43 E120.66366
G1 X168.91 Y137.83 E120.68362
G1 X168.71 Y138.03 E120.69773
G1 X168.71 Y138.43 E120.71768
G1 X168.51 Y138.63 E120.73179
G1 X168.51 Y139.23 E120.76173
G1 X168.31 Y139.43 E120.77584
G1 X168.31 Y139.83 E120.79580
G1 X168.11 Y140.03 E120.80991
G1 X168.11 Y140.43 E120.82986
G1 X167.91 Y140.63 E120.84397
G1 X167.91 Y141.23 E120.87391
G1 X167.71 Y141.43 E120.88802
G1 X167.71 Y141.83 E120.90798
G1 X167.51 Y142.03 E120.92209
G1 X167.51 Y142.43 E120.94204
G1 X167.31 Y142.63 E120.95615
G1 X167.31 Y143.03 E120.97611
G1 X167.11 Y143.23 E120.99022
G1 X167.11 Y145.43 E121.09998
G1 X166.91 Y145.63 E121.11409
G1 X166.91 Y147.63 E121.21387
G1 X166.71 Y147.83 E121.22798
G1 X166.71 Y149.83 E121.32776
G1 X166.51 Y150.03 E121.34187
G1 X166.51 Y152.03 E121.44165
G1 X166.31 Y152.23 E121.45576
G1 X166.31 Y152.70 E121.47931
G1 X166.51 Y152.90 E121.49342
G1 X166.51 Y154.90 E121.59320
G1 X166.71 Y155.10 E121.60732
G1 X166.71 Y157.10 E121.70710
G1 X166.91 Y157.30 E121.72121
G1 X166.91 Y159.30 E121.82099
G1 X167.11 Y159.50 E121.83510
G1 X167.11 Y161.50 E121.93488
G1 X167.31 Y161.70 E121.94899
G1 X167.31 Y162.10 E121.96895
G1 X167.51 Y162.30 E121.98306
G1 X167.51 Y162.70 E122.00301
G1 X167.71 Y162.90 E122.01712
G1 X167.71 Y163.30 E122.03708
G1 X167.91 Y163.50 E122.05119
G1 X167.91 Y164.10 E122.08113
G1 X168.11 Y164.30 E122.09524
G1 X168.11 Y164.70 E122.11519
G1 X168.31 Y164.90 E122.12930
G1 X168.31 Y165.30 E122.14926
G1 X168.51 Y165.50 E122.16337
G1 X168.51 Y166.10 E122.19330
G1 X168.71 Y166.30 E122.20742
G1 X168.71 Y166.70 E122.22737
G1 X168.91 Y166.90 E122.24148
G1 X168.91 Y167.30 E122.26144
G1 X169.11 Y167.50 E122.27555
G1 X169.11 Y168.10 E122.30548
G1 X169.31 Y168.30 E122.31960
G1 X169.31 Y168.70 E122.33955
G1 X169.51 Y168.90 E122.35366
G1 X169.51 Y169.30 E122.37362
G1 X169.71 Y169.50 E122.38773
G1 X169.71 Y170.10 E122.41766
G1 X169.91 Y170.30 E122.43178
G1 X169.91 Y170.70 E122.45173
G1 X170.11 Y170.90 E122.46584
G1 X170.11 Y171.30 E122.48580
G1 X170.31 Y171.50 E122.49991
G1 X170.31 Y172.10 E122.52984
G1 X170.71 Y172.50 E122.55807
G1 X170.71 Y172.70 E122.56804
G1 X170.91 Y172.90 E122.58215
G1 X170.91 Y173.10 E122.59213
G1 X171.11 Y173.30 E122.60624
G1 X171.11 Y173.50 E122.61622
G1 X171.31 Y173.70 E122.63033
G1 X171.31 Y173.90 E122.64031
G1 X171.71 Y174.30 E122.66853
G1 X171.71 Y174.50 E122.67851
G1 X171.91 Y174.70 E122.69262
G1 X171.91 Y174.90 E122.70260
G1 X172.11 Y175.10 E122.71671
G1 X172.11 Y175.30 E122.72669
G1 X172.31 Y175.50 E122.74080
G1 X172.31 Y175.70 E122.75078
G1 X172.71 Y176.10 E122.77900
G1 X172.71 Y176.30 E122.78898
G1 X172.91 Y176.50 E122.80309
G1 X172.91 Y176.70 E122.81307
G1 X173.11 Y176.90 E122.82718
G1 X173.11 Y177.10 E122.83716
G1 X173.31 Y177.30 E122.85127
G1 X173.31 Y177.50 E122.86125
G1 X173.51 Y177.70 E122.87536
G1 X173.51 Y177.90 E122.88534
G1 X173.91 Y178.30 E122.91356
G1 X173.91 Y178.50 E122.92354
G1 X174.11 Y178.70 E122.93765
G1 X174.11 Y178.90 E122.94762
G1 X174.31 Y179.10 E122.96174
G1 X174.31 Y179.30 E122.97171
G1 X174.51 Y179.50 E122.98582
G1 X174.51 Y179.70 E122.99580
G1 X174.91 Y180.10 E123.02403
G1 X174.91 Y180.30 E123.03400
G1 X175.11 Y180.50 E123.04811
G1 X175.11 Y180.70 E123.05809
G1 X175.31 Y180.90 E123.07220
G1 X175.31 Y181.10 E123.08218
G1 X175.51 Y181.30 E123.09629
G1 X175.51 Y181.50 E123.10627
G1 X175.71 Y181.70 E123.12038
G1 X175.71 Y181.90 E123.13036
G1 X176.71 Y182.90 E123.20091
G1 X176.71 Y183.10 E123.21089
G1 X177.51 Y183.90 E123.26734
G1 X177.51 Y184.10 E123.27732
G1 X178.51 Y185.10 E123.34787
G1 X178.51 Y185.30 E123.35785
G1 X179.31 Y186.10 E123.41429
G1 X179.31 Y186.30 E123.42427
G1 X180.11 Y187.10 E123.48072
G1 X180.11 Y187.30 E123.49069
G1 X181.11 Y188.30 E123.56125
G1 X181.11 Y188.50 E123.57123
G1 X181.91 Y189.30 E123.62767
G1 X181.91 Y189.48 E123.63680
G1 X182.28 Y189.67 E123.65722
G1 X182.88 Y190.27 E123.69955
G1 X183.28 Y190.47 E123.72186
G1 X184.08 Y191.27 E123.77831
G1 X184.48 Y191.47 E123.80062
G1 X185.08 Y192.07 E123.84295
G1 X185.48 Y192.27 E123.86526
G1 X186.08 Y192.87 E123.90760
G1 X186.48 Y193.07 E123.92991
G1 X187.28 Y193.87 E123.98635
G1 X187.68 Y194.07 E124.00866
G1 X188.28 Y194.67 E124.05100
G1 X188.68 Y194.87 E124.07331
G1 X189.48 Y195.67 E124.12975
G1 X191.48 Y196.67 E124.24131
G1 X191.68 Y196.87 E124.25542
G1 X193.28 Y197.67 E124.34467
G1 X193.48 Y197.87 E124.35878
G1 X195.48 Y198.87 E124.47034
G1 X195.68 Y199.07 E124.48445
G1 X197.28 Y199.87 E124.57369
G1 X197.48 Y200.07 E124.58780
G1 X198.58 Y200.62 E124.64934
G1 X198.67 Y200.64 E124.65396
G1 X199.87 Y201.04 E124.71677
G1 X200.67 Y201.24 E124.75821
G1 X201.87 Y201.64 E124.82102
G1 X202.67 Y201.84 E124.86246
G1 X203.87 Y202.24 E124.92527
G1 X204.67 Y202.44 E124.96671
G1 X205.87 Y202.84 E125.02957
G1 X206.67 Y203.04 E125.07091
G1 X208.14 Y203.53 E125.14827
G1 X211.41 Y203.83 E125.31213
G1 X211.41 Y101.02 E130.44099
G1 X211.34 Y101.03 E130.44466
G1 X208.18 Y101.38 E130.60313
G1 X206.67 Y101.89 E130.68260
G1 X205.87 Y102.09 E130.72404
G1 X204.67 Y102.49 E130.78685
G1 X203.87 Y102.69 E130.82829
G1 X202.67 Y103.09 E130.89110
G1 X201.87 Y103.29 E130.93254
G1 X200.67 Y103.69 E130.99535
G1 X199.87 Y103.89 E131.03679
G1 X198.67 Y104.29 E131.09960
G1 X198.58 Y104.31 E131.10422
G1 X196.28 Y105.46 E131.23269
G1 X196.08 Y105.66 E131.24680
G1 X192.88 Y107.26 E131.42530
G1 X192.68 Y107.46 E131.43941
G1 X189.48 Y109.06 E131.61790
G1 X188.68 Y109.86 E131.67434
G1 X188.28 Y110.06 E131.69666
G1 X187.68 Y110.66 E131.73899
G1 X187.28 Y110.86 E131.76130
G1 X186.48 Y111.66 E131.81775
G1 X186.08 Y111.86 E131.84006
G1 X185.48 Y112.46 E131.88239
G1 X185.08 Y112.66 E131.90470
G1 X184.48 Y113.26 E131.94703
G1 X184.08 Y113.46 E131.96935
G1 X183.28 Y114.26 E132.02579
G1 X182.88 Y114.46 E132.04810
G1 X182.28 Y115.06 E132.09044
G1 X181.91 Y115.25 E132.11085
G1 X181.91 Y115.43 E132.11998
G1 X181.11 Y116.23 E132.17642
G1 X181.11 Y116.43 E132.18640
G1 X180.11 Y117.43 E132.25696
G1 X180.11 Y117.63 E132.26694
G1 X179.31 Y118.43 E132.32338
G1 X179.31 Y118.63 E132.33336
G1 X178.51 Y119.43 E132.38980
G1 X178.51 Y119.63 E132.39978
G1 X177.51 Y120.63 E132.47034
G1 X177.51 Y120.83 E132.48031
G1 X176.71 Y121.63 E132.53676
G1 X176.71 Y121.83 E132.54674
G1 X175.71 Y122.83 E132.61729
G1 X175.71 Y123.03 E132.62727
G0 F12000 X175.31 Y122.86
G1 F2700 X175.11 Y123.06 E132.64138
G1 X175.11 Y123.26 E132.65136
G1 X174.91 Y123.46 E132.66547
G1 X174.91 Y123.66 E132.67545
G1 X174.71 Y123.86 E132.68956
G1 X174.71 Y124.06 E132.69954
G1 X174.51 Y124.26 E132.71365
G1 X174.51 Y124.46 E132.72363
G1 X174.11 Y124.86 E132.75185
G1 X174.11 Y125.06 E132.76183
G1 X173.91 Y125.26 E132.77594
G1 X173.91 Y125.46 E132.78592
G1 X173.71 Y125.66 E132.80003
G1 X173.71 Y125.86 E132.81001
G1 X173.51 Y126.06 E132.82412
G1 X173.51 Y126.26 E132.83409
G1 X173.11 Y126.66 E132.86232
G1 X173.11 Y126.86 E132.87229
G1 X172.91 Y127.06 E132.88641
G1 X172.91 Y127.26 E132.89638
G1 X172.71 Y127.46 E132.91049
G1 X172.71 Y127.66 E132.92047
G1 X172.51 Y127.86 E132.93458
G1 X172.51 Y128.06 E132.94456
G1 X172.31 Y128.26 E132.95867
G1 X172.31 Y128.46 E132.96865
G1 X171.91 Y128.86 E132.99687
G1 X171.91 Y129.06 E133.00685
G1 X171.71 Y129.26 E133.02096
G1 X171.71 Y129.46 E133.03094
G1 X171.51 Y129.66 E133.04505
G1 X171.51 Y129.86 E133.05503
G1 X171.31 Y130.06 E133.06914
G1 X171.31 Y130.26 E133.07912
G1 X170.91 Y130.66 E133.10734
G1 X170.91 Y130.86 E133.11732
G1 X170.71 Y131.06 E133.13143
G1 X170.71 Y131.26 E133.14141
G1 X170.51 Y131.46 E133.15552
G1 X170.51 Y131.66 E133.16550
G1 X170.31 Y131.86 E133.17961
G1 X170.31 Y132.06 E133.18959
G1 X169.91 Y132.46 E133.21781
G1 X169.91 Y133.06 E133.24774
G1 X169.71 Y133.26 E133.26185
G1 X169.71 Y133.66 E133.28181
G1 X169.51 Y133.86 E133.29592
G1 X169.51 Y134.26 E133.31588
G1 X169.31 Y134.46 E133.32999
G1 X169.31 Y135.06 E133.35992
G1 X169.11 Y135.26 E133.37403
G1 X169.11 Y135.66 E133.39399
G1 X168.91 Y135.86 E133.40810
G1 X168.91 Y136.26 E133.42806
G1 X168.71 Y136.46 E133.44217
G1 X168.71 Y137.06 E133.47210
G1 X168.51 Y137.26 E133.48621
G1 X168.51 Y137.66 E133.50617
G1 X168.31 Y137.86 E133.52028
G1 X168.31 Y138.26 E133.54024
G1 X168.11 Y138.46 E133.55435
G1 X168.11 Y139.06 E133.58428
G1 X167.91 Y139.26 E133.59839
G1 X167.91 Y139.66 E133.61835
G1 X167.71 Y139.86 E133.63246
G1 X167.71 Y140.26 E133.65242
G1 X167.51 Y140.46 E133.66653
G1 X167.51 Y141.06 E133.69646
G1 X167.31 Y141.26 E133.71057
G1 X167.31 Y141.66 E133.73053
G1 X167.11 Y141.86 E133.74464
G1 X167.11 Y142.26 E133.76459
G1 X166.91 Y142.46 E133.77871
G1 X166.91 Y142.86 E133.79866
G1 X166.71 Y143.06 E133.81277
G1 X166.71 Y145.26 E133.92253
G1 X166.51 Y145.46 E133.93664
G1 X166.51 Y147.46 E134.03642
G1 X166.31 Y147.66 E134.05053
G1 X166.31 Y149.66 E134.15031
G1 X166.11 Y149.86 E134.16443
G1 X166.11 Y151.86 E134.26421
G1 X165.91 Y152.06 E134.27832
G1 X165.91 Y152.87 E134.31843
G1 X166.11 Y153.07 E134.33254
G1 X166.11 Y155.07 E134.43232
G1 X166.31 Y155.27 E134.44643
G1 X166.31 Y157.27 E134.54621
G1 X166.51 Y157.47 E134.56032
G1 X166.51 Y159.47 E134.66010
G1 X166.71 Y159.67 E134.67421
G1 X166.71 Y161.67 E134.77399
G1 X166.91 Y161.87 E134.78811
G1 X166.91 Y162.27 E134.80806
G1 X167.11 Y162.47 E134.82217
G1 X167.11 Y162.87 E134.84213
G1 X167.31 Y163.07 E134.85624
G1 X167.31 Y163.47 E134.87620
G1 X167.51 Y163.67 E134.89031
G1 X167.51 Y164.27 E134.92024
G1 X167.71 Y164.47 E134.93435
G1 X167.71 Y164.87 E134.95431
G1 X167.91 Y165.07 E134.96842
G1 X167.91 Y165.47 E134.98838
G1 X168.11 Y165.67 E135.00249
G1 X168.11 Y166.27 E135.03242
G1 X168.31 Y166.47 E135.04653
G1 X168.31 Y166.87 E135.06649
G1 X168.51 Y167.07 E135.08060
G1 X168.51 Y167.47 E135.10056
G1 X168.71 Y167.67 E135.11467
G1 X168.71 Y168.27 E135.14460
G1 X168.91 Y168.47 E135.15871
G1 X168.91 Y168.87 E135.17867
G1 X169.11 Y169.07 E135.19278
G1 X169.11 Y169.47 E135.21273
G1 X169.31 Y169.67 E135.22685
G1 X169.31 Y170.27 E135.25678
G1 X169.51 Y170.47 E135.27089
G1 X169.51 Y170.87 E135.29085
G1 X169.71 Y171.07 E135.30496
G1 X169.71 Y171.47 E135.32491
G1 X169.91 Y171.67 E135.33903
G1 X169.91 Y172.27 E135.36896
G1 X170.31 Y172.67 E135.39718
G1 X170.31 Y172.87 E135.40716
G1 X170.51 Y173.07 E135.42127
G1 X170.51 Y173.27 E135.43125
G1 X170.71 Y173.47 E135.44536
G1 X170.71 Y173.67 E135.45534
G1 X170.91 Y173.87 E135.46945
G1 X170.91 Y174.07 E135.47943
G1 X171.31 Y174.47 E135.50765
G1 X171.31 Y174.67 E135.51763
G1 X171.51 Y174.87 E135.53174
G1 X171.51 Y175.07 E135.54172
G1 X171.71 Y175.27 E135.55583
G1 X171.71 Y175.47 E135.56581
G1 X171.91 Y175.67 E135.57992
G1 X171.91 Y175.87 E135.58989
G1 X172.31 Y176.27 E135.61812
G1 X172.31 Y176.47 E135.62809
G1 X172.51 Y176.67 E135.64221
G1 X172.51 Y176.87 E135.65218
G1 X172.71 Y177.07 E135.66630
G1 X172.71 Y177.27 E135.67627
G1 X172.91 Y177.47 E135.69038
G1 X172.91 Y177.67 E135.70036
G1 X173.11 Y177.87 E135.71447
G1 X173.11 Y178.07 E135.72445
G1 X173.51 Y178.47 E135.75267
G1 X173.51 Y178.67 E135.76265
G1 X173.71 Y178.87 E135.77676
G1 X173.71 Y179.07 E135.78674
G1 X173.91 Y179.27 E135.80085
G1 X173.91 Y179.47 E135.81083
G1 X174.11 Y179.67 E135.82494
G1 X174.11 Y179.87 E135.83492
G1 X174.51 Y180.27 E135.86314
G1 X174.51 Y180.47 E135.87312
G1 X174.71 Y180.67 E135.88723
G1 X174.71 Y180.87 E135.89721
G1 X174.91 Y181.07 E135.91132
G1 X174.91 Y181.27 E135.92130
G1 X175.11 Y181.47 E135.93541
G1 X175.11 Y181.67 E135.94539
G1 X175.31 Y181.87 E135.95950
G1 X175.31 Y182.07 E135.96948
G1 X176.31 Y183.07 E136.04003
G1 X176.31 Y183.27 E136.05001
G1 X177.11 Y184.07 E136.10645
G1 X177.11 Y184.27 E136.11643
G1 X178.11 Y185.27 E136.18699
G1 X178.11 Y185.47 E136.19696
G1 X178.91 Y186.27 E136.25341
G1 X178.91 Y186.47 E136.26339
G1 X179.71 Y187.27 E136.31983
G1 X179.71 Y187.47 E136.32981
G1 X180.71 Y188.47 E136.40036
G1 X180.71 Y188.67 E136.41034
G1 X181.51 Y189.47 E136.46679
G1 X181.51 Y189.66 E136.47672
G1 X181.59 Y189.75 E136.48254
G1 X181.64 Y189.79 E136.48585
G1 X182.04 Y190.00 E136.50816
G1 X182.64 Y190.59 E136.55050
G1 X183.04 Y190.79 E136.57281
G1 X183.84 Y191.59 E136.62925
G1 X184.24 Y191.79 E136.65156
G1 X184.84 Y192.40 E136.69390
G1 X185.24 Y192.59 E136.71621
G1 X185.84 Y193.19 E136.75854
G1 X186.24 Y193.40 E136.78085
G1 X187.04 Y194.19 E136.83730
G1 X187.44 Y194.40 E136.85961
G1 X188.04 Y195.00 E136.90194
G1 X188.44 Y195.19 E136.92426
G1 X189.24 Y195.99 E136.98063
G1 X191.24 Y197.00 E137.09225
G1 X191.44 Y197.19 E137.10629
G1 X193.04 Y198.00 E137.19561
G1 X193.24 Y198.19 E137.20965
G1 X195.24 Y199.19 E137.32127
G1 X195.44 Y199.39 E137.33531
G1 X197.04 Y200.19 E137.42463
G1 X197.24 Y200.39 E137.43867
G1 X198.44 Y200.99 E137.50560
G1 X198.56 Y201.02 E137.51172
G1 X199.76 Y201.42 E137.57474
G1 X200.56 Y201.62 E137.61597
G1 X201.76 Y202.02 E137.67899
G1 X202.56 Y202.22 E137.72022
G1 X203.76 Y202.62 E137.78324
G1 X204.56 Y202.82 E137.82447
G1 X205.76 Y203.22 E137.88748
G1 X206.56 Y203.42 E137.92872
G1 X208.06 Y203.92 E138.00746
G1 X211.81 Y204.26 E138.19562
G1 X211.81 Y100.57 E143.36894
G1 X211.29 Y100.64 E143.39508
G1 X208.10 Y100.99 E143.55556
G1 X206.56 Y101.50 E143.63635
G1 X205.76 Y101.70 E143.67759
G1 X204.56 Y102.10 E143.74060
G1 X203.76 Y102.30 E143.78184
G1 X202.56 Y102.70 E143.84485
G1 X201.76 Y102.90 E143.88609
G1 X200.56 Y103.30 E143.94910
G1 X199.76 Y103.50 E143.99034
G1 X198.56 Y103.90 E144.05335
G1 X198.44 Y103.93 E144.05947
G1 X196.04 Y105.13 E144.19334
G1 X195.84 Y105.33 E144.20738
G1 X192.64 Y106.93 E144.38594
G1 X192.44 Y107.13 E144.39998
G1 X189.24 Y108.73 E144.57854
G1 X188.44 Y109.53 E144.63492
G1 X188.04 Y109.73 E144.65723
G1 X187.44 Y110.33 E144.69956
G1 X187.04 Y110.53 E144.72187
G1 X186.24 Y111.33 E144.77832
G1 X185.84 Y111.53 E144.80063
G1 X185.24 Y112.13 E144.84296
G1 X184.84 Y112.33 E144.86527
G1 X184.24 Y112.93 E144.90761
G1 X183.84 Y113.13 E144.92992
G1 X183.04 Y113.93 E144.98636
G1 X182.64 Y114.13 E145.00867
G1 X182.04 Y114.73 E145.05101
G1 X181.64 Y114.93 E145.07332
G1 X181.51 Y115.06 E145.08242
G1 X181.51 Y115.26 E145.09240
G1 X180.71 Y116.06 E145.14884
G1 X180.71 Y116.26 E145.15882
G1 X179.71 Y117.26 E145.22938
G1 X179.71 Y117.46 E145.23935
G1 X178.91 Y118.26 E145.29580
G1 X178.91 Y118.46 E145.30578
G1 X178.11 Y119.26 E145.36222
G1 X178.11 Y119.46 E145.37220
G1 X177.11 Y120.46 E145.44275
G1 X177.11 Y120.66 E145.45273
G1 X176.31 Y121.46 E145.50918
G1 X176.31 Y121.66 E145.51915
G1 X175.31 Y122.66 E145.58971
G1 X175.31 Y122.86 E145.59969
G0 F12000 X174.91 Y122.70
G1 F2700 X174.71 Y122.90 E145.61380
G1 X174.71 Y123.10 E145.62378
G1 X174.51 Y123.30 E145.63789
G1 X174.51 Y123.50 E145.64787
G1 X174.31 Y123.70 E145.66198
G1 X174.31 Y123.90 E145.67196
G1 X174.11 Y124.10 E145.68607
G1 X174.11 Y124.30 E145.69604
G1 X173.71 Y124.70 E145.72427
G1 X173.71 Y124.90 E145.73424
G1 X173.51 Y125.10 E145.74836
G1 X173.51 Y125.30 E145.75833
G1 X173.31 Y125.50 E145.77245
G1 X173.31 Y125.70 E145.78242
G1 X173.11 Y125.90 E145.79653
G1 X173.11 Y126.10 E145.80651
G1 X172.71 Y126.50 E145.83473
G1 X172.71 Y126.70 E145.84471
G1 X172.51 Y126.90 E145.85882
G1 X172.51 Y127.10 E145.86880
G1 X172.31 Y127.30 E145.88291
G1 X172.31 Y127.50 E145.89289
G1 X172.11 Y127.70 E145.90700
G1 X172.11 Y127.90 E145.91698
G1 X171.91 Y128.10 E145.93109
G1 X171.91 Y128.30 E145.94107
G1 X171.51 Y128.70 E145.96929
G1 X171.51 Y128.90 E145.97927
G1 X171.31 Y129.10 E145.99338
G1 X171.31 Y129.30 E146.00336
G1 X171.11 Y129.50 E146.01747
G1 X171.11 Y129.70 E146.02745
G1 X170.91 Y129.90 E146.04156
G1 X170.91 Y130.10 E146.05154
G1 X170.51 Y130.50 E146.07976
G1 X170.51 Y130.70 E146.08974
G1 X170.31 Y130.90 E146.10385
G1 X170.31 Y131.10 E146.11383
G1 X170.11 Y131.30 E146.12794
G1 X170.11 Y131.50 E146.13791
G1 X169.91 Y131.70 E146.15203
G1 X169.91 Y131.90 E146.16200
G1 X169.51 Y132.30 E146.19023
G1 X169.51 Y132.90 E146.22016
G1 X169.31 Y133.10 E146.23427
G1 X169.31 Y133.50 E146.25423
G1 X169.11 Y133.70 E146.26834
G1 X169.11 Y134.10 E146.28829
G1 X168.91 Y134.30 E146.30241
G1 X168.91 Y134.90 E146.33234
G1 X168.71 Y135.10 E146.34645
G1 X168.71 Y135.50 E146.36641
G1 X168.51 Y135.70 E146.38052
G1 X168.51 Y136.10 E146.40047
G1 X168.31 Y136.30 E146.41459
G1 X168.31 Y136.90 E146.44452
G1 X168.11 Y137.10 E146.45863
G1 X168.11 Y137.50 E146.47859
G1 X167.91 Y137.70 E146.49270
G1 X167.91 Y138.10 E146.51265
G1 X167.71 Y138.30 E146.52676
G1 X167.71 Y138.90 E146.55670
G1 X167.51 Y139.10 E146.57081
G1 X167.51 Y139.50 E146.59077
G1 X167.31 Y139.70 E146.60488
G1 X167.31 Y140.10 E146.62483
G1 X167.11 Y140.30 E146.63894
G1 X167.11 Y140.90 E146.66888
G1 X166.91 Y141.10 E146.68299
G1 X166.91 Y141.50 E146.70295
G1 X166.71 Y141.70 E146.71706
G1 X166.71 Y142.10 E146.73701
G1 X166.51 Y142.30 E146.75112
G1 X166.51 Y142.70 E146.77108
G1 X166.31 Y142.90 E146.78519
G1 X166.31 Y145.10 E146.89495
G1 X166.11 Y145.30 E146.90906
G1 X166.11 Y147.30 E147.00884
G1 X165.91 Y147.50 E147.02295
G1 X165.91 Y149.50 E147.12273
G1 X165.71 Y149.70 E147.13684
G1 X165.71 Y151.70 E147.23662
G1 X165.51 Y151.90 E147.25073
G1 X165.51 Y153.03 E147.30731
G1 X165.71 Y153.23 E147.32142
G1 X165.71 Y155.23 E147.42120
G1 X165.91 Y155.43 E147.43531
G1 X165.91 Y157.43 E147.53509
G1 X166.11 Y157.63 E147.54920
G1 X166.11 Y159.63 E147.64898
G1 X166.31 Y159.83 E147.66310
G1 X166.31 Y161.83 E147.76288
G1 X166.51 Y162.03 E147.77699
G1 X166.51 Y162.43 E147.79694
G1 X166.71 Y162.63 E147.81105
G1 X166.71 Y163.03 E147.83101
G1 X166.91 Y163.23 E147.84512
G1 X166.91 Y163.63 E147.86508
G1 X167.11 Y163.83 E147.87919
G1 X167.11 Y164.43 E147.90912
G1 X167.31 Y164.63 E147.92323
G1 X167.31 Y165.03 E147.94319
G1 X167.51 Y165.23 E147.95730
G1 X167.51 Y165.63 E147.97726
G1 X167.71 Y165.83 E147.99137
G1 X167.71 Y166.43 E148.02130
G1 X167.91 Y166.63 E148.03541
G1 X167.91 Y167.03 E148.05537
G1 X168.11 Y167.23 E148.06948
G1 X168.11 Y167.63 E148.08944
G1 X168.31 Y167.83 E148.10355
G1 X168.31 Y168.43 E148.13348
G1 X168.51 Y168.63 E148.14759
G1 X168.51 Y169.03 E148.16755
G1 X168.71 Y169.23 E148.18166
G1 X168.71 Y169.63 E148.20162
G1 X168.91 Y169.83 E148.21573
G1 X168.91 Y170.43 E148.24566
G1 X169.11 Y170.63 E148.25977
G1 X169.11 Y171.03 E148.27973
G1 X169.31 Y171.23 E148.29384
G1 X169.31 Y171.63 E148.31380
G1 X169.51 Y171.83 E148.32791
G1 X169.51 Y172.43 E148.35784
G1 X169.91 Y172.83 E148.38606
G1 X169.91 Y173.03 E148.39604
G1 X170.11 Y173.23 E148.41015
G1 X170.11 Y173.43 E148.42013
G1 X170.31 Y173.63 E148.43424
G1 X170.31 Y173.83 E148.44422
G1 X170.51 Y174.03 E148.45833
G1 X170.51 Y174.23 E148.46831
G1 X170.91 Y174.63 E148.49653
G1 X170.91 Y174.83 E148.50651
G1 X171.11 Y175.03 E148.52062
G1 X171.11 Y175.23 E148.53060
G1 X171.31 Y175.43 E148.54471
G1 X171.31 Y175.63 E148.55469
G1 X171.51 Y175.83 E148.56880
G1 X171.51 Y176.03 E148.57878
G1 X171.91 Y176.43 E148.60700
G1 X171.91 Y176.63 E148.61698
G1 X172.11 Y176.83 E148.63109
G1 X172.11 Y177.03 E148.64107
G1 X172.31 Y177.23 E148.65518
G1 X172.31 Y177.43 E148.66515
G1 X172.51 Y177.63 E148.67927
G1 X172.51 Y177.83 E148.68924
G1 X172.71 Y178.03 E148.70335
G1 X172.71 Y178.23 E148.71333
G1 X173.11 Y178.63 E148.74156
G1 X173.11 Y178.83 E148.75153
G1 X173.31 Y179.03 E148.76564
G1 X173.31 Y179.23 E148.77562
G1 X173.51 Y179.43 E148.78973
G1 X173.51 Y179.63 E148.79971
G1 X173.71 Y179.83 E148.81382
G1 X173.71 Y180.03 E148.82380
G1 X174.11 Y180.43 E148.85202
G1 X174.11 Y180.63 E148.86200
G1 X174.31 Y180.83 E148.87611
G1 X174.31 Y181.03 E148.88609
G1 X174.51 Y181.23 E148.90020
G1 X174.51 Y181.43 E148.91018
G1 X174.71 Y181.63 E148.92429
G1 X174.71 Y181.83 E148.93427
G1 X174.91 Y182.03 E148.94838
G1 X174.91 Y182.23 E148.95841
G1 X175.91 Y183.23 E149.02893
G1 X175.91 Y183.43 E149.03891
G1 X176.71 Y184.23 E149.09535
G1 X176.71 Y184.43 E149.10538
G1 X177.71 Y185.43 E149.17590
G1 X177.71 Y185.63 E149.18588
G1 X178.51 Y186.43 E149.24232
G1 X178.51 Y186.63 E149.25230
G1 X179.31 Y187.43 E149.30874
G1 X179.31 Y187.63 E149.31877
G1 X180.31 Y188.63 E149.38929
G1 X180.31 Y188.83 E149.39927
G1 X181.11 Y189.63 E149.45571
G1 X181.11 Y189.83 E149.46569
G1 X181.41 Y190.12 E149.48629
G1 X181.81 Y190.32 E149.50860
G1 X182.40 Y190.92 E149.55090
G1 X182.81 Y191.12 E149.57326
G1 X183.60 Y191.92 E149.62967
G1 X184.00 Y192.12 E149.65202
G1 X184.60 Y192.72 E149.69432
G1 X185.00 Y192.92 E149.71668
G1 X185.60 Y193.52 E149.75898
G1 X186.00 Y193.72 E149.78133
G1 X186.80 Y194.52 E149.83774
G1 X187.21 Y194.72 E149.86010
G1 X187.80 Y195.32 E149.90240
G1 X188.21 Y195.52 E149.92475
G1 X189.00 Y196.32 E149.98116
G1 X191.00 Y197.32 E150.09276
G1 X191.21 Y197.52 E150.10687
G1 X192.81 Y198.32 E150.19612
G1 X193.00 Y198.52 E150.21023
G1 X195.00 Y199.52 E150.32179
G1 X195.21 Y199.72 E150.33590
G1 X196.81 Y200.52 E150.42515
G1 X197.00 Y200.72 E150.43926
G1 X198.30 Y201.37 E150.51161
G1 X198.45 Y201.41 E150.51912
G1 X199.65 Y201.81 E150.58229
G1 X200.45 Y202.01 E150.62337
G1 X201.65 Y202.41 E150.68654
G1 X202.45 Y202.61 E150.72762
G1 X203.65 Y203.01 E150.79079
G1 X204.45 Y203.21 E150.83187
G1 X205.65 Y203.61 E150.89504
G1 X206.45 Y203.81 E150.93612
G1 X207.97 Y204.32 E151.01642
G1 X212.21 Y204.70 E151.22873
G1 X212.21 Y100.12 E156.44650
G1 X211.25 Y100.24 E156.49511
G1 X208.01 Y100.60 E156.65756
G1 X206.45 Y101.12 E156.73971
G1 X205.65 Y101.32 E156.78079
G1 X204.45 Y101.72 E156.84396
G1 X203.65 Y101.92 E156.88504
G1 X202.45 Y102.32 E156.94820
G1 X201.65 Y102.52 E156.98928
G1 X200.45 Y102.92 E157.05245
G1 X199.65 Y103.12 E157.09353
G1 X198.45 Y103.52 E157.15670
G1 X198.30 Y103.56 E157.16416
G1 X195.81 Y104.81 E157.30349
G1 X195.60 Y105.00 E157.31761
G1 X192.41 Y106.60 E157.49608
G1 X192.21 Y106.81 E157.51022
G1 X189.00 Y108.41 E157.68876
G1 X188.21 Y109.20 E157.74517
G1 X187.80 Y109.41 E157.76752
G1 X187.21 Y110.00 E157.80982
G1 X186.80 Y110.20 E157.83218
G1 X186.00 Y111.00 E157.88859
G1 X185.60 Y111.20 E157.91094
G1 X185.00 Y111.81 E157.95324
G1 X184.60 Y112.00 E157.97560
G1 X184.00 Y112.61 E158.01790
G1 X183.60 Y112.81 E158.04025
G1 X182.81 Y113.61 E158.09666
G1 X182.40 Y113.81 E158.11902
G1 X181.81 Y114.41 E158.16132
G1 X181.41 Y114.61 E158.18363
G1 X181.21 Y114.80 E158.19770
G1 X181.11 Y114.90 E158.20423
G1 X181.11 Y115.10 E158.21421
G1 X180.31 Y115.90 E158.27065
G1 X180.31 Y116.10 E158.28063
G1 X179.31 Y117.10 E158.35115
G1 X179.31 Y117.30 E158.36118
G1 X178.51 Y118.10 E158.41762
G1 X178.51 Y118.30 E158.42760
G1 X177.71 Y119.10 E158.48404
G1 X177.71 Y119.30 E158.49402
G1 X176.71 Y120.30 E158.56454
G1 X176.71 Y120.50 E158.57457
G1 X175.91 Y121.30 E158.63101
G1 X175.91 Y121.50 E158.64099
G1 X174.91 Y122.50 E158.71151
G1 X174.91 Y122.70 E158.72154
G0 F12000 X174.51 Y122.53
G1 F2700 X174.31 Y122.73 E158.73565
G1 X174.31 Y122.93 E158.74563
G1 X174.11 Y123.13 E158.75974
G1 X174.11 Y123.33 E158.76972
G1 X173.91 Y123.53 E158.78383
G1 X173.91 Y123.73 E158.79381
G1 X173.71 Y123.93 E158.80792
G1 X173.71 Y124.13 E158.81790
G1 X173.31 Y124.53 E158.84612
G1 X173.31 Y124.73 E158.85610
G1 X173.11 Y124.93 E158.87021
G1 X173.11 Y125.13 E158.88019
G1 X172.91 Y125.33 E158.89430
G1 X172.91 Y125.53 E158.90428
G1 X172.71 Y125.73 E158.91839
G1 X172.71 Y125.93 E158.92836
G1 X172.31 Y126.33 E158.95659
G1 X172.31 Y126.53 E158.96657
G1 X172.11 Y126.73 E158.98068
G1 X172.11 Y126.93 E158.99065
G1 X171.91 Y127.13 E159.00477
G1 X171.91 Y127.33 E159.01474
G1 X171.71 Y127.53 E159.02885
G1 X171.71 Y127.73 E159.03883
G1 X171.51 Y127.93 E159.05294
G1 X171.51 Y128.13 E159.06292
G1 X171.11 Y128.53 E159.09114
G1 X171.11 Y128.73 E159.10112
G1 X170.91 Y128.93 E159.11523
G1 X170.91 Y129.13 E159.12521
G1 X170.71 Y129.33 E159.13932
G1 X170.71 Y129.53 E159.14930
G1 X170.51 Y129.73 E159.16341
G1 X170.51 Y129.93 E159.17339
G1 X170.11 Y130.33 E159.20161
G1 X170.11 Y130.53 E159.21159
G1 X169.91 Y130.73 E159.22570
G1 X169.91 Y130.93 E159.23568
G1 X169.71 Y131.13 E159.24979
G1 X169.71 Y131.33 E159.25977
G1 X169.51 Y131.53 E159.27388
G1 X169.51 Y131.73 E159.28386
G1 X169.11 Y132.13 E159.31208
G1 X169.11 Y132.73 E159.34201
G1 X168.91 Y132.93 E159.35612
G1 X168.91 Y133.33 E159.37608
G1 X168.71 Y133.53 E159.39019
G1 X168.71 Y133.93 E159.41015
G1 X168.51 Y134.13 E159.42426
G1 X168.51 Y134.73 E159.45419
G1 X168.31 Y134.93 E159.46830
G1 X168.31 Y135.33 E159.48826
